Assets/Lutify-Free-LUTs-Pack/Lutify Free LUTs Pack/Colour Film Boost Pro - Film Boost 10/Lutify.me-FilmBoost10-LogC4-to-Rec709.cube
# Created with: fylm.ai - Colour Grading and Collaboration Software in Cloud 
# Website: https://fylm.ai 
# META
# Option: Gamut compress
# Block 1: IDT | Arri Alexa 35 - LogC4
# Block 2: colourMatch | Blending Mode: Normal | {"ColorSpace":0,"CrossCovarianceLimit":50,"ReshapingIterations":1,"PercentSaturationShift":100,"PercentShadingShift":100,"ExtraShading":true,"PercentTint":100,"PercentModified":100}
# Block 3: subtractiveColour | Blending Mode: Normal | {"sliders":{"gainY":0.55,"C":0.3,"M":0.3,"Y":0.3}}
# Block 4: LUT | Filmic Curve Response: Low Contrast 2 (100%)
# Block 5: logPrimaries | Blending Mode: Normal | {"wheels":{"shadows":{"Y":"0","R":"1","G":"1","B":"1"},"midtones":{"Y":"0","R":"1","G":"1","B":"1"},"highlights":{"Y":"0","R":"1","G":"1","B":"1"},"offset":{"Y":"0","R":"1","G":"1","B":"1"}},"sliders":{"shadows":{"Y":0,"R":-0.085,"G":0.024,"B":0.134},"midtones":{"Y":0,"R":0,"G":-0.023,"B":0},"highlights":{"Y":0,"R":0,"G":0,"B":0},"offset":{"Y":0,"R":0.012,"G":-0.012,"B":0}}}
# Block 6: HSL | Blending Mode: Normal | {"hue":{"Reds":0,"Yellows":0,"Greens":0,"Cyans":0,"Blues":0,"Magentas":0},"saturation":{"Reds":1,"Yellows":1,"Greens":1,"Cyans":1,"Blues":1,"Magentas":1},"luminance":{"Reds":0.9,"Yellows":0.9,"Greens":0.9,"Cyans":0.9,"Blues":0.9,"Magentas":0.9},"lum_sat":{"Blacks":1,"Shadows":1,"Midtones":1,"Highlights":1,"Whites":1},"sat_sat":{"10":1,"20":1,"30":1,"40":1,"50":1}}
# Block 7: ODT | Rec709
TITLE "Lutify.me-FilmBoost10-LogC4-to-Rec709" 
LUT_3D_SIZE 9
0.000000 0.000000 0.000000
0.045440 0.000000 0.000000
0.238659 0.000000 0.000000
0.520324 0.000000 0.000000
0.882675 0.000000 0.088104
1.000000 0.146324 0.272834
1.000000 0.600421 0.543562
1.000000 0.849346 0.795658
1.000000 0.953980 0.936571
0.000000 0.048658 0.000000
0.053483 0.048146 0.000000
0.270311 0.000000 0.000000
0.540789 0.000000 0.000000
0.886607 0.000000 0.090602
1.000000 0.166711 0.272416
1.000000 0.600421 0.543562
1.000000 0.849346 0.795658
1.000000 0.953980 0.936571
0.000000 0.212770 0.000000
0.000000 0.239456 0.000000
0.338007 0.201735 0.000000
0.595411 0.000000 0.000000
0.900660 0.000000 0.097374
1.000000 0.223870 0.275518
1.000000 0.609718 0.543411
1.000000 0.850404 0.795632
1.000000 0.953980 0.936571
0.000000 0.469226 0.000000
0.000000 0.495211 0.000000
0.000000 0.519845 0.000000
0.648045 0.470931 0.000000
0.924089 0.336840 0.078174
1.000000 0.354365 0.287984
1.000000 0.634594 0.548942
1.000000 0.852510 0.795582
1.000000 0.954531 0.937319
0.000000 0.776672 0.131239
0.000000 0.786868 0.118039
0.000000 0.801809 0.101846
0.182513 0.806650 0.000000
0.895861 0.760643 0.000000
1.000000 0.677879 0.327439
1.000000 0.703497 0.568607
1.000000 0.862435 0.799274
1.000000 0.955494 0.937294
0.000000 0.943356 0.498122
0.000000 0.943502 0.492643
0.000000 0.946831 0.490427
0.000000 0.949520 0.495444
0.728746 0.937069 0.461719
0.977255 0.916846 0.440499
1.000000 0.873692 0.635930
1.000000 0.887794 0.812402
1.000000 0.960027 0.939503
0.417248 1.000000 0.785352
0.424742 1.000000 0.785560
0.460240 1.000000 0.784780
0.539061 1.000000 0.785723
0.679270 1.000000 0.786120
0.889997 0.993319 0.775706
1.000000 0.985243 0.773737
1.000000 0.962683 0.851792
1.000000 0.974204 0.944490
0.815915 1.000000 0.919620
0.817325 1.000000 0.919719
0.818733 1.000000 0.919818
0.822991 1.000000 0.919436
0.842317 1.000000 0.919940
0.890041 1.000000 0.922253
0.967396 1.000000 0.917575
1.000000 1.000000 0.921132
1.000000 1.000000 0.964703
0.934294 1.000000 0.979921
0.934294 1.000000 0.979921
0.934294 1.000000 0.979921
0.934994 1.000000 0.979965
0.938028 1.000000 0.979585
0.946086 1.000000 0.980179
0.969159 1.000000 0.980238
1.000000 1.000000 0.977947
1.000000 1.000000 0.978245
0.000000 0.000000 0.035736
0.026208 0.000000 0.019914
0.230211 0.000000 0.000000
0.522152 0.000000 0.027386
0.887226 0.000000 0.103201
1.000000 0.147320 0.277005
1.000000 0.600421 0.543562
1.000000 0.849346 0.795658
1.000000 0.953980 0.936571
0.000000 0.036863 0.060860
0.026167 0.044527 0.053409
0.260823 0.000000 0.011278
0.547075 0.000000 0.034297
0.888014 0.000000 0.106175
1.000000 0.168460 0.280836
1.000000 0.600421 0.543562
1.000000 0.849346 0.795658
1.000000 0.953980 0.936571
0.000000 0.211323 0.021188
0.000000 0.240036 0.000000
0.308960 0.237175 0.000000
0.604775 0.000000 0.008780
0.904200 0.000000 0.111689
1.000000 0.224943 0.281932
1.000000 0.610023 0.546464
1.000000 0.850404 0.795632
1.000000 0.953980 0.936571
0.000000 0.464118 0.000000
0.000000 0.499546 0.000000
0.000000 0.542660 0.000000
0.648746 0.504074 0.000000
0.926765 0.343999 0.110139
1.000000 0.354952 0.292603
1.000000 0.635193 0.555070
1.000000 0.852510 0.795582
1.000000 0.954531 0.937319
0.000000 0.776189 0.184960
0.000000 0.783904 0.173362
0.000000 0.803910 0.162306
0.160201 0.811732 0.076966
0.894382 0.766487 0.000000
1.000000 0.678992 0.339559
1.000000 0.703497 0.568607
1.000000 0.862435 0.799274
1.000000 0.955494 0.937294
0.000000 0.943328 0.507686
0.000000 0.943465 0.505381
0.000000 0.946813 0.496746
0.000000 0.949616 0.502053
0.725769 0.937575 0.474797
0.977263 0.917229 0.452327
1.000000 0.873814 0.639000
1.000000 0.887794 0.812402
1.000000 0.960027 0.939503
0.416973 1.000000 0.787170
0.424474 1.000000 0.787376
0.459999 1.000000 0.786599
0.539061 1.000000 0.785723
0.679270 1.000000 0.786120
0.890031 0.993344 0.777668
1.000000 0.985243 0.773737
1.000000 0.962683 0.851792
1.000000 0.974250 0.945161
0.815813 1.000000 0.920983
0.817325 1.000000 0.919719
0.818733 1.000000 0.919818
0.822941 1.000000 0.920118
0.842317 1.000000 0.919940
0.890041 1.000000 0.922253
0.967396 1.000000 0.917575
1.000000 1.000000 0.921132
1.000000 1.000000 0.965617
0.934294 1.000000 0.979921
0.934294 1.000000 0.979921
0.934294 1.000000 0.979921
0.934994 1.000000 0.979965
0.937988 1.000000 0.980189
0.946086 1.000000 0.980179
0.969159 1.000000 0.980238
1.000000 1.000000 0.977947
1.000000 1.000000 0.978245
0.000000 0.000000 0.139652
0.000000 0.000000 0.102895
0.223527 0.000000 0.057734
0.510750 0.000000 0.096223
0.889065 0.000000 0.154520
1.000000 0.144993 0.298905
1.000000 0.601645 0.555829
1.000000 0.849346 0.795658
1.000000 0.954047 0.937331
0.000000 0.000000 0.200756
0.000000 0.000000 0.169610
0.241609 0.000000 0.115338
0.536697 0.000000 0.114997
0.895745 0.000000 0.159963
1.000000 0.159955 0.303222
1.000000 0.601645 0.555829
1.000000 0.849346 0.795658
1.000000 0.954047 0.937331
0.000000 0.167232 0.323859
0.000000 0.204241 0.302876
0.259537 0.285503 0.313054
0.625413 0.000000 0.178642
0.911635 0.000000 0.171929
1.000000 0.224283 0.309148
1.000000 0.608054 0.555797
1.000000 0.850553 0.797428
1.000000 0.954047 0.937331
0.000000 0.461987 0.300813
0.000000 0.499460 0.276356
0.000000 0.574206 0.260144
0.643355 0.567376 0.225112
0.935300 0.354717 0.196709
1.000000 0.354678 0.321871
1.000000 0.635793 0.561228
1.000000 0.852657 0.797376
1.000000 0.954531 0.937319
0.000000 0.777040 0.305827
0.000000 0.782639 0.307283
0.000000 0.804859 0.297702
0.048096 0.825207 0.266154
0.888505 0.785601 0.226833
1.000000 0.684919 0.370208
1.000000 0.701987 0.581143
1.000000 0.862571 0.801044
1.000000 0.955494 0.937294
0.000000 0.943105 0.535625
0.000000 0.943283 0.536801
0.000000 0.944712 0.537260
0.000000 0.949513 0.536671
0.719469 0.939724 0.511495
0.976786 0.919414 0.489007
1.000000 0.875444 0.648411
1.000000 0.888017 0.815761
1.000000 0.960027 0.939503
0.408740 1.000000 0.790573
0.416424 1.000000 0.790775
0.452482 1.000000 0.791791
0.538479 1.000000 0.791108
0.679114 1.000000 0.793369
0.890103 0.993395 0.781548
1.000000 0.985308 0.777216
1.000000 0.962736 0.853093
1.000000 0.974250 0.945161
0.815813 1.000000 0.920983
0.815813 1.000000 0.920983
0.817224 1.000000 0.921081
0.822941 1.000000 0.920118
0.842269 1.000000 0.920606
0.890137 1.000000 0.922994
0.966320 1.000000 0.918236
1.000000 1.000000 0.921707
1.000000 1.000000 0.965617
0.934294 1.000000 0.979921
0.934294 1.000000 0.979921
0.934294 1.000000 0.979921
0.934994 1.000000 0.979965
0.937988 1.000000 0.980189
0.946086 1.000000 0.980179
0.969159 1.000000 0.980238
1.000000 1.000000 0.977947
1.000000 1.000000 0.978245
0.000000 0.000000 0.318717
0.000000 0.000000 0.290250
0.175060 0.000000 0.259976
0.452701 0.000000 0.119459
0.880078 0.000000 0.305988
1.000000 0.153492 0.375698
1.000000 0.601213 0.580830
1.000000 0.849797 0.801028
1.000000 0.954047 0.937331
0.000000 0.000000 0.379863
0.000000 0.000000 0.355042
0.148020 0.000000 0.340600
0.492577 0.000000 0.212999
0.887433 0.000000 0.314689
1.000000 0.174973 0.378738
1.000000 0.601213 0.580830
1.000000 0.849797 0.801028
1.000000 0.954047 0.937331
0.000000 0.083432 0.489842
0.000000 0.114775 0.467092
0.000000 0.148331 0.491130
0.625359 0.000000 0.408462
0.908048 0.000000 0.347373
1.000000 0.228362 0.387907
1.000000 0.606983 0.580573
1.000000 0.849797 0.801028
1.000000 0.954047 0.937331
0.000000 0.353723 0.601291
0.000000 0.418831 0.582219
0.000000 0.535119 0.607275
0.621292 0.604546 0.630779
0.943186 0.366715 0.448897
1.000000 0.370860 0.408454
1.000000 0.635346 0.586256
1.000000 0.852951 0.800946
1.000000 0.954531 0.937319
0.000000 0.772398 0.590923
0.000000 0.781137 0.587126
0.000000 0.802884 0.589527
0.000000 0.838867 0.582338
0.880664 0.823812 0.558811
1.000000 0.693990 0.473159
1.000000 0.704344 0.609469
1.000000 0.862843 0.804567
1.000000 0.955559 0.938048
0.000000 0.945218 0.636481
0.000000 0.945471 0.637943
0.000000 0.947079 0.632646
0.000000 0.949248 0.634870
0.712931 0.942804 0.620461
0.973232 0.924821 0.593480
1.000000 0.877646 0.672835
1.000000 0.888128 0.817430
1.000000 0.960088 0.940233
0.390162 1.000000 0.806065
0.406229 1.000000 0.806446
0.430771 1.000000 0.805441
0.520791 1.000000 0.806438
0.677847 1.000000 0.808728
0.888737 0.993992 0.796817
1.000000 0.985600 0.792437
1.000000 0.962948 0.857900
1.000000 0.974250 0.945161
0.815612 1.000000 0.923683
0.815612 1.000000 0.923683
0.817023 1.000000 0.923779
0.823241 1.000000 0.923645
0.842076 1.000000 0.923248
0.888439 1.000000 0.925195
0.966375 1.000000 0.920348
1.000000 1.000000 0.922762
1.000000 1.000000 0.965617
0.934294 1.000000 0.979921
0.934294 1.000000 0.979921
0.934294 1.000000 0.979921
0.934994 1.000000 0.979965
0.937988 1.000000 0.980189
0.946046 1.000000 0.980770
0.969159 1.000000 0.980238
1.000000 1.000000 0.978272
1.000000 1.000000 0.978540
0.000000 0.000000 0.602282
0.000000 0.000000 0.608618
0.000000 0.024571 0.613581
0.454575 0.000000 0.582915
0.781533 0.000000 0.352510
1.000000 0.000000 0.586463
1.000000 0.602163 0.653029
1.000000 0.848771 0.811129
1.000000 0.954246 0.939579
0.000000 0.047884 0.620870
0.000000 0.054443 0.624197
0.000000 0.063926 0.641594
0.453327 0.000000 0.612273
0.812558 0.000000 0.424600
1.000000 0.000000 0.589924
1.000000 0.605394 0.653175
1.000000 0.848771 0.811129
1.000000 0.954246 0.939579
0.000000 0.107164 0.659202
0.000000 0.115708 0.663324
0.000000 0.138390 0.680052
0.455741 0.000000 0.676553
0.890561 0.000000 0.540535
1.000000 0.165730 0.605227
1.000000 0.612456 0.656531
1.000000 0.848771 0.811129
1.000000 0.954246 0.939579
0.000000 0.297056 0.741220
0.000000 0.311322 0.747621
0.000000 0.353277 0.765941
0.360272 0.408659 0.789836
0.954105 0.207606 0.710733
1.000000 0.344679 0.640349
1.000000 0.641942 0.660914
1.000000 0.853089 0.815006
1.000000 0.954313 0.940316
0.000000 0.625658 0.815572
0.000000 0.668365 0.812324
0.000000 0.741408 0.822710
0.000000 0.823259 0.840529
0.853589 0.841407 0.849899
1.000000 0.708492 0.731624
1.000000 0.712506 0.683121
1.000000 0.862801 0.816717
1.000000 0.955276 0.940288
0.000000 0.943023 0.821029
0.000000 0.944400 0.821884
0.000000 0.946442 0.823066
0.000000 0.949443 0.826151
0.690978 0.949978 0.822867
0.958217 0.940973 0.813644
1.000000 0.881113 0.750895
1.000000 0.888911 0.828920
1.000000 0.960210 0.941675
0.347019 1.000000 0.847394
0.365512 1.000000 0.847702
0.399372 1.000000 0.848321
0.487929 1.000000 0.848853
0.663969 1.000000 0.847604
0.888430 0.994731 0.841861
1.000000 0.986480 0.835557
1.000000 0.963868 0.867962
1.000000 0.974436 0.947814
0.813756 1.000000 0.929526
0.813756 1.000000 0.929526
0.815171 1.000000 0.929615
0.821412 1.000000 0.929451
0.840273 1.000000 0.929611
0.886276 1.000000 0.930934
0.964917 1.000000 0.927192
1.000000 1.000000 0.928477
1.000000 1.000000 0.966377
0.932825 1.000000 0.980741
0.932825 1.000000 0.980741
0.934235 1.000000 0.980827
0.934935 1.000000 0.980870
0.937929 1.000000 0.981084
0.945988 1.000000 0.981646
0.969266 1.000000 0.981241
1.000000 1.000000 0.979223
1.000000 1.000000 0.979416
0.000000 0.194300 0.858453
0.000000 0.200390 0.858748
0.000000 0.207632 0.865539
0.187478 0.205768 0.864582
0.839759 0.000000 0.847576
1.000000 0.000000 0.681053
1.000000 0.553581 0.816598
1.000000 0.846607 0.852691
1.000000 0.954913 0.946706
0.000000 0.204319 0.861529
0.000000 0.208968 0.862175
0.000000 0.218582 0.867022
0.178067 0.218499 0.870687
0.840726 0.000000 0.850699
1.000000 0.000000 0.697138
1.000000 0.556843 0.816659
1.000000 0.846607 0.852691
1.000000 0.954913 0.946706
0.000000 0.232835 0.869642
0.000000 0.236059 0.868218
0.000000 0.245137 0.873238
0.139813 0.257251 0.879541
0.841755 0.000000 0.860886
1.000000 0.000000 0.743569
1.000000 0.570569 0.818800
1.000000 0.847493 0.852908
1.000000 0.954913 0.946706
0.000000 0.320761 0.882964
0.000000 0.322644 0.885057
0.000000 0.333545 0.889776
0.000000 0.364147 0.897840
0.830881 0.302919 0.890434
1.000000 0.000000 0.818060
1.000000 0.607709 0.828948
1.000000 0.851174 0.854599
1.000000 0.955392 0.946688
0.000000 0.601689 0.913985
0.000000 0.604187 0.915086
0.000000 0.629190 0.915708
0.000000 0.671264 0.921587
0.722740 0.712550 0.924347
1.000000 0.596455 0.894330
1.000000 0.703023 0.847893
1.000000 0.860690 0.857024
1.000000 0.955869 0.946671
0.000000 0.876905 0.932984
0.000000 0.887515 0.932719
0.000000 0.905050 0.935173
0.000000 0.932034 0.939532
0.559354 0.948426 0.944131
0.948220 0.950995 0.945729
1.000000 0.887611 0.888521
1.000000 0.891108 0.869327
1.000000 0.960762 0.947915
0.000000 1.000000 0.936688
0.000000 1.000000 0.936761
0.000000 1.000000 0.936108
0.339053 1.000000 0.935468
0.622147 1.000000 0.934463
0.877458 0.997643 0.933884
0.997472 0.992635 0.927931
1.000000 0.965277 0.896682
1.000000 0.974855 0.953579
0.805242 1.000000 0.947250
0.805242 1.000000 0.947250
0.806698 1.000000 0.947320
0.813855 1.000000 0.947671
0.833881 1.000000 0.948714
0.879804 1.000000 0.947289
0.965065 1.000000 0.945623
1.000000 1.000000 0.947769
1.000000 1.000000 0.970770
0.931908 1.000000 0.983910
0.932617 1.000000 0.983949
0.932617 1.000000 0.983949
0.934027 1.000000 0.984027
0.936846 1.000000 0.983619
0.945187 1.000000 0.984153
0.969040 1.000000 0.984601
1.000000 1.000000 0.982690
1.000000 1.000000 0.983123
0.000000 0.447653 0.976076
0.000000 0.451124 0.976116
0.000000 0.455633 0.976685
0.152051 0.461212 0.977456
0.597794 0.459028 0.974438
1.000000 0.384783 0.964309
1.000000 0.000000 0.889160
1.000000 0.831294 0.930212
1.000000 0.953112 0.962050
0.000000 0.450745 0.975933
0.000000 0.454227 0.975973
0.000000 0.458762 0.976542
0.145013 0.464414 0.977314
0.596994 0.462702 0.974378
1.000000 0.388767 0.965813
1.000000 0.000000 0.892611
1.000000 0.832641 0.930227
1.000000 0.953112 0.962050
0.000000 0.459915 0.976243
0.000000 0.463427 0.976277
0.000000 0.468036 0.976836
0.118554 0.473891 0.977595
0.593287 0.477266 0.974842
1.000000 0.410366 0.966421
1.000000 0.131111 0.899218
1.000000 0.832641 0.930227
1.000000 0.953112 0.962050
0.000000 0.499594 0.979230
0.000000 0.499893 0.979341
0.000000 0.504650 0.979782
0.000000 0.515231 0.979096
0.573081 0.524528 0.978670
1.000000 0.473030 0.969419
1.000000 0.298316 0.915523
1.000000 0.835323 0.932004
1.000000 0.953754 0.962078
0.000000 0.617067 0.981413
0.000000 0.617254 0.981461
0.000000 0.619259 0.981981
0.000000 0.631522 0.981840
0.512481 0.658063 0.981400
0.980828 0.632122 0.975908
1.000000 0.535246 0.944390
1.000000 0.850433 0.933793
1.000000 0.955408 0.962720
0.000000 0.848167 0.985398
0.000000 0.848781 0.985581
0.000000 0.850204 0.986015
0.000000 0.865227 0.985966
0.230009 0.879893 0.985470
0.892103 0.886021 0.985190
1.000000 0.837891 0.969582
1.000000 0.889012 0.942285
1.000000 0.961877 0.964719
0.000000 0.990914 0.991193
0.000000 0.991716 0.991288
0.000000 0.995406 0.991359
0.000000 0.998389 0.991941
0.184004 1.000000 0.992384
0.838919 0.997767 0.992006
0.990492 0.996802 0.992215
1.000000 0.971081 0.966678
1.000000 0.976482 0.969545
0.780591 1.000000 0.989522
0.780591 1.000000 0.989522
0.782140 1.000000 0.989549
0.789783 1.000000 0.989406
0.812102 1.000000 0.988309
0.867201 1.000000 0.987652
0.962067 1.000000 0.987263
1.000000 1.000000 0.985603
1.000000 1.000000 0.984842
0.928488 1.000000 0.993045
0.928488 1.000000 0.993045
0.928488 1.000000 0.993045
0.929926 1.000000 0.993098
0.933733 1.000000 0.993215
0.943154 1.000000 0.993382
0.966520 1.000000 0.993268
1.000000 1.000000 0.992579
1.000000 1.000000 0.992041
0.332417 0.722003 1.000000
0.332417 0.722003 1.000000
0.350663 0.722098 1.000000
0.413116 0.725422 1.000000
0.577593 0.728778 1.000000
0.852917 0.725909 1.000000
1.000000 0.708024 1.000000
1.000000 0.634476 0.973811
1.000000 0.946760 0.997014
0.332417 0.722003 1.000000
0.332417 0.722003 1.000000
0.350663 0.722098 1.000000
0.413116 0.725422 1.000000
0.577593 0.728778 1.000000
0.851953 0.729091 1.000000
1.000000 0.711151 1.000000
1.000000 0.636456 0.973782
1.000000 0.947365 0.997003
0.328476 0.725022 1.000000
0.328476 0.725022 1.000000
0.347006 0.725115 1.000000
0.410214 0.728416 1.000000
0.575767 0.731741 1.000000
0.851953 0.729091 1.000000
1.000000 0.714252 1.000000
1.000000 0.642142 0.974331
1.000000 0.947365 0.997003
0.316402 0.733680 1.000000
0.316402 0.733680 1.000000
0.335819 0.733771 1.000000
0.401324 0.736996 1.000000
0.570131 0.740358 1.000000
0.847967 0.741387 1.000000
1.000000 0.726041 1.000000
1.000000 0.660308 0.977626
1.000000 0.947349 0.997248
0.254373 0.763664 1.000000
0.267333 0.763704 1.000000
0.291258 0.763778 1.000000
0.358397 0.766670 1.000000
0.547259 0.772336 1.000000
0.827380 0.775581 1.000000
1.000000 0.763704 1.000000
1.000000 0.716726 0.984910
1.000000 0.949712 0.997683
0.000000 0.844055 1.000000
0.000000 0.844056 1.000000
0.000000 0.845975 1.000000
0.201385 0.847827 1.000000
0.468518 0.850979 1.000000
0.785864 0.855505 1.000000
1.000000 0.847970 1.000000
1.000000 0.822860 0.993794
1.000000 0.957660 0.998668
0.000000 0.966756 1.000000
0.000000 0.966704 1.000000
0.000000 0.968922 1.000000
0.000000 0.969150 1.000000
0.413823 0.966624 1.000000
0.727161 0.967903 1.000000
0.963396 0.969829 1.000000
1.000000 0.948159 1.000000
1.000000 0.975628 1.000000
0.381413 1.000000 1.000000
0.384694 1.000000 1.000000
0.403345 1.000000 1.000000
0.487139 1.000000 1.000000
0.632941 1.000000 1.000000
0.789121 1.000000 1.000000
0.944588 1.000000 1.000000
1.000000 1.000000 1.000000
1.000000 1.000000 1.000000
0.914595 1.000000 1.000000
0.914595 1.000000 1.000000
0.914574 1.000000 1.000000
0.915295 1.000000 1.000000
0.918877 1.000000 1.000000
0.929347 1.000000 1.000000
0.957195 1.000000 1.000000
1.000000 1.000000 1.000000
1.000000 1.000000 1.000000
0.777476 0.902854 1.000000
0.776891 0.904038 1.000000
0.779989 0.903991 1.000000
0.783057 0.903945 1.000000
0.805465 0.906023 1.000000
0.865557 0.907902 1.000000
0.962003 0.905819 1.000000
1.000000 0.904732 1.000000
1.000000 0.846011 0.999961
0.776891 0.904038 1.000000
0.776891 0.904038 1.000000
0.779989 0.903991 1.000000
0.783057 0.903945 1.000000
0.805465 0.906023 1.000000
0.865557 0.907902 1.000000
0.962003 0.905819 1.000000
1.000000 0.904782 1.000000
1.000000 0.847031 0.999928
0.776891 0.904038 1.000000
0.776891 0.904038 1.000000
0.779989 0.903991 1.000000
0.783057 0.903945 1.000000
0.804904 0.907179 1.000000
0.865557 0.907902 1.000000
0.962003 0.905819 1.000000
1.000000 0.904782 1.000000
1.000000 0.847031 0.999928
0.775565 0.906234 1.000000
0.775565 0.906234 1.000000
0.778664 0.906187 1.000000
0.781904 0.906287 1.000000
0.804904 0.907179 1.000000
0.864833 0.908873 1.000000
0.961582 0.907027 1.000000
1.000000 0.906921 1.000000
1.000000 0.848777 1.000000
0.773862 0.909689 1.000000
0.773862 0.909689 1.000000
0.776965 0.909640 1.000000
0.780036 0.909592 1.000000
0.802967 0.910373 1.000000
0.860043 0.914311 1.000000
0.959790 0.911605 1.000000
1.000000 0.911893 1.000000
1.000000 0.858373 1.000000
0.766604 0.923449 1.000000
0.766604 0.923449 1.000000
0.769712 0.923395 1.000000
0.775834 0.923288 1.000000
0.795819 0.923969 1.000000
0.852604 0.928130 1.000000
0.952709 0.927671 1.000000
1.000000 0.925625 1.000000
1.000000 0.884733 1.000000
0.743204 0.960824 1.000000
0.743204 0.960824 1.000000
0.746297 0.960751 1.000000
0.752397 0.960607 1.000000
0.775414 0.960743 1.000000
0.837781 0.962280 1.000000
0.938093 0.964232 1.000000
1.000000 0.963962 1.000000
1.000000 0.938976 1.000000
0.753911 1.000000 1.000000
0.756053 1.000000 1.000000
0.756053 1.000000 1.000000
0.767157 1.000000 1.000000
0.782266 1.000000 1.000000
0.829777 1.000000 1.000000
0.921376 1.000000 1.000000
1.000000 1.000000 1.000000
1.000000 0.999855 1.000000
0.787226 1.000000 1.000000
0.787226 1.000000 1.000000
0.790867 1.000000 1.000000
0.794539 1.000000 1.000000
0.806449 1.000000 1.000000
0.856650 1.000000 1.000000
0.926421 1.000000 1.000000
0.994361 1.000000 1.000000
1.000000 1.000000 1.000000
