Assets/Lutify-Free-LUTs-Pack/Lutify Free LUTs Pack/Colour Film Boost Pro - Film Boost 10/Lutify.me-FilmBoost10-SLog3Cine-to-Rec709.cube
# Created with: fylm.ai - Colour Grading and Collaboration Software in Cloud 
# Website: https://fylm.ai 
# META
# Option: Gamut compress
# Block 1: IDT | Sony S-Log3 S-Gamut3.Cine
# Block 2: colourMatch | Blending Mode: Normal | {"ColorSpace":0,"CrossCovarianceLimit":50,"ReshapingIterations":1,"PercentSaturationShift":100,"PercentShadingShift":100,"ExtraShading":true,"PercentTint":100,"PercentModified":100}
# Block 3: subtractiveColour | Blending Mode: Normal | {"sliders":{"gainY":0.55,"C":0.3,"M":0.3,"Y":0.3}}
# Block 4: LUT | Filmic Curve Response: Low Contrast 2 (100%)
# Block 5: logPrimaries | Blending Mode: Normal | {"wheels":{"shadows":{"Y":"0","R":"1","G":"1","B":"1"},"midtones":{"Y":"0","R":"1","G":"1","B":"1"},"highlights":{"Y":"0","R":"1","G":"1","B":"1"},"offset":{"Y":"0","R":"1","G":"1","B":"1"}},"sliders":{"shadows":{"Y":0,"R":-0.085,"G":0.024,"B":0.134},"midtones":{"Y":0,"R":0,"G":-0.023,"B":0},"highlights":{"Y":0,"R":0,"G":0,"B":0},"offset":{"Y":0,"R":0.012,"G":-0.012,"B":0}}}
# Block 6: HSL | Blending Mode: Normal | {"hue":{"Reds":0,"Yellows":0,"Greens":0,"Cyans":0,"Blues":0,"Magentas":0},"saturation":{"Reds":1,"Yellows":1,"Greens":1,"Cyans":1,"Blues":1,"Magentas":1},"luminance":{"Reds":0.9,"Yellows":0.9,"Greens":0.9,"Cyans":0.9,"Blues":0.9,"Magentas":0.9},"lum_sat":{"Blacks":1,"Shadows":1,"Midtones":1,"Highlights":1,"Whites":1},"sat_sat":{"10":1,"20":1,"30":1,"40":1,"50":1}}
# Block 7: ODT | Rec709
TITLE "Lutify.me-FilmBoost10-SLog3Cine-to-Rec709" 
LUT_3D_SIZE 5
0.000000 0.000000 0.000000
0.103865 0.000000 0.000000
0.410248 0.000000 0.000000
0.966523 0.000000 0.091061
1.000000 0.581568 0.454792
0.000000 0.108150 0.000000
0.147677 0.104243 0.000000
0.456726 0.000000 0.000000
0.971185 0.000000 0.091993
1.000000 0.587278 0.454485
0.000000 0.455377 0.000000
0.000000 0.460859 0.000000
0.581254 0.404546 0.000000
0.985515 0.171753 0.080453
1.000000 0.608897 0.462176
0.000000 0.889104 0.212370
0.000000 0.888400 0.212702
0.458357 0.882463 0.179983
0.938471 0.842331 0.000000
1.000000 0.760742 0.494328
0.830148 1.000000 0.784414
0.830148 1.000000 0.784414
0.840714 1.000000 0.782792
0.892761 0.998783 0.771546
1.000000 0.989407 0.728815
0.000000 0.000000 0.066004
0.076889 0.000000 0.041062
0.400241 0.000000 0.028172
0.966103 0.000000 0.111480
1.000000 0.579322 0.460495
0.000000 0.083084 0.145488
0.096417 0.112429 0.130154
0.454023 0.000000 0.042069
0.975275 0.000000 0.113059
1.000000 0.588180 0.462833
0.000000 0.484616 0.000000
0.000000 0.495097 0.000000
0.571665 0.462776 0.000000
0.989813 0.178190 0.118165
1.000000 0.609196 0.464978
0.000000 0.889825 0.268331
0.000000 0.890728 0.268632
0.463839 0.884434 0.234733
0.940187 0.845645 0.000000
1.000000 0.761162 0.500108
0.830231 1.000000 0.786222
0.830231 1.000000 0.786222
0.840787 1.000000 0.784607
0.892799 0.998802 0.773386
1.000000 0.989434 0.730476
0.000000 0.000000 0.204784
0.000000 0.000000 0.149034
0.364288 0.000000 0.071398
0.970326 0.000000 0.238212
1.000000 0.585802 0.494431
0.000000 0.000000 0.325003
0.000000 0.000000 0.302414
0.396181 0.000000 0.178380
0.975240 0.000000 0.248138
1.000000 0.591504 0.494147
0.000000 0.412215 0.525652
0.000000 0.460718 0.545371
0.541670 0.536056 0.561282
0.998450 0.187439 0.293103
1.000000 0.615978 0.502080
0.000000 0.901608 0.497293
0.000000 0.901637 0.498891
0.422523 0.896461 0.471053
0.932926 0.871104 0.399083
1.000000 0.761577 0.538090
0.830897 1.000000 0.800478
0.830897 1.000000 0.800478
0.841376 1.000000 0.798884
0.893162 0.998972 0.789450
1.000000 0.989159 0.750228
0.000000 0.000000 0.335724
0.000000 0.000000 0.320664
0.319692 0.000000 0.283762
0.814955 0.000000 0.148318
1.000000 0.557762 0.677961
0.000000 0.000000 0.558116
0.000000 0.000000 0.545487
0.233918 0.000000 0.466971
0.814955 0.000000 0.148318
1.000000 0.560988 0.678112
0.000000 0.162989 0.772241
0.000000 0.168100 0.777646
0.000000 0.183758 0.795260
0.971310 0.000000 0.655357
1.000000 0.598537 0.685745
0.000000 0.873357 0.890781
0.000000 0.875966 0.890139
0.000000 0.891205 0.896015
0.904518 0.898857 0.900592
1.000000 0.765806 0.729811
0.824821 1.000000 0.876175
0.824821 1.000000 0.876175
0.831834 1.000000 0.876358
0.888663 1.000000 0.870625
1.000000 0.993000 0.854014
0.323444 0.000000 0.553301
0.346946 0.000000 0.535100
0.466289 0.000000 0.513133
0.772312 0.000000 0.436489
1.000000 0.000000 0.288080
0.148647 0.000000 0.785562
0.179181 0.000000 0.779961
0.326670 0.000000 0.713755
0.772312 0.000000 0.436489
1.000000 0.000000 0.288080
0.000000 0.108197 0.945657
0.000000 0.106521 0.945589
0.190870 0.072276 0.943492
0.741933 0.000000 0.909616
1.000000 0.000000 0.288080
0.000000 0.597281 0.988725
0.000000 0.597907 0.988267
0.000000 0.607023 0.988639
0.688759 0.626860 0.986541
1.000000 0.467029 0.948148
0.686415 1.000000 0.995841
0.686415 1.000000 0.995841
0.703716 1.000000 0.995883
0.827296 1.000000 0.995632
0.994443 0.999594 0.995848
