Assets/Lutify-Free-LUTs-Pack/Lutify Free LUTs Pack/Colour Film Boost Pro - Film Boost 10/Lutify.me-FilmBoost10-DWG-to-DWG.cube
# Created with: fylm.ai - Colour Grading and Collaboration Software in Cloud 
# Website: https://fylm.ai 
# META
# Option: Gamut compress
# Block 2: colourMatch | Blending Mode: Normal | {"ColorSpace":0,"CrossCovarianceLimit":50,"ReshapingIterations":1,"PercentSaturationShift":100,"PercentShadingShift":100,"ExtraShading":true,"PercentTint":100,"PercentModified":100}
# Block 3: subtractiveColour | Blending Mode: Normal | {"sliders":{"gainY":0.55,"C":0.3,"M":0.3,"Y":0.3}}
# Block 4: LUT | Filmic Curve Response: Low Contrast 2 (100%)
# Block 5: logPrimaries | Blending Mode: Normal | {"wheels":{"shadows":{"Y":"0","R":"1","G":"1","B":"1"},"midtones":{"Y":"0","R":"1","G":"1","B":"1"},"highlights":{"Y":"0","R":"1","G":"1","B":"1"},"offset":{"Y":"0","R":"1","G":"1","B":"1"}},"sliders":{"shadows":{"Y":0,"R":-0.085,"G":0.024,"B":0.134},"midtones":{"Y":0,"R":0,"G":-0.023,"B":0},"highlights":{"Y":0,"R":0,"G":0,"B":0},"offset":{"Y":0,"R":0.012,"G":-0.012,"B":0}}}
# Block 6: HSL | Blending Mode: Normal | {"hue":{"Reds":0,"Yellows":0,"Greens":0,"Cyans":0,"Blues":0,"Magentas":0},"saturation":{"Reds":1,"Yellows":1,"Greens":1,"Cyans":1,"Blues":1,"Magentas":1},"luminance":{"Reds":0.9,"Yellows":0.9,"Greens":0.9,"Cyans":0.9,"Blues":0.9,"Magentas":0.9},"lum_sat":{"Blacks":1,"Shadows":1,"Midtones":1,"Highlights":1,"Whites":1},"sat_sat":{"10":1,"20":1,"30":1,"40":1,"50":1}}
TITLE "dwg" 
LUT_3D_SIZE 9
-0.026819 -0.007943 0.011226
0.072628 -0.017149 0.002274
0.191249 -0.003009 0.025790
0.307327 0.058827 0.083851
0.400842 0.140389 0.154948
0.489322 0.236225 0.237005
0.582936 0.336335 0.328479
0.692975 0.433075 0.437033
0.821949 0.536614 0.560783
-0.029825 0.078893 0.015986
0.098136 0.086767 0.022395
0.215845 0.068025 0.041978
0.311566 0.083296 0.088555
0.401709 0.149286 0.155749
0.489089 0.239047 0.236794
0.582843 0.336904 0.328394
0.692975 0.433075 0.437033
0.821825 0.536487 0.560558
-0.015063 0.188188 0.041630
0.075112 0.200390 0.049920
0.244702 0.197366 0.080983
0.334043 0.170789 0.113746
0.408763 0.173964 0.162155
0.489704 0.247063 0.237451
0.582474 0.339296 0.328090
0.692865 0.433630 0.436894
0.822870 0.536952 0.561446
0.053805 0.289289 0.097914
0.094472 0.291550 0.101651
0.222687 0.296990 0.120032
0.362206 0.283555 0.158234
0.435782 0.262592 0.195384
0.496669 0.273371 0.244132
0.583797 0.345893 0.329324
0.694653 0.436707 0.438294
0.822871 0.537522 0.561498
0.150060 0.372022 0.162957
0.167541 0.374228 0.165863
0.220376 0.375621 0.171674
0.358281 0.377845 0.200585
0.453435 0.362919 0.234465
0.527335 0.344086 0.277460
0.588211 0.365924 0.332729
0.697802 0.443881 0.440470
0.822504 0.539996 0.561086
0.259209 0.449449 0.233848
0.267898 0.449499 0.234696
0.293553 0.449681 0.237624
0.349839 0.449188 0.245625
0.461644 0.451822 0.279091
0.544897 0.435469 0.314231
0.623231 0.420862 0.366288
0.696600 0.460615 0.437848
0.825721 0.547171 0.563753
0.368722 0.532503 0.314931
0.371846 0.532528 0.315344
0.384313 0.531559 0.316102
0.406499 0.529645 0.317880
0.452064 0.530260 0.327255
0.554368 0.535794 0.363684
0.642905 0.512317 0.402783
0.739917 0.504970 0.476018
0.826671 0.564593 0.563756
0.474804 0.624230 0.406172
0.477949 0.624255 0.406591
0.478997 0.624263 0.406731
0.484251 0.624304 0.407431
0.501445 0.624489 0.410447
0.547131 0.625105 0.420045
0.662071 0.630576 0.462965
0.763980 0.600696 0.513581
0.878482 0.609233 0.609610
0.574969 0.731237 0.511269
0.574969 0.731237 0.511269
0.576019 0.731245 0.511410
0.578119 0.731261 0.511692
0.585470 0.731318 0.512677
0.604662 0.731507 0.515821
0.655649 0.736459 0.529820
0.786404 0.731540 0.574583
0.901772 0.708573 0.644215
-0.034376 -0.003844 0.065767
0.066963 -0.004527 0.055909
0.184897 -0.001006 0.047961
0.301683 0.057956 0.092182
0.401729 0.143836 0.161568
0.490858 0.236470 0.240085
0.583978 0.337330 0.330483
0.693311 0.433414 0.437666
0.821949 0.536614 0.560783
-0.024037 0.082924 0.114546
0.087876 0.099508 0.109925
0.206361 0.062978 0.069006
0.308176 0.085202 0.097738
0.402663 0.151427 0.162534
0.490700 0.240569 0.240245
0.583788 0.337805 0.330182
0.693199 0.433301 0.437455
0.821949 0.536614 0.560783
-0.016630 0.188888 0.096671
0.066590 0.206180 0.092175
0.233254 0.206287 0.095743
0.329138 0.177045 0.118855
0.406554 0.178696 0.167165
0.491465 0.250636 0.241592
0.583603 0.341059 0.330214
0.693200 0.433968 0.437526
0.822994 0.537079 0.561671
0.045408 0.291236 0.119683
0.085828 0.297332 0.120726
0.201449 0.302631 0.127031
0.350648 0.292708 0.156580
0.424038 0.271679 0.189581
0.497439 0.277690 0.247470
0.585000 0.347722 0.331435
0.694986 0.437046 0.438925
0.822871 0.537522 0.561498
0.141637 0.377654 0.173153
0.158699 0.377405 0.173170
0.209101 0.378711 0.175313
0.340600 0.379474 0.196506
0.453428 0.361894 0.234111
0.527335 0.344086 0.277460
0.589650 0.368675 0.335092
0.698128 0.444201 0.441085
0.822504 0.539996 0.561086
0.248012 0.452785 0.237267
0.254393 0.453662 0.238250
0.276078 0.453118 0.238910
0.334990 0.452206 0.245469
0.460517 0.451786 0.278661
0.544897 0.435469 0.314231
0.623231 0.420862 0.366288
0.697389 0.460542 0.438892
0.825963 0.547414 0.564139
0.354611 0.535612 0.316007
0.355607 0.535618 0.316105
0.363625 0.535666 0.316941
0.396875 0.532731 0.318726
0.452064 0.530260 0.327255
0.554368 0.535794 0.363684
0.642905 0.512317 0.402783
0.739917 0.504970 0.476018
0.826896 0.564802 0.564077
0.458202 0.629455 0.408562
0.460298 0.629472 0.408842
0.469629 0.626332 0.407323
0.484251 0.624304 0.407431
0.501445 0.624489 0.410447
0.547131 0.625105 0.420045
0.662071 0.630576 0.462965
0.763980 0.600696 0.513581
0.878482 0.609233 0.609610
0.574969 0.731237 0.511269
0.574969 0.731237 0.511269
0.576019 0.731245 0.511410
0.578119 0.731261 0.511692
0.585470 0.731318 0.512677
0.604662 0.731507 0.515821
0.655649 0.736459 0.529820
0.786404 0.731540 0.574583
0.901772 0.708573 0.644215
-0.028056 0.017144 0.129301
0.027081 0.016444 0.120433
0.172087 0.005297 0.094280
0.293373 0.056478 0.129532
0.403591 0.147214 0.181812
0.494186 0.242243 0.250548
0.586721 0.338679 0.335734
0.694100 0.434210 0.439150
0.822197 0.536869 0.561234
-0.016168 0.057977 0.169226
0.031630 0.058063 0.160982
0.188490 0.047877 0.137175
0.304157 0.087342 0.146993
0.405850 0.157651 0.184212
0.495266 0.245605 0.251651
0.586723 0.339989 0.335874
0.694100 0.434210 0.439150
0.822197 0.536869 0.561234
0.026772 0.195618 0.247850
0.070360 0.209292 0.243444
0.230942 0.242348 0.253209
0.333678 0.188463 0.189761
0.410384 0.186428 0.189989
0.497246 0.254877 0.253723
0.586527 0.343056 0.335773
0.694101 0.434879 0.439221
0.822073 0.536741 0.561008
0.059621 0.297706 0.231739
0.094549 0.304306 0.227326
0.199107 0.324865 0.222185
0.349648 0.322303 0.209695
0.424852 0.288206 0.211861
0.499797 0.284067 0.257979
0.587984 0.351244 0.337181
0.693765 0.437214 0.438870
0.823119 0.537776 0.561948
0.138598 0.390184 0.223994
0.157380 0.393723 0.224928
0.202920 0.397137 0.223502
0.315166 0.399787 0.223520
0.438864 0.375582 0.232335
0.511480 0.363249 0.273981
0.592615 0.371896 0.340574
0.698283 0.445015 0.442484
0.822874 0.540377 0.561759
0.247490 0.468410 0.265766
0.254506 0.468245 0.265738
0.270911 0.469684 0.266636
0.312166 0.468748 0.265183
0.428621 0.460169 0.272581
0.544897 0.435469 0.314231
0.623229 0.420007 0.366134
0.699525 0.462441 0.442195
0.826206 0.547659 0.564525
0.349952 0.548283 0.332010
0.350889 0.548200 0.331965
0.356377 0.548506 0.332206
0.369399 0.546866 0.330493
0.423695 0.535158 0.325162
0.554368 0.535794 0.363684
0.642905 0.512317 0.402783
0.739917 0.504970 0.476018
0.827348 0.565221 0.564722
0.438033 0.642706 0.419660
0.437920 0.642557 0.419486
0.440558 0.642056 0.419146
0.446166 0.640181 0.417520
0.494983 0.624417 0.409286
0.547131 0.625105 0.420045
0.662071 0.630576 0.462965
0.763980 0.600696 0.513581
0.878482 0.609233 0.609610
0.540984 0.747199 0.521798
0.541997 0.747204 0.521898
0.547845 0.743996 0.519555
0.566773 0.736556 0.514834
0.585470 0.731318 0.512677
0.604662 0.731507 0.515821
0.655649 0.736459 0.529820
0.786404 0.731540 0.574583
0.901772 0.708573 0.644215
-0.007979 0.056947 0.189709
0.020642 0.045358 0.173948
0.154386 0.046562 0.169606
0.274827 0.031755 0.125820
0.394635 0.151524 0.237274
0.501267 0.251073 0.281799
0.592555 0.345235 0.352067
0.696182 0.438500 0.445245
0.822822 0.537532 0.562371
0.012281 0.091339 0.228405
0.033883 0.085098 0.217585
0.151010 0.081742 0.207973
0.279955 0.054532 0.162803
0.400128 0.162416 0.244779
0.502348 0.254833 0.282713
0.592556 0.345879 0.352130
0.696182 0.438500 0.445245
0.822822 0.537532 0.562371
0.060972 0.170059 0.294166
0.075588 0.169746 0.288141
0.162860 0.179449 0.290723
0.314657 0.168255 0.271557
0.412255 0.196318 0.263273
0.503878 0.266514 0.286017
0.593628 0.349454 0.353217
0.697003 0.439272 0.445627
0.822822 0.537532 0.562371
0.109961 0.290168 0.347346
0.118845 0.300665 0.344057
0.195192 0.330321 0.353037
0.355616 0.357512 0.363938
0.440391 0.309678 0.309162
0.510597 0.295704 0.293317
0.595779 0.357844 0.355629
0.696889 0.441809 0.445642
0.822823 0.538097 0.562422
0.157940 0.393811 0.340875
0.169883 0.398342 0.341021
0.210760 0.409593 0.340454
0.325634 0.426567 0.338972
0.452791 0.426735 0.325763
0.522697 0.387199 0.314170
0.597697 0.381416 0.357348
0.698308 0.448530 0.446490
0.823620 0.541145 0.563110
0.248068 0.483719 0.332603
0.254895 0.485617 0.333302
0.276848 0.489297 0.334794
0.320547 0.490586 0.331099
0.417616 0.493836 0.328797
0.526121 0.465434 0.318871
0.606730 0.453812 0.366642
0.703942 0.468099 0.449983
0.827309 0.548203 0.566278
0.356729 0.569427 0.373183
0.357573 0.569306 0.372835
0.363057 0.568960 0.372048
0.377549 0.571258 0.372830
0.414507 0.570470 0.369764
0.509913 0.551539 0.359453
0.642901 0.511328 0.402499
0.739916 0.504200 0.475907
0.828843 0.566608 0.566885
0.445716 0.663121 0.445689
0.446697 0.663125 0.445757
0.447324 0.662689 0.445079
0.450724 0.662998 0.444957
0.460572 0.662023 0.442953
0.498706 0.643148 0.425889
0.662071 0.630576 0.462965
0.763980 0.600696 0.513581
0.878482 0.609233 0.609610
0.527358 0.770662 0.544041
0.527288 0.770572 0.543935
0.528127 0.770397 0.543797
0.531349 0.769529 0.543086
0.535828 0.767455 0.541027
0.599340 0.735740 0.518390
0.655649 0.736459 0.529820
0.786404 0.731540 0.574583
0.901772 0.708573 0.644215
0.015986 0.077758 0.216128
0.049126 0.071470 0.207911
0.123390 0.071569 0.205789
0.258892 0.066411 0.187397
0.363099 0.078354 0.176356
0.491289 0.251992 0.341879
0.599203 0.354123 0.385328
0.701732 0.444290 0.458963
0.821724 0.540686 0.564722
0.032747 0.104256 0.248248
0.055609 0.094237 0.235711
0.119643 0.088411 0.227127
0.259270 0.071958 0.195168
0.363099 0.078354 0.176356
0.493329 0.257313 0.346124
0.599463 0.355180 0.386524
0.701732 0.444290 0.458963
0.821724 0.540686 0.564722
0.098417 0.192085 0.335146
0.108104 0.190050 0.330992
0.145892 0.190623 0.329554
0.267418 0.187273 0.322118
0.372167 0.143369 0.264697
0.497164 0.270593 0.352919
0.600534 0.358587 0.387331
0.701733 0.444950 0.459027
0.821724 0.540686 0.564722
0.141504 0.261378 0.383672
0.149745 0.265180 0.382864
0.178746 0.275103 0.385601
0.285578 0.292682 0.396259
0.423930 0.280933 0.379299
0.511387 0.308830 0.370279
0.603876 0.368465 0.390276
0.702665 0.447793 0.459739
0.821594 0.541678 0.564549
0.189556 0.369912 0.432820
0.189528 0.378128 0.429278
0.213334 0.399250 0.432824
0.310666 0.431148 0.449790
0.460545 0.456711 0.461021
0.537143 0.409351 0.409118
0.608705 0.394765 0.397097
0.704659 0.455609 0.461682
0.823552 0.544148 0.566116
0.260090 0.487491 0.436770
0.265025 0.488398 0.436793
0.276225 0.492920 0.435267
0.323174 0.502459 0.437237
0.424291 0.522824 0.438504
0.543417 0.518690 0.424403
0.621461 0.479132 0.414966
0.708407 0.476705 0.465798
0.825912 0.550376 0.567849
0.358139 0.582124 0.433904
0.358980 0.582220 0.433403
0.363891 0.584916 0.434288
0.382961 0.589411 0.435987
0.421379 0.591858 0.435010
0.513304 0.595932 0.432177
0.622908 0.567113 0.417964
0.720652 0.551373 0.477114
0.832805 0.570395 0.573138
0.451204 0.683516 0.484631
0.453155 0.683524 0.484744
0.454131 0.683528 0.484801
0.458638 0.683122 0.483794
0.470579 0.685215 0.483973
0.502858 0.682304 0.478760
0.598410 0.665762 0.465660
0.763980 0.600696 0.513581
0.876282 0.607028 0.607414
0.536127 0.792903 0.571450
0.536127 0.792903 0.571450
0.537053 0.792906 0.571497
0.537773 0.792660 0.571137
0.544802 0.793108 0.571417
0.554154 0.792248 0.569588
0.585873 0.770270 0.547524
0.786404 0.731540 0.574583
0.901772 0.708573 0.644215
0.085374 0.120740 0.266696
0.101488 0.120297 0.265915
0.141576 0.118249 0.262642
0.238737 0.124037 0.265355
0.347871 0.113666 0.237656
0.441295 0.135349 0.236669
0.590005 0.352244 0.435499
0.707916 0.453454 0.487494
0.826584 0.545152 0.574982
0.085374 0.120740 0.266696
0.101488 0.120297 0.265915
0.141576 0.118249 0.262642
0.238737 0.124037 0.265355
0.347819 0.112498 0.236019
0.441295 0.135349 0.236669
0.590361 0.353714 0.435852
0.707916 0.453454 0.487494
0.826584 0.545152 0.574982
0.091737 0.137845 0.286413
0.103878 0.132556 0.280327
0.141174 0.130240 0.276823
0.238737 0.124037 0.265355
0.347819 0.112498 0.236019
0.441295 0.135349 0.236669
0.591233 0.357913 0.438292
0.707917 0.454085 0.487547
0.826584 0.545152 0.574982
0.184865 0.279017 0.421445
0.189149 0.279197 0.421130
0.205244 0.284745 0.425128
0.248038 0.288991 0.427872
0.378104 0.289263 0.424139
0.465201 0.249298 0.376949
0.594869 0.371876 0.447458
0.710025 0.457255 0.488947
0.826584 0.545716 0.575030
0.222638 0.351193 0.464665
0.225680 0.353765 0.463706
0.238052 0.360415 0.466919
0.277511 0.375905 0.477335
0.394782 0.394434 0.488987
0.520068 0.382837 0.472177
0.607514 0.406942 0.463574
0.712427 0.465929 0.491844
0.826588 0.548532 0.575272
0.269257 0.446285 0.515497
0.264102 0.451830 0.509154
0.274087 0.465982 0.510622
0.312041 0.493006 0.523561
0.417486 0.525831 0.539842
0.553573 0.548457 0.552035
0.632683 0.500658 0.499761
0.718297 0.488799 0.498886
0.830618 0.556891 0.578674
0.360200 0.587775 0.524589
0.362266 0.588146 0.524953
0.367226 0.590962 0.526071
0.382585 0.593387 0.524277
0.420735 0.602897 0.527138
0.520204 0.623612 0.531024
0.640235 0.620821 0.519723
0.733073 0.575245 0.518424
0.835434 0.578718 0.583966
0.457960 0.695396 0.534340
0.458972 0.695542 0.534500
0.460009 0.695690 0.534663
0.465219 0.698469 0.535955
0.477626 0.701247 0.537375
0.511105 0.707187 0.536657
0.600671 0.710090 0.534815
0.739422 0.680204 0.532963
0.849365 0.660060 0.599593
0.544196 0.812743 0.603805
0.544196 0.812743 0.603805
0.545119 0.812745 0.603847
0.546041 0.812748 0.603890
0.550089 0.812157 0.602616
0.562138 0.812195 0.601830
0.595339 0.813856 0.601748
0.704471 0.798437 0.591922
0.901768 0.706861 0.643904
0.162545 0.164716 0.315461
0.169041 0.164036 0.314534
0.190464 0.164894 0.314981
0.254005 0.168655 0.316960
0.338790 0.172759 0.315522
0.427468 0.164236 0.287946
0.518765 0.197766 0.298740
0.694576 0.448758 0.527249
0.834000 0.552752 0.596203
0.162545 0.164716 0.315461
0.169041 0.164036 0.314534
0.190464 0.164894 0.314981
0.254005 0.168655 0.316960
0.338790 0.172759 0.315522
0.427468 0.164236 0.287946
0.518765 0.197766 0.298740
0.694576 0.448758 0.527249
0.834000 0.552752 0.596203
0.161645 0.164687 0.315446
0.169041 0.164036 0.314534
0.190464 0.164894 0.314981
0.253138 0.168591 0.316927
0.335819 0.172399 0.315411
0.427468 0.164236 0.287946
0.518765 0.197766 0.298740
0.694858 0.450131 0.528233
0.834000 0.552752 0.596203
0.160295 0.164644 0.315424
0.166806 0.163952 0.314491
0.189126 0.164833 0.314949
0.253138 0.168591 0.316927
0.335819 0.172399 0.315411
0.427468 0.164236 0.287946
0.518765 0.197766 0.298740
0.697774 0.454224 0.530436
0.834154 0.554053 0.596716
0.271523 0.369194 0.507502
0.273002 0.369733 0.507711
0.280616 0.374404 0.511403
0.302028 0.382080 0.517537
0.357405 0.388556 0.521835
0.475144 0.385480 0.515419
0.562439 0.345246 0.470969
0.701369 0.466860 0.537623
0.834157 0.556218 0.596881
0.310193 0.441347 0.551688
0.312393 0.442978 0.553065
0.319050 0.447872 0.557117
0.336596 0.458191 0.562693
0.382780 0.473064 0.572965
0.491623 0.489963 0.580638
0.614762 0.475784 0.560784
0.714855 0.499697 0.555084
0.835509 0.564120 0.598995
0.365601 0.525347 0.613953
0.360130 0.530854 0.608050
0.358368 0.543333 0.602946
0.375690 0.564465 0.611974
0.415417 0.590846 0.622456
0.512695 0.628767 0.637706
0.651528 0.654607 0.647057
0.741414 0.594724 0.592016
0.843251 0.588555 0.607053
0.456256 0.699021 0.618861
0.456937 0.699160 0.618994
0.457626 0.699298 0.619128
0.462261 0.701134 0.619254
0.478524 0.706893 0.621606
0.516511 0.715933 0.622529
0.609643 0.737761 0.625005
0.748439 0.737228 0.617627
0.857513 0.683839 0.629636
0.547213 0.823619 0.641052
0.548144 0.823777 0.641217
0.548144 0.823777 0.641217
0.550008 0.824094 0.641546
0.555680 0.827044 0.642467
0.570709 0.831484 0.645404
0.606159 0.834586 0.645550
0.705068 0.838345 0.647606
0.864749 0.810949 0.658951
0.257419 0.211540 0.364479
0.261426 0.211769 0.364595
0.270273 0.212271 0.364851
0.294320 0.212943 0.364647
0.352769 0.217716 0.366599
0.416319 0.210509 0.351151
0.503478 0.219025 0.340488
0.598565 0.266902 0.365575
0.816319 0.549158 0.628468
0.257419 0.211540 0.364479
0.261426 0.211769 0.364595
0.270273 0.212271 0.364851
0.294320 0.212943 0.364647
0.352769 0.217716 0.366599
0.416319 0.210509 0.351151
0.503478 0.219025 0.340488
0.598565 0.266902 0.365575
0.817353 0.549576 0.628903
0.257419 0.211540 0.364479
0.259823 0.211677 0.364548
0.270273 0.212271 0.364851
0.294320 0.212943 0.364647
0.352769 0.217716 0.366599
0.416319 0.210509 0.351151
0.503478 0.219025 0.340488
0.598565 0.266902 0.365575
0.817353 0.549576 0.628903
0.255817 0.211449 0.364432
0.259823 0.211677 0.364548
0.269449 0.212225 0.364828
0.294320 0.212943 0.364647
0.352769 0.217716 0.366599
0.416319 0.210509 0.351151
0.503478 0.219025 0.340488
0.598565 0.266902 0.365575
0.817647 0.550529 0.629194
0.255015 0.211403 0.364409
0.257419 0.211540 0.364479
0.267836 0.212134 0.364781
0.293431 0.212877 0.364613
0.350731 0.217453 0.366460
0.416319 0.210509 0.351151
0.503453 0.218112 0.339131
0.598565 0.266902 0.365575
0.818411 0.553785 0.631747
0.373248 0.471975 0.609535
0.374060 0.472819 0.609961
0.377601 0.474515 0.611543
0.385643 0.477897 0.614932
0.409533 0.484356 0.619428
0.457586 0.488605 0.621190
0.569951 0.486332 0.616450
0.669476 0.442639 0.564382
0.824976 0.565041 0.638345
0.416076 0.542602 0.658852
0.417266 0.543711 0.659641
0.420568 0.545532 0.661630
0.426426 0.548695 0.663262
0.446185 0.558847 0.670971
0.487834 0.572247 0.678573
0.587503 0.587231 0.685463
0.720421 0.571686 0.663124
0.840194 0.597363 0.655794
0.488340 0.625151 0.737923
0.480181 0.625108 0.729535
0.466855 0.633265 0.715018
0.472277 0.653003 0.717639
0.489145 0.677570 0.725322
0.527001 0.703234 0.737200
0.613566 0.743126 0.751086
0.758508 0.774140 0.760050
0.869346 0.708264 0.701646
0.559313 0.827377 0.730916
0.559313 0.827377 0.730916
0.560008 0.827529 0.731063
0.560704 0.827682 0.731209
0.564609 0.830480 0.730048
0.576169 0.833952 0.731065
0.610037 0.845194 0.731962
0.713331 0.870218 0.736309
0.876438 0.869196 0.734769
0.354219 0.257223 0.410277
0.356164 0.257414 0.410375
0.358110 0.257605 0.410473
0.365891 0.258368 0.410864
0.388527 0.260646 0.412029
0.434174 0.262875 0.410583
0.490270 0.255055 0.392760
0.580771 0.276382 0.392282
0.690487 0.349207 0.443301
0.354219 0.257223 0.410277
0.356164 0.257414 0.410375
0.358110 0.257605 0.410473
0.365891 0.258368 0.410864
0.388527 0.260646 0.412029
0.434174 0.262875 0.410583
0.490270 0.255055 0.392760
0.580771 0.276382 0.392282
0.690487 0.349207 0.443301
0.354219 0.257223 0.410277
0.356164 0.257414 0.410375
0.358110 0.257605 0.410473
0.365891 0.258368 0.410864
0.388527 0.260646 0.412029
0.434174 0.262875 0.410583
0.490270 0.255055 0.392760
0.580771 0.276382 0.392282
0.690487 0.349207 0.443301
0.354219 0.257223 0.410277
0.356164 0.257414 0.410375
0.358110 0.257605 0.410473
0.365891 0.258368 0.410864
0.388527 0.260646 0.412029
0.434174 0.262875 0.410583
0.490270 0.255055 0.392760
0.580771 0.276382 0.392282
0.690487 0.349207 0.443301
0.354219 0.257223 0.410277
0.354219 0.257223 0.410277
0.358110 0.257605 0.410473
0.365891 0.258368 0.410864
0.388527 0.260646 0.412029
0.434174 0.262875 0.410583
0.490270 0.255055 0.392760
0.580771 0.276382 0.392282
0.690487 0.349207 0.443301
0.352320 0.257055 0.410192
0.353246 0.257128 0.410229
0.356164 0.257414 0.410375
0.363946 0.258177 0.410766
0.387502 0.260511 0.411959
0.433177 0.262752 0.410548
0.489228 0.254777 0.392624
0.580771 0.276382 0.392282
0.690487 0.349207 0.443301
0.489248 0.583557 0.725799
0.489778 0.584126 0.726049
0.490296 0.584357 0.726290
0.493431 0.585928 0.727760
0.499720 0.587608 0.729076
0.517445 0.593298 0.733118
0.559376 0.597761 0.735623
0.668253 0.592769 0.727444
0.788681 0.549316 0.670244
0.540138 0.657296 0.783886
0.540318 0.657401 0.783998
0.541419 0.658343 0.784685
0.543798 0.659741 0.786177
0.548265 0.662371 0.787286
0.563381 0.671049 0.791913
0.593214 0.682108 0.798242
0.687898 0.698125 0.805816
0.846488 0.681390 0.780017
0.625927 0.746373 0.876079
0.625927 0.746373 0.876079
0.603855 0.744568 0.853533
0.592526 0.756810 0.840932
0.602470 0.780786 0.848289
0.617505 0.806319 0.856275
0.642116 0.830770 0.862992
0.720523 0.875418 0.880571
0.894039 0.914742 0.897057
