Assets/Lutify-Free-LUTs-Pack/Lutify Free LUTs Pack/Colour Film Boost Pro - Film Boost 10/Lutify.me-FilmBoost10-SLog1-to-Rec709.cube
# Created with: fylm.ai - Colour Grading and Collaboration Software in Cloud 
# Website: https://fylm.ai 
# META
# Option: Gamut compress
# Block 1: IDT | Sony S-Log S-Gamut 10-bit
# Block 2: colourMatch | Blending Mode: Normal | {"ColorSpace":0,"CrossCovarianceLimit":50,"ReshapingIterations":1,"PercentSaturationShift":100,"PercentShadingShift":100,"ExtraShading":true,"PercentTint":100,"PercentModified":100}
# Block 3: subtractiveColour | Blending Mode: Normal | {"sliders":{"gainY":0.55,"C":0.3,"M":0.3,"Y":0.3}}
# Block 4: LUT | Filmic Curve Response: Low Contrast 2 (100%)
# Block 5: logPrimaries | Blending Mode: Normal | {"wheels":{"shadows":{"Y":"0","R":"1","G":"1","B":"1"},"midtones":{"Y":"0","R":"1","G":"1","B":"1"},"highlights":{"Y":"0","R":"1","G":"1","B":"1"},"offset":{"Y":"0","R":"1","G":"1","B":"1"}},"sliders":{"shadows":{"Y":0,"R":-0.085,"G":0.024,"B":0.134},"midtones":{"Y":0,"R":0,"G":-0.023,"B":0},"highlights":{"Y":0,"R":0,"G":0,"B":0},"offset":{"Y":0,"R":0.012,"G":-0.012,"B":0}}}
# Block 6: HSL | Blending Mode: Normal | {"hue":{"Reds":0,"Yellows":0,"Greens":0,"Cyans":0,"Blues":0,"Magentas":0},"saturation":{"Reds":1,"Yellows":1,"Greens":1,"Cyans":1,"Blues":1,"Magentas":1},"luminance":{"Reds":0.9,"Yellows":0.9,"Greens":0.9,"Cyans":0.9,"Blues":0.9,"Magentas":0.9},"lum_sat":{"Blacks":1,"Shadows":1,"Midtones":1,"Highlights":1,"Whites":1},"sat_sat":{"10":1,"20":1,"30":1,"40":1,"50":1}}
# Block 7: ODT | Rec709
TITLE "Lutify.me-FilmBoost10-SLog1-to-Rec709" 
LUT_3D_SIZE 33
0.000000 0.000000 0.000000
0.000000 0.000000 0.000000
0.000000 0.000000 0.000000
0.000000 0.000000 0.000000
0.018119 0.000000 0.000000
0.073268 0.000000 0.000000
0.108626 0.000000 0.000000
0.134894 0.000000 0.000000
0.159200 0.000000 0.000000
0.187107 0.000000 0.000000
0.215873 0.000000 0.000000
0.247778 0.000000 0.000000
0.285909 0.000000 0.000000
0.321965 0.000000 0.000000
0.362260 0.000000 0.000000
0.398626 0.000000 0.000000
0.441529 0.000000 0.000000
0.496166 0.000000 0.000000
0.549259 0.000000 0.000000
0.599354 0.000000 0.000000
0.654848 0.000000 0.000000
0.705955 0.000000 0.029229
0.764210 0.000000 0.043843
0.815253 0.000000 0.057233
0.868905 0.000000 0.074138
0.911349 0.000000 0.092855
0.953425 0.000000 0.110840
0.987426 0.000000 0.136479
1.000000 0.000000 0.168028
1.000000 0.000000 0.194081
1.000000 0.090630 0.221607
1.000000 0.213728 0.252603
1.000000 0.291682 0.285469
0.000000 0.000000 0.000000
0.000000 0.000000 0.000000
0.000000 0.000000 0.000000
0.000000 0.000000 0.000000
0.016613 0.000000 0.000000
0.073268 0.000000 0.000000
0.110120 0.000000 0.000000
0.136413 0.000000 0.000000
0.162979 0.000000 0.000000
0.191760 0.000000 0.000000
0.221698 0.000000 0.000000
0.256247 0.000000 0.000000
0.293352 0.000000 0.000000
0.334974 0.000000 0.000000
0.370021 0.000000 0.000000
0.403731 0.000000 0.000000
0.444488 0.000000 0.000000
0.499444 0.000000 0.000000
0.552758 0.000000 0.000000
0.602960 0.000000 0.000000
0.655116 0.000000 0.000000
0.705950 0.000000 0.028383
0.764195 0.000000 0.043449
0.815505 0.000000 0.057592
0.869406 0.000000 0.075592
0.911202 0.000000 0.092319
0.953839 0.000000 0.112934
0.987545 0.000000 0.137614
1.000000 0.000000 0.168028
1.000000 0.000000 0.193776
1.000000 0.091390 0.223373
1.000000 0.213728 0.252603
1.000000 0.295780 0.285275
0.000000 0.000000 0.000000
0.000000 0.000000 0.000000
0.000000 0.000000 0.000000
0.000000 0.000000 0.000000
0.023175 0.000000 0.000000
0.076287 0.000000 0.000000
0.113051 0.000000 0.000000
0.139166 0.000000 0.000000
0.167367 0.000000 0.000000
0.197310 0.000000 0.000000
0.230867 0.000000 0.000000
0.263594 0.000000 0.000000
0.299808 0.000000 0.000000
0.340253 0.000000 0.000000
0.374616 0.000000 0.000000
0.413742 0.000000 0.000000
0.455642 0.000000 0.000000
0.505565 0.000000 0.000000
0.556490 0.000000 0.000000
0.603231 0.000000 0.000000
0.659060 0.000000 0.000000
0.706487 0.000000 0.029409
0.764744 0.000000 0.044675
0.818957 0.000000 0.057096
0.869311 0.000000 0.075043
0.911164 0.000000 0.092179
0.953722 0.000000 0.112649
0.987370 0.000000 0.137314
1.000000 0.000000 0.167879
1.000000 0.000000 0.193619
1.000000 0.103168 0.223205
1.000000 0.213728 0.252603
1.000000 0.296095 0.287484
0.000000 0.000000 0.000000
0.000000 0.000000 0.000000
0.000000 0.000000 0.000000
0.000000 0.000000 0.000000
0.046909 0.000000 0.000000
0.086662 0.000000 0.000000
0.116436 0.000000 0.000000
0.145004 0.000000 0.000000
0.173588 0.000000 0.000000
0.204472 0.000000 0.000000
0.239163 0.000000 0.000000
0.269819 0.000000 0.000000
0.307800 0.000000 0.000000
0.346507 0.000000 0.000000
0.379218 0.000000 0.000000
0.421461 0.000000 0.000000
0.461369 0.000000 0.000000
0.508872 0.000000 0.000000
0.556753 0.000000 0.000000
0.607090 0.000000 0.000000
0.659590 0.000000 0.000000
0.709947 0.000000 0.028705
0.765001 0.000000 0.044835
0.819500 0.000000 0.058296
0.869261 0.000000 0.074752
0.911616 0.000000 0.093927
0.956059 0.000000 0.112283
0.987190 0.000000 0.137002
1.000000 0.000000 0.167726
1.000000 0.000000 0.193619
1.000000 0.102951 0.223357
1.000000 0.218816 0.252414
1.000000 0.300160 0.287291
0.000000 0.037992 0.000000
0.000000 0.038224 0.000000
0.000000 0.037926 0.000000
0.000000 0.040239 0.000000
0.032457 0.041737 0.000000
0.091281 0.000000 0.000000
0.125843 0.000000 0.000000
0.158219 0.000000 0.000000
0.188356 0.000000 0.000000
0.218549 0.000000 0.000000
0.247622 0.000000 0.000000
0.277147 0.000000 0.000000
0.313384 0.000000 0.000000
0.348631 0.000000 0.000000
0.386232 0.000000 0.000000
0.424311 0.000000 0.000000
0.464487 0.000000 0.000000
0.511969 0.000000 0.000000
0.563782 0.000000 0.000000
0.607370 0.000000 0.000000
0.663282 0.000000 0.000000
0.710210 0.000000 0.028294
0.768463 0.000000 0.044040
0.820040 0.000000 0.059482
0.869750 0.000000 0.076190
0.911494 0.000000 0.093487
0.955997 0.000000 0.112128
0.989256 0.000000 0.136958
1.000000 0.000000 0.167851
1.000000 0.000000 0.196652
1.000000 0.122569 0.223011
1.000000 0.218816 0.252414
1.000000 0.300160 0.287291
0.000000 0.061806 0.000000
0.000000 0.061806 0.000000
0.000000 0.062140 0.000000
0.000000 0.065752 0.000000
0.000000 0.070137 0.000000
0.080218 0.063825 0.000000
0.127727 0.044002 0.000000
0.165544 0.000000 0.000000
0.201957 0.000000 0.000000
0.232502 0.000000 0.000000
0.263714 0.000000 0.000000
0.292126 0.000000 0.000000
0.322778 0.000000 0.000000
0.355043 0.000000 0.000000
0.393478 0.000000 0.000000
0.429820 0.000000 0.000000
0.470735 0.000000 0.000000
0.515524 0.000000 0.000000
0.567344 0.000000 0.000000
0.611501 0.000000 0.000000
0.663819 0.000000 0.000000
0.710748 0.000000 0.029379
0.768430 0.000000 0.043147
0.819969 0.000000 0.058672
0.873409 0.000000 0.077469
0.914794 0.000000 0.095133
0.956398 0.000000 0.114256
0.989269 0.000000 0.137935
1.000000 0.000000 0.170471
1.000000 0.000000 0.196490
1.000000 0.122569 0.223011
1.000000 0.228986 0.252195
1.000000 0.300160 0.287291
0.000000 0.085093 0.000000
0.000000 0.086423 0.000000
0.000000 0.088164 0.000000
0.000000 0.090722 0.000000
0.000000 0.097320 0.000000
0.052696 0.097211 0.000000
0.127304 0.082680 0.000000
0.174516 0.064903 0.000000
0.211837 0.035248 0.000000
0.246196 0.000000 0.000000
0.275644 0.000000 0.000000
0.302785 0.000000 0.000000
0.336688 0.000000 0.000000
0.363882 0.000000 0.000000
0.398454 0.000000 0.000000
0.435456 0.000000 0.000000
0.477125 0.000000 0.000000
0.521902 0.000000 0.000000
0.573985 0.000000 0.000000
0.618263 0.000000 0.000000
0.667516 0.000000 0.000000
0.714470 0.000000 0.027783
0.772436 0.000000 0.043502
0.823374 0.000000 0.057679
0.873322 0.000000 0.076978
0.914660 0.000000 0.094655
0.958688 0.000000 0.113864
0.989173 0.000000 0.137768
1.000000 0.000000 0.170314
1.000000 0.000000 0.196325
1.000000 0.131094 0.222833
1.000000 0.233841 0.251995
1.000000 0.308211 0.286897
0.000000 0.109452 0.000000
0.000000 0.111956 0.000000
0.000000 0.115695 0.000000
0.000000 0.118016 0.000000
0.000000 0.125553 0.000000
0.000000 0.127620 0.000000
0.106094 0.126914 0.000000
0.171890 0.111576 0.000000
0.215680 0.089555 0.000000
0.252820 0.068397 0.000000
0.285951 0.036979 0.000000
0.316181 0.000000 0.000000
0.347552 0.000000 0.000000
0.384783 0.000000 0.000000
0.408731 0.000000 0.000000
0.441357 0.000000 0.000000
0.486301 0.000000 0.000000
0.535063 0.000000 0.000000
0.580922 0.000000 0.000000
0.625299 0.000000 0.000000
0.670968 0.000000 0.000000
0.715548 0.000000 0.029868
0.772663 0.000000 0.042887
0.823862 0.000000 0.058359
0.873169 0.000000 0.076089
0.917815 0.000000 0.095965
0.958797 0.000000 0.115351
0.991016 0.000000 0.137367
1.000000 0.000000 0.169824
1.000000 0.000000 0.195985
1.000000 0.139969 0.226230
1.000000 0.239316 0.255772
1.000000 0.312198 0.286697
0.000000 0.136699 0.000000
0.000000 0.138721 0.000000
0.000000 0.142251 0.000000
0.000000 0.145173 0.000000
0.000000 0.154377 0.000000
0.000000 0.162179 0.000000
0.000000 0.160863 0.000000
0.157850 0.156993 0.000000
0.217332 0.137504 0.000000
0.263084 0.117489 0.000000
0.293394 0.097231 0.000000
0.324932 0.075230 0.000000
0.361644 0.029059 0.000000
0.390716 0.000000 0.000000
0.425187 0.000000 0.000000
0.456125 0.000000 0.000000
0.493186 0.000000 0.000000
0.542206 0.000000 0.000000
0.591457 0.000000 0.000000
0.635768 0.000000 0.000000
0.678113 0.000000 0.000000
0.719266 0.000000 0.027474
0.776918 0.000000 0.043420
0.827756 0.000000 0.058407
0.876460 0.000000 0.076105
0.917560 0.000000 0.095047
0.961028 0.000000 0.114903
0.991312 0.000000 0.139841
1.000000 0.000000 0.173015
1.000000 0.000000 0.197439
1.000000 0.154413 0.225865
1.000000 0.244043 0.255570
1.000000 0.312812 0.287070
0.000000 0.161802 0.000000
0.000000 0.164189 0.000000
0.000000 0.169684 0.000000
0.000000 0.173345 0.000000
0.000000 0.182783 0.000000
0.000000 0.189324 0.000000
0.000000 0.189894 0.000000
0.112169 0.190353 0.000000
0.206877 0.181103 0.000000
0.264624 0.159563 0.000000
0.301703 0.140552 0.000000
0.334029 0.124870 0.000000
0.372382 0.103794 0.000000
0.404744 0.077346 0.000000
0.432412 0.008683 0.000000
0.475024 0.000000 0.000000
0.500579 0.000000 0.000000
0.549691 0.000000 0.000000
0.596254 0.000000 0.000000
0.643192 0.000000 0.000000
0.682117 0.000000 0.000000
0.726709 0.000000 0.023417
0.777367 0.000000 0.042026
0.828778 0.000000 0.060646
0.877080 0.000000 0.077897
0.920638 0.000000 0.096282
0.960919 0.000000 0.115944
0.990772 0.000000 0.138914
1.000000 0.000000 0.172674
1.000000 0.000000 0.196900
1.000000 0.173781 0.225291
1.000000 0.253303 0.255157
1.000000 0.316759 0.286867
0.000000 0.189904 0.000000
0.000000 0.192648 0.000000
0.000000 0.197622 0.000000
0.000000 0.201969 0.000000
0.000000 0.212465 0.000000
0.000000 0.215357 0.000000
0.000000 0.220576 0.000000
0.000000 0.218365 0.000000
0.165933 0.220362 0.000000
0.251167 0.206767 0.000000
0.300186 0.184934 0.000000
0.341864 0.165611 0.000000
0.378517 0.148501 0.000000
0.416989 0.129676 0.000000
0.445649 0.112617 0.000000
0.483322 0.079340 0.000000
0.521273 0.000000 0.000000
0.557915 0.000000 0.000000
0.603962 0.000000 0.000000
0.650976 0.000000 0.000000
0.690359 0.000000 0.000000
0.737321 0.000000 0.000000
0.785348 0.000000 0.042813
0.832306 0.000000 0.059357
0.880372 0.000000 0.077624
0.923594 0.000000 0.097276
0.963211 0.000000 0.116418
0.992823 0.000000 0.140945
1.000000 0.000000 0.175115
1.000000 0.075063 0.199639
1.000000 0.180163 0.226910
1.000000 0.262747 0.255074
1.000000 0.324890 0.288691
0.000000 0.220390 0.000000
0.000000 0.220522 0.000000
0.000000 0.228860 0.000000
0.000000 0.235055 0.000000
0.000000 0.242649 0.000000
0.000000 0.247235 0.000000
0.000000 0.253330 0.000000
0.000000 0.252221 0.000000
0.100814 0.249300 0.000000
0.216039 0.248075 0.000000
0.285208 0.238020 0.000000
0.343639 0.211376 0.000000
0.390569 0.191707 0.000000
0.424206 0.174779 0.000000
0.459812 0.163680 0.000000
0.495023 0.140632 0.000000
0.530048 0.114889 0.000000
0.573508 0.071871 0.000000
0.612401 0.000000 0.000000
0.659224 0.000000 0.000000
0.702068 0.000000 0.000000
0.749009 0.000000 0.000000
0.796444 0.000000 0.040357
0.846347 0.000000 0.058692
0.886749 0.000000 0.077610
0.926193 0.000000 0.097198
0.962870 0.000000 0.116294
0.992719 0.000000 0.142854
1.000000 0.000000 0.176083
1.000000 0.101064 0.201063
1.000000 0.202503 0.226392
1.000000 0.267489 0.256878
1.000000 0.328772 0.288483
0.000000 0.250909 0.000000
0.000000 0.253047 0.000000
0.000000 0.259140 0.000000
0.000000 0.262684 0.000000
0.000000 0.272822 0.000000
0.000000 0.276029 0.000000
0.000000 0.282902 0.000000
0.000000 0.285969 0.000000
0.000000 0.284080 0.000000
0.147847 0.284908 0.000000
0.240809 0.282915 0.000000
0.328469 0.268821 0.000000
0.387992 0.241933 0.000000
0.432076 0.226001 0.000000
0.470911 0.214396 0.000000
0.507942 0.198643 0.000000
0.546413 0.183342 0.000000
0.586048 0.157219 0.000000
0.625388 0.130850 0.000000
0.668565 0.086915 0.000000
0.710329 0.000000 0.000000
0.753196 0.000000 0.000000
0.803943 0.000000 0.033153
0.853625 0.000000 0.057917
0.890170 0.000000 0.077960
0.928808 0.000000 0.097389
0.964957 0.000000 0.117162
0.996564 0.000000 0.143602
1.000000 0.000000 0.176633
1.000000 0.137287 0.200247
1.000000 0.213328 0.227794
1.000000 0.284921 0.256170
1.000000 0.336782 0.290318
0.000000 0.279777 0.000000
0.000000 0.280766 0.000000
0.000000 0.293282 0.000000
0.000000 0.295810 0.000000
0.000000 0.305499 0.000000
0.000000 0.313166 0.000000
0.000000 0.319042 0.000000
0.000000 0.322852 0.000000
0.000000 0.325852 0.000000
0.000000 0.323648 0.000000
0.167158 0.325231 0.000000
0.273412 0.320798 0.000000
0.371259 0.307123 0.000000
0.428655 0.278056 0.000000
0.482387 0.260789 0.000000
0.519041 0.245987 0.000000
0.555935 0.237947 0.000000
0.602781 0.221806 0.000000
0.637973 0.196110 0.000000
0.678281 0.176376 0.000000
0.719533 0.151259 0.000000
0.761730 0.092893 0.000000
0.808624 0.000000 0.000000
0.860476 0.000000 0.053567
0.899226 0.000000 0.077319
0.931205 0.000000 0.097005
0.969640 0.000000 0.120670
0.996310 0.000000 0.147613
1.000000 0.094408 0.177017
1.000000 0.171216 0.200980
1.000000 0.233575 0.228895
1.000000 0.293608 0.257757
1.000000 0.348473 0.289863
0.000000 0.312281 0.000000
0.000000 0.315676 0.000000
0.000000 0.325994 0.000000
0.000000 0.333584 0.000000
0.000000 0.340761 0.000000
0.000000 0.346960 0.000000
0.000000 0.353555 0.000000
0.000000 0.355344 0.000000
0.000000 0.359290 0.000000
0.000000 0.362505 0.000000
0.000000 0.362466 0.000000
0.200023 0.361913 0.000000
0.325059 0.353892 0.000000
0.420091 0.337112 0.000000
0.475881 0.318776 0.000000
0.519311 0.305156 0.000000
0.562814 0.286860 0.000000
0.611583 0.277607 0.000000
0.656979 0.259767 0.000000
0.686958 0.238532 0.000000
0.727994 0.218064 0.000000
0.770629 0.193967 0.000000
0.816074 0.142868 0.000000
0.864077 0.018445 0.047201
0.902397 0.000000 0.077605
0.938811 0.000000 0.097298
0.969196 0.000000 0.122287
0.997603 0.068121 0.148806
1.000000 0.140357 0.179007
1.000000 0.200361 0.203227
1.000000 0.257071 0.227826
1.000000 0.305936 0.257054
1.000000 0.356304 0.291704
0.000000 0.346974 0.000000
0.000000 0.351201 0.000000
0.000000 0.363078 0.000000
0.000000 0.371686 0.000000
0.000000 0.376227 0.000000
0.000000 0.383738 0.000000
0.000000 0.386009 0.000000
0.000000 0.392635 0.000000
0.000000 0.392069 0.000000
0.000000 0.400967 0.000000
0.000000 0.404841 0.000000
0.000000 0.402385 0.000000
0.243959 0.399164 0.000000
0.374377 0.393327 0.000000
0.460714 0.378752 0.000000
0.511856 0.359528 0.000000
0.561965 0.341926 0.000000
0.614992 0.325059 0.000000
0.665233 0.316218 0.000000
0.703106 0.297920 0.000000
0.733146 0.282128 0.000000
0.778636 0.265769 0.000000
0.824028 0.243286 0.000000
0.869397 0.190879 0.000000
0.904444 0.154311 0.071470
0.940953 0.128929 0.099234
0.970554 0.127811 0.124177
0.998141 0.158279 0.148882
1.000000 0.195866 0.181640
1.000000 0.236211 0.206822
1.000000 0.284142 0.230198
1.000000 0.326696 0.260174
1.000000 0.371514 0.293107
0.000000 0.383616 0.000000
0.000000 0.388977 0.000000
0.000000 0.403099 0.000000
0.000000 0.411967 0.000000
0.000000 0.417507 0.000000
0.000000 0.426026 0.000000
0.000000 0.430868 0.000000
0.000000 0.438399 0.000000
0.000000 0.443029 0.000000
0.000000 0.442414 0.000000
0.000000 0.446666 0.000000
0.000000 0.450259 0.000000
0.084134 0.447938 0.000000
0.286080 0.446820 0.000000
0.398190 0.441373 0.000000
0.501983 0.428963 0.000000
0.559861 0.404398 0.000000
0.613033 0.383131 0.000000
0.670865 0.368406 0.000000
0.710208 0.356757 0.000000
0.751174 0.340054 0.000000
0.785911 0.324103 0.000000
0.830420 0.305112 0.000000
0.875061 0.287436 0.000000
0.907926 0.250867 0.052612
0.943812 0.217636 0.093433
0.973056 0.207233 0.124338
0.998667 0.213035 0.151657
1.000000 0.235863 0.182690
1.000000 0.272770 0.206561
1.000000 0.305983 0.234803
1.000000 0.346457 0.261013
1.000000 0.387040 0.297047
0.000000 0.430626 0.000000
0.000000 0.437248 0.000000
0.000000 0.446681 0.000000
0.000000 0.456318 0.000000
0.000000 0.464301 0.000000
0.000000 0.469228 0.000000
0.000000 0.475873 0.000000
0.000000 0.483407 0.000000
0.000000 0.487962 0.000000
0.000000 0.492915 0.000000
0.000000 0.491520 0.000000
0.000000 0.495693 0.000000
0.000000 0.498972 0.000000
0.186456 0.495139 0.000000
0.327983 0.491296 0.000000
0.444578 0.488568 0.000000
0.536639 0.483549 0.000000
0.614612 0.448960 0.000000
0.667548 0.433626 0.000000
0.714183 0.418745 0.000000
0.757161 0.406306 0.000000
0.796165 0.394844 0.000000
0.841277 0.380495 0.000000
0.877928 0.359698 0.000000
0.910383 0.335536 0.000000
0.944883 0.304429 0.082340
0.971413 0.281940 0.117583
0.997752 0.277122 0.153928
1.000000 0.294277 0.185111
1.000000 0.311937 0.211047
1.000000 0.338636 0.236618
1.000000 0.370263 0.266069
1.000000 0.401902 0.298469
0.000000 0.473900 0.000000
0.000000 0.480726 0.000000
0.000000 0.493725 0.000000
0.000000 0.500296 0.000000
0.000000 0.507631 0.000000
0.000000 0.512401 0.000000
0.000000 0.521198 0.000000
0.000000 0.526373 0.000000
0.000000 0.534475 0.000000
0.000000 0.539320 0.000000
0.000000 0.543551 0.000000
0.000000 0.542321 0.000000
0.000000 0.543388 0.000000
0.000000 0.549201 0.000000
0.226649 0.545367 0.000000
0.373814 0.541012 0.000000
0.479017 0.538771 0.000000
0.584882 0.529615 0.000000
0.658998 0.497519 0.000000
0.705549 0.482960 0.000000
0.756229 0.470678 0.000000
0.801042 0.449163 0.000000
0.843216 0.440740 0.000000
0.877568 0.427510 0.000000
0.911127 0.408409 0.000000
0.942227 0.389411 0.070427
0.969451 0.372964 0.111403
0.993994 0.354325 0.150630
1.000000 0.343552 0.187587
1.000000 0.348355 0.213932
1.000000 0.365978 0.236795
1.000000 0.392929 0.266601
1.000000 0.420693 0.302252
0.000000 0.519435 0.000000
0.000000 0.526634 0.000000
0.000000 0.533572 0.000000
0.000000 0.545746 0.000000
0.000000 0.552958 0.000000
0.000000 0.557527 0.000000
0.000000 0.562934 0.000000
0.000000 0.571768 0.000000
0.000000 0.575372 0.000000
0.000000 0.580778 0.000000
0.000000 0.588069 0.000000
0.000000 0.589105 0.000000
0.000000 0.588057 0.000000
0.000000 0.591026 0.000000
0.000000 0.593967 0.000000
0.270139 0.590535 0.000000
0.413078 0.588278 0.000000
0.532280 0.581699 0.000000
0.643275 0.571618 0.000000
0.696349 0.545258 0.000000
0.752175 0.526027 0.000000
0.797867 0.518404 0.000000
0.845690 0.496315 0.000000
0.882694 0.484186 0.000000
0.910695 0.476224 0.000000
0.940016 0.458027 0.000000
0.968250 0.432820 0.107282
0.990997 0.422025 0.144015
1.000000 0.404841 0.183787
1.000000 0.394328 0.211342
1.000000 0.400354 0.238077
1.000000 0.419259 0.269216
1.000000 0.442424 0.303178
0.000000 0.567315 0.000000
0.000000 0.574004 0.000000
0.000000 0.579903 0.000000
0.000000 0.586558 0.000000
0.000000 0.593309 0.000000
0.000000 0.600393 0.000000
0.000000 0.608070 0.000000
0.000000 0.613569 0.000000
0.000000 0.618418 0.000000
0.000000 0.621518 0.000000
0.000000 0.627370 0.000000
0.000000 0.631495 0.000000
0.000000 0.635601 0.000000
0.000000 0.633886 0.000000
0.000000 0.635944 0.000000
0.086838 0.638733 0.000000
0.337466 0.635332 0.000000
0.482085 0.629484 0.000000
0.592443 0.625636 0.000000
0.686337 0.613216 0.000000
0.746570 0.589067 0.000000
0.793612 0.567869 0.000000
0.841595 0.555787 0.000000
0.882571 0.540496 0.000000
0.912241 0.533088 0.000000
0.939578 0.518628 0.000000
0.961741 0.505668 0.087491
0.991167 0.484610 0.145672
1.000000 0.467946 0.182505
1.000000 0.446363 0.209458
1.000000 0.440987 0.236293
1.000000 0.452163 0.269064
1.000000 0.471155 0.303719
0.000000 0.612526 0.000000
0.000000 0.618996 0.000000
0.000000 0.624604 0.000000
0.000000 0.630976 0.000000
0.000000 0.637663 0.000000
0.000000 0.643927 0.000000
0.000000 0.648458 0.000000
0.000000 0.655880 0.000000
0.000000 0.660316 0.000000
0.000000 0.665075 0.000000
0.000000 0.669217 0.000000
0.000000 0.676958 0.000000
0.000000 0.681130 0.000000
0.000000 0.682155 0.000000
0.000000 0.682844 0.000000
0.000000 0.682084 0.000000
0.223651 0.685202 0.000000
0.397371 0.680282 0.000000
0.532698 0.674033 0.000000
0.635984 0.668332 0.000000
0.732274 0.658730 0.000000
0.785688 0.635674 0.000000
0.837868 0.612442 0.000000
0.876293 0.600296 0.000000
0.909881 0.586419 0.000000
0.933957 0.580184 0.000000
0.959181 0.566429 0.068331
0.984567 0.552807 0.134041
1.000000 0.530357 0.187696
1.000000 0.516566 0.215618
1.000000 0.496539 0.244014
1.000000 0.492231 0.272642
1.000000 0.503450 0.306656
0.000000 0.664182 0.000000
0.000000 0.667538 0.000000
0.000000 0.673512 0.000000
0.000000 0.679533 0.000000
0.000000 0.683059 0.000000
0.000000 0.688405 0.000000
0.000000 0.694294 0.000000
0.000000 0.701003 0.000000
0.000000 0.705499 0.000000
0.000000 0.706722 0.000000
0.000000 0.714255 0.000000
0.000000 0.720952 0.000000
0.000000 0.722309 0.000000
0.000000 0.726820 0.000000
0.000000 0.729711 0.000000
0.000000 0.729282 0.000000
0.000000 0.726199 0.000000
0.318231 0.725245 0.000000
0.467293 0.719716 0.000000
0.582107 0.714873 0.000000
0.679137 0.708812 0.000000
0.765905 0.699919 0.000000
0.827050 0.679055 0.000000
0.866765 0.661228 0.000000
0.900842 0.650423 0.000000
0.928283 0.640649 0.000000
0.952478 0.630342 0.000000
0.976116 0.613791 0.127994
0.998293 0.598543 0.186915
1.000000 0.585308 0.222715
1.000000 0.565025 0.247874
1.000000 0.552774 0.274279
1.000000 0.549487 0.310861
0.000000 0.708411 0.045687
0.000000 0.711376 0.047548
0.000000 0.716839 0.041934
0.000000 0.718585 0.043380
0.000000 0.720340 0.024960
0.000000 0.725782 0.000000
0.000000 0.728047 0.000000
0.000000 0.733201 0.000000
0.000000 0.742389 0.000000
0.000000 0.746616 0.000000
0.000000 0.750086 0.000000
0.000000 0.754265 0.000000
0.000000 0.759534 0.000000
0.000000 0.760748 0.000000
0.000000 0.764520 0.000000
0.000000 0.767346 0.000000
0.000000 0.766835 0.000000
0.187458 0.763245 0.000000
0.400328 0.763537 0.000000
0.530497 0.758441 0.000000
0.626007 0.754341 0.000000
0.723360 0.747703 0.000000
0.804538 0.738647 0.000000
0.856611 0.717840 0.000000
0.893293 0.700844 0.000000
0.919036 0.695660 0.000000
0.944377 0.682573 0.000000
0.967224 0.676439 0.121020
0.987199 0.662442 0.190141
1.000000 0.649472 0.228657
1.000000 0.636166 0.257519
1.000000 0.620528 0.285665
1.000000 0.609022 0.316989
0.000000 0.747211 0.137877
0.000000 0.751387 0.137160
0.000000 0.752568 0.129429
0.000000 0.756706 0.128655
0.000000 0.758116 0.129468
0.000000 0.762447 0.124428
0.000000 0.764793 0.116482
0.000000 0.769533 0.111114
0.000000 0.775148 0.087820
0.000000 0.777907 0.090520
0.000000 0.780874 0.093532
0.000000 0.784033 0.090334
0.000000 0.790246 0.085666
0.000000 0.793884 0.030859
0.000000 0.797436 0.000000
0.000000 0.798339 0.000000
0.000000 0.800326 0.000000
0.000000 0.799114 0.000000
0.310264 0.795322 0.000000
0.462809 0.794933 0.000000
0.580194 0.790106 0.000000
0.677096 0.785648 0.000000
0.764944 0.779685 0.000000
0.838713 0.771188 0.000000
0.880694 0.752399 0.000000
0.912279 0.738647 0.000000
0.937556 0.729985 0.000000
0.959261 0.721266 0.123820
0.978494 0.713460 0.185966
0.998862 0.701272 0.223843
1.000000 0.686173 0.256959
1.000000 0.675458 0.297521
1.000000 0.664337 0.329986
0.000000 0.786142 0.189371
0.000000 0.787009 0.189984
0.000000 0.790547 0.189974
0.000000 0.791623 0.190769
0.000000 0.793133 0.184838
0.000000 0.796609 0.184874
0.000000 0.798101 0.182456
0.000000 0.802575 0.176061
