Assets/Lutify-Free-LUTs-Pack/Lutify Free LUTs Pack/Colour Film Boost Pro - Film Boost 10/Lutify.me-FilmBoost10-BMDFilmGen5-to-Rec709.cube
# Created with: fylm.ai - Colour Grading and Collaboration Software in Cloud 
# Website: https://fylm.ai 
# META
# Option: Gamut compress
# Block 1: IDT | BMD Wide Gamut BMDFilm Gen 5
# Block 2: colourMatch | Blending Mode: Normal | {"ColorSpace":0,"CrossCovarianceLimit":50,"ReshapingIterations":1,"PercentSaturationShift":100,"PercentShadingShift":100,"ExtraShading":true,"PercentTint":100,"PercentModified":100}
# Block 3: subtractiveColour | Blending Mode: Normal | {"sliders":{"gainY":0.55,"C":0.3,"M":0.3,"Y":0.3}}
# Block 4: LUT | Filmic Curve Response: Low Contrast 2 (100%)
# Block 5: logPrimaries | Blending Mode: Normal | {"wheels":{"shadows":{"Y":"0","R":"1","G":"1","B":"1"},"midtones":{"Y":"0","R":"1","G":"1","B":"1"},"highlights":{"Y":"0","R":"1","G":"1","B":"1"},"offset":{"Y":"0","R":"1","G":"1","B":"1"}},"sliders":{"shadows":{"Y":0,"R":-0.085,"G":0.024,"B":0.134},"midtones":{"Y":0,"R":0,"G":-0.023,"B":0},"highlights":{"Y":0,"R":0,"G":0,"B":0},"offset":{"Y":0,"R":0.012,"G":-0.012,"B":0}}}
# Block 6: HSL | Blending Mode: Normal | {"hue":{"Reds":0,"Yellows":0,"Greens":0,"Cyans":0,"Blues":0,"Magentas":0},"saturation":{"Reds":1,"Yellows":1,"Greens":1,"Cyans":1,"Blues":1,"Magentas":1},"luminance":{"Reds":0.9,"Yellows":0.9,"Greens":0.9,"Cyans":0.9,"Blues":0.9,"Magentas":0.9},"lum_sat":{"Blacks":1,"Shadows":1,"Midtones":1,"Highlights":1,"Whites":1},"sat_sat":{"10":1,"20":1,"30":1,"40":1,"50":1}}
# Block 7: ODT | Rec709
TITLE "Lutify.me-FilmBoost10-BMDFilmGen5-to-Rec709" 
LUT_3D_SIZE 5
0.000000 0.000000 0.000000
0.103865 0.000000 0.000000
0.567655 0.000000 0.000000
1.000000 0.430561 0.259004
1.000000 0.922445 0.834407
0.000000 0.099665 0.000000
0.140971 0.105080 0.000000
0.587723 0.000000 0.000000
1.000000 0.437631 0.258352
1.000000 0.922445 0.834407
0.000000 0.534799 0.000000
0.000000 0.538840 0.000000
0.721530 0.464786 0.000000
1.000000 0.540012 0.257848
1.000000 0.923711 0.834465
0.584460 0.957130 0.290826
0.589830 0.956948 0.290947
0.689272 0.954163 0.279141
0.994933 0.925145 0.106601
1.000000 0.945601 0.841281
0.957786 1.000000 0.903818
0.957786 1.000000 0.903818
0.958915 1.000000 0.903867
0.971528 1.000000 0.904442
1.000000 1.000000 0.901657
0.000000 0.000000 0.066525
0.078846 0.000000 0.046424
0.572477 0.000000 0.045658
1.000000 0.432275 0.272198
1.000000 0.922445 0.834407
0.000000 0.076245 0.138309
0.094307 0.111596 0.128037
0.591493 0.000000 0.045739
1.000000 0.435812 0.271897
1.000000 0.922445 0.834407
0.000000 0.571966 0.000000
0.000000 0.575305 0.000000
0.682067 0.540838 0.000000
1.000000 0.541720 0.272138
1.000000 0.923711 0.834465
0.581988 0.958730 0.321364
0.592701 0.958367 0.321578
0.691569 0.954762 0.305262
0.992947 0.928142 0.162949
1.000000 0.945601 0.841281
0.957818 1.000000 0.904378
0.957818 1.000000 0.904378
0.958946 1.000000 0.904426
0.971546 1.000000 0.904978
1.000000 1.000000 0.901657
0.000000 0.000000 0.210133
0.000000 0.000000 0.205863
0.474010 0.000000 0.159947
1.000000 0.430077 0.416449
1.000000 0.922613 0.837043
0.000000 0.000000 0.356184
0.000000 0.000000 0.357027
0.545577 0.000000 0.305786
1.000000 0.437185 0.416137
1.000000 0.922697 0.838354
0.000000 0.522166 0.639834
0.000000 0.554392 0.652923
0.680170 0.657693 0.680681
1.000000 0.541210 0.433122
1.000000 0.923960 0.838406
0.584846 0.965089 0.564286
0.590160 0.964911 0.564328
0.680136 0.963118 0.547225
0.988164 0.945719 0.480117
1.000000 0.945855 0.846156
0.957921 1.000000 0.907095
0.957921 1.000000 0.907095
0.959041 1.000000 0.907141
0.971637 1.000000 0.907672
1.000000 1.000000 0.905120
0.315957 0.000000 0.406336
0.336646 0.000000 0.406154
0.506858 0.000000 0.406001
1.000000 0.000000 0.755151
1.000000 0.925114 0.887702
0.206326 0.000000 0.574336
0.218002 0.000000 0.580671
0.410921 0.000000 0.634356
1.000000 0.000000 0.772421
1.000000 0.925114 0.887702
0.000000 0.230402 0.907300
0.000000 0.230232 0.908225
0.350781 0.229128 0.907234
1.000000 0.000000 0.867461
1.000000 0.925734 0.887692
0.000000 0.961786 0.960260
0.000000 0.962397 0.960363
0.452992 0.961599 0.961632
0.964110 0.968768 0.961561
1.000000 0.946439 0.893854
0.955014 1.000000 0.948451
0.955014 1.000000 0.948451
0.956591 1.000000 0.947974
0.969146 1.000000 0.945805
1.000000 1.000000 0.942726
0.943062 0.000000 0.641392
0.945367 0.000000 0.641242
0.953773 0.000000 0.634300
1.000000 0.000000 0.588790
1.000000 0.733176 0.992076
0.945367 0.000000 0.641242
0.945367 0.000000 0.641242
0.953773 0.000000 0.634300
1.000000 0.000000 0.588790
1.000000 0.734283 0.992480
0.872336 0.000000 0.986406
0.872336 0.000000 0.986406
0.889665 0.000000 0.987049
1.000000 0.000000 1.000000
1.000000 0.752219 0.994361
0.764614 0.771308 1.000000
0.764614 0.771308 1.000000
0.778523 0.770491 1.000000
0.913549 0.780248 1.000000
1.000000 0.865323 1.000000
0.925638 1.000000 1.000000
0.925638 1.000000 1.000000
0.926337 1.000000 1.000000
0.946481 1.000000 1.000000
1.000000 1.000000 1.000000
