Assets/Lutify-Free-LUTs-Pack/Lutify Free LUTs Pack/Colour Film Boost Pro - Film Boost 10/Lutify.me-FilmBoost10-DWG-to-DWG.cube
# Created with: fylm.ai - Colour Grading and Collaboration Software in Cloud 
# Website: https://fylm.ai 
# META
# Option: Gamut compress
# Block 2: colourMatch | Blending Mode: Normal | {"ColorSpace":0,"CrossCovarianceLimit":50,"ReshapingIterations":1,"PercentSaturationShift":100,"PercentShadingShift":100,"ExtraShading":true,"PercentTint":100,"PercentModified":100}
# Block 3: subtractiveColour | Blending Mode: Normal | {"sliders":{"gainY":0.55,"C":0.3,"M":0.3,"Y":0.3}}
# Block 4: LUT | Filmic Curve Response: Low Contrast 2 (100%)
# Block 5: logPrimaries | Blending Mode: Normal | {"wheels":{"shadows":{"Y":"0","R":"1","G":"1","B":"1"},"midtones":{"Y":"0","R":"1","G":"1","B":"1"},"highlights":{"Y":"0","R":"1","G":"1","B":"1"},"offset":{"Y":"0","R":"1","G":"1","B":"1"}},"sliders":{"shadows":{"Y":0,"R":-0.085,"G":0.024,"B":0.134},"midtones":{"Y":0,"R":0,"G":-0.023,"B":0},"highlights":{"Y":0,"R":0,"G":0,"B":0},"offset":{"Y":0,"R":0.012,"G":-0.012,"B":0}}}
# Block 6: HSL | Blending Mode: Normal | {"hue":{"Reds":0,"Yellows":0,"Greens":0,"Cyans":0,"Blues":0,"Magentas":0},"saturation":{"Reds":1,"Yellows":1,"Greens":1,"Cyans":1,"Blues":1,"Magentas":1},"luminance":{"Reds":0.9,"Yellows":0.9,"Greens":0.9,"Cyans":0.9,"Blues":0.9,"Magentas":0.9},"lum_sat":{"Blacks":1,"Shadows":1,"Midtones":1,"Highlights":1,"Whites":1},"sat_sat":{"10":1,"20":1,"30":1,"40":1,"50":1}}
TITLE "dwg" 
LUT_3D_SIZE 33
-0.026819 -0.007943 0.011226
-0.012240 -0.011873 0.008124
0.012627 -0.014208 0.005603
0.044669 -0.015857 0.003340
0.072628 -0.017149 0.002274
0.099789 -0.015843 0.005396
0.128000 -0.013915 0.009776
0.161154 -0.009254 0.016947
0.191249 -0.003009 0.025790
0.220951 0.006748 0.037088
0.250831 0.020817 0.050982
0.279945 0.038090 0.066938
0.307327 0.058827 0.083851
0.329565 0.077931 0.098645
0.355089 0.098518 0.116918
0.378819 0.117727 0.135444
0.400842 0.140389 0.154948
0.421725 0.162582 0.173293
0.445149 0.186216 0.195122
0.467443 0.209806 0.215527
0.489322 0.236225 0.237005
0.511135 0.261306 0.257962
0.536237 0.285384 0.282407
0.560973 0.310072 0.306153
0.582936 0.336335 0.328479
0.609354 0.360554 0.354559
0.636913 0.384060 0.381653
0.665610 0.408154 0.409915
0.692975 0.433075 0.437033
0.721202 0.457589 0.464648
0.753889 0.482238 0.496140
0.788067 0.508125 0.528552
0.821949 0.536614 0.560783
-0.027555 0.004640 0.011744
-0.009062 0.006166 0.012715
0.016811 0.000218 0.010008
0.047216 -0.004037 0.006550
0.075632 -0.007654 0.005276
0.100847 -0.009064 0.006353
0.130858 -0.007017 0.011092
0.164236 -0.003023 0.018403
0.194602 0.004104 0.027700
0.225422 0.013489 0.039688
0.252066 0.026489 0.052096
0.281007 0.042989 0.067874
0.307333 0.062562 0.084170
0.329571 0.081757 0.098997
0.355092 0.099974 0.117053
0.378821 0.119440 0.135600
0.400770 0.141584 0.154777
0.421726 0.163523 0.173383
0.445074 0.187131 0.194982
0.467445 0.210963 0.215657
0.489323 0.236832 0.237073
0.511135 0.261306 0.257962
0.536238 0.286031 0.282479
0.560973 0.310072 0.306153
0.582936 0.336335 0.328479
0.609354 0.360554 0.354559
0.636913 0.384060 0.381653
0.665610 0.408154 0.409915
0.692975 0.433075 0.437033
0.721202 0.457589 0.464648
0.753889 0.482238 0.496140
0.788067 0.508125 0.528552
0.821949 0.536614 0.560783
-0.029219 0.027439 0.012290
-0.014431 0.029962 0.012221
0.020766 0.032157 0.014526
0.054983 0.024840 0.012052
0.082095 0.018415 0.010453
0.108867 0.012950 0.009889
0.139795 0.007759 0.014307
0.170269 0.007215 0.020955
0.198021 0.012614 0.029685
0.229741 0.022100 0.042288
0.256221 0.035987 0.055025
0.284178 0.051097 0.070121
0.308391 0.067710 0.085242
0.330641 0.085627 0.100024
0.355094 0.101794 0.117222
0.378824 0.121527 0.135793
0.400773 0.143343 0.154955
0.421655 0.165317 0.173327
0.444998 0.187545 0.194793
0.467369 0.212044 0.215602
0.489244 0.236757 0.236888
0.511137 0.262567 0.258103
0.536238 0.286031 0.282479
0.560973 0.310072 0.306153
0.582936 0.336335 0.328479
0.609256 0.360459 0.354368
0.636913 0.384060 0.381653
0.665610 0.408154 0.409915
0.692975 0.433075 0.437033
0.721202 0.457589 0.464648
0.753889 0.482238 0.496140
0.788067 0.508125 0.528552
0.821949 0.536614 0.560783
-0.030911 0.054221 0.013360
-0.017047 0.057135 0.014081
0.012596 0.059444 0.015251
0.059825 0.062252 0.017745
0.091766 0.051987 0.015452
0.120219 0.046916 0.016158
0.149696 0.038819 0.019680
0.180805 0.036471 0.026772
0.206721 0.035075 0.034858
0.232787 0.037673 0.045114
0.258311 0.047232 0.057091
0.287349 0.058636 0.072436
0.310502 0.075363 0.087164
0.333840 0.090124 0.102497
0.356162 0.104739 0.118179
0.379827 0.124973 0.136612
0.400778 0.146864 0.155314
0.423804 0.167555 0.175160
0.446076 0.188983 0.195745
0.467294 0.213158 0.215550
0.489246 0.237978 0.237026
0.511056 0.262495 0.257951
0.536066 0.285882 0.282188
0.560974 0.310718 0.306225
0.582842 0.336248 0.328322
0.609256 0.360459 0.354368
0.636913 0.384060 0.381653
0.665610 0.408154 0.409915
0.692975 0.433075 0.437033
0.721202 0.457589 0.464648
0.753889 0.482238 0.496140
0.788067 0.508125 0.528552
0.821825 0.536487 0.560558
-0.029825 0.078893 0.015986
-0.018627 0.081955 0.016662
0.008147 0.085051 0.017109
0.053672 0.088613 0.020342
0.098136 0.086767 0.022395
0.129617 0.078511 0.022393
0.160750 0.072246 0.026737
0.187698 0.069855 0.033277
0.215845 0.068025 0.041978
0.240866 0.065522 0.051478
0.263515 0.065650 0.061567
0.288429 0.072199 0.074393
0.311566 0.083296 0.088555
0.334914 0.095849 0.103770
0.357243 0.110168 0.119402
0.379762 0.129427 0.136772
0.401709 0.149286 0.155749
0.423732 0.169355 0.175106
0.445927 0.190866 0.195476
0.467221 0.214897 0.215566
0.489089 0.239047 0.236794
0.511057 0.263126 0.258022
0.536067 0.286529 0.282260
0.560795 0.310561 0.305924
0.582843 0.336904 0.328394
0.609257 0.361125 0.354441
0.636913 0.384060 0.381653
0.665611 0.408821 0.409986
0.692975 0.433075 0.437033
0.721202 0.457589 0.464648
0.753889 0.482238 0.496140
0.788067 0.508125 0.528552
0.821825 0.536487 0.560558
-0.029463 0.103502 0.018894
-0.018303 0.106369 0.019671
0.005036 0.113719 0.021640
0.047168 0.115734 0.022792
0.091584 0.118197 0.027031
0.135814 0.114207 0.030454
0.167336 0.107610 0.034858
0.196494 0.098784 0.040852
0.221985 0.095516 0.048486
0.248111 0.089929 0.057636
0.270789 0.088944 0.067863
0.294778 0.087783 0.079689
0.314726 0.091758 0.091222
0.337052 0.102916 0.105836
0.361543 0.118397 0.122982
0.381909 0.135032 0.138838
0.402717 0.153742 0.156658
0.423664 0.172776 0.175246
0.445856 0.193675 0.195565
0.468296 0.216471 0.216539
0.489010 0.239582 0.236678
0.511059 0.264387 0.258163
0.535984 0.287748 0.282259
0.560797 0.311855 0.306068
0.582843 0.336904 0.328394
0.609257 0.361125 0.354441
0.636810 0.383961 0.381455
0.665611 0.408821 0.409986
0.692864 0.432962 0.436823
0.721202 0.457589 0.464648
0.753889 0.482238 0.496140
0.788067 0.508125 0.528552
0.821825 0.536487 0.560558
-0.026939 0.133693 0.024697
-0.016610 0.136027 0.026147
0.003098 0.141321 0.026887
0.042061 0.143597 0.029524
0.085429 0.148372 0.032982
0.131905 0.149281 0.038411
0.172240 0.145759 0.045352
0.203437 0.133487 0.050264
0.231162 0.127923 0.058016
0.254434 0.122306 0.065628
0.276030 0.119108 0.074750
0.301147 0.114063 0.086514
0.320044 0.109668 0.096227
0.341328 0.116397 0.110024
0.364775 0.128497 0.126256
0.386195 0.142430 0.142602
0.404728 0.158517 0.158120
0.424669 0.176869 0.176294
0.446863 0.197422 0.196557
0.468223 0.218230 0.216566
0.490009 0.241096 0.237485
0.510979 0.265575 0.258153
0.535987 0.289688 0.282476
0.560709 0.312424 0.305990
0.582844 0.337561 0.328465
0.609257 0.361125 0.354441
0.636811 0.384627 0.381528
0.665611 0.408821 0.409986
0.692865 0.433630 0.436894
0.721202 0.457589 0.464648
0.753889 0.482238 0.496140
0.788067 0.508125 0.528552
0.821825 0.536487 0.560558
-0.022387 0.161762 0.032829
-0.012974 0.164172 0.033683
0.005129 0.169878 0.035542
0.041242 0.171982 0.037388
0.078715 0.174975 0.039969
0.121405 0.177565 0.046145
0.170997 0.178849 0.055391
0.210634 0.174640 0.063418
0.238380 0.162439 0.068669
0.261810 0.154293 0.075400
0.284483 0.151152 0.084357
0.308584 0.144844 0.095293
0.327566 0.139184 0.104601
0.346681 0.138136 0.116041
0.365870 0.141554 0.128509
0.387278 0.150682 0.144287
0.406670 0.164436 0.159688
0.426604 0.183677 0.177971
0.446720 0.201916 0.196626
0.468152 0.221818 0.216800
0.489856 0.244066 0.237467
0.510819 0.266691 0.257991
0.535902 0.290260 0.282403
0.560711 0.313723 0.306135
0.582658 0.338053 0.328227
0.609062 0.361600 0.354133
0.636811 0.384627 0.381528
0.665612 0.409489 0.410057
0.692865 0.433630 0.436894
0.721202 0.457589 0.464648
0.753889 0.482238 0.496140
0.787825 0.509016 0.528212
0.821825 0.536487 0.560558
-0.015063 0.188188 0.041630
-0.008337 0.188596 0.041679
0.011416 0.194262 0.044763
0.037059 0.197301 0.047002
0.075112 0.200390 0.049920
0.112830 0.201845 0.054550
0.163015 0.202799 0.062540
0.211826 0.204235 0.073690
0.244702 0.197366 0.080983
0.268197 0.187668 0.086503
0.289899 0.183220 0.094132
0.313947 0.177181 0.104268
0.334043 0.170789 0.113746
0.353114 0.167038 0.124218
0.372342 0.164543 0.135932
0.390511 0.166942 0.148472
0.408763 0.173964 0.162155
0.428611 0.189457 0.179780
0.447505 0.207327 0.197158
0.470155 0.227265 0.218665
0.489704 0.247063 0.237451
0.511734 0.269433 0.258822
0.536639 0.292912 0.282937
0.561608 0.315261 0.306869
0.582474 0.339296 0.328090
0.609063 0.362265 0.354205
0.636709 0.385193 0.381404
0.665612 0.409489 0.410057
0.692865 0.433630 0.436894
0.721203 0.458261 0.464720
0.753771 0.482115 0.495921
0.787825 0.509016 0.528212
0.822870 0.536952 0.561446
-0.007314 0.211886 0.052176
0.005619 0.215723 0.054402
0.021809 0.219830 0.056828
0.042992 0.220784 0.057490
0.073752 0.222977 0.060731
0.108236 0.227227 0.065955
0.153582 0.227863 0.072004
0.204878 0.228964 0.082072
0.249209 0.231087 0.094494
0.273569 0.216222 0.097375
0.296381 0.212787 0.105163
0.320383 0.202765 0.113377
0.341576 0.199317 0.123745
0.357455 0.195353 0.131866
0.377761 0.192766 0.143921
0.396976 0.189539 0.155919
0.412018 0.190712 0.166719
0.430410 0.200163 0.181591
0.451669 0.214696 0.200740
0.471009 0.233546 0.219552
0.491629 0.252696 0.239251
0.511576 0.271243 0.258751
0.536558 0.294823 0.283011
0.561434 0.317078 0.306790
0.582290 0.339884 0.327881
0.608869 0.363406 0.353971
0.636709 0.385193 0.381404
0.665398 0.409952 0.409724
0.692866 0.434297 0.436965
0.722144 0.458515 0.465379
0.753771 0.482115 0.495921
0.787825 0.509016 0.528212
0.822870 0.536952 0.561446
0.010584 0.240843 0.067046
0.021578 0.242861 0.068358
0.033545 0.243863 0.069117
0.053128 0.244985 0.070858
0.076304 0.245130 0.072460
0.103395 0.250419 0.077619
0.144842 0.250859 0.082356
0.197459 0.252699 0.091512
0.242243 0.253861 0.102297
0.277028 0.251433 0.111623
0.304977 0.241230 0.118056
0.330105 0.232196 0.126301
0.349124 0.228517 0.134867
0.367174 0.220923 0.142874
0.384240 0.216126 0.152379
0.403484 0.214263 0.164342
0.416355 0.211379 0.172798
0.433505 0.213289 0.185302
0.454470 0.223315 0.203185
0.472795 0.241592 0.221394
0.494479 0.258956 0.241851
0.513410 0.275919 0.260386
0.536143 0.297383 0.282626
0.561174 0.319699 0.306702
0.584246 0.341047 0.329391
0.608675 0.363882 0.353667
0.636505 0.385661 0.381083
0.666462 0.411669 0.410742
0.692643 0.434072 0.436544
0.722144 0.458515 0.465379
0.753771 0.482684 0.495973
0.787825 0.509016 0.528212
0.822871 0.537522 0.561498
0.030121 0.266276 0.082069
0.039797 0.267354 0.083131
0.052009 0.269486 0.084991
0.067823 0.269560 0.085903
0.084578 0.270690 0.087613
0.104615 0.273934 0.091045
0.139716 0.274229 0.094558
0.189463 0.275864 0.102079
0.233282 0.276704 0.111024
0.272291 0.279811 0.122613
0.309469 0.272866 0.131819
0.335612 0.261820 0.138432
0.355617 0.254573 0.145650
0.374777 0.248921 0.154259
0.392875 0.245720 0.163983
0.410015 0.243449 0.174364
0.425006 0.241242 0.183848
0.441095 0.240325 0.194902
0.456147 0.241128 0.206092
0.474367 0.250900 0.222898
0.495110 0.265998 0.242786
0.515253 0.282101 0.262301
0.537799 0.302690 0.284165
0.561991 0.323504 0.307620
0.584066 0.343136 0.329384
0.608484 0.365219 0.353546
0.636303 0.386794 0.380836
0.666249 0.412134 0.410411
0.692644 0.434739 0.436615
0.721915 0.458955 0.465022
0.753771 0.482684 0.495973
0.787825 0.509016 0.528212
0.822871 0.537522 0.561498
0.053805 0.289289 0.097914
0.062350 0.289324 0.098361
0.071627 0.289360 0.098849
0.081262 0.289408 0.099448
0.094472 0.291550 0.101651
0.112814 0.293732 0.104355
0.140502 0.295999 0.108160
0.183819 0.296430 0.113427
0.222687 0.296990 0.120032
0.267338 0.297925 0.130351
0.309699 0.299235 0.143462
0.341126 0.288478 0.150719
0.362206 0.283555 0.158234
0.380267 0.277156 0.165509
0.401554 0.271675 0.175719
0.419732 0.264921 0.185289
0.435782 0.262592 0.195384
0.449752 0.262074 0.204930
0.462641 0.262108 0.214333
0.475813 0.263256 0.224607
0.496669 0.273371 0.244132
0.515634 0.289115 0.262798
0.539137 0.307765 0.285295
0.562721 0.326499 0.308304
0.583797 0.345893 0.329324
0.609362 0.366858 0.354298
0.638031 0.389148 0.382018
0.667100 0.413643 0.411025
0.694653 0.436707 0.438294
0.721916 0.459626 0.465093
0.754705 0.483600 0.496697
0.787825 0.509587 0.528264
0.822871 0.537522 0.561498
0.076762 0.311341 0.113717
0.080580 0.311356 0.113921
0.087577 0.311382 0.114286
0.096566 0.311423 0.114854
0.107543 0.311472 0.115540
0.123968 0.314731 0.119037
0.145498 0.315921 0.121624
0.177782 0.317233 0.125801
0.216492 0.316612 0.130578
0.259302 0.319378 0.140191
0.302277 0.318371 0.150693
0.346691 0.314811 0.164224
0.365626 0.309388 0.169707
0.383635 0.303409 0.175985
0.403843 0.298122 0.184854
0.424129 0.291550 0.194828
0.440161 0.286205 0.203305
0.458405 0.282388 0.215119
0.472347 0.281970 0.224854
0.485260 0.284513 0.234873
0.497811 0.286682 0.245558
0.517876 0.297223 0.264589
0.540651 0.313808 0.286824
0.564185 0.330254 0.309484
0.585305 0.348179 0.330278
0.608982 0.368800 0.353965
0.637730 0.390188 0.381609
0.666890 0.414780 0.410769
0.694433 0.437167 0.437954
0.723800 0.460808 0.466485
0.754705 0.483600 0.496697
0.787704 0.509462 0.528042
0.822872 0.538092 0.561550
0.096284 0.331475 0.129300
0.101187 0.331494 0.129578
0.105945 0.331515 0.129863
0.113887 0.333654 0.131858
0.122364 0.334742 0.133134
0.137724 0.335874 0.135017
0.156382 0.337032 0.137281
0.181019 0.337203 0.139706
0.209803 0.338502 0.143911
0.252719 0.339054 0.151040
0.296148 0.337813 0.159874
0.341104 0.340126 0.174471
0.368090 0.339218 0.183978
0.387067 0.331615 0.188656
0.407243 0.326589 0.196354
0.428556 0.320217 0.205889
0.446720 0.312516 0.214524
0.464930 0.309327 0.225440
0.485313 0.303944 0.238505
0.496063 0.304848 0.246569
0.505739 0.307586 0.254358
0.519944 0.312952 0.267474
0.540562 0.322816 0.286868
0.566238 0.336879 0.311207
0.586826 0.352787 0.331582
0.610551 0.371146 0.355057
0.638498 0.392306 0.382235
0.668699 0.417230 0.412128
0.695164 0.438569 0.438358
0.723573 0.461247 0.466130
0.754588 0.484616 0.496582
0.788753 0.510499 0.528982
0.822625 0.538409 0.561153
0.121892 0.351702 0.145573
0.126519 0.352787 0.146684
0.131975 0.352808 0.146999
0.137866 0.353896 0.148194
0.146844 0.353941 0.148870
0.156890 0.355055 0.150427
0.172661 0.355146 0.151780
0.190905 0.355263 0.153500
0.212174 0.356503 0.156822
0.247491 0.355816 0.161216
0.287011 0.357456 0.169603
0.335880 0.357493 0.182012
0.365916 0.358468 0.192486
0.392657 0.358306 0.203042
0.412779 0.349680 0.208323
0.431890 0.341647 0.214923
0.451128 0.336373 0.224198
0.468247 0.332655 0.233806
0.488613 0.326970 0.245862
0.505787 0.324720 0.257661
0.520827 0.323905 0.268658
0.527293 0.328530 0.274480
0.542223 0.335394 0.289027
0.564550 0.345284 0.309963
0.587838 0.359237 0.332575
0.612920 0.375824 0.356874
0.638878 0.396484 0.382555
0.669345 0.419877 0.412499
0.697066 0.441127 0.439916
0.725573 0.463216 0.467809
0.756458 0.486450 0.498033
0.788512 0.510820 0.528591
0.822627 0.539551 0.561258
0.150060 0.372022 0.162957
0.153114 0.373098 0.163989
0.156913 0.373117 0.164271
0.160951 0.373136 0.164558
0.167541 0.374228 0.165863
0.176469 0.374270 0.166530
0.187555 0.375395 0.168297
0.201925 0.375485 0.169673
0.220376 0.375621 0.171674
0.246607 0.375850 0.175061
0.282479 0.375233 0.180416
0.324271 0.374935 0.189354
0.358281 0.377845 0.200585
0.391855 0.378917 0.212677
0.416219 0.374220 0.220633
0.436370 0.367882 0.227501
0.453435 0.362919 0.234465
0.470514 0.357475 0.242558
0.491936 0.352058 0.254595
0.509079 0.347080 0.264921
0.527335 0.344086 0.277460
0.546673 0.340838 0.291654
0.548839 0.348019 0.294600
0.564635 0.355616 0.310283
0.588211 0.365924 0.332729
0.612718 0.381866 0.356690
0.641300 0.401244 0.384499
0.670851 0.422732 0.413569
0.697802 0.443881 0.440470
0.726291 0.464606 0.468200
0.756223 0.486846 0.497662
0.788393 0.511836 0.528474
0.822504 0.539996 0.561086
0.176768 0.394535 0.182458
0.180008 0.394550 0.182700
0.182438 0.394562 0.182881
0.188309 0.395658 0.184179
0.191742 0.395673 0.184426
0.198648 0.395705 0.184946
0.209406 0.395772 0.185981
0.221187 0.394777 0.186256
0.235505 0.395944 0.188658
0.255024 0.396107 0.191104
0.283483 0.395348 0.194740
0.317305 0.395828 0.201402
0.352106 0.396507 0.210200
0.384233 0.398393 0.220914
0.416514 0.398122 0.232419
0.438747 0.393420 0.239557
0.457923 0.389227 0.247307
0.474937 0.381182 0.253253
0.496350 0.377995 0.264925
0.515613 0.371598 0.275679
0.531715 0.369398 0.286250
0.548885 0.365289 0.297910
0.569305 0.361435 0.312981
0.572622 0.370584 0.317250
0.588499 0.377258 0.333241
0.611859 0.390487 0.356104
0.641040 0.408041 0.384260
0.671000 0.426517 0.413471
0.698218 0.446999 0.440576
0.727957 0.467612 0.469407
0.756927 0.488880 0.498098
0.790132 0.513536 0.529693
0.824474 0.541950 0.562804
0.204438 0.411742 0.198343
0.207878 0.411757 0.198598
0.209598 0.411765 0.198726
0.213064 0.411782 0.198998
0.217539 0.411810 0.199429
0.223112 0.411843 0.199950
0.231550 0.411894 0.200769
0.240926 0.411950 0.201678
0.251499 0.413093 0.203725
0.267478 0.413224 0.205753
0.289778 0.412382 0.208216
0.318095 0.412723 0.213216
0.346155 0.413174 0.219463
0.376899 0.414887 0.228655
0.411545 0.414843 0.239768
0.441146 0.415161 0.251401
0.460271 0.412706 0.258566
0.481545 0.405399 0.266256
0.500779 0.401743 0.275743
0.518936 0.394377 0.284215
0.537177 0.392953 0.296178
0.554330 0.389051 0.307176
0.573665 0.385282 0.320680
0.594088 0.383405 0.336408
0.594719 0.393266 0.338999
0.612927 0.401182 0.357208
0.641863 0.415299 0.384605
0.669411 0.431265 0.411683
0.697477 0.449680 0.439733
0.727514 0.469206 0.468856
0.758569 0.491167 0.499196
0.792112 0.516055 0.531407
0.824353 0.542970 0.562714
0.232570 0.428980 0.214529
0.234442 0.428991 0.214710
0.237250 0.429008 0.214983
0.239122 0.429019 0.215164
0.241930 0.429036 0.215437
0.245803 0.431199 0.217577
0.251417 0.431232 0.218122
0.260140 0.432353 0.219841
0.270014 0.432426 0.221010
0.283947 0.431473 0.221948
0.306559 0.429560 0.223636
0.325418 0.429775 0.226844
0.345843 0.430076 0.231142
0.370841 0.430493 0.236947
0.402859 0.433326 0.247698
0.437633 0.434397 0.260244
0.465867 0.435503 0.272424
0.483879 0.427733 0.276902
0.504132 0.422614 0.285406
0.522288 0.417032 0.293993
0.540488 0.413878 0.304281
0.558705 0.409503 0.315391
0.576955 0.405996 0.327738
0.597365 0.403608 0.342579
0.617806 0.401871 0.358585
0.617890 0.414513 0.361361
0.641650 0.423465 0.384205
0.670215 0.438539 0.411998
0.698246 0.455010 0.440043
0.727916 0.473670 0.469198
0.759049 0.494369 0.499437
0.792808 0.519012 0.531990
0.826081 0.544684 0.564072
0.259209 0.449449 0.233848
0.261140 0.449460 0.234036
0.262105 0.449466 0.234130
0.265002 0.449483 0.234413
0.267898 0.449499 0.234696
0.271760 0.449522 0.235072
0.275683 0.450613 0.236336
0.283466 0.449599 0.236338
0.293553 0.449681 0.237624
0.305791 0.449780 0.239216
0.320194 0.449915 0.241320
0.333925 0.449008 0.242862
0.349839 0.449188 0.245625
0.369345 0.449500 0.250023
0.397823 0.450025 0.257221
0.430110 0.450800 0.267169
0.461644 0.451822 0.279091
0.486307 0.453752 0.290709
0.506461 0.444999 0.296165
0.524596 0.441986 0.304459
0.544897 0.435469 0.314231
0.563088 0.429525 0.324037
0.582390 0.425283 0.336121
0.604953 0.423761 0.352615
0.623231 0.420862 0.366288
0.645841 0.421697 0.384679
0.643326 0.433813 0.385367
0.669489 0.444548 0.410563
0.696600 0.460615 0.437848
0.728734 0.477954 0.469422
0.760251 0.498306 0.500219
0.794438 0.522349 0.533338
0.825721 0.547171 0.563753
0.289357 0.469943 0.253678
0.291324 0.469954 0.253866
0.291324 0.469954 0.253866
0.294279 0.469971 0.254150
0.295265 0.469977 0.254247
0.298224 0.469994 0.254537
0.301257 0.470017 0.254911
0.307364 0.470066 0.255706
0.315506 0.470132 0.256765
0.325622 0.467007 0.255453
0.336079 0.466041 0.256196
0.346670 0.466160 0.258035
0.360439 0.467381 0.261257
0.375522 0.469707 0.265856
0.398385 0.470072 0.271110
0.423811 0.470586 0.278086
0.451693 0.471272 0.286903
0.483232 0.472295 0.298933
0.509901 0.468684 0.308845
0.531204 0.464405 0.317607
0.549313 0.457315 0.324627
0.566435 0.453922 0.333958
0.586783 0.448287 0.345630
0.608246 0.444587 0.359762
0.627588 0.441722 0.373684
0.649113 0.439866 0.390414
0.674981 0.442328 0.412110
0.669899 0.455960 0.410760
0.697538 0.468362 0.437757
0.727391 0.484073 0.467589
0.760084 0.504294 0.499888
0.793744 0.526837 0.532758
0.825362 0.549103 0.563389
0.317270 0.492574 0.275466
0.317270 0.492574 0.275466
0.318254 0.492580 0.275563
0.319176 0.491516 0.274746
0.322214 0.491540 0.275132
0.323230 0.491548 0.275264
0.327256 0.489447 0.274037
0.332418 0.489488 0.274707
0.335517 0.489512 0.275114
0.341717 0.489561 0.275929
0.354135 0.488600 0.276775
0.362600 0.488695 0.278244
0.372222 0.488803 0.279923
0.385057 0.488946 0.282181
0.401312 0.489187 0.285702
0.422132 0.489518 0.290548
0.444281 0.489988 0.296872
0.475568 0.490795 0.307162
0.505864 0.494899 0.320704
0.533603 0.491296 0.331181
0.552742 0.484899 0.337986
0.568737 0.479809 0.344523
0.590130 0.474533 0.355895
0.612642 0.469229 0.369457
0.635196 0.466911 0.385079
0.656708 0.462816 0.400620
0.682572 0.463081 0.421519
0.705243 0.464118 0.440792
0.699083 0.478997 0.438556
0.728304 0.494866 0.467841
0.760248 0.511376 0.499593
0.794587 0.532481 0.533205
0.825815 0.553002 0.563730
0.342308 0.510927 0.293619
0.342308 0.510927 0.293619
0.344370 0.510944 0.293891
0.344370 0.510944 0.293891
0.345401 0.510952 0.294026
0.347464 0.510968 0.294297
0.348495 0.510976 0.294432
0.352620 0.511009 0.294974
0.359838 0.511066 0.295923
0.364987 0.510038 0.295705
0.372288 0.510096 0.296666
0.378675 0.510164 0.297755
0.388284 0.511338 0.300293
0.397890 0.511445 0.301983
0.410785 0.511589 0.304258
0.426087 0.511830 0.307800
0.444717 0.512125 0.312149
0.469136 0.512647 0.319258
0.500473 0.513478 0.329836
0.531757 0.514269 0.342225
0.555164 0.513935 0.352654
0.574298 0.505386 0.358497
0.595633 0.498512 0.367823
0.617034 0.491329 0.378796
0.639580 0.489337 0.393904
0.661079 0.484484 0.408663
0.686940 0.485369 0.429034
0.710680 0.484147 0.448243
0.735554 0.486175 0.469663
0.728466 0.503501 0.466962
0.761545 0.520771 0.500084
0.795410 0.538230 0.533222
0.826738 0.558372 0.564250
0.368722 0.532503 0.314931
0.369763 0.532512 0.315068
0.369763 0.532512 0.315068
0.370804 0.532520 0.315206
0.371846 0.532528 0.315344
0.372887 0.532536 0.315482
0.375982 0.531493 0.314999
0.379106 0.531518 0.315413
0.384313 0.531559 0.316102
0.391548 0.529480 0.315275
0.395799 0.529526 0.316000
0.400061 0.529574 0.316750
0.406499 0.529645 0.317880
0.414020 0.529729 0.319216
0.424765 0.529849 0.321124
0.436701 0.530016 0.323651
0.452064 0.530260 0.327255
0.470769 0.530578 0.331887
0.495275 0.531132 0.339382
0.525461 0.534086 0.351455
0.554368 0.535794 0.363684
0.576676 0.531138 0.371438
0.600105 0.523835 0.380515
0.622548 0.517254 0.391299
0.642905 0.512317 0.402783
0.664378 0.506336 0.416113
0.690228 0.505378 0.435557
0.715042 0.503283 0.454998
0.739917 0.504970 0.476018
0.764847 0.508775 0.497955
0.757343 0.528287 0.495089
0.794899 0.546249 0.532094
0.826671 0.564593 0.563756
0.396409 0.555168 0.337473
0.396409 0.555168 0.337473
0.397418 0.554107 0.336702
0.398458 0.554115 0.336839
0.399497 0.554123 0.336976
0.401576 0.554140 0.337252
0.403635 0.553087 0.336618
0.406778 0.553111 0.337032
0.408874 0.553128 0.337310
0.410970 0.553144 0.337589
