Assets/Lutify-Free-LUTs-Pack/Lutify Free LUTs Pack/Colour Film Boost Pro - Film Boost 10/Lutify.me-FilmBoost10-DJIDLog-to-Rec709.cube
# Created with: fylm.ai - Colour Grading and Collaboration Software in Cloud 
# Website: https://fylm.ai 
# META
# Option: Gamut compress
# Block 1: IDT | DJI D-Gamut D-Log
# Block 2: colourMatch | Blending Mode: Normal | {"ColorSpace":0,"CrossCovarianceLimit":50,"ReshapingIterations":1,"PercentSaturationShift":100,"PercentShadingShift":100,"ExtraShading":true,"PercentTint":100,"PercentModified":100}
# Block 3: subtractiveColour | Blending Mode: Normal | {"sliders":{"gainY":0.55,"C":0.3,"M":0.3,"Y":0.3}}
# Block 4: LUT | Filmic Curve Response: Low Contrast 2 (100%)
# Block 5: logPrimaries | Blending Mode: Normal | {"wheels":{"shadows":{"Y":"0","R":"1","G":"1","B":"1"},"midtones":{"Y":"0","R":"1","G":"1","B":"1"},"highlights":{"Y":"0","R":"1","G":"1","B":"1"},"offset":{"Y":"0","R":"1","G":"1","B":"1"}},"sliders":{"shadows":{"Y":0,"R":-0.085,"G":0.024,"B":0.134},"midtones":{"Y":0,"R":0,"G":-0.023,"B":0},"highlights":{"Y":0,"R":0,"G":0,"B":0},"offset":{"Y":0,"R":0.012,"G":-0.012,"B":0}}}
# Block 6: HSL | Blending Mode: Normal | {"hue":{"Reds":0,"Yellows":0,"Greens":0,"Cyans":0,"Blues":0,"Magentas":0},"saturation":{"Reds":1,"Yellows":1,"Greens":1,"Cyans":1,"Blues":1,"Magentas":1},"luminance":{"Reds":0.9,"Yellows":0.9,"Greens":0.9,"Cyans":0.9,"Blues":0.9,"Magentas":0.9},"lum_sat":{"Blacks":1,"Shadows":1,"Midtones":1,"Highlights":1,"Whites":1},"sat_sat":{"10":1,"20":1,"30":1,"40":1,"50":1}}
# Block 7: ODT | Rec709
TITLE "Lutify.me-FilmBoost10-DJIDLog-to-Rec709" 
LUT_3D_SIZE 5
0.000000 0.000000 0.000000
0.136413 0.000000 0.000000
0.473381 0.000000 0.000000
1.000000 0.000000 0.140449
1.000000 0.728542 0.559166
0.000000 0.126321 0.000000
0.198135 0.124895 0.000000
0.510310 0.000000 0.000000
1.000000 0.095324 0.139640
1.000000 0.728542 0.559166
0.000000 0.442043 0.000000
0.000000 0.449025 0.000000
0.630662 0.392029 0.000000
1.000000 0.374477 0.113061
1.000000 0.740564 0.562149
0.000000 0.873120 0.000000
0.000000 0.871859 0.000000
0.352740 0.868606 0.000000
0.943747 0.824308 0.000000
1.000000 0.834973 0.574515
0.784769 1.000000 0.650026
0.789435 1.000000 0.650162
0.798423 1.000000 0.648142
0.881046 0.997122 0.645344
1.000000 0.986200 0.633695
0.000000 0.000000 0.084751
0.112946 0.000000 0.049591
0.471342 0.000000 0.058721
1.000000 0.000000 0.173392
1.000000 0.729023 0.565189
0.000000 0.094408 0.186826
0.123272 0.152745 0.173486
0.521085 0.000000 0.069125
1.000000 0.106616 0.174464
1.000000 0.731347 0.565111
0.000000 0.477603 0.000000
0.000000 0.502660 0.000000
0.598658 0.479144 0.000000
1.000000 0.373205 0.163839
1.000000 0.741027 0.568175
0.000000 0.881333 0.000000
0.000000 0.880167 0.000000
0.335797 0.875868 0.000000
0.945440 0.836910 0.000000
1.000000 0.835440 0.583402
0.785245 1.000000 0.659243
0.789896 1.000000 0.659372
0.798854 1.000000 0.657342
0.879713 0.997290 0.653929
1.000000 0.986344 0.641300
0.000000 0.000000 0.224524
0.000000 0.000000 0.180183
0.395733 0.000000 0.128506
1.000000 0.000000 0.323286
1.000000 0.730947 0.589547
0.000000 0.000000 0.367727
0.000000 0.000000 0.357972
0.493954 0.000000 0.307102
1.000000 0.100593 0.324101
1.000000 0.730947 0.589547
0.000000 0.387975 0.536736
0.000000 0.458724 0.559503
0.567910 0.562247 0.587659
1.000000 0.376833 0.348242
1.000000 0.742872 0.592543
0.000000 0.897940 0.428272
0.000000 0.899820 0.427630
0.335794 0.894729 0.416985
0.939900 0.875428 0.361860
1.000000 0.835720 0.619425
0.780186 1.000000 0.697903
0.782546 1.000000 0.697952
0.793894 1.000000 0.697706
0.874748 0.997431 0.690793
1.000000 0.987133 0.678443
0.000000 0.000000 0.543734
0.000000 0.000000 0.541091
0.247839 0.000000 0.562344
0.935786 0.000000 0.569388
1.000000 0.730712 0.751476
0.000000 0.000000 0.660642
0.000000 0.000000 0.664006
0.215108 0.000000 0.665877
0.968663 0.000000 0.628571
1.000000 0.730712 0.751476
0.000000 0.175408 0.792034
0.000000 0.188122 0.799567
0.051219 0.220668 0.817646
1.000000 0.000000 0.765717
1.000000 0.745977 0.754745
0.000000 0.859082 0.893537
0.000000 0.864470 0.894519
0.000000 0.881514 0.897205
0.912397 0.904174 0.905973
1.000000 0.834874 0.778025
0.776572 1.000000 0.855762
0.779110 1.000000 0.855933
0.788681 1.000000 0.853646
0.872310 1.000000 0.850556
1.000000 0.993722 0.841363
0.000000 0.083948 0.947942
0.000000 0.079066 0.947813
0.266494 0.008116 0.947078
0.798847 0.000000 0.943641
1.000000 0.253185 0.928268
0.000000 0.111190 0.952980
0.000000 0.107949 0.952853
0.259243 0.088432 0.952230
0.799261 0.000000 0.949478
1.000000 0.271408 0.929440
0.000000 0.234336 0.974543
0.000000 0.233379 0.972794
0.231466 0.234460 0.971395
0.792852 0.138399 0.966091
1.000000 0.369964 0.941692
0.000000 0.618341 0.992410
0.000000 0.622765 0.991321
0.000000 0.629158 0.991325
0.709856 0.667946 0.989538
1.000000 0.698985 0.968504
0.526121 1.000000 0.996657
0.531389 1.000000 0.996672
0.575320 1.000000 0.996250
0.772319 1.000000 0.995898
0.995267 1.000000 0.996666
