Assets/Lutify-Free-LUTs-Pack/Lutify Free LUTs Pack/Colour Film Boost Pro - Film Boost 10/Lutify.me-FilmBoost10-KineLog3-to-Rec709.cube
# Created with: fylm.ai - Colour Grading and Collaboration Software in Cloud 
# Website: https://fylm.ai 
# META
# Option: Gamut compress
# Block 1: IDT | Kinefinity KineLOG3 - BETA
# Block 2: colourMatch | Blending Mode: Normal | {"ColorSpace":0,"CrossCovarianceLimit":50,"ReshapingIterations":1,"PercentSaturationShift":100,"PercentShadingShift":100,"ExtraShading":true,"PercentTint":100,"PercentModified":100}
# Block 3: subtractiveColour | Blending Mode: Normal | {"sliders":{"gainY":0.55,"C":0.3,"M":0.3,"Y":0.3}}
# Block 4: LUT | Filmic Curve Response: Low Contrast 2 (100%)
# Block 5: logPrimaries | Blending Mode: Normal | {"wheels":{"shadows":{"Y":"0","R":"1","G":"1","B":"1"},"midtones":{"Y":"0","R":"1","G":"1","B":"1"},"highlights":{"Y":"0","R":"1","G":"1","B":"1"},"offset":{"Y":"0","R":"1","G":"1","B":"1"}},"sliders":{"shadows":{"Y":0,"R":-0.085,"G":0.024,"B":0.134},"midtones":{"Y":0,"R":0,"G":-0.023,"B":0},"highlights":{"Y":0,"R":0,"G":0,"B":0},"offset":{"Y":0,"R":0.012,"G":-0.012,"B":0}}}
# Block 6: HSL | Blending Mode: Normal | {"hue":{"Reds":0,"Yellows":0,"Greens":0,"Cyans":0,"Blues":0,"Magentas":0},"saturation":{"Reds":1,"Yellows":1,"Greens":1,"Cyans":1,"Blues":1,"Magentas":1},"luminance":{"Reds":0.9,"Yellows":0.9,"Greens":0.9,"Cyans":0.9,"Blues":0.9,"Magentas":0.9},"lum_sat":{"Blacks":1,"Shadows":1,"Midtones":1,"Highlights":1,"Whites":1},"sat_sat":{"10":1,"20":1,"30":1,"40":1,"50":1}}
# Block 7: ODT | Rec709
TITLE "Lutify.me-FilmBoost10-KineLog3-to-Rec709" 
LUT_3D_SIZE 9
0.000000 0.000000 0.000000
0.000000 0.000000 0.000000
0.100733 0.000000 0.000000
0.218595 0.000000 0.000000
0.421152 0.000000 0.000000
0.728409 0.000000 0.032536
1.000000 0.000000 0.150496
1.000000 0.399184 0.351087
1.000000 0.707479 0.594015
0.000000 0.000000 0.000000
0.000000 0.000000 0.000000
0.113121 0.000000 0.000000
0.246560 0.000000 0.000000
0.442701 0.000000 0.000000
0.736434 0.000000 0.033736
1.000000 0.000000 0.152620
1.000000 0.402981 0.353573
1.000000 0.707479 0.594015
0.000000 0.079937 0.000000
0.000000 0.087389 0.000000
0.127350 0.074509 0.000000
0.282153 0.000000 0.000000
0.460285 0.000000 0.000000
0.740681 0.000000 0.032686
1.000000 0.000000 0.154711
1.000000 0.402981 0.353573
1.000000 0.707479 0.594015
0.000000 0.194032 0.000000
0.000000 0.215473 0.000000
0.000000 0.227628 0.000000
0.320419 0.181308 0.000000
0.509861 0.066056 0.000000
0.763194 0.000000 0.013829
1.000000 0.000000 0.155779
1.000000 0.414131 0.355939
1.000000 0.710079 0.596932
0.000000 0.391028 0.000000
0.000000 0.406541 0.000000
0.000000 0.418432 0.000000
0.000000 0.428108 0.000000
0.554193 0.373491 0.000000
0.806979 0.289825 0.000000
1.000000 0.212364 0.166794
1.000000 0.449900 0.359972
1.000000 0.717516 0.597003
0.000000 0.679117 0.000000
0.000000 0.684930 0.000000
0.000000 0.694971 0.000000
0.000000 0.700957 0.000000
0.220408 0.707453 0.000000
0.817189 0.651000 0.000000
0.991288 0.579026 0.158157
1.000000 0.560654 0.370966
1.000000 0.739439 0.609034
0.000000 0.883307 0.308264
0.000000 0.883668 0.309089
0.000000 0.884368 0.310754
0.000000 0.888947 0.307887
0.000000 0.888161 0.285683
0.645124 0.878793 0.252791
0.940546 0.850156 0.211902
1.000000 0.806473 0.430128
1.000000 0.796773 0.630544
0.000000 0.974480 0.615159
0.000000 0.975713 0.616027
0.000000 0.975647 0.616355
0.000000 0.975299 0.618004
0.296584 0.974957 0.619303
0.585476 0.969699 0.605636
0.847684 0.960596 0.581226
0.994133 0.947272 0.558140
1.000000 0.922101 0.701901
0.686036 1.000000 0.828326
0.686036 1.000000 0.828326
0.686036 1.000000 0.828326
0.689284 1.000000 0.828516
0.708406 1.000000 0.828202
0.744728 1.000000 0.829774
0.820947 1.000000 0.826109
0.938030 0.998887 0.815576
1.000000 0.993584 0.814650
0.000000 0.000000 0.000000
0.000000 0.000000 0.000000
0.090014 0.000000 0.000000
0.211855 0.000000 0.000000
0.417465 0.000000 0.000000
0.731424 0.000000 0.052221
1.000000 0.000000 0.161161
1.000000 0.399483 0.353748
1.000000 0.707736 0.597023
0.000000 0.000000 0.000000
0.000000 0.000000 0.000000
0.101515 0.000000 0.000000
0.227512 0.000000 0.000000
0.435818 0.000000 0.000000
0.742385 0.000000 0.052194
1.000000 0.000000 0.160992
1.000000 0.399783 0.356429
1.000000 0.707736 0.597023
0.000000 0.075821 0.000000
0.000000 0.080864 0.000000
0.105504 0.083603 0.000000
0.266801 0.000000 0.000000
0.450790 0.000000 0.000000
0.746920 0.000000 0.053246
1.000000 0.000000 0.163214
1.000000 0.403280 0.356255
1.000000 0.707736 0.597023
0.000000 0.195473 0.000000
0.000000 0.214352 0.000000
0.000000 0.233561 0.000000
0.293775 0.205815 0.000000
0.508082 0.094773 0.000000
0.767361 0.000000 0.054399
1.000000 0.000000 0.165971
1.000000 0.414727 0.361369
1.000000 0.710079 0.596932
0.000000 0.387028 0.000000
0.000000 0.416011 0.000000
0.000000 0.434475 0.000000
0.000000 0.449367 0.000000
0.549488 0.402350 0.000000
0.813434 0.304340 0.000000
1.000000 0.214305 0.178343
1.000000 0.450491 0.365514
1.000000 0.718017 0.603029
0.000000 0.680331 0.000000
0.000000 0.689174 0.000000
0.000000 0.695588 0.000000
0.000000 0.707379 0.000000
0.207489 0.710267 0.000000
0.822132 0.657304 0.000000
0.991860 0.580982 0.176586
1.000000 0.560948 0.373860
1.000000 0.739439 0.609034
0.000000 0.881570 0.321636
0.000000 0.883647 0.322676
0.000000 0.884117 0.323777
0.000000 0.890344 0.324556
0.000000 0.887842 0.311242
0.646858 0.879626 0.274386
0.940996 0.851234 0.235539
1.000000 0.807022 0.439471
1.000000 0.796956 0.633576
0.000000 0.974469 0.618185
0.000000 0.975701 0.619040
0.000000 0.975636 0.619368
0.000000 0.975287 0.621016
0.296032 0.974946 0.622302
0.585730 0.969752 0.608909
0.847743 0.960655 0.584354
0.994067 0.947406 0.563730
1.000000 0.922186 0.704473
0.686036 1.000000 0.828326
0.686036 1.000000 0.828326
0.686036 1.000000 0.828326
0.689284 1.000000 0.828516
0.708288 1.000000 0.829656
0.744667 1.000000 0.831229
0.820947 1.000000 0.826109
0.938041 0.998905 0.817149
1.000000 0.993584 0.814650
0.000000 0.000000 0.060539
0.000000 0.000000 0.049768
0.076957 0.000000 0.033959
0.208257 0.000000 0.014226
0.414925 0.000000 0.032298
0.737890 0.000000 0.068818
1.000000 0.000000 0.174168
1.000000 0.400383 0.361848
1.000000 0.707736 0.597023
0.000000 0.000000 0.071994
0.000000 0.000000 0.062573
0.078675 0.000000 0.047841
0.223147 0.000000 0.038495
0.439137 0.000000 0.039944
0.742785 0.000000 0.071823
1.000000 0.000000 0.173653
1.000000 0.400383 0.361848
1.000000 0.707736 0.597023
0.000000 0.063475 0.124040
0.000000 0.072268 0.115924
0.076346 0.093540 0.108178
0.266517 0.000000 0.059572
0.460331 0.000000 0.043202
0.754599 0.000000 0.074336
1.000000 0.000000 0.176200
1.000000 0.403878 0.361679
1.000000 0.707736 0.597023
0.000000 0.196790 0.125511
0.000000 0.214774 0.103506
0.000000 0.244680 0.079118
0.280649 0.243872 0.046383
0.521241 0.090013 0.035111
0.770298 0.000000 0.075000
1.000000 0.000000 0.177925
1.000000 0.415025 0.364114
1.000000 0.710079 0.596932
0.000000 0.390706 0.052962
0.000000 0.414632 0.000000
0.000000 0.441628 0.000000
0.000000 0.464630 0.000000
0.542219 0.435478 0.000000
0.820223 0.309155 0.024677
1.000000 0.215977 0.188501
1.000000 0.450787 0.368314
1.000000 0.718017 0.603029
0.000000 0.679792 0.077246
0.000000 0.688358 0.060517
0.000000 0.697819 0.058485
0.000000 0.714218 0.000000
0.184726 0.717537 0.000000
0.817374 0.675262 0.000000
0.992484 0.583243 0.197186
1.000000 0.561834 0.382590
1.000000 0.739672 0.612057
0.000000 0.881530 0.345221
0.000000 0.883607 0.346239
0.000000 0.884082 0.343980
0.000000 0.890316 0.341361
0.000000 0.888609 0.329434
0.648276 0.880319 0.292316
0.941303 0.852004 0.252100
1.000000 0.807206 0.442598
1.000000 0.796956 0.633576
0.000000 0.974446 0.624248
0.000000 0.975679 0.625076
0.000000 0.975614 0.625404
0.000000 0.975276 0.624031
0.295475 0.974935 0.625302
0.585247 0.971068 0.612849
0.847859 0.960771 0.590627
0.993999 0.947539 0.569349
1.000000 0.922186 0.704473
0.685913 1.000000 0.829784
0.685913 1.000000 0.829784
0.685913 1.000000 0.829784
0.689284 1.000000 0.828516
0.708288 1.000000 0.829656
0.744667 1.000000 0.831229
0.820947 1.000000 0.826109
0.938041 0.998905 0.817149
1.000000 0.993584 0.814650
0.000000 0.000000 0.132656
0.000000 0.000000 0.095714
0.055762 0.000000 0.084861
0.203282 0.000000 0.053087
0.403663 0.000000 0.080845
0.738819 0.000000 0.110260
1.000000 0.000000 0.197420
1.000000 0.394277 0.370448
1.000000 0.708252 0.603059
0.000000 0.000000 0.162855
0.000000 0.000000 0.136705
0.042316 0.000000 0.123691
0.213039 0.000000 0.086575
0.430171 0.000000 0.104606
0.750753 0.000000 0.115129
1.000000 0.000000 0.198625
1.000000 0.401282 0.370127
1.000000 0.708252 0.603059
0.000000 0.000000 0.232021
0.000000 0.032542 0.210408
0.000000 0.043511 0.204448
0.252950 0.000000 0.160655
0.458210 0.000000 0.126579
0.763070 0.000000 0.121161
1.000000 0.000000 0.201426
1.000000 0.405076 0.372765
1.000000 0.708510 0.606086
0.000000 0.154671 0.303593
0.000000 0.177854 0.287859
0.000000 0.226642 0.286193
0.238560 0.266538 0.296740
0.534214 0.105169 0.183963
0.784553 0.000000 0.133811
1.000000 0.000000 0.203460
1.000000 0.416517 0.378108
1.000000 0.710847 0.605995
0.000000 0.384030 0.289049
0.000000 0.412348 0.270045
0.000000 0.438470 0.270335
0.000000 0.497210 0.247157
0.553952 0.486765 0.220007
0.830663 0.317249 0.151067
1.000000 0.234863 0.216281
1.000000 0.452268 0.382482
1.000000 0.718517 0.609079
0.000000 0.677890 0.233775
0.000000 0.686946 0.232988
0.000000 0.696387 0.232411
0.000000 0.719854 0.219627
0.000000 0.737422 0.185632
0.812946 0.698651 0.130917
0.992960 0.591372 0.237931
1.000000 0.563314 0.397312
1.000000 0.739905 0.615086
0.000000 0.881438 0.391966
0.000000 0.883395 0.392681
0.000000 0.883984 0.394046
0.000000 0.888602 0.391125
0.000000 0.892724 0.383369
0.647568 0.882739 0.349098
0.940954 0.858038 0.308817
1.000000 0.808325 0.458036
1.000000 0.797139 0.636613
0.000000 0.974400 0.636405
0.000000 0.974337 0.636731
0.000000 0.975567 0.637508
0.000000 0.975374 0.635461
0.279239 0.974979 0.637002
0.580971 0.971449 0.625911
0.848077 0.961003 0.603233
0.992415 0.948042 0.580487
1.000000 0.922271 0.707036
0.682517 1.000000 0.831050
0.685790 1.000000 0.831236
0.685790 1.000000 0.831236
0.689040 1.000000 0.831422
0.708053 1.000000 0.832545
0.744558 1.000000 0.832647
0.820947 1.000000 0.826109
0.938052 0.998923 0.818715
1.000000 0.993632 0.817395
0.000000 0.000000 0.252482
0.000000 0.000000 0.218255
0.000000 0.000000 0.205359
0.186682 0.000000 0.192413
0.372810 0.000000 0.105203
0.730282 0.000000 0.241350
1.000000 0.000000 0.279676
1.000000 0.394986 0.410711
1.000000 0.707200 0.618347
0.000000 0.000000 0.306560
0.000000 0.000000 0.279399
0.000000 0.000000 0.274181
0.174451 0.000000 0.257448
0.403182 0.000000 0.168795
0.740276 0.000000 0.252366
1.000000 0.000000 0.284086
1.000000 0.398491 0.410571
1.000000 0.709540 0.618256
0.000000 0.000000 0.351385
0.000000 0.000000 0.330854
0.000000 0.023429 0.323105
0.157553 0.000000 0.316158
0.444956 0.000000 0.246929
0.753189 0.000000 0.263614
1.000000 0.000000 0.286606
1.000000 0.405483 0.410287
1.000000 0.709540 0.618256
0.000000 0.092761 0.438220
0.000000 0.112441 0.418369
0.000000 0.131743 0.419885
0.056427 0.161804 0.441027
0.543490 0.000000 0.384701
0.789840 0.000000 0.299887
1.000000 0.000000 0.291580
1.000000 0.416234 0.412797
1.000000 0.711870 0.618166
0.000000 0.307997 0.521532
0.000000 0.347509 0.507658
0.000000 0.387758 0.505575
0.000000 0.473228 0.536734
0.521604 0.516267 0.544759
0.843676 0.342895 0.398833
1.000000 0.244703 0.315808
1.000000 0.451736 0.417347
1.000000 0.719518 0.621252
0.000000 0.676748 0.513675
0.000000 0.683889 0.513282
0.000000 0.693775 0.508805
0.000000 0.720465 0.510189
0.000000 0.762132 0.500414
0.812049 0.740783 0.477207
0.992755 0.608318 0.364232
1.000000 0.564427 0.442944
1.000000 0.740836 0.627262
0.000000 0.884642 0.505729
0.000000 0.885143 0.506835
0.000000 0.885993 0.508788
0.000000 0.887981 0.513906
0.000000 0.896914 0.508717
0.630090 0.890461 0.486878
0.936160 0.869855 0.448568
1.000000 0.812853 0.503080
1.000000 0.798054 0.651878
0.000000 0.974304 0.674970
0.000000 0.974242 0.675275
0.000000 0.974179 0.675579
0.000000 0.975230 0.671267
0.271465 0.974836 0.672578
0.573154 0.973074 0.668394
0.845109 0.963737 0.645488
0.989496 0.952667 0.624302
1.000000 0.922732 0.719508
0.681906 1.000000 0.838210
0.685183 1.000000 0.838389
0.685183 1.000000 0.838389
0.688437 1.000000 0.838568
0.707472 1.000000 0.839646
0.741323 1.000000 0.838070
0.817662 1.000000 0.832966
0.937125 0.999056 0.824860
1.000000 0.993726 0.822851
0.000000 0.000000 0.483662
0.000000 0.000000 0.482378
0.000000 0.000000 0.484865
0.000000 0.000000 0.481294
0.394838 0.000000 0.458081
0.665118 0.000000 0.303284
0.999319 0.000000 0.480300
1.000000 0.407531 0.511225
1.000000 0.708238 0.658601
0.000000 0.000000 0.506987
0.000000 0.000000 0.502778
0.000000 0.000000 0.508284
0.000000 0.000000 0.510868
0.379879 0.000000 0.490504
0.695610 0.000000 0.354421
0.999951 0.000000 0.484610
1.000000 0.407918 0.511233
1.000000 0.710566 0.658510
0.000000 0.000000 0.524647
0.000000 0.029049 0.523567
0.000000 0.037912 0.532775
0.000000 0.041246 0.539328
0.387555 0.000000 0.521856
0.717940 0.000000 0.395019
1.000000 0.000000 0.492077
1.000000 0.411777 0.511359
1.000000 0.710566 0.658510
0.000000 0.083529 0.569513
0.000000 0.091943 0.569037
0.000000 0.102344 0.573256
0.000000 0.113641 0.594771
0.388246 0.000000 0.587909
0.779989 0.000000 0.493128
1.000000 0.000000 0.504361
1.000000 0.424015 0.514765
1.000000 0.713140 0.661545
0.000000 0.252658 0.657949
0.000000 0.276570 0.653827
0.000000 0.285994 0.661708
0.000000 0.324409 0.681042
0.303556 0.368726 0.709483
0.854578 0.249669 0.650994
1.000000 0.223152 0.543590
1.000000 0.462546 0.525081
1.000000 0.720026 0.661282
0.000000 0.580216 0.730968
0.000000 0.596182 0.730878
0.000000 0.618251 0.738767
0.000000 0.662914 0.754382
0.000000 0.741898 0.775579
0.775730 0.766783 0.780984
0.986176 0.634723 0.644896
1.000000 0.578013 0.555912
1.000000 0.741171 0.670084
0.000000 0.878014 0.756282
0.000000 0.879107 0.758116
0.000000 0.880050 0.757076
0.000000 0.887141 0.749959
0.000000 0.896836 0.754192
0.595726 0.903059 0.751889
0.920486 0.892404 0.732314
1.000000 0.819845 0.626828
1.000000 0.798308 0.685110
0.000000 0.976200 0.758611
0.000000 0.976145 0.758847
0.000000 0.976089 0.759084
0.000000 0.975736 0.758140
0.188469 0.974699 0.759139
0.543374 0.973690 0.760515
0.834793 0.967442 0.747505
0.985666 0.955903 0.728728
1.000000 0.925736 0.753506
0.678348 1.000000 0.853410
0.678348 1.000000 0.853410
0.681626 1.000000 0.853572
0.684882 1.000000 0.853734
0.703934 1.000000 0.854708
0.739574 1.000000 0.856671
0.819103 1.000000 0.852582
0.937290 0.999274 0.842833
1.000000 0.994010 0.838871
0.000000 0.103451 0.745934
0.000000 0.103751 0.750460
0.000000 0.103922 0.755530
0.000000 0.113535 0.758793
0.137323 0.102910 0.762174
0.703502 0.000000 0.737439
0.968427 0.000000 0.597675
1.000000 0.350830 0.724738
1.000000 0.706812 0.737734
0.000000 0.114722 0.748599
0.000000 0.115403 0.750296
0.000000 0.113121 0.755403
0.000000 0.125635 0.764077
0.128693 0.117204 0.769431
0.707405 0.000000 0.750572
0.973546 0.000000 0.612885
1.000000 0.358879 0.728047
1.000000 0.706812 0.737734
0.000000 0.125863 0.756777
0.000000 0.126717 0.758891
0.000000 0.127254 0.763867
0.000000 0.135425 0.766616
0.121708 0.129790 0.773678
0.704325 0.000000 0.758248
0.979285 0.000000 0.629378
1.000000 0.366975 0.728384
1.000000 0.706812 0.737734
0.000000 0.154336 0.770203
0.000000 0.155248 0.774461
0.000000 0.159601 0.774148
0.000000 0.167517 0.784795
0.085885 0.173170 0.791683
0.710864 0.000000 0.776947
0.994579 0.000000 0.666831
1.000000 0.383782 0.731651
1.000000 0.710438 0.740502
0.000000 0.239092 0.799691
0.000000 0.242432 0.802905
0.000000 0.248120 0.806876
0.000000 0.264401 0.815788
0.000000 0.284248 0.827711
0.705294 0.223358 0.820691
1.000000 0.000000 0.747043
1.000000 0.430839 0.744848
1.000000 0.720748 0.746033
0.000000 0.508572 0.853386
0.000000 0.514670 0.855344
0.000000 0.521466 0.857757
0.000000 0.534750 0.858974
0.000000 0.584766 0.866282
0.622162 0.634422 0.876672
0.996607 0.560848 0.845985
1.000000 0.557127 0.769749
1.000000 0.748634 0.752527
0.000000 0.830827 0.884138
0.000000 0.833419 0.885887
0.000000 0.835846 0.887540
0.000000 0.846725 0.889158
0.000000 0.873393 0.893034
0.475712 0.897632 0.899445
0.910266 0.901909 0.903737
1.000000 0.833321 0.829631
1.000000 0.806979 0.769408
0.000000 0.976802 0.888378
0.000000 0.976769 0.888492
0.000000 0.976700 0.888719
0.000000 0.976506 0.889287
0.000000 0.975683 0.888667
0.464107 0.974559 0.889134
0.829418 0.971838 0.887042
0.975852 0.965234 0.878373
1.000000 0.928669 0.821371
0.665524 1.000000 0.891662
0.665524 1.000000 0.891662
0.665524 1.000000 0.891662
0.668971 1.000000 0.890734
0.682244 1.000000 0.890160
0.723792 1.000000 0.889764
0.814303 1.000000 0.891339
0.934662 1.000000 0.883532
1.000000 0.995424 0.881396
0.000000 0.284794 0.916050
0.000000 0.287369 0.916456
0.000000 0.287994 0.917423
0.000000 0.295923 0.918854
0.000000 0.297602 0.922239
0.488758 0.287824 0.918678
0.962562 0.146194 0.907031
1.000000 0.000000 0.829197
1.000000 0.685478 0.874999
0.000000 0.287010 0.917410
0.000000 0.289521 0.917689
0.000000 0.290159 0.918645
0.000000 0.298153 0.920053
0.000000 0.302395 0.923310
0.487587 0.293814 0.920031
0.962412 0.161516 0.907192
1.000000 0.000000 0.831717
1.000000 0.685478 0.874999
0.000000 0.293603 0.919760
0.000000 0.293864 0.920111
0.000000 0.294529 0.921044
0.000000 0.300516 0.919968
0.000000 0.309878 0.923049
0.486840 0.299981 0.920130
0.964423 0.174033 0.908619
1.000000 0.000000 0.834229
1.000000 0.688267 0.876503
0.000000 0.305012 0.921870
0.000000 0.305485 0.922441
0.000000 0.306150 0.921876
0.000000 0.314708 0.923315
0.000000 0.327790 0.923847
0.478083 0.322236 0.922896
0.963331 0.217088 0.910394
1.000000 0.000000 0.841732
1.000000 0.691063 0.876510
0.000000 0.352273 0.926314
0.000000 0.352909 0.926846
0.000000 0.353534 0.927375
0.000000 0.357935 0.928733
0.000000 0.376896 0.929050
0.442515 0.382907 0.931318
0.965345 0.306655 0.918462
1.000000 0.117322 0.863731
1.000000 0.700323 0.877810
0.000000 0.478657 0.938003
0.000000 0.479569 0.938459
0.000000 0.480476 0.938914
0.000000 0.483148 0.940275
0.000000 0.501672 0.940480
0.379432 0.528845 0.943651
0.931355 0.503367 0.935544
1.000000 0.423470 0.897955
1.000000 0.729722 0.882108
0.000000 0.762625 0.951707
0.000000 0.766445 0.951849
0.000000 0.770418 0.952059
0.000000 0.776065 0.952002
0.000000 0.793622 0.951299
0.000000 0.815706 0.953842
0.831089 0.832440 0.954883
1.000000 0.798205 0.940620
1.000000 0.796821 0.897358
0.000000 0.957931 0.963109
0.000000 0.958028 0.963217
0.000000 0.958260 0.962793
0.000000 0.958779 0.962748
0.000000 0.963378 0.962986
0.000000 0.970005 0.965061
0.785283 0.971106 0.966607
0.968773 0.972286 0.966195
1.000000 0.936808 0.929731
0.617152 1.000000 0.959974
0.617152 1.000000 0.959974
0.620968 1.000000 0.960030
0.624741 1.000000 0.960086
0.640925 1.000000 0.959619
0.694403 1.000000 0.959324
0.782853 1.000000 0.958198
0.927596 1.000000 0.959391
1.000000 0.999425 0.953856
0.000000 0.534283 0.991001
0.000000 0.534378 0.991039
0.000000 0.534559 0.991114
0.000000 0.538078 0.991062
0.152363 0.542157 0.991287
0.447731 0.543135 0.991756
0.768054 0.538631 0.987383
1.000000 0.518136 0.981405
1.000000 0.441339 0.945721
0.000000 0.534283 0.991001
0.000000 0.534378 0.991039
0.000000 0.537819 0.990952
0.000000 0.538078 0.991062
0.152363 0.542157 0.991287
0.447731 0.543135 0.991756
0.767294 0.542476 0.987288
1.000000 0.518136 0.981405
1.000000 0.447758 0.945717
0.000000 0.537539 0.990839
0.000000 0.537635 0.990876
0.000000 0.537819 0.990952
0.000000 0.541348 0.990899
0.143257 0.545452 0.991124
0.445715 0.546517 0.991596
0.767294 0.542476 0.987288
1.000000 0.522198 0.981329
1.000000 0.450969 0.945714
0.000000 0.540483 0.991830
0.000000 0.540580 0.991867
0.000000 0.544032 0.991776
0.000000 0.544301 0.991884
0.161272 0.551852 0.992000
0.439189 0.556499 0.991670
0.765132 0.549802 0.988229
1.000000 0.530307 0.981174
1.000000 0.458466 0.946547
0.000000 0.559755 0.991970
0.000000 0.563137 0.991838
0.000000 0.563348 0.991910
0.000000 0.563648 0.992016
0.105215 0.568056 0.992284
0.427561 0.573086 0.991950
0.759597 0.572465 0.988728
1.000000 0.553797 0.982412
1.000000 0.483178 0.948383
0.000000 0.617682 0.993224
0.000000 0.617939 0.993290
0.000000 0.618065 0.993323
0.000000 0.621738 0.993236
0.000000 0.626407 0.993422
0.384836 0.632639 0.993083
0.740179 0.639895 0.990330
1.000000 0.623751 0.984462
1.000000 0.564947 0.956166
0.000000 0.726202 0.994309
0.000000 0.726202 0.994309
0.000000 0.726341 0.994336
0.000000 0.726884 0.994443
0.000000 0.731431 0.994558
0.247315 0.746203 0.994523
0.694351 0.761667 0.992922
0.996055 0.757167 0.988350
1.000000 0.720486 0.968643
0.000000 0.919701 0.995927
0.000000 0.919701 0.995927
0.000000 0.919718 0.995948
0.000000 0.919789 0.996051
0.000000 0.921239 0.995552
0.000000 0.926330 0.995367
0.630091 0.928432 0.994227
0.932108 0.934250 0.994886
1.000000 0.918003 0.987981
0.000000 1.000000 0.998492
0.000000 1.000000 0.998506
0.000000 1.000000 0.998520
0.000000 1.000000 0.998547
0.232148 1.000000 0.998603
0.465694 1.000000 0.998869
0.691643 1.000000 0.998439
0.904861 1.000000 0.998805
0.997437 1.000000 0.998746
