Assets/Lutify-Free-LUTs-Pack/Lutify Free LUTs Pack/Colour Film Boost Pro - Film Boost 10/Lutify.me-FilmBoost10-BolexLog-to-Rec709.cube
# Created with: fylm.ai - Colour Grading and Collaboration Software in Cloud 
# Website: https://fylm.ai 
# META
# Option: Gamut compress
# Block 1: IDT | Bolex Wide Gamut RGB Bolex Log
# Block 2: colourMatch | Blending Mode: Normal | {"ColorSpace":0,"CrossCovarianceLimit":50,"ReshapingIterations":1,"PercentSaturationShift":100,"PercentShadingShift":100,"ExtraShading":true,"PercentTint":100,"PercentModified":100}
# Block 3: subtractiveColour | Blending Mode: Normal | {"sliders":{"gainY":0.55,"C":0.3,"M":0.3,"Y":0.3}}
# Block 4: LUT | Filmic Curve Response: Low Contrast 2 (100%)
# Block 5: logPrimaries | Blending Mode: Normal | {"wheels":{"shadows":{"Y":"0","R":"1","G":"1","B":"1"},"midtones":{"Y":"0","R":"1","G":"1","B":"1"},"highlights":{"Y":"0","R":"1","G":"1","B":"1"},"offset":{"Y":"0","R":"1","G":"1","B":"1"}},"sliders":{"shadows":{"Y":0,"R":-0.085,"G":0.024,"B":0.134},"midtones":{"Y":0,"R":0,"G":-0.023,"B":0},"highlights":{"Y":0,"R":0,"G":0,"B":0},"offset":{"Y":0,"R":0.012,"G":-0.012,"B":0}}}
# Block 6: HSL | Blending Mode: Normal | {"hue":{"Reds":0,"Yellows":0,"Greens":0,"Cyans":0,"Blues":0,"Magentas":0},"saturation":{"Reds":1,"Yellows":1,"Greens":1,"Cyans":1,"Blues":1,"Magentas":1},"luminance":{"Reds":0.9,"Yellows":0.9,"Greens":0.9,"Cyans":0.9,"Blues":0.9,"Magentas":0.9},"lum_sat":{"Blacks":1,"Shadows":1,"Midtones":1,"Highlights":1,"Whites":1},"sat_sat":{"10":1,"20":1,"30":1,"40":1,"50":1}}
# Block 7: ODT | Rec709
TITLE "Lutify.me-FilmBoost10-BolexLog-to-Rec709" 
LUT_3D_SIZE 33
0.000000 0.000000 0.000000
0.000000 0.000000 0.000000
0.000000 0.000000 0.000000
0.000000 0.000000 0.000000
0.000000 0.000000 0.000000
0.044011 0.000000 0.000000
0.067891 0.000000 0.000000
0.091530 0.000000 0.000000
0.113766 0.000000 0.000000
0.137181 0.000000 0.000000
0.162979 0.000000 0.000000
0.192075 0.000000 0.000000
0.223484 0.000000 0.000000
0.261509 0.000000 0.000000
0.301562 0.000000 0.000000
0.347447 0.000000 0.000000
0.398904 0.000000 0.000000
0.456482 0.000000 0.000000
0.520019 0.000000 0.000000
0.586219 0.000000 0.014290
0.658561 0.000000 0.036460
0.720940 0.000000 0.051441
0.794928 0.000000 0.068898
0.867850 0.000000 0.091302
0.921830 0.000000 0.112606
0.975384 0.000000 0.145630
1.000000 0.000000 0.186174
1.000000 0.047190 0.222384
1.000000 0.218991 0.259362
1.000000 0.318357 0.306855
1.000000 0.401221 0.362932
1.000000 0.465931 0.410253
1.000000 0.535604 0.462169
0.000000 0.000000 0.000000
0.000000 0.000000 0.000000
0.000000 0.000000 0.000000
0.000000 0.000000 0.000000
0.003868 0.000000 0.000000
0.051031 0.000000 0.000000
0.073575 0.000000 0.000000
0.097129 0.000000 0.000000
0.117509 0.000000 0.000000
0.140733 0.000000 0.000000
0.167562 0.000000 0.000000
0.197634 0.000000 0.000000
0.231085 0.000000 0.000000
0.267464 0.000000 0.000000
0.307777 0.000000 0.000000
0.354085 0.000000 0.000000
0.401522 0.000000 0.000000
0.456715 0.000000 0.000000
0.523678 0.000000 0.000000
0.586486 0.000000 0.014526
0.659100 0.000000 0.037418
0.720920 0.000000 0.050915
0.794879 0.000000 0.068455
0.867791 0.000000 0.091056
0.922251 0.000000 0.114587
0.975292 0.000000 0.145484
1.000000 0.000000 0.186274
1.000000 0.047190 0.222384
1.000000 0.218991 0.259362
1.000000 0.318662 0.309239
1.000000 0.401221 0.362932
1.000000 0.465931 0.410253
1.000000 0.535604 0.462169
0.000000 0.000000 0.000000
0.000000 0.000000 0.000000
0.000000 0.000000 0.000000
0.000000 0.000000 0.000000
0.030009 0.000000 0.000000
0.060345 0.000000 0.000000
0.080795 0.000000 0.000000
0.103465 0.000000 0.000000
0.122994 0.000000 0.000000
0.147276 0.000000 0.000000
0.175472 0.000000 0.000000
0.202020 0.000000 0.000000
0.236362 0.000000 0.000000
0.271829 0.000000 0.000000
0.313479 0.000000 0.000000
0.360669 0.000000 0.000000
0.404180 0.000000 0.000000
0.459975 0.000000 0.000000
0.524167 0.000000 0.000000
0.593634 0.000000 0.015223
0.662524 0.000000 0.036647
0.724948 0.000000 0.051937
0.795127 0.000000 0.068839
0.868052 0.000000 0.091914
0.922198 0.000000 0.114451
0.975507 0.000000 0.146833
1.000000 0.000000 0.186126
1.000000 0.085502 0.222060
1.000000 0.228962 0.258989
1.000000 0.318662 0.309239
1.000000 0.401518 0.365716
1.000000 0.465931 0.410253
1.000000 0.538755 0.462014
0.000000 0.007949 0.000000
0.000000 0.009710 0.000000
0.000000 0.010573 0.000000
0.000000 0.017434 0.000000
0.045408 0.000000 0.000000
0.073064 0.000000 0.000000
0.094718 0.000000 0.000000
0.114204 0.000000 0.000000
0.132221 0.000000 0.000000
0.156875 0.000000 0.000000
0.182692 0.000000 0.000000
0.213125 0.000000 0.000000
0.246022 0.000000 0.000000
0.277147 0.000000 0.000000
0.315481 0.000000 0.000000
0.363010 0.000000 0.000000
0.406872 0.000000 0.000000
0.463060 0.000000 0.000000
0.527611 0.000000 0.000000
0.594404 0.000000 0.018405
0.662794 0.000000 0.036971
0.724934 0.000000 0.051578
0.802696 0.000000 0.070327
0.867991 0.000000 0.091658
0.924897 0.000000 0.114219
0.975318 0.000000 0.146537
1.000000 0.000000 0.186126
1.000000 0.085502 0.222060
1.000000 0.229637 0.263099
1.000000 0.326526 0.308869
1.000000 0.401518 0.365716
1.000000 0.469256 0.410090
1.000000 0.538755 0.462014
0.000000 0.041214 0.000000
0.000000 0.042440 0.000000
0.000000 0.044324 0.000000
0.000000 0.046488 0.000000
0.040859 0.045965 0.000000
0.065258 0.038273 0.000000
0.093925 0.024135 0.000000
0.117198 0.000000 0.000000
0.140358 0.000000 0.000000
0.166481 0.000000 0.000000
0.191713 0.000000 0.000000
0.218617 0.000000 0.000000
0.252409 0.000000 0.000000
0.285419 0.000000 0.000000
0.323254 0.000000 0.000000
0.365395 0.000000 0.000000
0.412090 0.000000 0.000000
0.466172 0.000000 0.000000
0.527655 0.000000 0.000000
0.598254 0.000000 0.019226
0.663335 0.000000 0.037956
0.725488 0.000000 0.052699
0.802638 0.000000 0.069819
0.868218 0.000000 0.092387
0.924785 0.000000 0.113930
0.975222 0.000000 0.146384
1.000000 0.000000 0.185975
1.000000 0.085502 0.222060
1.000000 0.229749 0.263235
1.000000 0.326526 0.308869
1.000000 0.405072 0.365546
1.000000 0.469256 0.410090
1.000000 0.538755 0.462014
0.000000 0.055969 0.000000
0.000000 0.057095 0.000000
0.000000 0.059472 0.000000
0.000000 0.061399 0.000000
0.022889 0.063569 0.000000
0.064118 0.059946 0.000000
0.093087 0.050631 0.000000
0.119303 0.040854 0.000000
0.144063 0.021723 0.000000
0.171786 0.000000 0.000000
0.200768 0.000000 0.000000
0.229596 0.000000 0.000000
0.258783 0.000000 0.000000
0.290423 0.000000 0.000000
0.333138 0.000000 0.000000
0.370182 0.000000 0.000000
0.414998 0.000000 0.000000
0.469323 0.000000 0.000000
0.531110 0.000000 0.000000
0.598776 0.000000 0.020591
0.666762 0.000000 0.037192
0.725473 0.000000 0.052300
0.802576 0.000000 0.069266
0.868153 0.000000 0.092115
0.925246 0.000000 0.116080
0.977278 0.000000 0.146164
1.000000 0.000000 0.187556
1.000000 0.099303 0.225496
1.000000 0.234618 0.263048
1.000000 0.326526 0.308869
1.000000 0.405072 0.365546
1.000000 0.469256 0.410090
1.000000 0.538755 0.462014
0.000000 0.071262 0.000000
0.000000 0.071503 0.000000
0.000000 0.075573 0.000000
0.000000 0.078528 0.000000
0.000000 0.081078 0.000000
0.052985 0.080052 0.000000
0.091361 0.073080 0.000000
0.117340 0.065645 0.000000
0.150522 0.052066 0.000000
0.182050 0.027336 0.000000
0.209570 0.000000 0.000000
0.236935 0.000000 0.000000
0.265513 0.000000 0.000000
0.297381 0.000000 0.000000
0.339228 0.000000 0.000000
0.377019 0.000000 0.000000
0.417947 0.000000 0.000000
0.469982 0.000000 0.000000
0.541242 0.000000 0.000000
0.602390 0.000000 0.019691
0.667304 0.000000 0.038128
0.729499 0.000000 0.053273
0.803163 0.000000 0.070907
0.871263 0.000000 0.091684
0.925188 0.000000 0.115933
0.977701 0.000000 0.148898
1.000000 0.000000 0.187403
1.000000 0.099303 0.225496
1.000000 0.234618 0.263048
1.000000 0.330428 0.308681
1.000000 0.405072 0.365546
1.000000 0.469256 0.410090
1.000000 0.538755 0.462014
0.000000 0.088916 0.000000
0.000000 0.089221 0.000000
0.000000 0.093868 0.000000
0.000000 0.097331 0.000000
0.000000 0.099162 0.000000
0.030104 0.098353 0.000000
0.087504 0.096644 0.000000
0.119935 0.092189 0.000000
0.151006 0.080584 0.000000
0.187593 0.062996 0.000000
0.217373 0.044454 0.000000
0.247814 0.000000 0.000000
0.277314 0.000000 0.000000
0.304784 0.000000 0.000000
0.347891 0.000000 0.000000
0.388892 0.000000 0.000000
0.425810 0.000000 0.000000
0.479336 0.000000 0.000000
0.545001 0.000000 0.000000
0.602929 0.000000 0.020151
0.670735 0.000000 0.036917
0.730044 0.000000 0.054199
0.806546 0.000000 0.069933
0.871229 0.000000 0.091535
0.928298 0.000000 0.117860
0.977497 0.000000 0.148582
1.000000 0.000000 0.187349
1.000000 0.109951 0.225330
1.000000 0.239427 0.262857
1.000000 0.330678 0.308838
1.000000 0.405072 0.365546
1.000000 0.469256 0.410090
1.000000 0.538755 0.462014
0.000000 0.109941 0.000000
0.000000 0.112837 0.000000
0.000000 0.118659 0.000000
0.000000 0.120059 0.000000
0.000000 0.125222 0.000000
0.000000 0.125663 0.000000
0.060597 0.124616 0.000000
0.111421 0.122791 0.000000
0.152010 0.112214 0.000000
0.190702 0.097666 0.000000
0.226808 0.084724 0.000000
0.256162 0.069621 0.000000
0.289403 0.038182 0.000000
0.318435 0.000000 0.000000
0.355040 0.000000 0.000000
0.396786 0.000000 0.000000
0.434184 0.000000 0.000000
0.492116 0.000000 0.000000
0.552289 0.000000 0.000000
0.606568 0.000000 0.017837
0.671553 0.000000 0.037883
0.734048 0.000000 0.054643
0.807055 0.000000 0.070932
0.871623 0.000000 0.092801
0.928363 0.000000 0.118573
0.977285 0.000000 0.148253
1.000000 0.000000 0.187030
1.000000 0.128152 0.224989
1.000000 0.239427 0.262857
1.000000 0.330678 0.308838
1.000000 0.408621 0.365375
1.000000 0.472580 0.409927
1.000000 0.545361 0.464700
0.000000 0.135456 0.000000
0.000000 0.140283 0.000000
0.000000 0.146750 0.000000
0.000000 0.148801 0.000000
0.000000 0.154098 0.000000
0.000000 0.156099 0.000000
0.000000 0.155496 0.000000
0.082365 0.154206 0.000000
0.143750 0.154174 0.000000
0.191470 0.138598 0.000000
0.233813 0.121457 0.000000
0.265282 0.109500 0.000000
0.296983 0.093253 0.000000
0.327421 0.072812 0.000000
0.371878 0.000000 0.000000
0.405781 0.000000 0.000000
0.449038 0.000000 0.000000
0.499125 0.000000 0.000000
0.559684 0.000000 0.000000
0.614379 0.000000 0.015144
0.675536 0.000000 0.037285
0.734846 0.000000 0.055588
0.811040 0.000000 0.071846
0.872003 0.000000 0.094050
0.931023 0.000000 0.118993
0.979590 0.000000 0.150616
1.000000 0.000000 0.190068
1.000000 0.136120 0.226754
1.000000 0.244178 0.262662
1.000000 0.334854 0.311054
1.000000 0.408621 0.365375
1.000000 0.472580 0.409927
1.000000 0.545361 0.464700
0.000000 0.165737 0.000000
0.000000 0.167958 0.000000
0.000000 0.175265 0.000000
0.000000 0.176444 0.000000
0.000000 0.181462 0.000000
0.000000 0.185179 0.000000
0.000000 0.184763 0.000000
0.000000 0.183865 0.000000
0.126881 0.181857 0.000000
0.189164 0.179272 0.000000
0.236012 0.161676 0.000000
0.272461 0.146836 0.000000
0.304299 0.135909 0.000000
0.343301 0.119870 0.000000
0.385551 0.096159 0.000000
0.420596 0.057325 0.000000
0.462732 0.000000 0.000000
0.513439 0.000000 0.000000
0.573848 0.000000 0.000000
0.625862 0.000000 0.008836
0.680077 0.000000 0.036722
0.739088 0.000000 0.055765
0.812092 0.000000 0.074328
0.875497 0.000000 0.095101
0.931239 0.000000 0.120718
0.979775 0.000000 0.153083
1.000000 0.000000 0.189670
1.000000 0.157675 0.226214
1.000000 0.258631 0.264427
1.000000 0.338711 0.310864
1.000000 0.412795 0.365548
1.000000 0.472580 0.409927
1.000000 0.545361 0.464700
0.000000 0.196921 0.000000
0.000000 0.201555 0.000000
0.000000 0.208733 0.000000
0.000000 0.211537 0.000000
0.000000 0.211345 0.000000
0.000000 0.215715 0.000000
0.000000 0.215231 0.000000
0.000000 0.214182 0.000000
0.091900 0.212045 0.000000
0.167954 0.210469 0.000000
0.224917 0.210752 0.000000
0.276482 0.189286 0.000000
0.315559 0.174708 0.000000
0.352448 0.162731 0.000000
0.397557 0.143293 0.000000
0.433948 0.122699 0.000000
0.474497 0.093157 0.000000
0.526096 0.000000 0.000000
0.582749 0.000000 0.000000
0.640903 0.000000 0.000000
0.691766 0.000000 0.035235
0.750553 0.000000 0.056618
0.816258 0.000000 0.075320
0.882007 0.000000 0.095912
0.933895 0.000000 0.121926
0.981896 0.000000 0.155311
1.000000 0.000000 0.190765
1.000000 0.176920 0.227487
1.000000 0.263136 0.264223
1.000000 0.346375 0.310477
1.000000 0.416614 0.368180
1.000000 0.475903 0.409761
1.000000 0.548515 0.464544
0.000000 0.234810 0.000000
0.000000 0.239612 0.000000
0.000000 0.244045 0.000000
0.000000 0.245338 0.000000
0.000000 0.245151 0.000000
0.000000 0.248160 0.000000
0.000000 0.250981 0.000000
0.000000 0.250342 0.000000
0.000000 0.249119 0.000000
0.101477 0.250700 0.000000
0.186510 0.249466 0.000000
0.265666 0.243762 0.000000
0.313326 0.224609 0.000000
0.358824 0.208518 0.000000
0.406995 0.190646 0.000000
0.448459 0.176079 0.000000
0.490297 0.153173 0.000000
0.535968 0.131284 0.000000
0.599733 0.063975 0.000000
0.653279 0.000000 0.000000
0.706916 0.000000 0.028985
0.765994 0.000000 0.057906
0.824355 0.000000 0.077432
0.885618 0.000000 0.097960
0.936692 0.000000 0.124348
0.983556 0.000000 0.154639
1.000000 0.069025 0.193223
1.000000 0.188201 0.227209
1.000000 0.272625 0.268032
1.000000 0.350777 0.315163
1.000000 0.420131 0.368007
1.000000 0.482845 0.412343
1.000000 0.551671 0.464386
0.000000 0.275824 0.000000
0.000000 0.281052 0.000000
0.000000 0.282707 0.000000
0.000000 0.286195 0.000000
0.000000 0.285935 0.000000
0.000000 0.285755 0.000000
0.000000 0.287348 0.000000
0.000000 0.292573 0.000000
0.000000 0.291671 0.000000
0.000000 0.290512 0.000000
0.126687 0.290389 0.000000
0.226862 0.284998 0.000000
0.298503 0.286325 0.000000
0.365557 0.262657 0.000000
0.421626 0.241676 0.000000
0.468958 0.227854 0.000000
0.508104 0.217360 0.000000
0.557098 0.198610 0.000000
0.610904 0.171715 0.000000
0.667280 0.137724 0.000000
0.716299 0.066968 0.000000
0.774890 0.000000 0.056982
0.835168 0.000000 0.076435
0.891494 0.000000 0.097132
0.944684 0.000000 0.127976
0.983371 0.000000 0.159056
1.000000 0.117146 0.194091
1.000000 0.215004 0.228143
1.000000 0.289923 0.267329
1.000000 0.358349 0.314771
1.000000 0.423939 0.370663
1.000000 0.486165 0.412175
1.000000 0.555129 0.467238
0.000000 0.325638 0.000000
0.000000 0.327579 0.000000
0.000000 0.329513 0.000000
0.000000 0.333478 0.000000
0.000000 0.333361 0.000000
0.000000 0.333198 0.000000
0.000000 0.334871 0.000000
0.000000 0.336471 0.000000
0.000000 0.338021 0.000000
0.000000 0.341612 0.000000
0.000000 0.342441 0.000000
0.146433 0.340650 0.000000
0.250059 0.337020 0.000000
0.345248 0.331196 0.000000
0.417823 0.309375 0.000000
0.476280 0.289701 0.000000
0.526473 0.276473 0.000000
0.572240 0.260695 0.000000
0.625872 0.240570 0.000000
0.681398 0.214331 0.000000
0.730961 0.186183 0.000000
0.786532 0.134057 0.042407
0.843182 0.000000 0.077270
0.901159 0.000000 0.101430
0.946528 0.000000 0.128157
0.984836 0.080738 0.161842
1.000000 0.166273 0.197974
1.000000 0.239959 0.230907
1.000000 0.306938 0.268736
1.000000 0.373824 0.316596
1.000000 0.430951 0.370311
1.000000 0.489783 0.414934
1.000000 0.558287 0.467079
0.000000 0.370962 0.000000
0.000000 0.375796 0.000000
0.000000 0.378193 0.000000
0.000000 0.380262 0.000000
0.000000 0.382478 0.000000
0.000000 0.382186 0.000000
0.000000 0.386734 0.000000
0.000000 0.388837 0.000000
0.000000 0.388414 0.000000
0.000000 0.387805 0.000000
0.000000 0.386073 0.000000
0.000000 0.391729 0.000000
0.186676 0.384461 0.000000
0.295059 0.386343 0.000000
0.400552 0.380042 0.000000
0.469871 0.359830 0.000000
0.528979 0.341707 0.000000
0.586667 0.321651 0.000000
0.643400 0.299830 0.000000
0.692185 0.286429 0.000000
0.743538 0.266283 0.000000
0.796269 0.239563 0.000000
0.859881 0.184378 0.073374
0.904226 0.145257 0.105046
0.948109 0.132521 0.129831
0.986059 0.169275 0.168468
1.000000 0.210849 0.201364
1.000000 0.268312 0.235359
1.000000 0.323479 0.270133
1.000000 0.381826 0.321202
1.000000 0.438817 0.375838
1.000000 0.496784 0.414794
1.000000 0.564607 0.466760
0.000000 0.427524 0.000000
0.000000 0.427051 0.000000
0.000000 0.429799 0.000000
0.000000 0.435350 0.000000
0.000000 0.435275 0.000000
0.000000 0.437797 0.000000
0.000000 0.440071 0.000000
0.000000 0.439419 0.000000
0.000000 0.441336 0.000000
0.000000 0.440868 0.000000
0.000000 0.440231 0.000000
0.000000 0.447366 0.000000
0.000000 0.448060 0.000000
0.239298 0.442501 0.000000
0.353908 0.441435 0.000000
0.462607 0.435253 0.000000
0.530150 0.412653 0.000000
0.595304 0.388649 0.000000
0.657528 0.362906 0.000000
0.706215 0.349010 0.000000
0.757283 0.333728 0.000000
0.810908 0.315659 0.000000
0.866101 0.284787 0.065635
0.910790 0.252413 0.102032
0.951617 0.227065 0.136628
0.986006 0.230263 0.169745
1.000000 0.258912 0.205889
1.000000 0.303250 0.239475
1.000000 0.347918 0.275331
1.000000 0.400820 0.323012
1.000000 0.453032 0.377993
1.000000 0.510319 0.417044
1.000000 0.574781 0.469515
0.000000 0.489784 0.000000
0.000000 0.489249 0.000000
0.000000 0.495075 0.000000
0.000000 0.494529 0.000000
0.000000 0.496925 0.000000
0.000000 0.496834 0.000000
0.000000 0.499443 0.000000
0.000000 0.499247 0.000000
0.000000 0.498958 0.000000
0.000000 0.498295 0.000000
0.000000 0.500231 0.000000
0.000000 0.501441 0.000000
0.000000 0.502690 0.000000
0.150516 0.503684 0.000000
0.299615 0.500301 0.000000
0.410829 0.501615 0.000000
0.511063 0.496150 0.000000
0.597737 0.474070 0.000000
0.668943 0.448797 0.000000
0.718101 0.428137 0.000000
0.772354 0.414916 0.000000
0.820951 0.399271 0.000000
0.872360 0.375213 0.000000
0.913205 0.349969 0.102400
0.953531 0.325503 0.133568
0.986335 0.308651 0.176823
1.000000 0.315409 0.211204
1.000000 0.340338 0.243212
1.000000 0.375584 0.280549
1.000000 0.419529 0.327090
1.000000 0.467195 0.380147
1.000000 0.520540 0.419471
1.000000 0.584858 0.475099
0.000000 0.554479 0.000000
0.000000 0.554419 0.000000
0.000000 0.556854 0.000000
0.000000 0.556764 0.000000
0.000000 0.556171 0.000000
0.000000 0.559110 0.000000
0.000000 0.558522 0.000000
0.000000 0.560849 0.000000
0.000000 0.560084 0.000000
0.000000 0.559742 0.000000
0.000000 0.559155 0.000000
0.000000 0.561442 0.000000
0.000000 0.565990 0.000000
0.000000 0.565848 0.000000
0.224959 0.566696 0.000000
0.345839 0.564376 0.000000
0.466562 0.559222 0.000000
0.577904 0.551462 0.000000
0.664238 0.536123 0.000000
0.721827 0.512844 0.000000
0.779709 0.487464 0.000000
0.829010 0.473166 0.000000
0.878013 0.450381 0.000000
0.915435 0.433894 0.089336
0.951653 0.417713 0.139301
0.986501 0.401576 0.178755
1.000000 0.387040 0.218742
1.000000 0.387181 0.246118
1.000000 0.406331 0.285617
1.000000 0.445358 0.330945
1.000000 0.488708 0.384999
1.000000 0.537658 0.421743
1.000000 0.594642 0.477662
0.000000 0.614958 0.000000
0.000000 0.614630 0.000000
0.000000 0.617605 0.000000
0.000000 0.617520 0.000000
0.000000 0.617453 0.000000
0.000000 0.617059 0.000000
0.000000 0.620057 0.000000
0.000000 0.619345 0.000000
0.000000 0.621627 0.000000
0.000000 0.620761 0.000000
0.000000 0.623056 0.000000
0.000000 0.622421 0.000000
0.000000 0.621828 0.000000
0.000000 0.622542 0.000000
0.131258 0.622297 0.000000
0.298286 0.622996 0.000000
0.417369 0.619903 0.000000
0.532471 0.620149 0.000000
0.643999 0.615811 0.000000
0.720563 0.594506 0.000000
0.780317 0.569854 0.000000
0.833213 0.540597 0.000000
0.884070 0.525853 0.000000
0.920456 0.512904 0.081515
0.952124 0.494090 0.136359
0.981613 0.484539 0.189476
1.000000 0.466036 0.222883
1.000000 0.444331 0.254644
1.000000 0.447414 0.290241
1.000000 0.482371 0.342365
1.000000 0.513385 0.386897
1.000000 0.555576 0.430186
1.000000 0.611399 0.480320
0.000000 0.671812 0.000000
0.000000 0.671733 0.000000
0.000000 0.671333 0.000000
0.000000 0.674385 0.000000
0.000000 0.674263 0.000000
0.000000 0.674166 0.000000
0.000000 0.673455 0.000000
0.000000 0.676392 0.000000
0.000000 0.675663 0.000000
0.000000 0.677920 0.000000
0.000000 0.677199 0.000000
0.000000 0.682171 0.000000
0.000000 0.681169 0.000000
0.000000 0.680084 0.000000
0.000000 0.681042 0.000000
0.196522 0.681679 0.000000
0.358995 0.681276 0.000000
0.504152 0.676541 0.000000
0.613599 0.673369 0.000000
0.699650 0.670226 0.000000
0.767241 0.657394 0.000000
0.830115 0.624381 0.000000
0.883646 0.593686 0.000000
0.918811 0.585820 0.086945
0.948554 0.570336 0.137931
0.976713 0.556756 0.188378
1.000000 0.542773 0.229613
1.000000 0.525653 0.266058
1.000000 0.509712 0.297750
1.000000 0.525094 0.345273
1.000000 0.548792 0.396904
1.000000 0.582449 0.434750
1.000000 0.627469 0.482560
0.000000 0.731875 0.079594
0.000000 0.731838 0.079653
0.000000 0.731723 0.079836
0.000000 0.731683 0.079898
0.000000 0.734484 0.076677
0.000000 0.734357 0.076880
0.000000 0.734268 0.077019
0.000000 0.734080 0.077301
0.000000 0.736195 0.055184
0.000000 0.735705 0.042005
0.000000 0.734805 0.000000
0.000000 0.736794 0.000000
0.000000 0.738588 0.000000
0.000000 0.737449 0.000000
0.000000 0.736199 0.000000
0.095652 0.736511 0.000000
0.324042 0.733163 0.000000
0.452716 0.731821 0.000000
0.566913 0.728063 0.000000
0.667131 0.722334 0.000000
0.753880 0.715462 0.000000
0.821732 0.705230 0.000000
0.869438 0.685525 0.000000
0.910883 0.662132 0.095762
0.940238 0.650945 0.156020
0.969907 0.640371 0.207428
0.996138 0.622702 0.244785
1.000000 0.608413 0.275691
1.000000 0.596107 0.312222
1.000000 0.582352 0.359331
1.000000 0.590437 0.403622
1.000000 0.616628 0.445273
1.000000 0.650388 0.490898
0.000000 0.780323 0.161337
0.000000 0.780219 0.161403
0.000000 0.780057 0.161504
0.000000 0.780001 0.161539
0.000000 0.779944 0.161573
0.000000 0.779827 0.161643
0.000000 0.779767 0.161678
0.000000 0.782232 0.160670
0.000000 0.781978 0.160818
0.000000 0.781705 0.160970
0.000000 0.783673 0.155982
0.000000 0.782619 0.147836
0.000000 0.784239 0.142628
0.000000 0.785079 0.127867
0.000000 0.783810 0.128619
0.000000 0.781930 0.129709
0.281807 0.781746 0.119605
0.414178 0.783082 0.101443
0.527716 0.779291 0.098328
0.631188 0.774964 0.102656
0.724880 0.769869 0.102500
0.801125 0.768600 0.087522
0.854938 0.760348 0.080001
0.898916 0.735584 0.124945
0.930628 0.718652 0.174302
0.961169 0.708116 0.222494
0.984514 0.692295 0.261629
1.000000 0.681825 0.293993
1.000000 0.669962 0.332834
1.000000 0.662573 0.378602
1.000000 0.648974 0.415883
1.000000 0.653362 0.452889
1.000000 0.672182 0.496275
0.000000 0.821295 0.229655
0.000000 0.821223 0.229685
0.000000 0.821073 0.229744
0.000000 0.821073 0.229744
0.000000 0.820996 0.229774
0.000000 0.820839 0.229836
0.000000 0.820758 0.229867
0.000000 0.820676 0.229898
0.000000 0.820420 0.229994
0.000000 0.822363 0.229598
0.000000 0.821897 0.229768
0.000000 0.821289 0.226273
0.000000 0.822552 0.222388
0.000000 0.825816 0.218055
0.000000 0.826090 0.210685
0.000000 0.826427 0.210908
0.282796 0.826354 0.211324
0.397184 0.823802 0.204714
0.505057 0.820184 0.194685
0.591248 0.816815 0.192487
0.696943 0.812163 0.199318
0.779432 0.809207 0.195467
0.833354 0.808992 0.187725
0.884364 0.797461 0.190454
0.921363 0.778582 0.204975
0.950013 0.763777 0.240992
0.975190 0.754521 0.280995
0.998641 0.739701 0.311454
1.000000 0.725944 0.348382
1.000000 0.718914 0.394638
1.000000 0.712457 0.437990
1.000000 0.697552 0.470019
1.000000 0.702287 0.508095
0.000000 0.857549 0.319513
0.000000 0.857452 0.319541
0.000000 0.857452 0.319541
0.000000 0.857353 0.319569
0.000000 0.857253 0.319598
0.000000 0.857253 0.319598
0.000000 0.857151 0.319627
0.000000 0.856945 0.319686
0.000000 0.856840 0.319716
0.000000 0.856626 0.319777
0.000000 0.858079 0.319699
0.000000 0.857258 0.312487
0.000000 0.856348 0.309032
0.000000 0.857171 0.305437
0.000000 0.857471 0.298319
0.148605 0.855926 0.295110
0.315583 0.855855 0.295560
0.405612 0.855439 0.288796
0.507079 0.854200 0.286093
0.589193 0.851137 0.283661
0.674634 0.847123 0.278302
0.765403 0.842496 0.281480
0.821736 0.840807 0.281228
0.866233 0.842417 0.274443
0.910552 0.830421 0.275068
0.939044 0.816342 0.279186
0.964728 0.801505 0.309661
0.986759 0.791279 0.343116
1.000000 0.783978 0.376172
1.000000 0.770043 0.419295
1.000000 0.763404 0.453023
1.000000 0.754974 0.487469
1.000000 0.742681 0.519697
0.000000 0.885215 0.383582
0.000000 0.884856 0.383665
0.000000 0.884856 0.383665
0.000000 0.884734 0.383693
0.000000 0.884610 0.383721
0.000000 0.884610 0.383721
0.000000 0.884485 0.383750
