Assets/Lutify-Free-LUTs-Pack/Lutify Free LUTs Pack/Colour Film Boost Pro - Film Boost 10/Lutify.me-FilmBoost10-CanonLog1-to-Rec709.cube
# Created with: fylm.ai - Colour Grading and Collaboration Software in Cloud 
# Website: https://fylm.ai 
# META
# Option: Gamut compress
# Block 1: IDT | CanonLog Cinema Gamut Daylight
# Block 2: colourMatch | Blending Mode: Normal | {"ColorSpace":0,"CrossCovarianceLimit":50,"ReshapingIterations":1,"PercentSaturationShift":100,"PercentShadingShift":100,"ExtraShading":true,"PercentTint":100,"PercentModified":100}
# Block 3: subtractiveColour | Blending Mode: Normal | {"sliders":{"gainY":0.55,"C":0.3,"M":0.3,"Y":0.3}}
# Block 4: LUT | Filmic Curve Response: Low Contrast 2 (100%)
# Block 5: logPrimaries | Blending Mode: Normal | {"wheels":{"shadows":{"Y":"0","R":"1","G":"1","B":"1"},"midtones":{"Y":"0","R":"1","G":"1","B":"1"},"highlights":{"Y":"0","R":"1","G":"1","B":"1"},"offset":{"Y":"0","R":"1","G":"1","B":"1"}},"sliders":{"shadows":{"Y":0,"R":-0.085,"G":0.024,"B":0.134},"midtones":{"Y":0,"R":0,"G":-0.023,"B":0},"highlights":{"Y":0,"R":0,"G":0,"B":0},"offset":{"Y":0,"R":0.012,"G":-0.012,"B":0}}}
# Block 6: HSL | Blending Mode: Normal | {"hue":{"Reds":0,"Yellows":0,"Greens":0,"Cyans":0,"Blues":0,"Magentas":0},"saturation":{"Reds":1,"Yellows":1,"Greens":1,"Cyans":1,"Blues":1,"Magentas":1},"luminance":{"Reds":0.9,"Yellows":0.9,"Greens":0.9,"Cyans":0.9,"Blues":0.9,"Magentas":0.9},"lum_sat":{"Blacks":1,"Shadows":1,"Midtones":1,"Highlights":1,"Whites":1},"sat_sat":{"10":1,"20":1,"30":1,"40":1,"50":1}}
# Block 7: ODT | Rec709
TITLE "Lutify.me-FilmBoost10-CanonLog1-to-Rec709" 
LUT_3D_SIZE 5
0.000000 0.000000 0.000000
0.195347 0.000000 0.000000
0.480861 0.000000 0.000000
0.846146 0.000000 0.035060
1.000000 0.000000 0.220577
0.000000 0.189904 0.000000
0.297297 0.177545 0.000000
0.603683 0.000000 0.000000
0.869616 0.000000 0.000000
1.000000 0.172186 0.217935
0.000000 0.419967 0.000000
0.000000 0.476564 0.000000
0.692309 0.391569 0.000000
0.906907 0.263247 0.000000
1.000000 0.340928 0.197800
0.000000 0.711852 0.000000
0.000000 0.718092 0.000000
0.586566 0.704312 0.000000
0.938230 0.612902 0.000000
1.000000 0.640679 0.000000
0.000000 0.885152 0.000000
0.000000 0.885571 0.000000
0.485389 0.881798 0.000000
0.880420 0.863663 0.000000
1.000000 0.803059 0.000000
0.000000 0.000000 0.143806
0.168643 0.000000 0.050163
0.433858 0.000000 0.012650
0.853425 0.000000 0.122043
1.000000 0.000000 0.261362
0.000000 0.133144 0.254776
0.184877 0.213810 0.242004
0.579137 0.000000 0.105409
0.890251 0.000000 0.127168
1.000000 0.162916 0.261453
0.000000 0.406581 0.000000
0.000000 0.520672 0.000000
0.627677 0.477043 0.000000
0.915906 0.342661 0.011173
1.000000 0.341489 0.254589
0.000000 0.709062 0.000000
0.000000 0.715596 0.000000
0.578286 0.701782 0.000000
0.938841 0.609498 0.000000
1.000000 0.672117 0.119305
0.000000 0.885372 0.000000
0.000000 0.884333 0.000000
0.478591 0.881991 0.000000
0.879761 0.860716 0.000000
1.000000 0.803059 0.000000
0.000000 0.000000 0.320793
0.095833 0.000000 0.155155
0.429332 0.000000 0.082243
0.792308 0.000000 0.241648
1.000000 0.000000 0.357413
0.000000 0.000000 0.455854
0.000000 0.032749 0.404365
0.520583 0.000000 0.309832
0.877444 0.000000 0.332316
1.000000 0.143755 0.364850
0.000000 0.327402 0.593228
0.000000 0.470572 0.573965
0.596767 0.585334 0.607677
0.934889 0.344379 0.418195
1.000000 0.339906 0.376270
0.000000 0.754473 0.356246
0.000000 0.797552 0.355819
0.000000 0.824973 0.324155
0.881430 0.794387 0.273598
1.000000 0.690282 0.350405
0.000000 0.886006 0.000000
0.000000 0.883597 0.000000
0.446611 0.879921 0.000000
0.875077 0.861008 0.000000
1.000000 0.801138 0.000000
0.000000 0.000000 0.513754
0.000000 0.000000 0.253825
0.382413 0.000000 0.200157
0.713570 0.000000 0.124721
1.000000 0.000000 0.553047
0.000000 0.000000 0.622121
0.000000 0.000000 0.542100
0.346068 0.000000 0.479198
0.713570 0.000000 0.123767
1.000000 0.000000 0.582741
0.000000 0.124359 0.764249
0.000000 0.219505 0.724185
0.262314 0.259225 0.760842
0.925874 0.000000 0.685908
1.000000 0.245364 0.638020
0.000000 0.547924 0.829385
0.000000 0.680402 0.802826
0.000000 0.807841 0.831441
0.846717 0.834061 0.842885
1.000000 0.702896 0.714704
0.000000 0.939576 0.685378
0.000000 0.942856 0.682608
0.000000 0.946362 0.678733
0.701313 0.942006 0.668481
0.962443 0.927726 0.639987
0.000000 0.000000 0.475836
0.000000 0.000000 0.369936
0.339343 0.000000 0.367163
0.654312 0.000000 0.265831
0.962265 0.000000 0.188389
0.000000 0.000000 0.576537
0.000000 0.000000 0.450257
0.336738 0.000000 0.367184
0.653969 0.000000 0.263959
0.962265 0.000000 0.188389
0.000000 0.016026 0.865732
0.000000 0.135133 0.844068
0.000000 0.154691 0.857208
0.731074 0.000000 0.834752
1.000000 0.000000 0.625936
0.000000 0.293270 0.930460
0.000000 0.428489 0.900911
0.000000 0.519582 0.911398
0.656157 0.569523 0.917027
1.000000 0.453423 0.885384
0.000000 0.748524 0.946605
0.000000 0.841038 0.925081
0.000000 0.915382 0.933240
0.504207 0.941376 0.938780
0.943348 0.944003 0.940849
