Assets/Lutify-Free-LUTs-Pack/Lutify Free LUTs Pack/Colour Film Boost Pro - Film Boost 10/Lutify.me-FilmBoost10-CanonLog1-to-Rec709.cube
# Created with: fylm.ai - Colour Grading and Collaboration Software in Cloud 
# Website: https://fylm.ai 
# META
# Option: Gamut compress
# Block 1: IDT | CanonLog Cinema Gamut Daylight
# Block 2: colourMatch | Blending Mode: Normal | {"ColorSpace":0,"CrossCovarianceLimit":50,"ReshapingIterations":1,"PercentSaturationShift":100,"PercentShadingShift":100,"ExtraShading":true,"PercentTint":100,"PercentModified":100}
# Block 3: subtractiveColour | Blending Mode: Normal | {"sliders":{"gainY":0.55,"C":0.3,"M":0.3,"Y":0.3}}
# Block 4: LUT | Filmic Curve Response: Low Contrast 2 (100%)
# Block 5: logPrimaries | Blending Mode: Normal | {"wheels":{"shadows":{"Y":"0","R":"1","G":"1","B":"1"},"midtones":{"Y":"0","R":"1","G":"1","B":"1"},"highlights":{"Y":"0","R":"1","G":"1","B":"1"},"offset":{"Y":"0","R":"1","G":"1","B":"1"}},"sliders":{"shadows":{"Y":0,"R":-0.085,"G":0.024,"B":0.134},"midtones":{"Y":0,"R":0,"G":-0.023,"B":0},"highlights":{"Y":0,"R":0,"G":0,"B":0},"offset":{"Y":0,"R":0.012,"G":-0.012,"B":0}}}
# Block 6: HSL | Blending Mode: Normal | {"hue":{"Reds":0,"Yellows":0,"Greens":0,"Cyans":0,"Blues":0,"Magentas":0},"saturation":{"Reds":1,"Yellows":1,"Greens":1,"Cyans":1,"Blues":1,"Magentas":1},"luminance":{"Reds":0.9,"Yellows":0.9,"Greens":0.9,"Cyans":0.9,"Blues":0.9,"Magentas":0.9},"lum_sat":{"Blacks":1,"Shadows":1,"Midtones":1,"Highlights":1,"Whites":1},"sat_sat":{"10":1,"20":1,"30":1,"40":1,"50":1}}
# Block 7: ODT | Rec709
TITLE "Lutify.me-FilmBoost10-CanonLog1-to-Rec709" 
LUT_3D_SIZE 9
0.000000 0.000000 0.000000
0.000000 0.000000 0.000000
0.195347 0.000000 0.000000
0.326383 0.000000 0.000000
0.480861 0.000000 0.000000
0.646232 0.000000 0.000000
0.846146 0.000000 0.035060
0.989813 0.000000 0.119142
1.000000 0.000000 0.220577
0.000000 0.060815 0.000000
0.000000 0.062263 0.000000
0.246167 0.000000 0.000000
0.398075 0.000000 0.000000
0.566253 0.000000 0.000000
0.684354 0.000000 0.000000
0.857059 0.000000 0.000000
0.996466 0.000000 0.114075
1.000000 0.101436 0.219646
0.000000 0.189904 0.000000
0.000000 0.210932 0.000000
0.297297 0.177545 0.000000
0.460180 0.053850 0.000000
0.603683 0.000000 0.000000
0.725972 0.000000 0.000000
0.869616 0.000000 0.000000
0.997074 0.000000 0.110622
1.000000 0.172186 0.217935
0.000000 0.298338 0.000000
0.000000 0.341462 0.000000
0.211963 0.340760 0.000000
0.511968 0.278799 0.000000
0.662505 0.185522 0.000000
0.784847 0.000000 0.000000
0.876491 0.000000 0.000000
0.998753 0.000000 0.091057
1.000000 0.250014 0.211402
0.000000 0.419967 0.000000
0.000000 0.470382 0.000000
0.000000 0.476564 0.000000
0.481462 0.467356 0.000000
0.692309 0.391569 0.000000
0.827160 0.309063 0.000000
0.906907 0.263247 0.000000
0.993697 0.257188 0.000000
1.000000 0.340928 0.197800
0.000000 0.582560 0.000000
0.000000 0.599948 0.000000
0.000000 0.601300 0.000000
0.334386 0.596113 0.000000
0.693987 0.566951 0.000000
0.840925 0.499639 0.000000
0.943372 0.428967 0.000000
0.983193 0.471165 0.000000
1.000000 0.452900 0.163134
0.000000 0.711852 0.000000
0.000000 0.716760 0.000000
0.000000 0.718092 0.000000
0.000000 0.710610 0.000000
0.586566 0.704312 0.000000
0.829018 0.670955 0.000000
0.938230 0.612902 0.000000
1.000000 0.561670 0.000000
1.000000 0.640679 0.000000
0.000000 0.813271 0.000000
0.000000 0.811964 0.000000
0.000000 0.810514 0.000000
0.000000 0.814010 0.000000
0.485859 0.806662 0.000000
0.768106 0.793911 0.000000
0.919249 0.761848 0.000000
0.985907 0.719503 0.000000
1.000000 0.672530 0.000000
0.000000 0.885152 0.000000
0.000000 0.885247 0.000000
0.000000 0.885571 0.000000
0.279993 0.886033 0.000000
0.485389 0.881798 0.000000
0.693678 0.873961 0.000000
0.880420 0.863663 0.000000
0.961955 0.839839 0.000000
1.000000 0.803059 0.000000
0.000000 0.000000 0.047263
0.000000 0.000000 0.029788
0.180708 0.000000 0.000000
0.309885 0.000000 0.000000
0.435991 0.000000 0.000000
0.645709 0.000000 0.040876
0.858315 0.000000 0.084171
0.991884 0.000000 0.156036
1.000000 0.000000 0.243896
0.000000 0.000000 0.002737
0.000000 0.000000 0.000000
0.193210 0.000000 0.000000
0.347989 0.000000 0.000000
0.514905 0.000000 0.008629
0.693368 0.000000 0.045707
0.871893 0.000000 0.083974
0.995038 0.000000 0.156926
1.000000 0.098928 0.242790
0.000000 0.172825 0.000000
0.000000 0.184104 0.000000
0.268138 0.170510 0.000000
0.417355 0.076352 0.000000
0.557544 0.000000 0.000000
0.710985 0.000000 0.018674
0.877365 0.000000 0.079501
1.000000 0.000000 0.152499
1.000000 0.165060 0.241830
0.000000 0.290768 0.000000
0.000000 0.326421 0.000000
0.182260 0.330581 0.000000
0.503153 0.265798 0.000000
0.627719 0.207858 0.000000
0.745472 0.141656 0.000000
0.896646 0.000000 0.044321
1.000000 0.000000 0.145255
1.000000 0.250126 0.238953
0.000000 0.411976 0.000000
0.000000 0.464745 0.000000
0.000000 0.471186 0.000000
0.477162 0.458598 0.000000
0.686025 0.386216 0.000000
0.804762 0.334421 0.000000
0.904060 0.324417 0.000000
1.000000 0.272525 0.106200
1.000000 0.341610 0.228099
0.000000 0.579586 0.000000
0.000000 0.597046 0.000000
0.000000 0.598508 0.000000
0.318462 0.593528 0.000000
0.690976 0.564055 0.000000
0.841290 0.496217 0.000000
0.938376 0.436663 0.000000
0.992669 0.493552 0.000000
1.000000 0.461638 0.201135
0.000000 0.708964 0.000000
0.000000 0.713964 0.000000
0.000000 0.715380 0.000000
0.000000 0.710739 0.000000
0.581399 0.704557 0.000000
0.830051 0.667588 0.000000
0.938841 0.609498 0.000000
1.000000 0.561901 0.000000
1.000000 0.657063 0.000000
0.000000 0.813442 0.000000
0.000000 0.812122 0.000000
0.000000 0.810713 0.000000
0.000000 0.811984 0.000000
0.479447 0.806862 0.000000
0.764308 0.794133 0.000000
0.919249 0.761848 0.000000
0.985907 0.719503 0.000000
1.000000 0.672530 0.000000
0.000000 0.885263 0.000000
0.000000 0.885497 0.000000
0.000000 0.885708 0.000000
0.267564 0.886192 0.000000
0.485389 0.881798 0.000000
0.693678 0.873961 0.000000
0.882065 0.860572 0.000000
0.961955 0.839839 0.000000
1.000000 0.803059 0.000000
0.000000 0.000000 0.143806
0.000000 0.000000 0.084105
0.168643 0.000000 0.050163
0.310054 0.000000 0.034706
0.433858 0.000000 0.012650
0.623170 0.000000 0.068228
0.853425 0.000000 0.122043
0.994837 0.000000 0.183748
1.000000 0.000000 0.261362
0.000000 0.000000 0.139652
0.000000 0.000000 0.113590
0.170160 0.000000 0.068650
0.319486 0.000000 0.071627
0.502962 0.000000 0.085310
0.692531 0.000000 0.097195
0.879793 0.000000 0.129103
0.997332 0.000000 0.185946
1.000000 0.094613 0.262294
0.000000 0.133144 0.254776
0.000000 0.144411 0.245999
0.184877 0.213810 0.242004
0.427347 0.086238 0.148598
0.579137 0.000000 0.105409
0.730199 0.000000 0.104344
0.890251 0.000000 0.127168
1.000000 0.000000 0.187324
1.000000 0.162916 0.261453
0.000000 0.291206 0.193302
0.000000 0.326941 0.145015
0.000000 0.394964 0.093891
0.438142 0.381572 0.055947
0.636049 0.269345 0.052495
0.773839 0.149970 0.085984
0.908424 0.000000 0.121895
1.000000 0.000000 0.184372
1.000000 0.240043 0.263431
0.000000 0.406581 0.000000
0.000000 0.488643 0.000000
0.000000 0.520672 0.000000
0.254898 0.518433 0.000000
0.627677 0.477043 0.000000
0.789072 0.416468 0.000000
0.915906 0.342661 0.011173
1.000000 0.272879 0.166849
1.000000 0.341489 0.254589
0.000000 0.576619 0.000000
0.000000 0.600361 0.000000
0.000000 0.605414 0.000000
0.108510 0.605601 0.000000
0.635437 0.583710 0.000000
0.824797 0.512204 0.000000
0.905685 0.533802 0.000000
0.992283 0.514114 0.000000
1.000000 0.465238 0.228573
0.000000 0.709062 0.000000
0.000000 0.714081 0.000000
0.000000 0.715596 0.000000
0.000000 0.708009 0.000000
0.578286 0.701782 0.000000
0.826935 0.668005 0.000000
0.938841 0.609498 0.000000
0.966952 0.648944 0.000000
1.000000 0.672117 0.119305
0.000000 0.811451 0.000000
0.000000 0.812274 0.000000
0.000000 0.811001 0.000000
0.000000 0.812116 0.000000
0.472966 0.807061 0.000000
0.765583 0.791908 0.000000
0.917268 0.762106 0.000000
0.985907 0.719503 0.000000
1.000000 0.723978 0.000000
0.000000 0.885372 0.000000
0.000000 0.885620 0.000000
0.000000 0.884333 0.000000
0.254388 0.886350 0.000000
0.478591 0.881991 0.000000
0.684858 0.874371 0.000000
0.879761 0.860716 0.000000
0.961955 0.839839 0.000000
1.000000 0.803059 0.000000
0.000000 0.000000 0.231990
0.000000 0.000000 0.132656
0.144199 0.000000 0.096519
0.299697 0.000000 0.065281
0.437156 0.000000 0.049264
0.580737 0.000000 0.075807
0.834299 0.000000 0.179270
0.991760 0.000000 0.227333
1.000000 0.000000 0.298176
0.000000 0.000000 0.228977
0.000000 0.000000 0.183023
0.140596 0.000000 0.143900
0.300392 0.000000 0.079724
0.453588 0.000000 0.123848
0.670098 0.000000 0.185043
0.870542 0.000000 0.199914
0.999356 0.000000 0.239028
1.000000 0.000000 0.302978
0.000000 0.051262 0.372282
0.000000 0.056629 0.348780
0.052635 0.086562 0.336521
0.399933 0.000000 0.288164
0.556457 0.000000 0.238031
0.721797 0.000000 0.218957
0.890878 0.000000 0.211844
1.000000 0.000000 0.245379
1.000000 0.143210 0.302662
0.000000 0.228549 0.442951
0.000000 0.248666 0.419750
0.000000 0.370269 0.426505
0.399757 0.410162 0.439092
0.639878 0.293275 0.339059
0.782663 0.122307 0.260211
0.912968 0.000000 0.223493
1.000000 0.000000 0.246137
1.000000 0.236576 0.303303
0.000000 0.415173 0.417665
0.000000 0.472662 0.350150
0.000000 0.536233 0.342503
0.000000 0.587793 0.323239
0.616910 0.572352 0.299014
0.804292 0.462211 0.232019
0.930196 0.346744 0.211831
1.000000 0.274800 0.237442
1.000000 0.335369 0.297466
0.000000 0.575347 0.208919
0.000000 0.642070 0.147494
0.000000 0.682383 0.112718
0.000000 0.700362 0.000000
0.455671 0.695659 0.000000
0.779113 0.666287 0.000000
0.918560 0.585275 0.077296
0.997613 0.527675 0.211619
1.000000 0.464286 0.279190
0.000000 0.759982 0.000000
0.000000 0.768642 0.000000
0.000000 0.773398 0.000000
0.000000 0.774369 0.000000
0.198559 0.772764 0.000000
0.672833 0.757818 0.000000
0.878885 0.715262 0.000000
0.967876 0.706545 0.000000
1.000000 0.682003 0.228320
0.000000 0.811796 0.000000
0.000000 0.810283 0.000000
0.000000 0.809064 0.000000
0.000000 0.808375 0.000000
0.455431 0.805466 0.000000
0.761751 0.792133 0.000000
0.918066 0.759525 0.000000
0.986609 0.716649 0.000000
1.000000 0.782316 0.000000
0.000000 0.885588 0.000000
0.000000 0.884341 0.000000
0.000000 0.884733 0.000000
0.233185 0.883669 0.000000
0.467969 0.879357 0.000000
0.682541 0.871523 0.000000
0.879761 0.860716 0.000000
0.961955 0.839839 0.000000
1.000000 0.803059 0.000000
0.000000 0.000000 0.320793
0.000000 0.000000 0.184351
0.095833 0.000000 0.155155
0.286925 0.000000 0.112583
0.429332 0.000000 0.082243
0.574072 0.000000 0.063679
0.792308 0.000000 0.241648
0.985022 0.000000 0.309116
1.000000 0.000000 0.357413
0.000000 0.000000 0.306564
0.000000 0.000000 0.239684
0.070462 0.000000 0.193443
0.289445 0.000000 0.130980
0.429301 0.000000 0.080954
0.601315 0.000000 0.190600
0.853147 0.000000 0.296364
0.993305 0.000000 0.318834
1.000000 0.000000 0.361155
0.000000 0.000000 0.455854
0.000000 0.000000 0.419419
0.000000 0.032749 0.404365
0.301414 0.000000 0.386041
0.520583 0.000000 0.309832
0.697733 0.000000 0.317263
0.877444 0.000000 0.332316
1.000000 0.000000 0.338356
1.000000 0.143755 0.364850
0.000000 0.145618 0.553834
0.000000 0.166265 0.526381
0.000000 0.230151 0.524160
0.239092 0.269682 0.555770
0.637223 0.174871 0.517754
0.772094 0.000000 0.417901
0.907045 0.000000 0.366619
1.000000 0.000000 0.352277
1.000000 0.232034 0.371512
0.000000 0.327402 0.593228
0.000000 0.354772 0.579900
0.000000 0.470572 0.573965
0.000000 0.563792 0.599442
0.596767 0.585334 0.607677
0.803370 0.478537 0.509278
0.934889 0.344379 0.418195
1.000000 0.263273 0.366778
1.000000 0.339906 0.376270
0.000000 0.516022 0.590392
0.000000 0.621259 0.521738
0.000000 0.662575 0.522973
0.000000 0.710158 0.524460
0.383205 0.739992 0.515421
0.766850 0.722166 0.496650
0.913621 0.626602 0.407150
0.999674 0.536634 0.356620
1.000000 0.471090 0.376531
0.000000 0.754473 0.356246
0.000000 0.782553 0.356582
0.000000 0.797552 0.355819
0.000000 0.817144 0.340112
0.000000 0.824973 0.324155
0.635207 0.818630 0.294632
0.881430 0.794387 0.273598
0.967109 0.740933 0.287546
1.000000 0.690282 0.350405
0.000000 0.874964 0.000000
0.000000 0.876069 0.000000
0.000000 0.876419 0.000000
0.000000 0.878997 0.000000
0.000000 0.880022 0.000000
0.532304 0.871751 0.000000
0.813166 0.857416 0.000000
0.938357 0.835907 0.000000
0.998128 0.815426 0.220831
0.000000 0.886006 0.000000
0.000000 0.885040 0.000000
0.000000 0.883597 0.000000
0.180281 0.884129 0.000000
0.446611 0.879921 0.000000
0.678017 0.871730 0.000000
0.875077 0.861008 0.000000
0.961230 0.838220 0.000000
1.000000 0.801138 0.000000
0.000000 0.000000 0.413873
0.000000 0.000000 0.229453
0.059918 0.000000 0.204209
0.244406 0.000000 0.179873
0.409972 0.000000 0.129052
0.561096 0.000000 0.101598
0.719899 0.000000 0.080626
0.964890 0.000000 0.396260
1.000000 0.000000 0.451784
0.000000 0.000000 0.387268
0.000000 0.000000 0.267627
0.030516 0.000000 0.225615
0.244406 0.000000 0.179873
0.409850 0.000000 0.128080
0.561096 0.000000 0.101598
0.762161 0.000000 0.277631
0.979402 0.000000 0.426332
1.000000 0.000000 0.456484
0.000000 0.000000 0.543500
0.000000 0.000000 0.499123
0.000000 0.000000 0.480605
0.150057 0.000000 0.458992
0.482711 0.000000 0.422160
0.603519 0.000000 0.273841
0.832373 0.000000 0.393322
0.990064 0.000000 0.445919
1.000000 0.000000 0.461158
0.000000 0.051285 0.621859
0.000000 0.081936 0.588165
0.000000 0.125731 0.579919
0.000000 0.142017 0.604440
0.515984 0.000000 0.586575
0.755276 0.000000 0.516383
0.895431 0.000000 0.489907
1.000000 0.000000 0.487511
1.000000 0.187989 0.472986
0.000000 0.235326 0.694594
0.000000 0.270070 0.671968
0.000000 0.350151 0.665056
0.000000 0.411313 0.695519
0.439798 0.451512 0.715104
0.811548 0.382263 0.687868
0.929679 0.227804 0.581378
1.000000 0.219606 0.524590
1.000000 0.320181 0.494745
0.000000 0.429751 0.728560
0.000000 0.454262 0.712848
0.000000 0.578348 0.702917
0.000000 0.665924 0.722796
0.203492 0.722542 0.743801
0.739669 0.734333 0.750058
0.901256 0.648215 0.663443
1.000000 0.537699 0.572944
1.000000 0.468713 0.511275
0.000000 0.711826 0.685159
0.000000 0.760157 0.681742
0.000000 0.789136 0.684656
0.000000 0.809766 0.684575
0.000000 0.829545 0.682070
0.607195 0.840377 0.679857
0.859217 0.828526 0.664602
0.957048 0.766112 0.577313
1.000000 0.698816 0.517324
0.000000 0.870049 0.528535
0.000000 0.877701 0.525639
0.000000 0.885766 0.524881
0.000000 0.889553 0.530864
0.000000 0.897108 0.520651
0.489161 0.894682 0.503938
0.799435 0.886267 0.490142
0.930471 0.874537 0.469584
0.992284 0.835474 0.470535
0.000000 0.941954 0.361253
0.000000 0.942340 0.361555
0.000000 0.941709 0.356121
0.000000 0.940932 0.350242
0.000000 0.939876 0.338524
0.407216 0.937689 0.326028
0.722251 0.929228 0.307951
0.883617 0.921576 0.295966
0.973927 0.906228 0.267600
0.000000 0.000000 0.513754
0.000000 0.000000 0.276381
0.000000 0.000000 0.253825
0.209520 0.000000 0.250230
0.382413 0.000000 0.200157
0.544928 0.000000 0.158416
0.713570 0.000000 0.124721
0.849606 0.000000 0.132507
1.000000 0.000000 0.553047
0.000000 0.000000 0.510808
0.000000 0.000000 0.276381
0.000000 0.000000 0.253835
0.209520 0.000000 0.250230
0.382413 0.000000 0.200157
0.544928 0.000000 0.158416
0.713570 0.000000 0.123767
0.905864 0.000000 0.393131
1.000000 0.000000 0.566825
0.000000 0.000000 0.622121
0.000000 0.000000 0.554290
0.000000 0.000000 0.542100
0.000000 0.000000 0.521767
0.346068 0.000000 0.479198
0.588906 0.000000 0.323847
0.713570 0.000000 0.123767
0.953768 0.000000 0.487674
1.000000 0.000000 0.582741
0.000000 0.000000 0.710673
0.000000 0.045951 0.662688
0.000000 0.083521 0.657052
0.000000 0.096080 0.680026
0.325185 0.000000 0.664944
0.710692 0.000000 0.645283
0.844149 0.000000 0.530422
0.987144 0.000000 0.573845
1.000000 0.000000 0.605770
0.000000 0.124359 0.764249
0.000000 0.166216 0.729628
0.000000 0.219505 0.724185
0.000000 0.251560 0.747527
0.262314 0.259225 0.760842
0.716398 0.183279 0.746965
0.925874 0.000000 0.685908
1.000000 0.000000 0.655835
1.000000 0.245364 0.638020
0.000000 0.340675 0.814401
0.000000 0.372334 0.796935
0.000000 0.470416 0.783315
0.000000 0.539461 0.800415
0.000000 0.595809 0.813708
0.628223 0.624996 0.824091
0.919624 0.567601 0.805121
1.000000 0.453194 0.735700
1.000000 0.430441 0.671049
0.000000 0.547924 0.829385
0.000000 0.560967 0.822731
0.000000 0.680402 0.802826
0.000000 0.749922 0.818579
0.000000 0.807841 0.831441
0.534103 0.830306 0.839891
0.846717 0.834061 0.842885
0.945418 0.780158 0.788850
1.000000 0.702896 0.714704
0.000000 0.849917 0.799037
0.000000 0.860608 0.795083
0.000000 0.871633 0.798992
0.000000 0.885352 0.796718
0.000000 0.893565 0.795855
0.379884 0.901007 0.792778
0.768593 0.902764 0.788491
0.913421 0.893203 0.783377
0.980687 0.853988 0.722773
0.000000 0.939576 0.685378
0.000000 0.941355 0.682708
0.000000 0.942856 0.682608
0.000000 0.944444 0.678694
0.000000 0.946362 0.678733
0.313089 0.947500 0.673703
0.701313 0.942006 0.668481
0.866780 0.934884 0.658723
0.962443 0.927726 0.639987
0.000000 0.000000 0.609926
0.000000 0.000000 0.320808
0.000000 0.000000 0.306397
0.179371 0.000000 0.301183
0.360401 0.000000 0.283732
0.512866 0.000000 0.227288
0.690799 0.000000 0.184826
0.835857 0.000000 0.156394
0.982334 0.000000 0.392196
0.000000 0.000000 0.609926
0.000000 0.000000 0.322894
0.000000 0.000000 0.306405
0.179371 0.000000 0.301183
0.360541 0.000000 0.281742
0.512866 0.000000 0.227288
0.690799 0.000000 0.184826
0.835857 0.000000 0.156394
1.000000 0.000000 0.520897
0.000000 0.000000 0.680213
0.000000 0.000000 0.579650
0.000000 0.000000 0.560118
0.000000 0.000000 0.531495
0.275931 0.000000 0.468908
0.529431 0.000000 0.300294
0.690799 0.000000 0.184826
0.835857 0.000000 0.156394
1.000000 0.000000 0.586842
0.000000 0.000000 0.778670
0.000000 0.000000 0.719335
0.000000 0.036302 0.728429
0.000000 0.042086 0.741899
0.181723 0.000000 0.722485
0.535301 0.000000 0.702414
0.815811 0.000000 0.631819
0.851341 0.000000 0.340615
1.000000 0.000000 0.644885
0.000000 0.065712 0.823936
0.000000 0.138938 0.781048
0.000000 0.169180 0.786540
0.000000 0.193943 0.799970
0.000000 0.203488 0.811601
0.540772 0.142896 0.801843
0.881435 0.000000 0.787777
0.991280 0.000000 0.699533
1.000000 0.000000 0.710421
0.000000 0.204966 0.859455
0.000000 0.265918 0.825400
0.000000 0.320712 0.824605
0.000000 0.360333 0.839793
0.000000 0.393033 0.850831
0.486845 0.402380 0.856356
0.875511 0.352995 0.846100
1.000000 0.239754 0.804911
1.000000 0.308035 0.770717
0.000000 0.451886 0.889933
0.000000 0.501276 0.873201
0.000000 0.589040 0.861948
0.000000 0.656271 0.869654
0.000000 0.708016 0.877213
0.171796 0.747066 0.883859
0.785363 0.759818 0.890096
0.958270 0.727392 0.876215
1.000000 0.624270 0.823920
0.000000 0.643033 0.898012
0.000000 0.649407 0.897624
0.000000 0.773809 0.869215
0.000000 0.826544 0.878846
0.000000 0.866921 0.886851
0.000000 0.890293 0.892730
0.715891 0.897696 0.892722
0.904712 0.894763 0.899294
0.969899 0.861828 0.862299
0.000000 0.931343 0.867066
0.000000 0.934890 0.865973
0.000000 0.937502 0.868519
0.000000 0.940320 0.869125
0.000000 0.945424 0.868703
0.000000 0.946597 0.865739
0.658725 0.946279 0.863701
0.852457 0.943717 0.865518
0.950484 0.937502 0.855219
0.000000 0.000000 0.475836
0.000000 0.000000 0.379887
0.000000 0.000000 0.369936
0.158010 0.000000 0.369117
0.339343 0.000000 0.367163
0.501420 0.000000 0.325991
0.654312 0.000000 0.265831
0.819318 0.000000 0.226701
0.962265 0.000000 0.188389
0.000000 0.000000 0.484509
0.000000 0.000000 0.379889
0.000000 0.000000 0.369936
0.158010 0.000000 0.369117
0.339343 0.000000 0.367163
0.501420 0.000000 0.325991
0.654312 0.000000 0.265831
0.819318 0.000000 0.226701
0.962265 0.000000 0.188389
0.000000 0.000000 0.576537
0.000000 0.000000 0.473153
0.000000 0.000000 0.450257
0.128574 0.000000 0.402509
0.336738 0.000000 0.367184
0.501420 0.000000 0.325991
0.653969 0.000000 0.263959
0.819318 0.000000 0.226701
0.962265 0.000000 0.188389
0.000000 0.000000 0.810857
0.000000 0.000000 0.776332
0.000000 0.000000 0.779236
0.000000 0.000000 0.781353
0.073112 0.000000 0.766382
0.400123 0.000000 0.742610
0.709181 0.000000 0.679896
0.819318 0.000000 0.226701
0.962265 0.000000 0.188389
0.000000 0.016026 0.865732
0.000000 0.111937 0.837957
0.000000 0.135133 0.844068
0.000000 0.151221 0.853299
0.000000 0.154691 0.857208
0.371414 0.107035 0.851316
0.731074 0.000000 0.834752
0.975957 0.000000 0.805927
1.000000 0.000000 0.625936
0.000000 0.152016 0.906990
0.000000 0.236185 0.871666
0.000000 0.260583 0.876379
0.000000 0.294432 0.884240
0.000000 0.317722 0.892753
0.307332 0.330128 0.897141
0.719754 0.283595 0.890782
0.989711 0.170723 0.878325
1.000000 0.000000 0.820614
0.000000 0.293270 0.930460
0.000000 0.391863 0.900307
0.000000 0.428489 0.900911
0.000000 0.471104 0.906834
0.000000 0.519582 0.911398
0.000000 0.552466 0.914986
0.656157 0.569523 0.917027
0.952434 0.532263 0.911616
1.000000 0.453423 0.885384
0.000000 0.553615 0.945685
0.000000 0.608260 0.929475
0.000000 0.688507 0.919440
0.000000 0.746055 0.923966
0.000000 0.786920 0.926932
0.000000 0.822700 0.929762
0.512942 0.842626 0.931384
0.860949 0.846477 0.934261
0.980496 0.831738 0.923951
0.000000 0.748524 0.946605
0.000000 0.748524 0.946605
0.000000 0.841038 0.925081
0.000000 0.888080 0.926707
0.000000 0.915382 0.933240
0.000000 0.931784 0.935481
0.504207 0.941376 0.938780
0.817192 0.942920 0.937298
0.943348 0.944003 0.940849
