Assets/Lutify-Free-LUTs-Pack/Lutify Free LUTs Pack/Colour Film Boost Pro - Film Boost 10/Lutify.me-FilmBoost10-KineLog3-to-Rec709.cube
# Created with: fylm.ai - Colour Grading and Collaboration Software in Cloud 
# Website: https://fylm.ai 
# META
# Option: Gamut compress
# Block 1: IDT | Kinefinity KineLOG3 - BETA
# Block 2: colourMatch | Blending Mode: Normal | {"ColorSpace":0,"CrossCovarianceLimit":50,"ReshapingIterations":1,"PercentSaturationShift":100,"PercentShadingShift":100,"ExtraShading":true,"PercentTint":100,"PercentModified":100}
# Block 3: subtractiveColour | Blending Mode: Normal | {"sliders":{"gainY":0.55,"C":0.3,"M":0.3,"Y":0.3}}
# Block 4: LUT | Filmic Curve Response: Low Contrast 2 (100%)
# Block 5: logPrimaries | Blending Mode: Normal | {"wheels":{"shadows":{"Y":"0","R":"1","G":"1","B":"1"},"midtones":{"Y":"0","R":"1","G":"1","B":"1"},"highlights":{"Y":"0","R":"1","G":"1","B":"1"},"offset":{"Y":"0","R":"1","G":"1","B":"1"}},"sliders":{"shadows":{"Y":0,"R":-0.085,"G":0.024,"B":0.134},"midtones":{"Y":0,"R":0,"G":-0.023,"B":0},"highlights":{"Y":0,"R":0,"G":0,"B":0},"offset":{"Y":0,"R":0.012,"G":-0.012,"B":0}}}
# Block 6: HSL | Blending Mode: Normal | {"hue":{"Reds":0,"Yellows":0,"Greens":0,"Cyans":0,"Blues":0,"Magentas":0},"saturation":{"Reds":1,"Yellows":1,"Greens":1,"Cyans":1,"Blues":1,"Magentas":1},"luminance":{"Reds":0.9,"Yellows":0.9,"Greens":0.9,"Cyans":0.9,"Blues":0.9,"Magentas":0.9},"lum_sat":{"Blacks":1,"Shadows":1,"Midtones":1,"Highlights":1,"Whites":1},"sat_sat":{"10":1,"20":1,"30":1,"40":1,"50":1}}
# Block 7: ODT | Rec709
TITLE "Lutify.me-FilmBoost10-KineLog3-to-Rec709" 
LUT_3D_SIZE 5
0.000000 0.000000 0.000000
0.100733 0.000000 0.000000
0.421152 0.000000 0.000000
1.000000 0.000000 0.150496
1.000000 0.707479 0.594015
0.000000 0.079937 0.000000
0.127350 0.074509 0.000000
0.460285 0.000000 0.000000
1.000000 0.000000 0.154711
1.000000 0.707479 0.594015
0.000000 0.391028 0.000000
0.000000 0.418432 0.000000
0.554193 0.373491 0.000000
1.000000 0.212364 0.166794
1.000000 0.717516 0.597003
0.000000 0.883307 0.308264
0.000000 0.884368 0.310754
0.000000 0.888161 0.285683
0.940546 0.850156 0.211902
1.000000 0.796773 0.630544
0.686036 1.000000 0.828326
0.686036 1.000000 0.828326
0.708406 1.000000 0.828202
0.820947 1.000000 0.826109
1.000000 0.993584 0.814650
0.000000 0.000000 0.060539
0.076957 0.000000 0.033959
0.414925 0.000000 0.032298
1.000000 0.000000 0.174168
1.000000 0.707736 0.597023
0.000000 0.063475 0.124040
0.076346 0.093540 0.108178
0.460331 0.000000 0.043202
1.000000 0.000000 0.176200
1.000000 0.707736 0.597023
0.000000 0.390706 0.052962
0.000000 0.441628 0.000000
0.542219 0.435478 0.000000
1.000000 0.215977 0.188501
1.000000 0.718017 0.603029
0.000000 0.881530 0.345221
0.000000 0.884082 0.343980
0.000000 0.888609 0.329434
0.941303 0.852004 0.252100
1.000000 0.796956 0.633576
0.685913 1.000000 0.829784
0.685913 1.000000 0.829784
0.708288 1.000000 0.829656
0.820947 1.000000 0.826109
1.000000 0.993584 0.814650
0.000000 0.000000 0.252482
0.000000 0.000000 0.205359
0.372810 0.000000 0.105203
1.000000 0.000000 0.279676
1.000000 0.707200 0.618347
0.000000 0.000000 0.351385
0.000000 0.023429 0.323105
0.444956 0.000000 0.246929
1.000000 0.000000 0.286606
1.000000 0.709540 0.618256
0.000000 0.307997 0.521532
0.000000 0.387758 0.505575
0.521604 0.516267 0.544759
1.000000 0.244703 0.315808
1.000000 0.719518 0.621252
0.000000 0.884642 0.505729
0.000000 0.885993 0.508788
0.000000 0.896914 0.508717
0.936160 0.869855 0.448568
1.000000 0.798054 0.651878
0.681906 1.000000 0.838210
0.685183 1.000000 0.838389
0.707472 1.000000 0.839646
0.817662 1.000000 0.832966
1.000000 0.993726 0.822851
0.000000 0.103451 0.745934
0.000000 0.103922 0.755530
0.137323 0.102910 0.762174
0.968427 0.000000 0.597675
1.000000 0.706812 0.737734
0.000000 0.125863 0.756777
0.000000 0.127254 0.763867
0.121708 0.129790 0.773678
0.979285 0.000000 0.629378
1.000000 0.706812 0.737734
0.000000 0.239092 0.799691
0.000000 0.248120 0.806876
0.000000 0.284248 0.827711
1.000000 0.000000 0.747043
1.000000 0.720748 0.746033
0.000000 0.830827 0.884138
0.000000 0.835846 0.887540
0.000000 0.873393 0.893034
0.910266 0.901909 0.903737
1.000000 0.806979 0.769408
0.665524 1.000000 0.891662
0.665524 1.000000 0.891662
0.682244 1.000000 0.890160
0.814303 1.000000 0.891339
1.000000 0.995424 0.881396
0.000000 0.534283 0.991001
0.000000 0.534559 0.991114
0.152363 0.542157 0.991287
0.768054 0.538631 0.987383
1.000000 0.441339 0.945721
0.000000 0.537539 0.990839
0.000000 0.537819 0.990952
0.143257 0.545452 0.991124
0.767294 0.542476 0.987288
1.000000 0.450969 0.945714
0.000000 0.559755 0.991970
0.000000 0.563348 0.991910
0.105215 0.568056 0.992284
0.759597 0.572465 0.988728
1.000000 0.483178 0.948383
0.000000 0.726202 0.994309
0.000000 0.726341 0.994336
0.000000 0.731431 0.994558
0.694351 0.761667 0.992922
1.000000 0.720486 0.968643
0.000000 1.000000 0.998492
0.000000 1.000000 0.998520
0.232148 1.000000 0.998603
0.691643 1.000000 0.998439
0.997437 1.000000 0.998746
