Assets/Lutify-Free-LUTs-Pack/Lutify Free LUTs Pack/Colour Film Boost Pro - Film Boost 10/Lutify.me-FilmBoost10-DragonColor2RLF-to-Rec709.cube
# Created with: fylm.ai - Colour Grading and Collaboration Software in Cloud 
# Website: https://fylm.ai 
# META
# Option: Gamut compress
# Block 1: IDT | RED DragonColor2 REDLogFilm
# Block 2: colourMatch | Blending Mode: Normal | {"ColorSpace":0,"CrossCovarianceLimit":50,"ReshapingIterations":1,"PercentSaturationShift":100,"PercentShadingShift":100,"ExtraShading":true,"PercentTint":100,"PercentModified":100}
# Block 3: subtractiveColour | Blending Mode: Normal | {"sliders":{"gainY":0.55,"C":0.3,"M":0.3,"Y":0.3}}
# Block 4: LUT | Filmic Curve Response: Low Contrast 2 (100%)
# Block 5: logPrimaries | Blending Mode: Normal | {"wheels":{"shadows":{"Y":"0","R":"1","G":"1","B":"1"},"midtones":{"Y":"0","R":"1","G":"1","B":"1"},"highlights":{"Y":"0","R":"1","G":"1","B":"1"},"offset":{"Y":"0","R":"1","G":"1","B":"1"}},"sliders":{"shadows":{"Y":0,"R":-0.085,"G":0.024,"B":0.134},"midtones":{"Y":0,"R":0,"G":-0.023,"B":0},"highlights":{"Y":0,"R":0,"G":0,"B":0},"offset":{"Y":0,"R":0.012,"G":-0.012,"B":0}}}
# Block 6: HSL | Blending Mode: Normal | {"hue":{"Reds":0,"Yellows":0,"Greens":0,"Cyans":0,"Blues":0,"Magentas":0},"saturation":{"Reds":1,"Yellows":1,"Greens":1,"Cyans":1,"Blues":1,"Magentas":1},"luminance":{"Reds":0.9,"Yellows":0.9,"Greens":0.9,"Cyans":0.9,"Blues":0.9,"Magentas":0.9},"lum_sat":{"Blacks":1,"Shadows":1,"Midtones":1,"Highlights":1,"Whites":1},"sat_sat":{"10":1,"20":1,"30":1,"40":1,"50":1}}
# Block 7: ODT | Rec709
TITLE "Lutify.me-FilmBoost10-DragonColor2RLF-to-Rec709" 
LUT_3D_SIZE 9
0.000000 0.000000 0.000000
0.000000 0.000000 0.000000
0.060092 0.000000 0.000000
0.157126 0.000000 0.000000
0.297175 0.000000 0.000000
0.487867 0.000000 0.000000
0.726320 0.000000 0.000000
0.949474 0.000000 0.000000
1.000000 0.312560 0.059139
0.000000 0.000000 0.000000
0.000000 0.000000 0.000000
0.078809 0.000000 0.000000
0.169832 0.000000 0.000000
0.304341 0.000000 0.000000
0.490936 0.000000 0.000000
0.726328 0.000000 0.000000
0.949318 0.000000 0.000000
1.000000 0.313082 0.064479
0.000000 0.073295 0.000000
0.000000 0.077477 0.000000
0.098477 0.070953 0.000000
0.209486 0.000000 0.000000
0.332708 0.000000 0.000000
0.506384 0.000000 0.000000
0.730065 0.000000 0.000000
0.952255 0.000000 0.000000
1.000000 0.317039 0.062543
0.000000 0.185716 0.000000
0.000000 0.189432 0.000000
0.085374 0.187232 0.000000
0.258693 0.160620 0.000000
0.388554 0.100689 0.000000
0.543840 0.000000 0.000000
0.741713 0.000000 0.000000
0.954503 0.000000 0.000000
1.000000 0.325532 0.064910
0.000000 0.340695 0.000000
0.000000 0.339965 0.000000
0.000000 0.338193 0.000000
0.239397 0.332025 0.000000
0.457327 0.286033 0.000000
0.609271 0.230766 0.000000
0.782906 0.150991 0.000000
0.960463 0.116598 0.000000
1.000000 0.361258 0.061180
0.000000 0.546108 0.000000
0.000000 0.548820 0.000000
0.000000 0.547384 0.000000
0.215079 0.543311 0.000000
0.435913 0.532012 0.000000
0.665781 0.479726 0.000000
0.833514 0.419065 0.000000
0.973547 0.379786 0.000000
1.000000 0.432212 0.000000
0.309768 0.756456 0.000000
0.314471 0.758964 0.000000
0.357503 0.757599 0.000000
0.410275 0.755569 0.000000
0.504179 0.753267 0.000000
0.673864 0.744159 0.000000
0.857521 0.686941 0.000000
0.964877 0.647291 0.000000
1.000000 0.625788 0.000000
0.650505 0.882892 0.289088
0.650505 0.882892 0.289088
0.655528 0.882676 0.289216
0.665119 0.882111 0.285900
0.694709 0.883104 0.276487
0.758617 0.879068 0.257997
0.851172 0.872913 0.209532
0.948566 0.843084 0.000000
1.000000 0.815351 0.126186
0.830701 0.952629 0.552569
0.830701 0.952629 0.552569
0.830701 0.952629 0.552569
0.833134 0.952496 0.552691
0.837840 0.952167 0.549752
0.850891 0.951989 0.544606
0.878507 0.950668 0.528464
0.934919 0.946393 0.500177
0.993461 0.932193 0.378664
0.000000 0.000000 0.010296
0.000000 0.000000 0.009190
0.059376 0.000000 0.000000
0.155514 0.000000 0.000000
0.290353 0.000000 0.000000
0.490068 0.000000 0.000000
0.729252 0.000000 0.000000
0.951057 0.000000 0.000000
1.000000 0.313605 0.069415
0.000000 0.000000 0.018235
0.000000 0.000000 0.013224
0.079078 0.000000 0.000000
0.165085 0.000000 0.000000
0.297549 0.000000 0.000000
0.493346 0.000000 0.000000
0.729505 0.000000 0.000000
0.951096 0.000000 0.000000
1.000000 0.313868 0.071763
0.000000 0.073309 0.000000
0.000000 0.081111 0.000000
0.093003 0.076079 0.000000
0.202036 0.000000 0.000000
0.325523 0.000000 0.000000
0.506189 0.000000 0.000000
0.733481 0.000000 0.000000
0.953453 0.000000 0.000000
1.000000 0.317822 0.070108
0.000000 0.191776 0.000000
0.000000 0.192729 0.000000
0.024088 0.193664 0.000000
0.250442 0.170262 0.000000
0.381192 0.114162 0.000000
0.544289 0.000000 0.000000
0.745118 0.000000 0.000000
0.955943 0.000000 0.000000
1.000000 0.326311 0.072362
0.000000 0.346066 0.000000
0.000000 0.347694 0.000000
0.000000 0.348000 0.000000
0.209338 0.344696 0.000000
0.442104 0.303341 0.000000
0.606622 0.236549 0.000000
0.786486 0.152235 0.000000
0.961617 0.133556 0.000000
1.000000 0.362274 0.072455
0.000000 0.550656 0.000000
0.000000 0.552888 0.000000
0.000000 0.551667 0.000000
0.196710 0.554275 0.000000
0.432699 0.545415 0.000000
0.670128 0.487411 0.000000
0.837040 0.422133 0.000000
0.974486 0.385358 0.000000
1.000000 0.433210 0.046276
0.311465 0.757922 0.000000
0.316184 0.760419 0.000000
0.351153 0.759472 0.000000
0.397525 0.757639 0.000000
0.505799 0.754688 0.000000
0.670496 0.745811 0.000000
0.857220 0.691004 0.000000
0.965406 0.648763 0.000000
1.000000 0.630198 0.000000
0.651342 0.883298 0.299845
0.651342 0.883298 0.299845
0.655805 0.882812 0.292799
0.665390 0.882247 0.289478
0.694962 0.883238 0.280050
0.759227 0.879475 0.268636
0.851605 0.873328 0.220434
0.948856 0.843680 0.000000
1.000000 0.815840 0.138205
0.830784 0.952695 0.555766
0.830784 0.952695 0.555766
0.830784 0.952695 0.555766
0.833214 0.952562 0.555887
0.837917 0.952234 0.552940
0.850891 0.951989 0.544606
0.878507 0.950668 0.528464
0.934943 0.946465 0.503130
0.993471 0.932273 0.381114
0.000000 0.000000 0.062483
0.000000 0.000000 0.060717
0.052665 0.000000 0.054237
0.154301 0.000000 0.038310
0.292303 0.000000 0.024681
0.486562 0.000000 0.000000
0.729405 0.000000 0.000000
0.954404 0.000000 0.000000
1.000000 0.316245 0.090561
0.000000 0.000000 0.072106
0.000000 0.000000 0.069067
0.064580 0.000000 0.062818
0.165646 0.000000 0.045274
0.301465 0.000000 0.030332
0.493059 0.000000 0.000000
0.736331 0.000000 0.000000
0.954318 0.000000 0.000000
1.000000 0.316245 0.090561
0.000000 0.072735 0.114978
0.000000 0.080893 0.111379
0.073871 0.090565 0.104747
0.204508 0.043771 0.067257
0.329163 0.000000 0.034310
0.506275 0.000000 0.000000
0.741078 0.000000 0.000000
0.956815 0.000000 0.000000
1.000000 0.320188 0.089373
0.000000 0.205706 0.095604
0.000000 0.208186 0.095543
0.000000 0.217963 0.080678
0.239129 0.205013 0.055673
0.385166 0.133961 0.000000
0.551861 0.000000 0.000000
0.753475 0.000000 0.000000
0.959111 0.000000 0.000000
1.000000 0.328402 0.089562
0.000000 0.366757 0.000000
0.000000 0.366033 0.000000
0.000000 0.366394 0.000000
0.165880 0.370157 0.000000
0.441477 0.332945 0.000000
0.614733 0.262837 0.000000
0.789238 0.175168 0.000000
0.964772 0.157453 0.000000
1.000000 0.364324 0.091137
0.000000 0.563702 0.000000
0.000000 0.566011 0.000000
0.000000 0.564170 0.000000
0.196544 0.569191 0.000000
0.423083 0.559610 0.000000
0.671085 0.503978 0.000000
0.845095 0.433015 0.000000
0.974404 0.401234 0.000000
1.000000 0.435733 0.082674
0.291211 0.764582 0.000000
0.301009 0.764168 0.000000
0.329308 0.763650 0.000000
0.393547 0.760974 0.000000
0.497796 0.758931 0.000000
0.660531 0.751021 0.000000
0.858750 0.702583 0.000000
0.966882 0.652992 0.000000
1.000000 0.635456 0.016471
0.652719 0.883973 0.317672
0.652445 0.883838 0.314121
0.657445 0.883623 0.314239
0.666997 0.883059 0.310926
0.696460 0.884037 0.301442
0.756350 0.880209 0.282592
0.852459 0.874156 0.241721
0.949500 0.845024 0.000000
1.000000 0.816823 0.159997
0.830945 0.952827 0.562175
0.830945 0.952827 0.562175
0.830945 0.952827 0.562175
0.833371 0.952695 0.562294
0.837994 0.952300 0.556133
0.851026 0.952122 0.550937
0.878597 0.950804 0.534671
0.934988 0.946607 0.509056
0.992721 0.932801 0.393125
0.000000 0.000000 0.133109
0.000000 0.000000 0.131750
0.035711 0.000000 0.124996
0.156563 0.000000 0.105685
0.294948 0.000000 0.098767
0.501320 0.000000 0.077025
0.739844 0.000000 0.061354
0.963661 0.000000 0.065466
1.000000 0.322174 0.129145
0.000000 0.000000 0.151007
0.000000 0.000000 0.147594
0.035350 0.000000 0.142965
0.164254 0.000000 0.132499
0.307798 0.000000 0.106766
0.513679 0.000000 0.078202
0.747353 0.000000 0.062271
0.965828 0.000000 0.064412
1.000000 0.322174 0.129145
0.000000 0.057772 0.206938
0.000000 0.063793 0.204889
0.000000 0.070475 0.208572
0.202525 0.053594 0.201184
0.339834 0.000000 0.133864
0.532985 0.000000 0.088019
0.751878 0.000000 0.063633
0.966028 0.000000 0.066056
1.000000 0.326089 0.128429
0.000000 0.198111 0.255579
0.000000 0.201645 0.258544
0.000000 0.219774 0.258059
0.201735 0.232650 0.260907
0.399082 0.168963 0.178809
0.564638 0.000000 0.097507
0.771223 0.000000 0.064397
0.967497 0.000000 0.061362
1.000000 0.341955 0.127590
0.000000 0.390427 0.240887
0.000000 0.389853 0.238475
0.000000 0.396542 0.234386
0.096739 0.406515 0.226756
0.443377 0.400370 0.193529
0.636323 0.294733 0.094167
0.810528 0.195412 0.049344
0.972618 0.173750 0.056337
1.000000 0.369548 0.129594
0.000000 0.596670 0.174727
0.000000 0.599051 0.168231
0.000000 0.597315 0.160139
0.090727 0.597113 0.145110
0.407062 0.588940 0.122080
0.679461 0.559169 0.000000
0.854335 0.471500 0.000000
0.976264 0.415397 0.000000
1.000000 0.441416 0.133253
0.289682 0.772345 0.176914
0.300034 0.772175 0.176982
0.328725 0.771407 0.173403
0.383489 0.771965 0.161276
0.485165 0.770069 0.136263
0.671060 0.759941 0.095193
0.862202 0.721991 0.000000
0.966099 0.666624 0.000000
1.000000 0.644735 0.132726
0.655923 0.885586 0.359969
0.655400 0.885318 0.352945
0.660363 0.885103 0.353048
0.670107 0.884676 0.353257
0.699590 0.885759 0.347212
0.759082 0.882096 0.331844
0.854620 0.876356 0.297172
0.947591 0.850707 0.140229
1.000000 0.821342 0.207729
0.831255 0.953090 0.575055
0.831255 0.953090 0.575055
0.831255 0.953090 0.575055
0.833673 0.952958 0.575169
0.838359 0.952631 0.572177
0.851344 0.952453 0.566856
0.878805 0.951142 0.550288
0.935101 0.947031 0.526992
0.992761 0.933358 0.410734
0.000000 0.000000 0.273474
0.000000 0.000000 0.270293
0.000000 0.000000 0.273591
0.127851 0.000000 0.266575
0.330631 0.000000 0.239521
0.520596 0.000000 0.217936
0.772050 0.000000 0.179484
0.978328 0.000000 0.160938
1.000000 0.344628 0.193585
0.000000 0.029575 0.283388
0.000000 0.030262 0.285443
0.000000 0.031422 0.289083
0.131263 0.000000 0.283525
0.339615 0.000000 0.257484
0.527216 0.000000 0.223929
0.773452 0.000000 0.181108
0.978073 0.000000 0.160581
1.000000 0.344628 0.193585
0.000000 0.054514 0.311111
0.000000 0.054231 0.313729
0.000000 0.059274 0.318506
0.140455 0.052457 0.316571
0.367561 0.000000 0.296620
0.546961 0.000000 0.244443
0.779768 0.000000 0.185767
0.980283 0.000000 0.163069
1.000000 0.352255 0.192748
0.000000 0.165383 0.384092
0.000000 0.168097 0.382556
0.000000 0.176851 0.390775
0.113306 0.196076 0.400829
0.412143 0.178605 0.393985
0.601267 0.000000 0.291538
0.801402 0.000000 0.198514
0.981902 0.000000 0.166087
1.000000 0.363992 0.193543
0.000000 0.386495 0.460706
0.000000 0.391664 0.460283
0.000000 0.404589 0.461822
0.000000 0.417903 0.468791
0.429426 0.434663 0.461191
0.646666 0.354064 0.357401
0.836566 0.231352 0.223086
0.985473 0.207728 0.174610
1.000000 0.394592 0.195760
0.000000 0.616573 0.451587
0.000000 0.620381 0.445239
0.000000 0.622069 0.444003
0.000000 0.634608 0.433415
0.385750 0.635114 0.428714
0.694007 0.619274 0.391578
0.863063 0.520698 0.246981
0.984421 0.443457 0.185035
1.000000 0.465877 0.206731
0.303682 0.792394 0.398816
0.298829 0.794537 0.394806
0.329509 0.794001 0.394908
0.391102 0.792218 0.387931
0.489638 0.790557 0.370152
0.662818 0.784100 0.346672
0.860270 0.760842 0.266217
0.968288 0.692884 0.203929
1.000000 0.656741 0.219118
0.654236 0.891585 0.440834
0.654236 0.891585 0.440834
0.659199 0.891373 0.440909
0.673718 0.890740 0.441139
0.705109 0.889027 0.434675
0.762610 0.886922 0.422223
0.847565 0.880922 0.395347
0.946180 0.861253 0.297462
1.000000 0.825642 0.285162
0.826535 0.954707 0.607655
0.826535 0.954707 0.607655
0.828989 0.954574 0.607754
0.831415 0.954443 0.607855
0.836064 0.954054 0.601537
0.851845 0.953043 0.595827
0.879145 0.951812 0.581934
0.933362 0.948593 0.560606
0.991591 0.935783 0.458302
0.000000 0.071325 0.471744
0.000000 0.072891 0.474548
0.000000 0.074294 0.477175
0.000000 0.074118 0.479951
0.295407 0.000000 0.473542
0.584284 0.000000 0.436679
0.789836 0.000000 0.401278
0.984572 0.000000 0.342987
1.000000 0.369222 0.316063
0.000000 0.078422 0.481909
0.000000 0.079236 0.483883
0.000000 0.079861 0.486801
0.000000 0.081544 0.487627
0.300945 0.000000 0.478954
0.589809 0.000000 0.447603
0.793973 0.000000 0.402064
0.984623 0.000000 0.343211
1.000000 0.369222 0.316063
0.000000 0.096112 0.496292
0.000000 0.096118 0.498106
0.000000 0.097945 0.503400
0.000000 0.102986 0.507277
0.301093 0.071415 0.502082
0.601889 0.000000 0.464509
0.802736 0.000000 0.409114
0.988958 0.000000 0.348605
1.000000 0.373559 0.320893
0.000000 0.148916 0.525316
0.000000 0.151904 0.527894
0.000000 0.156508 0.532444
0.000000 0.168482 0.544885
0.322732 0.156101 0.543629
0.632761 0.000000 0.523379
0.820328 0.000000 0.437666
0.991015 0.126060 0.354581
1.000000 0.388591 0.320207
0.000000 0.331770 0.606206
0.000000 0.335248 0.607985
0.000000 0.342984 0.605913
0.000000 0.361289 0.615678
0.293009 0.384189 0.629551
0.666285 0.367763 0.620601
0.850434 0.273361 0.506303
0.993351 0.258926 0.372847
1.000000 0.411624 0.326794
0.000000 0.615043 0.672855
0.000000 0.615686 0.673755
0.000000 0.624214 0.675791
0.000000 0.634305 0.676828
0.308133 0.642304 0.685868
0.675571 0.658357 0.677546
0.853311 0.582698 0.576264
0.988154 0.483083 0.411762
1.000000 0.492699 0.340954
0.182188 0.810429 0.662696
0.221044 0.810550 0.663340
0.253653 0.810678 0.660532
0.338985 0.811007 0.662810
0.451791 0.815655 0.655928
0.639677 0.812556 0.651115
0.846363 0.802972 0.615037
0.960835 0.733063 0.451127
1.000000 0.681346 0.370921
0.646047 0.902179 0.620855
0.646047 0.902179 0.620855
0.651080 0.901970 0.620890
0.660780 0.901439 0.617303
0.688877 0.900208 0.617546
0.747747 0.899503 0.610731
0.846071 0.893051 0.580738
0.940509 0.883324 0.525142
1.000000 0.843313 0.446571
0.819826 0.957096 0.675997
0.819826 0.957096 0.675997
0.821809 0.957637 0.676212
0.821809 0.957637 0.676212
0.826665 0.957313 0.673210
0.840707 0.956485 0.670520
0.877233 0.954163 0.659548
0.930464 0.950514 0.641943
0.988225 0.941438 0.566939
0.000000 0.177372 0.689450
0.000000 0.177412 0.690551
0.000000 0.180675 0.693241
0.000000 0.183657 0.698483
0.194955 0.177318 0.701547
0.550690 0.108902 0.690946
0.846489 0.000000 0.662664
0.991870 0.000000 0.613595
1.000000 0.412281 0.553097
0.000000 0.182050 0.692972
0.000000 0.182098 0.694075
0.000000 0.183780 0.696253
0.000000 0.188519 0.702020
0.193061 0.183083 0.702317
0.550359 0.120284 0.694838
0.850352 0.000000 0.666518
0.992029 0.000000 0.617124
1.000000 0.416321 0.553237
0.000000 0.189984 0.700048
0.000000 0.193412 0.701070
0.000000 0.193491 0.703018
0.000000 0.198717 0.705699
0.204154 0.195586 0.707119
0.553731 0.139207 0.702567
0.855022 0.000000 0.671704
0.991826 0.090898 0.617805
1.000000 0.420353 0.553376
0.000000 0.222893 0.713886
0.000000 0.226729 0.714600
0.000000 0.226996 0.716800
0.000000 0.231338 0.719766
0.215682 0.230844 0.723529
0.555964 0.202330 0.720007
0.863700 0.000000 0.682051
0.993064 0.175417 0.626413
1.000000 0.428334 0.556821
0.000000 0.309045 0.744159
0.000000 0.309314 0.744946
0.000000 0.312427 0.746957
0.000000 0.321590 0.749148
0.225639 0.336170 0.755914
0.564848 0.324375 0.754663
0.871249 0.297214 0.744023
0.995514 0.285759 0.650054
1.000000 0.460204 0.564164
0.000000 0.556663 0.795725
0.000000 0.557050 0.796168
0.000000 0.561360 0.797095
0.000000 0.571075 0.797743
0.208570 0.578346 0.803655
0.564174 0.606873 0.806670
0.864390 0.603034 0.802710
0.985752 0.521869 0.714047
1.000000 0.530695 0.582086
0.183471 0.810348 0.829093
0.204626 0.810399 0.829279
0.240172 0.810496 0.829652
0.317068 0.813115 0.830625
0.440611 0.815677 0.832903
0.623983 0.820051 0.833918
0.834134 0.824260 0.837277
0.943783 0.778913 0.770026
1.000000 0.714768 0.620871
0.641028 0.908953 0.821576
0.641028 0.908953 0.821576
0.646457 0.908872 0.821780
0.662433 0.908646 0.820401
0.686225 0.909408 0.821213
0.752479 0.910720 0.818190
0.826399 0.909527 0.810716
0.928262 0.902095 0.790950
0.997742 0.862286 0.668307
0.824763 0.960466 0.799812
0.824763 0.960466 0.799812
0.824763 0.960466 0.799812
0.827134 0.960339 0.799835
0.831720 0.960026 0.797687
0.841931 0.960704 0.797703
0.871070 0.959556 0.793731
0.922321 0.956623 0.777223
0.981805 0.950174 0.733725
0.000000 0.340057 0.857842
0.000000 0.345626 0.857976
0.000000 0.345722 0.858318
0.000000 0.348831 0.859743
0.241831 0.354532 0.862697
0.473824 0.348185 0.858914
0.793570 0.313612 0.852854
1.000000 0.251050 0.826721
1.000000 0.434347 0.787811
0.000000 0.345439 0.859793
0.000000 0.345439 0.859793
0.000000 0.348397 0.860365
0.000000 0.348641 0.861545
0.241831 0.354532 0.862697
0.473162 0.351538 0.858999
0.793377 0.317723 0.852953
1.000000 0.256543 0.826845
1.000000 0.434347 0.787811
0.000000 0.350983 0.859579
0.000000 0.351038 0.859749
0.000000 0.351191 0.860258
0.000000 0.354296 0.861329
0.241794 0.363362 0.862529
0.472479 0.354911 0.859083
0.792491 0.325745 0.854947
1.000000 0.272455 0.829353
1.000000 0.438591 0.787723
0.000000 0.365094 0.861162
0.000000 0.368126 0.861382
0.000000 0.368318 0.861886
0.000000 0.371586 0.862770
0.234313 0.378075 0.865647
0.471693 0.374765 0.863068
0.790566 0.350043 0.857268
1.000000 0.302251 0.831957
1.000000 0.454677 0.790652
0.000000 0.410772 0.864325
0.000000 0.410772 0.864325
0.000000 0.410955 0.864653
0.000000 0.414736 0.865825
0.228686 0.421896 0.868122
0.478251 0.418705 0.868927
0.808288 0.405943 0.865107
1.000000 0.371821 0.843557
1.000000 0.482794 0.795845
0.000000 0.531131 0.879141
0.000000 0.531248 0.879287
0.000000 0.531363 0.879434
0.000000 0.531994 0.880306
0.265575 0.536791 0.880580
0.508914 0.555408 0.883367
0.800222 0.542218 0.882119
0.991415 0.549442 0.869084
1.000000 0.557659 0.808352
0.000000 0.764469 0.898351
0.000000 0.764560 0.898463
0.058634 0.764650 0.898576
0.188175 0.768094 0.897599
0.331004 0.774442 0.898472
0.527747 0.777904 0.900920
0.780824 0.791176 0.903026
0.946892 0.793118 0.899503
1.000000 0.743940 0.845446
0.628320 0.909917 0.914797
0.633868 0.909836 0.914901
0.633868 0.909836 0.914901
0.644064 0.910921 0.915034
0.670235 0.910663 0.914572
0.735315 0.912298 0.915064
0.814855 0.914390 0.912635
0.922157 0.916210 0.916683
0.981826 0.888892 0.873105
0.812957 0.965227 0.907988
0.812957 0.965227 0.907988
0.812957 0.965227 0.907988
0.815594 0.965172 0.908109
0.823302 0.965015 0.908476
0.832725 0.965431 0.907766
0.860458 0.966138 0.905917
0.914225 0.965148 0.898611
0.973289 0.960309 0.888123
0.377193 0.548930 0.944741
0.374567 0.552354 0.944573
0.381599 0.552380 0.944647
0.395391 0.552426 0.944795
0.426297 0.555942 0.944993
0.513435 0.566535 0.944611
0.704156 0.562914 0.941681
0.944559 0.549776 0.937745
1.000000 0.540358 0.922354
0.374567 0.552354 0.944573
0.374567 0.552354 0.944573
0.381599 0.552380 0.944647
0.395391 0.552426 0.944795
0.426297 0.555942 0.944993
0.513435 0.566535 0.944611
0.704156 0.562914 0.941681
0.944559 0.549776 0.937745
1.000000 0.540358 0.922354
0.374567 0.552354 0.944573
0.381599 0.552380 0.944647
0.378989 0.555809 0.944477
0.392902 0.555860 0.944626
0.424024 0.559392 0.944823
0.511185 0.569792 0.945383
0.708010 0.566421 0.941583
0.943831 0.553866 0.937691
1.000000 0.544453 0.922317
0.376330 0.559240 0.944307
0.376330 0.559240 0.944307
0.383396 0.559269 0.944381
0.392171 0.566201 0.944186
0.425982 0.566313 0.944553
0.515287 0.573276 0.945282
0.707089 0.570306 0.941516
0.942632 0.557406 0.939545
1.000000 0.556514 0.923239
0.373232 0.579456 0.945313
0.380519 0.579496 0.945386
0.380519 0.579496 0.945386
0.401780 0.579601 0.945603
0.426555 0.583170 0.945714
0.518928 0.586776 0.946587
0.710035 0.592406 0.942918
0.940138 0.581370 0.940101
1.000000 0.572661 0.925351
0.388704 0.620460 0.946425
0.385700 0.623917 0.946238
0.393197 0.623972 0.946308
0.422138 0.624169 0.946587
0.447202 0.627809 0.946675
0.536693 0.628143 0.947617
0.723546 0.635773 0.946309
0.929531 0.636531 0.942702
1.000000 0.628476 0.928770
0.409958 0.732992 0.951337
0.409958 0.732992 0.951337
0.418047 0.733042 0.951399
0.441544 0.733180 0.951582
0.471355 0.733337 0.951824
0.571842 0.737449 0.950087
0.734530 0.752527 0.950281
0.912125 0.751082 0.948283
1.000000 0.761167 0.941698
0.591744 0.882143 0.958215
0.591744 0.882143 0.958215
0.603896 0.882006 0.958324
0.609836 0.881939 0.958379
0.631798 0.883236 0.958489
0.682647 0.884152 0.958940
0.775394 0.893601 0.957771
0.888465 0.895994 0.959768
0.983011 0.898843 0.956054
0.813736 0.966663 0.967419
0.813736 0.966663 0.967419
0.813736 0.966663 0.967419
0.816288 0.966610 0.967477
0.821288 0.966509 0.967594
0.830886 0.966322 0.967830
0.864363 0.968510 0.967154
0.911360 0.969478 0.966340
0.967724 0.971311 0.965095
