Assets/Lutify-Free-LUTs-Pack/Lutify Free LUTs Pack/Colour Film Boost Pro - Film Boost 10/Lutify.me-FilmBoost10-SLog2-to-Rec709.cube
# Created with: fylm.ai - Colour Grading and Collaboration Software in Cloud 
# Website: https://fylm.ai 
# META
# Option: Gamut compress
# Block 1: IDT | Sony S-Log2 S-Gamut Daylight 10-bit
# Block 2: colourMatch | Blending Mode: Normal | {"ColorSpace":0,"CrossCovarianceLimit":50,"ReshapingIterations":1,"PercentSaturationShift":100,"PercentShadingShift":100,"ExtraShading":true,"PercentTint":100,"PercentModified":100}
# Block 3: subtractiveColour | Blending Mode: Normal | {"sliders":{"gainY":0.55,"C":0.3,"M":0.3,"Y":0.3}}
# Block 4: LUT | Filmic Curve Response: Low Contrast 2 (100%)
# Block 5: logPrimaries | Blending Mode: Normal | {"wheels":{"shadows":{"Y":"0","R":"1","G":"1","B":"1"},"midtones":{"Y":"0","R":"1","G":"1","B":"1"},"highlights":{"Y":"0","R":"1","G":"1","B":"1"},"offset":{"Y":"0","R":"1","G":"1","B":"1"}},"sliders":{"shadows":{"Y":0,"R":-0.085,"G":0.024,"B":0.134},"midtones":{"Y":0,"R":0,"G":-0.023,"B":0},"highlights":{"Y":0,"R":0,"G":0,"B":0},"offset":{"Y":0,"R":0.012,"G":-0.012,"B":0}}}
# Block 6: HSL | Blending Mode: Normal | {"hue":{"Reds":0,"Yellows":0,"Greens":0,"Cyans":0,"Blues":0,"Magentas":0},"saturation":{"Reds":1,"Yellows":1,"Greens":1,"Cyans":1,"Blues":1,"Magentas":1},"luminance":{"Reds":0.9,"Yellows":0.9,"Greens":0.9,"Cyans":0.9,"Blues":0.9,"Magentas":0.9},"lum_sat":{"Blacks":1,"Shadows":1,"Midtones":1,"Highlights":1,"Whites":1},"sat_sat":{"10":1,"20":1,"30":1,"40":1,"50":1}}
# Block 7: ODT | Rec709
TITLE "Lutify.me-FilmBoost10-SLog2-to-Rec709" 
LUT_3D_SIZE 33
0.000000 0.000000 0.000000
0.000000 0.000000 0.000000
0.000000 0.000000 0.000000
0.000000 0.000000 0.000000
0.074650 0.000000 0.000000
0.115635 0.000000 0.000000
0.147670 0.000000 0.000000
0.180394 0.000000 0.000000
0.210533 0.000000 0.000000
0.247778 0.000000 0.000000
0.287746 0.000000 0.000000
0.322964 0.000000 0.000000
0.371062 0.000000 0.000000
0.417702 0.000000 0.000000
0.470997 0.000000 0.000000
0.527155 0.000000 0.023537
0.585888 0.000000 0.038035
0.640683 0.000000 0.053235
0.696129 0.000000 0.069081
0.755384 0.000000 0.086106
0.814991 0.000000 0.106345
0.867704 0.000000 0.125058
0.906576 0.000000 0.148030
0.947341 0.000000 0.180658
0.983028 0.000000 0.211965
1.000000 0.000000 0.244186
1.000000 0.151100 0.273647
1.000000 0.236065 0.306640
1.000000 0.312030 0.343322
1.000000 0.369479 0.387671
1.000000 0.423304 0.422752
1.000000 0.473042 0.462310
1.000000 0.525923 0.509158
0.000000 0.000000 0.000000
0.000000 0.000000 0.000000
0.000000 0.000000 0.000000
0.000000 0.000000 0.000000
0.070550 0.000000 0.000000
0.115635 0.000000 0.000000
0.150233 0.000000 0.000000
0.183711 0.000000 0.000000
0.216099 0.000000 0.000000
0.256416 0.000000 0.000000
0.295836 0.000000 0.000000
0.336248 0.000000 0.000000
0.376490 0.000000 0.000000
0.420304 0.000000 0.000000
0.477127 0.000000 0.000000
0.530382 0.000000 0.021967
0.589218 0.000000 0.037076
0.647483 0.000000 0.052295
0.700140 0.000000 0.070068
0.755910 0.000000 0.087341
0.815212 0.000000 0.107028
0.867581 0.000000 0.124785
0.906450 0.000000 0.147830
0.947048 0.000000 0.180335
0.982890 0.000000 0.211849
1.000000 0.000000 0.244068
1.000000 0.151100 0.273647
1.000000 0.236065 0.306640
1.000000 0.312030 0.343322
1.000000 0.376986 0.387372
1.000000 0.427170 0.425657
1.000000 0.476767 0.465296
1.000000 0.525923 0.509158
0.000000 0.000000 0.000000
0.000000 0.000000 0.000000
0.000000 0.000000 0.000000
0.000000 0.000000 0.000000
0.069270 0.000000 0.000000
0.117361 0.000000 0.000000
0.155030 0.000000 0.000000
0.192707 0.000000 0.000000
0.228234 0.000000 0.000000
0.264337 0.000000 0.000000
0.304210 0.000000 0.000000
0.344478 0.000000 0.000000
0.387777 0.000000 0.000000
0.428179 0.000000 0.000000
0.480138 0.000000 0.000000
0.533617 0.000000 0.020124
0.589752 0.000000 0.037417
0.648028 0.000000 0.053182
0.700094 0.000000 0.069533
0.755217 0.000000 0.085144
0.814755 0.000000 0.105549
0.867455 0.000000 0.124496
0.912097 0.000000 0.147563
0.946948 0.000000 0.180222
0.982608 0.000000 0.211609
1.000000 0.000000 0.243947
1.000000 0.158625 0.277873
1.000000 0.240890 0.306490
1.000000 0.316100 0.343166
1.000000 0.376986 0.387372
1.000000 0.427170 0.425657
1.000000 0.476767 0.465296
1.000000 0.529231 0.509013
0.000000 0.000000 0.000000
0.000000 0.000000 0.000000
0.000000 0.000000 0.000000
0.000000 0.000000 0.000000
0.081296 0.000000 0.000000
0.124329 0.000000 0.000000
0.161269 0.000000 0.000000
0.202433 0.000000 0.000000
0.239918 0.000000 0.000000
0.275382 0.000000 0.000000
0.309735 0.000000 0.000000
0.354969 0.000000 0.000000
0.395003 0.000000 0.000000
0.430718 0.000000 0.000000
0.482970 0.000000 0.000000
0.543313 0.000000 0.015971
0.593103 0.000000 0.036066
0.651432 0.000000 0.052361
0.700061 0.000000 0.069101
0.755127 0.000000 0.084566
0.818161 0.000000 0.105225
0.867278 0.000000 0.124084
0.912590 0.000000 0.150150
0.947142 0.000000 0.182989
0.982464 0.000000 0.211486
1.000000 0.000000 0.243698
1.000000 0.171390 0.277602
1.000000 0.245661 0.306336
1.000000 0.316210 0.343242
1.000000 0.376986 0.387372
1.000000 0.427170 0.425657
1.000000 0.476767 0.465296
1.000000 0.529231 0.509013
0.000000 0.047376 0.000000
0.000000 0.048233 0.000000
0.000000 0.049750 0.000000
0.000000 0.053394 0.000000
0.059766 0.052489 0.000000
0.126236 0.028619 0.000000
0.175690 0.000000 0.000000
0.216905 0.000000 0.000000
0.252366 0.000000 0.000000
0.285379 0.000000 0.000000
0.322807 0.000000 0.000000
0.359402 0.000000 0.000000
0.399800 0.000000 0.000000
0.433465 0.000000 0.000000
0.485851 0.000000 0.000000
0.543621 0.000000 0.014051
0.599808 0.000000 0.033954
0.651702 0.000000 0.052164
0.703477 0.000000 0.068338
0.758536 0.000000 0.083973
0.818045 0.000000 0.104800
0.870355 0.000000 0.123756
0.915190 0.000000 0.149733
0.947035 0.000000 0.182871
0.982317 0.000000 0.211360
1.000000 0.020071 0.243570
1.000000 0.177441 0.277462
1.000000 0.250690 0.308599
1.000000 0.316210 0.343242
1.000000 0.380724 0.387220
1.000000 0.430737 0.425507
1.000000 0.483617 0.464998
1.000000 0.529231 0.509013
0.000000 0.074420 0.000000
0.000000 0.075622 0.000000
0.000000 0.078107 0.000000
0.000000 0.081965 0.000000
0.000000 0.089666 0.000000
0.122895 0.075181 0.000000
0.184784 0.047887 0.000000
0.229384 0.000000 0.000000
0.270728 0.000000 0.000000
0.302797 0.000000 0.000000
0.336788 0.000000 0.000000
0.372921 0.000000 0.000000
0.404616 0.000000 0.000000
0.444085 0.000000 0.000000
0.494825 0.000000 0.000000
0.550224 0.000000 0.000000
0.599857 0.000000 0.032213
0.654841 0.000000 0.050132
0.703416 0.000000 0.067291
0.758418 0.000000 0.083111
0.817895 0.000000 0.104221
0.869564 0.000000 0.120942
0.915446 0.000000 0.152003
0.954278 0.000000 0.182610
0.984189 0.000000 0.211147
1.000000 0.053678 0.243486
1.000000 0.189017 0.277175
1.000000 0.259899 0.308345
1.000000 0.320842 0.348486
1.000000 0.380724 0.387220
1.000000 0.430737 0.425507
1.000000 0.483617 0.464998
1.000000 0.529231 0.509013
0.000000 0.103032 0.000000
0.000000 0.103032 0.000000
0.000000 0.107812 0.000000
0.000000 0.110853 0.000000
0.000000 0.123683 0.000000
0.084315 0.123960 0.000000
0.177965 0.103733 0.000000
0.239715 0.076599 0.000000
0.282573 0.042835 0.000000
0.316266 0.000000 0.000000
0.354100 0.000000 0.000000
0.387586 0.000000 0.000000
0.417501 0.000000 0.000000
0.458035 0.000000 0.000000
0.503846 0.000000 0.000000
0.556935 0.000000 0.000000
0.606635 0.000000 0.027923
0.657725 0.000000 0.046358
0.706802 0.000000 0.065613
0.764658 0.000000 0.080131
0.821190 0.000000 0.103422
0.873048 0.000000 0.122515
0.917900 0.000000 0.151400
0.953931 0.000000 0.182220
0.984089 0.000000 0.212634
1.000000 0.099512 0.243079
1.000000 0.194141 0.277079
1.000000 0.264452 0.308183
1.000000 0.328850 0.348173
1.000000 0.384451 0.387067
1.000000 0.434299 0.425355
1.000000 0.483617 0.464998
1.000000 0.532538 0.508866
0.000000 0.134705 0.000000
0.000000 0.134705 0.000000
0.000000 0.136699 0.000000
0.000000 0.142351 0.000000
0.000000 0.150991 0.000000
0.000000 0.159226 0.000000
0.156026 0.157102 0.000000
0.237551 0.131739 0.000000
0.289753 0.107749 0.000000
0.325223 0.088140 0.000000
0.362184 0.064232 0.000000
0.398624 0.000000 0.000000
0.428794 0.000000 0.000000
0.467330 0.000000 0.000000
0.513423 0.000000 0.000000
0.563447 0.000000 0.000000
0.613525 0.000000 0.017527
0.664328 0.000000 0.041725
0.713637 0.000000 0.063171
0.768595 0.000000 0.080613
0.820922 0.000000 0.102240
0.876472 0.000000 0.124071
0.920747 0.000000 0.153402
0.956389 0.000000 0.184883
0.985761 0.000000 0.212262
1.000000 0.126600 0.244664
1.000000 0.210160 0.276619
1.000000 0.268953 0.308020
1.000000 0.332822 0.348014
1.000000 0.388617 0.389953
1.000000 0.434515 0.425428
1.000000 0.487040 0.464847
1.000000 0.532538 0.508866
0.000000 0.164189 0.000000
0.000000 0.164189 0.000000
0.000000 0.164189 0.000000
0.000000 0.169560 0.000000
0.000000 0.180754 0.000000
0.000000 0.189217 0.000000
0.073052 0.193967 0.000000
0.222938 0.178946 0.000000
0.286577 0.155408 0.000000
0.334079 0.132536 0.000000
0.372962 0.119247 0.000000
0.408295 0.105718 0.000000
0.441419 0.083647 0.000000
0.482820 0.031984 0.000000
0.517307 0.000000 0.000000
0.573979 0.000000 0.000000
0.626354 0.000000 0.000000
0.674659 0.000000 0.034815
0.720486 0.000000 0.060534
0.771879 0.000000 0.078543
0.824097 0.000000 0.100832
0.876571 0.000000 0.125266
0.920720 0.000000 0.155352
0.958306 0.000000 0.184339
0.985085 0.037970 0.211666
1.000000 0.155725 0.244057
1.000000 0.220350 0.276297
1.000000 0.277816 0.307685
1.000000 0.336872 0.347928
1.000000 0.396013 0.389641
1.000000 0.438066 0.425275
1.000000 0.490461 0.464695
1.000000 0.535845 0.508719
0.000000 0.189904 0.000000
0.000000 0.189904 0.000000
0.000000 0.194032 0.000000
0.000000 0.197185 0.000000
0.000000 0.206478 0.000000
0.000000 0.219902 0.000000
0.000000 0.225611 0.000000
0.185233 0.219291 0.000000
0.271609 0.203925 0.000000
0.334112 0.178699 0.000000
0.381043 0.156493 0.000000
0.420347 0.145666 0.000000
0.457632 0.135308 0.000000
0.490437 0.123415 0.000000
0.530480 0.100707 0.000000
0.581674 0.068542 0.000000
0.630399 0.000000 0.000000
0.681262 0.000000 0.000000
0.727870 0.000000 0.056280
0.779154 0.000000 0.077203
0.830522 0.000000 0.098487
0.882058 0.000000 0.123231
0.922788 0.000000 0.154206
0.960020 0.000000 0.183586
0.986504 0.100705 0.211070
1.000000 0.179366 0.243452
1.000000 0.234737 0.275845
1.000000 0.290738 0.307234
1.000000 0.348607 0.347433
1.000000 0.399698 0.389483
1.000000 0.441613 0.425120
1.000000 0.490461 0.464695
1.000000 0.542459 0.508422
0.000000 0.220360 0.000000
0.000000 0.220360 0.000000
0.000000 0.220360 0.000000
0.000000 0.227780 0.000000
0.000000 0.235752 0.000000
0.000000 0.247321 0.000000
0.000000 0.254828 0.000000
0.079917 0.252957 0.000000
0.236545 0.251960 0.000000
0.325007 0.228830 0.000000
0.390088 0.201043 0.000000
0.435297 0.185547 0.000000
0.471620 0.178373 0.000000
0.501066 0.176732 0.000000
0.545029 0.166919 0.000000
0.588777 0.152740 0.000000
0.641451 0.136794 0.000000
0.688890 0.113907 0.000000
0.734788 0.036320 0.040930
0.786243 0.000000 0.072226
0.836953 0.000000 0.095862
0.884444 0.000000 0.121202
0.924363 0.000000 0.150168
0.959271 0.034108 0.182706
0.987665 0.140786 0.210242
1.000000 0.200595 0.242797
1.000000 0.248941 0.277594
1.000000 0.299212 0.306877
1.000000 0.352486 0.347264
1.000000 0.403376 0.389324
1.000000 0.448696 0.424807
1.000000 0.493880 0.464541
1.000000 0.546054 0.508353
0.000000 0.250899 0.000000
0.000000 0.250899 0.000000
0.000000 0.250899 0.000000
0.000000 0.257425 0.000000
0.000000 0.263982 0.000000
0.000000 0.276032 0.000000
0.000000 0.286628 0.000000
0.000000 0.294616 0.000000
0.161882 0.290185 0.000000
0.306777 0.281803 0.000000
0.383118 0.252850 0.000000
0.443333 0.232097 0.000000
0.485045 0.219317 0.000000
0.515658 0.223913 0.000000
0.555091 0.216893 0.000000
0.598976 0.210074 0.000000
0.645063 0.196457 0.000000
0.692822 0.191620 0.000000
0.738608 0.169888 0.000000
0.789884 0.135250 0.063397
0.840262 0.099541 0.093459
0.886434 0.074965 0.117830
0.923256 0.089379 0.148111
0.960153 0.138129 0.180936
0.988326 0.176756 0.207327
1.000000 0.225702 0.241832
1.000000 0.271733 0.276643
1.000000 0.311633 0.306396
1.000000 0.364035 0.346747
1.000000 0.410709 0.388999
1.000000 0.455763 0.424488
1.000000 0.501011 0.467382
1.000000 0.549354 0.508203
0.000000 0.274454 0.000000
0.000000 0.274454 0.000000
0.000000 0.274454 0.000000
0.000000 0.281584 0.000000
0.000000 0.291805 0.000000
0.000000 0.306078 0.000000
0.000000 0.317997 0.000000
0.000000 0.325808 0.000000
0.000000 0.325136 0.000000
0.237664 0.319824 0.000000
0.352639 0.313774 0.000000
0.430989 0.282247 0.000000
0.493683 0.265095 0.000000
0.525432 0.261716 0.000000
0.560787 0.262713 0.000000
0.604455 0.255391 0.000000
0.657249 0.249012 0.000000
0.695647 0.245886 0.000000
0.748317 0.238372 0.000000
0.792991 0.216486 0.037279
0.842353 0.194240 0.082984
0.888637 0.173289 0.116558
0.926791 0.173440 0.144468
0.960988 0.183895 0.179075
0.988746 0.217528 0.207385
1.000000 0.248398 0.238817
1.000000 0.293206 0.275679
1.000000 0.328134 0.308168
1.000000 0.375814 0.349046
1.000000 0.418304 0.391656
1.000000 0.459879 0.430481
1.000000 0.507839 0.467070
1.000000 0.552653 0.508052
0.000000 0.306111 0.000000
0.000000 0.306111 0.000000
0.000000 0.306111 0.000000
0.000000 0.306111 0.000000
0.000000 0.314318 0.000000
0.000000 0.331004 0.000000
0.000000 0.343762 0.000000
0.000000 0.354829 0.000000
0.000000 0.355890 0.000000
0.132243 0.351956 0.000000
0.302765 0.350682 0.000000
0.417631 0.335363 0.000000
0.491292 0.314990 0.000000
0.539661 0.299423 0.000000
0.572443 0.296283 0.000000
0.608423 0.300660 0.000000
0.661987 0.296693 0.000000
0.704718 0.295860 0.000000
0.749451 0.292890 0.000000
0.798858 0.285694 0.000000
0.853970 0.262169 0.068568
0.892719 0.243904 0.111023
0.927426 0.236977 0.142418
0.960661 0.239800 0.175619
0.987283 0.250326 0.209269
1.000000 0.283744 0.238960
1.000000 0.313867 0.274650
1.000000 0.347983 0.307166
1.000000 0.390878 0.348316
1.000000 0.429321 0.391227
1.000000 0.470606 0.430069
1.000000 0.514661 0.466754
1.000000 0.559253 0.507747
0.000000 0.341543 0.000000
0.000000 0.341543 0.000000
0.000000 0.341543 0.000000
0.000000 0.341543 0.000000
0.000000 0.343754 0.000000
0.000000 0.357968 0.000000
0.000000 0.369229 0.000000
0.000000 0.383712 0.000000
0.000000 0.388189 0.000000
0.000000 0.393767 0.000000
0.211128 0.389311 0.000000
0.372785 0.382753 0.000000
0.481522 0.359670 0.000000
0.541183 0.342686 0.000000
0.586520 0.332556 0.000000
0.613298 0.330841 0.000000
0.660514 0.334818 0.000000
0.710658 0.341063 0.000000
0.753379 0.338265 0.000000
0.802806 0.337307 0.000000
0.854079 0.322259 0.000000
0.892424 0.312164 0.096797
0.926380 0.309185 0.136493
0.959122 0.306862 0.174854
0.985736 0.305771 0.209157
1.000000 0.309117 0.241554
1.000000 0.342220 0.277738
1.000000 0.371191 0.305961
1.000000 0.405790 0.347554
1.000000 0.444063 0.393539
1.000000 0.481124 0.429574
1.000000 0.521678 0.466512
1.000000 0.569150 0.507284
0.000000 0.371460 0.000000
0.000000 0.371460 0.000000
0.000000 0.371460 0.000000
0.000000 0.371460 0.000000
0.000000 0.371460 0.000000
0.000000 0.382628 0.000000
0.000000 0.407016 0.000000
0.000000 0.417548 0.000000
0.000000 0.425326 0.000000
0.000000 0.432771 0.000000
0.000000 0.430370 0.000000
0.276345 0.425599 0.000000
0.440611 0.423182 0.000000
0.520919 0.413756 0.000000
0.577368 0.393845 0.000000
0.624906 0.383547 0.000000
0.661404 0.389510 0.000000
0.706940 0.392233 0.000000
0.758665 0.393995 0.000000
0.802710 0.396963 0.000000
0.852734 0.391636 0.000000
0.893182 0.376444 0.058694
0.924207 0.372980 0.123979
0.955892 0.372434 0.168395
0.982135 0.372883 0.208872
1.000000 0.364982 0.239507
1.000000 0.373679 0.278070
1.000000 0.394572 0.309657
1.000000 0.420883 0.349644
1.000000 0.454852 0.393008
1.000000 0.491912 0.432165
1.000000 0.529074 0.472523
1.000000 0.575748 0.506972
0.000000 0.406686 0.000000
0.000000 0.406686 0.000000
0.000000 0.406686 0.000000
0.000000 0.406686 0.000000
0.000000 0.406686 0.000000
0.000000 0.417296 0.000000
0.000000 0.434247 0.000000
0.000000 0.450681 0.000000
0.000000 0.461888 0.000000
0.000000 0.467139 0.000000
0.000000 0.468695 0.000000
0.069337 0.465439 0.000000
0.357995 0.465098 0.000000
0.477064 0.467691 0.000000
0.551132 0.462488 0.000000
0.615627 0.435175 0.000000
0.663776 0.428144 0.000000
0.701365 0.434730 0.000000
0.753437 0.439412 0.000000
0.802268 0.439717 0.000000
0.851552 0.442280 0.000000
0.889961 0.438708 0.000000
0.928310 0.428985 0.102572
0.957033 0.423113 0.159915
0.982406 0.424498 0.204965
1.000000 0.421345 0.241176
1.000000 0.411390 0.275379
1.000000 0.420874 0.310723
1.000000 0.446485 0.348201
1.000000 0.476952 0.398044
1.000000 0.509351 0.431303
1.000000 0.546054 0.471707
1.000000 0.586081 0.506676
0.000000 0.436214 0.000000
0.000000 0.439003 0.000000
0.000000 0.439003 0.000000
0.000000 0.439003 0.000000
0.000000 0.439003 0.000000
0.000000 0.439003 0.000000
0.000000 0.455393 0.000000
0.000000 0.484998 0.000000
0.000000 0.493603 0.000000
0.000000 0.499150 0.000000
0.000000 0.510186 0.000000
0.000000 0.508430 0.000000
0.220859 0.503891 0.000000
0.415051 0.503541 0.000000
0.518943 0.503807 0.000000
0.592872 0.501689 0.000000
0.657658 0.477253 0.000000
0.695638 0.479856 0.000000
0.742424 0.486592 0.000000
0.791660 0.493255 0.000000
0.847912 0.487492 0.000000
0.887329 0.490319 0.000000
0.923335 0.488069 0.035104
0.952208 0.476202 0.138787
0.977918 0.475702 0.199946
1.000000 0.477087 0.242262
1.000000 0.474500 0.274984
1.000000 0.457567 0.308247
1.000000 0.475970 0.352347
1.000000 0.505335 0.396525
1.000000 0.530671 0.433503
1.000000 0.563589 0.474209
1.000000 0.599521 0.509256
0.000000 0.467229 0.000000
0.000000 0.467229 0.000000
0.000000 0.467229 0.000000
0.000000 0.470084 0.000000
0.000000 0.470084 0.000000
0.000000 0.470084 0.000000
0.000000 0.478680 0.000000
0.000000 0.507938 0.000000
0.000000 0.519971 0.000000
0.000000 0.534590 0.000000
0.000000 0.537080 0.000000
0.000000 0.541987 0.000000
0.000000 0.539350 0.000000
0.308990 0.537052 0.000000
0.454238 0.543569 0.000000
0.541521 0.544971 0.000000
0.637217 0.534895 0.000000
0.683276 0.530344 0.000000
0.738373 0.523424 0.000000
0.782866 0.533043 0.000000
0.835722 0.541002 0.000000
0.882474 0.536257 0.000000
0.918382 0.539648 0.000000
0.945968 0.531540 0.102065
0.971489 0.528066 0.178799
0.995558 0.526865 0.231229
1.000000 0.524719 0.270153
1.000000 0.523013 0.308535
1.000000 0.515536 0.352833
1.000000 0.537330 0.397865
1.000000 0.551695 0.435537
1.000000 0.580459 0.473359
1.000000 0.615934 0.508449
0.000000 0.501833 0.000000
0.000000 0.501833 0.000000
0.000000 0.501833 0.000000
0.000000 0.501833 0.000000
0.000000 0.501833 0.000000
0.000000 0.501833 0.000000
0.000000 0.501833 0.000000
0.000000 0.524461 0.000000
0.000000 0.555634 0.000000
0.000000 0.564490 0.000000
0.000000 0.567182 0.000000
0.000000 0.575542 0.000000
0.000000 0.573882 0.000000
0.000000 0.573524 0.000000
0.359926 0.577330 0.000000
0.483726 0.578513 0.000000
0.594018 0.581676 0.000000
0.667821 0.577774 0.000000
0.726009 0.570926 0.000000
0.772985 0.569782 0.000000
0.829533 0.572430 0.000000
0.873410 0.582927 0.000000
0.912310 0.582013 0.000000
0.939491 0.582953 0.000000
0.963550 0.582679 0.146569
0.988594 0.576240 0.221499
1.000000 0.574132 0.262058
1.000000 0.572605 0.304238
1.000000 0.572617 0.354910
1.000000 0.576286 0.401916
1.000000 0.583289 0.440230
1.000000 0.607775 0.475249
1.000000 0.632779 0.510954
0.000000 0.543050 0.000000
0.000000 0.543050 0.000000
0.000000 0.543050 0.000000
0.000000 0.543050 0.000000
0.000000 0.543050 0.000000
0.000000 0.543050 0.000000
0.000000 0.543050 0.000000
0.000000 0.551981 0.000000
0.000000 0.574922 0.000000
0.000000 0.597667 0.000000
0.000000 0.606521 0.000000
0.000000 0.612074 0.000000
0.000000 0.611069 0.000000
0.000000 0.615333 0.000000
0.053294 0.620738 0.000000
0.394546 0.618435 0.000000
0.517599 0.622659 0.000000
0.617347 0.623910 0.000000
0.691711 0.633468 0.000000
0.755020 0.631558 0.000000
0.810784 0.616693 0.000000
0.865063 0.621171 0.000000
0.898494 0.635944 0.000000
0.930703 0.636272 0.000000
0.954811 0.637116 0.108370
0.979452 0.631982 0.209365
0.999233 0.630168 0.255108
1.000000 0.625325 0.302159
1.000000 0.628557 0.354008
1.000000 0.628654 0.405051
1.000000 0.624575 0.441184
1.000000 0.631536 0.477229
1.000000 0.652372 0.513241
0.000000 0.578930 0.000000
0.000000 0.578930 0.000000
0.000000 0.578930 0.000000
0.000000 0.578930 0.000000
0.000000 0.578930 0.000000
0.000000 0.578930 0.000000
0.000000 0.578930 0.000000
0.000000 0.578930 0.000000
0.000000 0.591150 0.000000
0.000000 0.627998 0.000000
0.000000 0.640000 0.000000
0.000000 0.642664 0.000000
0.000000 0.651092 0.000000
0.000000 0.652936 0.000000
0.000000 0.656735 0.000000
0.164728 0.662055 0.000000
0.415552 0.657081 0.000000
0.546104 0.661039 0.000000
0.639584 0.665232 0.000000
0.722295 0.673388 0.000000
0.791758 0.678523 0.000000
0.847980 0.657927 0.000000
0.889438 0.669270 0.000000
0.918631 0.679787 0.000000
0.946155 0.682256 0.000000
0.969846 0.680502 0.175643
0.991494 0.677328 0.249025
1.000000 0.672113 0.294919
1.000000 0.675066 0.347673
1.000000 0.674927 0.399120
1.000000 0.674655 0.444925
1.000000 0.668221 0.485175
1.000000 0.674775 0.518801
0.000000 0.606063 0.000000
0.000000 0.606063 0.000000
0.000000 0.606063 0.000000
0.000000 0.606063 0.000000
0.000000 0.606063 0.000000
0.000000 0.606063 0.000000
0.000000 0.606063 0.000000
0.000000 0.606063 0.000000
0.000000 0.606063 0.000000
0.000000 0.637392 0.000000
0.000000 0.664376 0.000000
0.000000 0.676294 0.000000
0.000000 0.678797 0.000000
0.000000 0.680887 0.000000
0.000000 0.682265 0.000000
0.000000 0.688901 0.000000
0.251006 0.693951 0.000000
0.455559 0.694954 0.000000
0.571803 0.700938 0.000000
0.668044 0.706441 0.000000
0.758532 0.715435 0.000000
0.826073 0.717122 0.000000
0.874354 0.701625 0.000000
0.909397 0.709881 0.000000
0.937177 0.719274 0.000000
0.960819 0.720989 0.124202
0.983117 0.716331 0.229150
1.000000 0.714941 0.281995
1.000000 0.708363 0.339418
1.000000 0.711220 0.394159
1.000000 0.710814 0.443427
1.000000 0.707748 0.486715
1.000000 0.704566 0.520863
0.000000 0.642420 0.000000
0.000000 0.642420 0.000000
0.000000 0.642420 0.000000
0.000000 0.642420 0.000000
0.000000 0.642420 0.000000
0.000000 0.642420 0.000000
0.000000 0.642420 0.000000
0.000000 0.642420 0.000000
0.000000 0.642420 0.000000
0.000000 0.642420 0.000000
0.000000 0.679623 0.000000
0.000000 0.697669 0.000000
0.000000 0.709360 0.000000
0.000000 0.714622 0.000000
0.000000 0.716407 0.000000
0.000000 0.716995 0.000000
0.000000 0.726002 0.000000
0.290892 0.727888 0.000000
0.486871 0.731816 0.000000
0.595532 0.739416 0.000000
0.698653 0.745477 0.000000
0.791394 0.753735 0.000000
0.854087 0.755505 0.000000
0.892007 0.746474 0.000000
0.926489 0.746237 0.000000
0.951460 0.756580 0.000000
0.972338 0.756204 0.195605
0.991905 0.752892 0.267137
1.000000 0.749524 0.324831
1.000000 0.746877 0.389825
1.000000 0.743656 0.439138
1.000000 0.743229 0.485738
1.000000 0.742423 0.519734
0.000000 0.672774 0.000000
0.000000 0.672774 0.000000
0.000000 0.672774 0.000000
0.000000 0.672774 0.000000
0.000000 0.672774 0.000000
0.000000 0.672774 0.000000
0.000000 0.672774 0.000000
0.000000 0.672774 0.000000
0.000000 0.672774 0.000000
0.000000 0.672774 0.000000
0.000000 0.675809 0.000000
0.000000 0.718726 0.000000
0.000000 0.735838 0.000000
0.000000 0.740936 0.000000
0.000000 0.745582 0.000000
0.000000 0.749315 0.000000
0.000000 0.752550 0.000000
0.000000 0.760618 0.000000
0.358416 0.758636 0.000000
0.519583 0.764393 0.000000
0.630283 0.772253 0.000000
0.739489 0.781997 0.000000
0.830738 0.784473 0.000000
0.877506 0.787950 0.000000
0.909488 0.784186 0.000000
0.940399 0.780803 0.000000
0.963702 0.787068 0.132154
0.983918 0.785505 0.244442
0.999154 0.783066 0.315203
1.000000 0.780375 0.376900
1.000000 0.775493 0.438964
1.000000 0.774637 0.482130
1.000000 0.773645 0.519304
0.000000 0.706105 0.000000
0.000000 0.706105 0.000000
0.000000 0.706105 0.000000
0.000000 0.706105 0.000000
0.000000 0.706105 0.000000
0.000000 0.706105 0.000000
0.000000 0.706105 0.000000
