Assets/Lutify-Free-LUTs-Pack/Lutify Free LUTs Pack/Colour Film Boost Pro - Film Boost 10/Lutify.me-FilmBoost10-SLog1-to-Rec709.cube
# Created with: fylm.ai - Colour Grading and Collaboration Software in Cloud 
# Website: https://fylm.ai 
# META
# Option: Gamut compress
# Block 1: IDT | Sony S-Log S-Gamut 10-bit
# Block 2: colourMatch | Blending Mode: Normal | {"ColorSpace":0,"CrossCovarianceLimit":50,"ReshapingIterations":1,"PercentSaturationShift":100,"PercentShadingShift":100,"ExtraShading":true,"PercentTint":100,"PercentModified":100}
# Block 3: subtractiveColour | Blending Mode: Normal | {"sliders":{"gainY":0.55,"C":0.3,"M":0.3,"Y":0.3}}
# Block 4: LUT | Filmic Curve Response: Low Contrast 2 (100%)
# Block 5: logPrimaries | Blending Mode: Normal | {"wheels":{"shadows":{"Y":"0","R":"1","G":"1","B":"1"},"midtones":{"Y":"0","R":"1","G":"1","B":"1"},"highlights":{"Y":"0","R":"1","G":"1","B":"1"},"offset":{"Y":"0","R":"1","G":"1","B":"1"}},"sliders":{"shadows":{"Y":0,"R":-0.085,"G":0.024,"B":0.134},"midtones":{"Y":0,"R":0,"G":-0.023,"B":0},"highlights":{"Y":0,"R":0,"G":0,"B":0},"offset":{"Y":0,"R":0.012,"G":-0.012,"B":0}}}
# Block 6: HSL | Blending Mode: Normal | {"hue":{"Reds":0,"Yellows":0,"Greens":0,"Cyans":0,"Blues":0,"Magentas":0},"saturation":{"Reds":1,"Yellows":1,"Greens":1,"Cyans":1,"Blues":1,"Magentas":1},"luminance":{"Reds":0.9,"Yellows":0.9,"Greens":0.9,"Cyans":0.9,"Blues":0.9,"Magentas":0.9},"lum_sat":{"Blacks":1,"Shadows":1,"Midtones":1,"Highlights":1,"Whites":1},"sat_sat":{"10":1,"20":1,"30":1,"40":1,"50":1}}
# Block 7: ODT | Rec709
TITLE "Lutify.me-FilmBoost10-SLog1-to-Rec709" 
LUT_3D_SIZE 9
0.000000 0.000000 0.000000
0.018119 0.000000 0.000000
0.159200 0.000000 0.000000
0.285909 0.000000 0.000000
0.441529 0.000000 0.000000
0.654848 0.000000 0.000000
0.868905 0.000000 0.074138
1.000000 0.000000 0.168028
1.000000 0.291682 0.285469
0.000000 0.037992 0.000000
0.032457 0.041737 0.000000
0.188356 0.000000 0.000000
0.313384 0.000000 0.000000
0.464487 0.000000 0.000000
0.663282 0.000000 0.000000
0.869750 0.000000 0.076190
1.000000 0.000000 0.167851
1.000000 0.300160 0.287291
0.000000 0.136699 0.000000
0.000000 0.154377 0.000000
0.217332 0.137504 0.000000
0.361644 0.029059 0.000000
0.493186 0.000000 0.000000
0.678113 0.000000 0.000000
0.876460 0.000000 0.076105
1.000000 0.000000 0.173015
1.000000 0.312812 0.287070
0.000000 0.250909 0.000000
0.000000 0.272822 0.000000
0.000000 0.284080 0.000000
0.387992 0.241933 0.000000
0.546413 0.183342 0.000000
0.710329 0.000000 0.000000
0.890170 0.000000 0.077960
1.000000 0.000000 0.176633
1.000000 0.336782 0.290318
0.000000 0.383616 0.000000
0.000000 0.417507 0.000000
0.000000 0.443029 0.000000
0.084134 0.447938 0.000000
0.559861 0.404398 0.000000
0.751174 0.340054 0.000000
0.907926 0.250867 0.052612
1.000000 0.235863 0.182690
1.000000 0.387040 0.297047
0.000000 0.567315 0.000000
0.000000 0.593309 0.000000
0.000000 0.618418 0.000000
0.000000 0.635601 0.000000
0.337466 0.635332 0.000000
0.746570 0.589067 0.000000
0.912241 0.533088 0.000000
1.000000 0.467946 0.182505
1.000000 0.471155 0.303719
0.000000 0.747211 0.137877
0.000000 0.758116 0.129468
0.000000 0.775148 0.087820
0.000000 0.790246 0.085666
0.000000 0.800326 0.000000
0.580194 0.790106 0.000000
0.880694 0.752399 0.000000
0.978494 0.713460 0.185966
1.000000 0.664337 0.329986
0.000000 0.872937 0.356414
0.000000 0.876089 0.358742
0.000000 0.882351 0.353842
0.000000 0.889355 0.344975
0.000000 0.897603 0.343007
0.318121 0.893550 0.313721
0.770156 0.884885 0.284304
0.942674 0.860117 0.261129
1.000000 0.829126 0.379172
0.000000 0.950352 0.546930
0.000000 0.950625 0.548677
0.000000 0.950828 0.550145
0.000000 0.953070 0.544468
0.000000 0.955166 0.543306
0.033731 0.956732 0.542700
0.646155 0.950374 0.519734
0.873732 0.941048 0.506300
0.980758 0.928484 0.482088
0.000000 0.000000 0.027224
0.000000 0.000000 0.012883
0.154829 0.000000 0.000000
0.274461 0.000000 0.000000
0.441636 0.000000 0.015838
0.664177 0.000000 0.043795
0.870280 0.000000 0.088985
1.000000 0.000000 0.178273
1.000000 0.292315 0.289896
0.000000 0.018746 0.048879
0.000000 0.029839 0.042385
0.170176 0.000000 0.000000
0.305605 0.000000 0.000000
0.467726 0.000000 0.022420
0.669231 0.000000 0.045911
0.874326 0.000000 0.091535
1.000000 0.000000 0.178109
1.000000 0.300786 0.291758
0.000000 0.132806 0.035692
0.000000 0.151769 0.000000
0.190560 0.157109 0.000000
0.348403 0.063953 0.000000
0.497816 0.000000 0.017822
0.681711 0.000000 0.046986
0.878085 0.000000 0.093273
1.000000 0.000000 0.180228
1.000000 0.313428 0.291541
0.000000 0.245910 0.000000
0.000000 0.276639 0.000000
0.000000 0.305024 0.000000
0.362924 0.279093 0.000000
0.546068 0.202092 0.000000
0.720340 0.000000 0.023733
0.894441 0.000000 0.096752
1.000000 0.000000 0.184506
1.000000 0.337383 0.294880
0.000000 0.380455 0.000000
0.000000 0.421018 0.000000
0.000000 0.459422 0.000000
0.000000 0.471710 0.000000
0.558195 0.433788 0.000000
0.755660 0.352719 0.000000
0.911707 0.249939 0.088062
1.000000 0.237836 0.194774
1.000000 0.387916 0.304189
0.000000 0.572245 0.034868
0.000000 0.592352 0.000000
0.000000 0.620434 0.000000
0.000000 0.646673 0.000000
0.334316 0.649264 0.000000
0.753029 0.604117 0.000000
0.914772 0.537396 0.000000
1.000000 0.469840 0.197754
1.000000 0.472021 0.311300
0.000000 0.746951 0.181109
0.000000 0.757619 0.178530
0.000000 0.774430 0.155350
0.000000 0.789789 0.152292
0.000000 0.803343 0.083822
0.582124 0.795135 0.000000
0.881954 0.758700 0.000000
0.978790 0.715250 0.207551
1.000000 0.668118 0.335673
0.000000 0.872610 0.369238
0.000000 0.876063 0.372047
0.000000 0.882188 0.366906
0.000000 0.889324 0.361650
0.000000 0.898998 0.359667
0.320424 0.894236 0.331658
0.767784 0.885847 0.305210
0.942961 0.860850 0.277479
1.000000 0.829633 0.388477
0.000000 0.952133 0.553244
0.000000 0.952360 0.554697
0.000000 0.952639 0.556749
0.000000 0.953039 0.553971
0.000000 0.955146 0.549599
0.052249 0.956967 0.552955
0.637380 0.950958 0.529570
0.867720 0.941561 0.512139
0.980738 0.928657 0.487926
0.000000 0.000000 0.090746
0.000000 0.000000 0.066786
0.147227 0.000000 0.043421
0.269062 0.000000 0.044860
0.438662 0.000000 0.055595
0.665315 0.000000 0.074019
0.877585 0.000000 0.113537
1.000000 0.000000 0.192323
1.000000 0.293897 0.301238
0.000000 0.000000 0.126930
0.000000 0.000000 0.108034
0.155847 0.000000 0.077689
0.294540 0.000000 0.072597
0.470194 0.000000 0.067399
0.681665 0.000000 0.079479
0.880991 0.000000 0.114816
1.000000 0.000000 0.193526
1.000000 0.297980 0.301061
0.000000 0.106861 0.215194
0.000000 0.133878 0.201689
0.145688 0.174763 0.198290
0.358585 0.072177 0.129176
0.507965 0.000000 0.086753
0.696254 0.000000 0.087128
0.884680 0.000000 0.117688
1.000000 0.000000 0.195921
1.000000 0.314349 0.302653
0.000000 0.247557 0.234710
0.000000 0.269669 0.201683
0.000000 0.326017 0.174616
0.349734 0.329397 0.153559
0.565584 0.215561 0.098691
0.726015 0.000000 0.097990
0.900878 0.000000 0.125601
1.000000 0.000000 0.200864
1.000000 0.338886 0.306562
0.000000 0.381325 0.197225
0.000000 0.420575 0.165428
0.000000 0.468436 0.133400
0.000000 0.503177 0.090652
0.568251 0.476581 0.042243
0.769568 0.370778 0.071679
0.917190 0.267397 0.132284
1.000000 0.249658 0.210339
1.000000 0.389086 0.313938
0.000000 0.567502 0.180921
0.000000 0.590209 0.172513
0.000000 0.622421 0.149608
0.000000 0.660884 0.112193
0.304868 0.663275 0.000000
0.754747 0.628953 0.000000
0.918289 0.543959 0.102532
1.000000 0.476489 0.221707
1.000000 0.476990 0.324010
0.000000 0.749866 0.232051
0.000000 0.757099 0.236412
0.000000 0.771554 0.225157
0.000000 0.794393 0.219281
0.000000 0.808280 0.191864
0.571287 0.800402 0.142074
0.877615 0.772710 0.096359
0.979190 0.718077 0.240683
1.000000 0.669525 0.350745
0.000000 0.872247 0.398615
0.000000 0.875707 0.401421
0.000000 0.882134 0.393475
0.000000 0.889278 0.384912
0.000000 0.898809 0.385569
0.324411 0.895465 0.363701
0.769595 0.887136 0.339951
0.941623 0.867169 0.311499
1.000000 0.832602 0.404063
0.000000 0.952042 0.565674
0.000000 0.952274 0.567126
0.000000 0.952559 0.569176
0.000000 0.952996 0.566675
0.000000 0.955104 0.562216
0.064143 0.957200 0.563243
0.638307 0.951246 0.542906
0.867960 0.941871 0.524928
0.980282 0.930026 0.503304
0.000000 0.000000 0.150264
0.000000 0.000000 0.115960
0.134737 0.000000 0.093833
0.266390 0.000000 0.064082
0.417122 0.000000 0.106605
0.657344 0.000000 0.132933
0.881714 0.000000 0.164886
1.000000 0.000000 0.222471
1.000000 0.292611 0.325183
0.000000 0.000000 0.210246
0.000000 0.000000 0.184932
0.131063 0.000000 0.167553
0.281229 0.000000 0.118992
0.453694 0.000000 0.142239
0.677843 0.000000 0.147503
0.885094 0.000000 0.169265
1.000000 0.000000 0.223855
1.000000 0.301120 0.325011
0.000000 0.059908 0.306212
0.000000 0.083963 0.287124
0.064404 0.102698 0.294207
0.353171 0.000000 0.257023
0.501008 0.000000 0.190366
0.701887 0.000000 0.165569
0.895771 0.000000 0.177964
1.000000 0.000000 0.228585
1.000000 0.313153 0.324523
0.000000 0.189165 0.373757
0.000000 0.228600 0.354937
0.000000 0.305345 0.363336
0.318747 0.340261 0.361917
0.574261 0.228390 0.271631
0.739864 0.000000 0.201315
0.905149 0.000000 0.191485
1.000000 0.000000 0.234258
1.000000 0.337464 0.326299
0.000000 0.371815 0.400453
0.000000 0.412885 0.368453
0.000000 0.464275 0.350081
0.000000 0.519346 0.335401
0.554652 0.518021 0.320510
0.769678 0.395438 0.234127
0.926946 0.264162 0.205004
1.000000 0.259661 0.244721
1.000000 0.384477 0.339748
0.000000 0.565145 0.335563
0.000000 0.585671 0.327258
0.000000 0.622732 0.318609
0.000000 0.663333 0.305765
0.292276 0.687217 0.284727
0.752327 0.666521 0.257974
0.914029 0.569586 0.230360
1.000000 0.489352 0.268303
1.000000 0.476669 0.354313
0.000000 0.747620 0.349001
0.000000 0.759992 0.350395
0.000000 0.772587 0.348626
0.000000 0.795989 0.343344
0.000000 0.814773 0.328967
0.576887 0.808660 0.288311
0.880658 0.782161 0.260773
0.978259 0.722726 0.292222
1.000000 0.675522 0.381155
0.000000 0.873367 0.444173
0.000000 0.875153 0.447152
0.000000 0.881586 0.449157
0.000000 0.888794 0.440542
0.000000 0.898697 0.435216
0.308498 0.897979 0.420471
0.772288 0.889182 0.395136
0.940669 0.874464 0.374451
1.000000 0.834602 0.438814
0.000000 0.952721 0.590409
0.000000 0.952915 0.591566
0.000000 0.953260 0.593899
0.000000 0.953752 0.591661
0.000000 0.955005 0.590747
0.000000 0.958815 0.588327
0.635307 0.952001 0.569733
0.868388 0.942488 0.550755
0.979709 0.931798 0.533782
0.000000 0.000000 0.228977
0.000000 0.000000 0.202303
0.080598 0.000000 0.189809
0.266136 0.000000 0.145992
0.390401 0.000000 0.098488
0.633354 0.000000 0.224057
0.874816 0.000000 0.254115
1.000000 0.000000 0.290602
1.000000 0.289043 0.367482
0.000000 0.000000 0.304580
0.000000 0.000000 0.282557
0.000000 0.000000 0.271053
0.281559 0.000000 0.253937
0.421806 0.000000 0.177494
0.660821 0.000000 0.247444
0.881812 0.000000 0.261015
1.000000 0.000000 0.293040
1.000000 0.301722 0.367195
0.000000 0.012981 0.379782
0.000000 0.040178 0.356354
0.000000 0.052941 0.364071
0.279035 0.000000 0.353678
0.493425 0.000000 0.283240
0.692573 0.000000 0.282279
0.893259 0.000000 0.274560
1.000000 0.000000 0.295767
1.000000 0.318062 0.369469
0.000000 0.146690 0.476986
0.000000 0.178149 0.453108
0.000000 0.219193 0.465431
0.205081 0.254465 0.491400
0.586473 0.168681 0.455110
0.737470 0.000000 0.345587
0.908310 0.000000 0.294994
1.000000 0.056853 0.309978
1.000000 0.338757 0.371920
0.000000 0.291989 0.543118
0.000000 0.347284 0.513285
0.000000 0.414118 0.524937
0.000000 0.505856 0.548015
0.536456 0.525674 0.554589
0.776202 0.415237 0.444405
0.930957 0.276555 0.344547
1.000000 0.256858 0.325607
1.000000 0.388885 0.381638
0.000000 0.546475 0.548828
0.000000 0.577949 0.539951
0.000000 0.616302 0.536435
0.000000 0.663152 0.530137
0.088271 0.707230 0.526363
0.739476 0.698863 0.511708
0.913385 0.588312 0.406577
1.000000 0.487543 0.353540
1.000000 0.477827 0.401642
0.000000 0.742167 0.514826
0.000000 0.756353 0.512218
0.000000 0.769846 0.515895
0.000000 0.794999 0.504066
0.000000 0.819540 0.501529
0.552231 0.823260 0.490250
0.870155 0.808170 0.469220
0.973448 0.740619 0.402317
1.000000 0.680888 0.441166
0.000000 0.875545 0.532381
0.000000 0.877164 0.535199
0.000000 0.883263 0.536708
0.000000 0.890501 0.528010
0.000000 0.896753 0.537994
0.275887 0.904944 0.524749
0.773060 0.892994 0.496374
0.935092 0.881017 0.477479
1.000000 0.837619 0.493974
0.000000 0.951477 0.634369
0.000000 0.952600 0.635533
0.000000 0.952967 0.637861
0.000000 0.954390 0.635597
0.000000 0.954857 0.631294
0.000000 0.958652 0.632376
0.632997 0.954019 0.620893
0.865788 0.945236 0.596996
0.977226 0.935874 0.581324
0.000000 0.000000 0.371598
0.000000 0.000000 0.359151
0.000000 0.000000 0.347802
0.201100 0.000000 0.332741
0.424616 0.000000 0.271324
0.561641 0.000000 0.184325
0.862153 0.000000 0.372649
1.000000 0.000000 0.414588
1.000000 0.288866 0.439908
0.000000 0.000000 0.423569
0.000000 0.000000 0.425123
0.000000 0.000000 0.417318
0.180791 0.000000 0.402647
0.454419 0.000000 0.368630
0.608445 0.000000 0.276307
0.870269 0.000000 0.388967
1.000000 0.000000 0.424246
1.000000 0.302325 0.440261
0.000000 0.015052 0.473849
0.000000 0.037519 0.475696
0.000000 0.043722 0.488926
0.152621 0.000000 0.477944
0.493334 0.000000 0.464406
0.664381 0.000000 0.371895
0.884563 0.000000 0.416935
1.000000 0.000000 0.428602
1.000000 0.319719 0.446500
0.000000 0.098692 0.542292
0.000000 0.117375 0.541339
0.000000 0.137222 0.546724
0.000000 0.149969 0.574577
0.485914 0.034400 0.563361
0.740957 0.000000 0.478763
0.903344 0.000000 0.451720
1.000000 0.000000 0.445630
1.000000 0.345381 0.453011
0.000000 0.266053 0.629196
0.000000 0.307448 0.623345
0.000000 0.344892 0.632875
0.000000 0.391048 0.659177
0.403534 0.435289 0.679738
0.796089 0.359064 0.643623
0.927867 0.217884 0.531250
1.000000 0.253639 0.474749
1.000000 0.402777 0.463346
0.000000 0.422425 0.702403
0.000000 0.477081 0.678705
0.000000 0.549095 0.677853
0.000000 0.625846 0.701941
0.000000 0.695106 0.720609
0.729817 0.709381 0.730174
0.909624 0.608685 0.627819
1.000000 0.500074 0.531237
1.000000 0.488889 0.483200
0.000000 0.726591 0.699427
0.000000 0.742841 0.705796
0.000000 0.763091 0.704230
0.000000 0.790943 0.706274
0.000000 0.820058 0.704205
0.506097 0.837255 0.702054
0.859459 0.823946 0.690096
0.967557 0.755107 0.590830
1.000000 0.681929 0.524201
0.000000 0.874225 0.684728
0.000000 0.876156 0.684820
0.000000 0.878774 0.689424
0.000000 0.887458 0.689972
0.000000 0.898641 0.686741
0.138159 0.906025 0.686682
0.755569 0.902253 0.672162
0.932147 0.890401 0.655492
1.000000 0.845455 0.581559
0.000000 0.949070 0.707416
0.000000 0.951172 0.705378
0.000000 0.952440 0.707114
0.000000 0.953995 0.705469
0.000000 0.956274 0.704241
0.000000 0.956897 0.704472
0.632613 0.955755 0.697562
0.859688 0.948225 0.682389
0.972839 0.939378 0.669839
0.000000 0.000000 0.560382
0.000000 0.000000 0.563474
0.000000 0.000000 0.558271
0.000000 0.000000 0.551796
0.362950 0.000000 0.534331
0.648671 0.000000 0.477387
0.774619 0.000000 0.358780
1.000000 0.000000 0.548641
1.000000 0.251803 0.578223
0.000000 0.000000 0.581087
0.000000 0.000000 0.587997
0.000000 0.000000 0.589992
0.000000 0.000000 0.583504
0.354010 0.000000 0.566377
0.657803 0.000000 0.533337
0.802780 0.000000 0.416880
1.000000 0.000000 0.559386
1.000000 0.266774 0.581820
0.000000 0.055723 0.614783
0.000000 0.060652 0.617828
0.000000 0.067614 0.628418
0.000000 0.059708 0.626469
0.353041 0.000000 0.615615
0.697652 0.000000 0.588202
0.839597 0.000000 0.481178
1.000000 0.000000 0.575207
1.000000 0.280799 0.588691
0.000000 0.111299 0.650440
0.000000 0.120751 0.656005
0.000000 0.128705 0.667083
0.000000 0.141390 0.682063
0.336588 0.104262 0.675109
0.725582 0.000000 0.660093
0.897249 0.000000 0.564000
1.000000 0.000000 0.602590
1.000000 0.321217 0.596546
0.000000 0.218780 0.702805
0.000000 0.232913 0.706012
0.000000 0.245992 0.718045
0.000000 0.265841 0.729835
0.257977 0.285379 0.749094
0.718308 0.215249 0.740431
0.934717 0.000000 0.664042
1.000000 0.164066 0.635876
1.000000 0.387933 0.615180
0.000000 0.429808 0.768088
0.000000 0.458456 0.769976
0.000000 0.489297 0.776958
0.000000 0.537672 0.789114
0.000000 0.591982 0.800891
0.609352 0.627603 0.813975
0.924358 0.563014 0.784739
1.000000 0.444754 0.701669
1.000000 0.487018 0.644521
0.000000 0.580574 0.813402
0.000000 0.631427 0.804089
0.000000 0.682885 0.802301
0.000000 0.741086 0.814593
0.000000 0.796214 0.827626
0.450800 0.828377 0.838020
0.846717 0.834061 0.842885
0.955090 0.775580 0.782443
1.000000 0.696101 0.695307
0.000000 0.860822 0.826755
0.000000 0.867343 0.825357
0.000000 0.873532 0.825906
0.000000 0.883538 0.831154
0.000000 0.896977 0.829104
0.000000 0.906748 0.826814
0.738325 0.908645 0.825698
0.918912 0.902537 0.817368
0.992914 0.859190 0.746855
0.000000 0.950393 0.814905
0.000000 0.950832 0.816118
0.000000 0.952215 0.817349
0.000000 0.953977 0.818392
0.000000 0.954765 0.817725
0.000000 0.959223 0.814624
0.613291 0.957542 0.812978
0.854414 0.952548 0.805250
0.964918 0.946043 0.794042
0.000000 0.059564 0.739468
0.000000 0.061834 0.741210
0.000000 0.065105 0.745017
0.000000 0.052906 0.736297
0.257047 0.000000 0.730184
0.583985 0.000000 0.714889
0.865698 0.000000 0.663784
0.954424 0.000000 0.547610
1.000000 0.000000 0.708305
0.000000 0.077025 0.747895
0.000000 0.080848 0.749592
0.000000 0.084887 0.755881
0.000000 0.080496 0.751606
0.245555 0.000000 0.745248
0.585357 0.000000 0.730745
0.873478 0.000000 0.681476
0.967544 0.000000 0.571803
1.000000 0.086464 0.711876
0.000000 0.103659 0.758295
0.000000 0.109208 0.759907
0.000000 0.113051 0.764268
0.000000 0.118571 0.771144
0.222853 0.090196 0.764487
0.586864 0.000000 0.753405
0.886086 0.000000 0.714577
0.984330 0.000000 0.611214
1.000000 0.141263 0.716025
0.000000 0.148868 0.776333
0.000000 0.152512 0.780471
0.000000 0.157864 0.786642
0.000000 0.167675 0.794370
0.190611 0.158902 0.790357
0.593610 0.000000 0.777303
0.899946 0.000000 0.761307
1.000000 0.000000 0.665434
1.000000 0.209978 0.726998
0.000000 0.230147 0.805271
0.000000 0.237530 0.806692
0.000000 0.245779 0.812522
0.000000 0.255746 0.820639
0.057894 0.270157 0.831127
0.562663 0.234596 0.820954
0.915593 0.000000 0.810973
1.000000 0.000000 0.731482
1.000000 0.310149 0.750752
0.000000 0.363188 0.836308
0.000000 0.369807 0.836062
0.000000 0.383737 0.839310
0.000000 0.402009 0.846293
0.000000 0.437824 0.853014
0.490929 0.454815 0.860649
0.898749 0.411356 0.850777
1.000000 0.304913 0.804316
1.000000 0.436379 0.771087
0.000000 0.622815 0.865306
0.000000 0.635656 0.868630
0.000000 0.661827 0.869756
0.000000 0.679871 0.876016
0.000000 0.724265 0.881187
0.000000 0.761020 0.886959
0.789684 0.776681 0.892496
0.970563 0.736914 0.876052
1.000000 0.650061 0.816743
0.000000 0.749605 0.886056
0.000000 0.773599 0.882822
0.000000 0.801674 0.884413
0.000000 0.841473 0.887938
0.000000 0.870913 0.895828
0.000000 0.894984 0.900350
0.697452 0.905514 0.904100
0.913449 0.905294 0.907078
0.984720 0.868282 0.864517
0.000000 0.944195 0.899686
0.000000 0.946927 0.900379
0.000000 0.949001 0.899397
0.000000 0.952300 0.897817
0.000000 0.953887 0.901660
0.000000 0.959080 0.897626
0.564019 0.957774 0.896115
0.839902 0.957318 0.895871
0.957670 0.952455 0.889159
0.000000 0.170779 0.868725
0.000000 0.172375 0.869838
0.000000 0.172075 0.870206
0.000000 0.169239 0.867554
0.195663 0.165325 0.867336
0.468542 0.098485 0.857423
0.800874 0.000000 0.851784
1.000000 0.000000 0.818487
1.000000 0.000000 0.727109
0.000000 0.182492 0.871984
0.000000 0.179003 0.873197
0.000000 0.178853 0.873397
0.000000 0.180333 0.871920
0.184880 0.180133 0.870101
0.467279 0.123208 0.863913
0.801925 0.000000 0.852580
1.000000 0.000000 0.822223
1.000000 0.000000 0.735107
0.000000 0.198052 0.874912
0.000000 0.198166 0.876186
0.000000 0.198162 0.878091
0.000000 0.201397 0.878248
0.165903 0.203345 0.876760
0.460978 0.157578 0.872530
0.802396 0.000000 0.861620
1.000000 0.000000 0.830388
1.000000 0.000000 0.747622
0.000000 0.232817 0.882387
0.000000 0.233092 0.883303
0.000000 0.233586 0.885436
0.000000 0.233824 0.888458
0.102682 0.243522 0.885577
0.457178 0.209312 0.883298
0.803173 0.000000 0.873021
1.000000 0.000000 0.850704
1.000000 0.000000 0.780735
0.000000 0.275139 0.890695
0.000000 0.280007 0.891410
0.000000 0.283302 0.893350
0.000000 0.291762 0.894868
0.000000 0.302355 0.899442
0.423483 0.289571 0.895668
0.784324 0.227103 0.890705
1.000000 0.000000 0.878988
1.000000 0.000000 0.814632
0.000000 0.377187 0.905676
0.000000 0.378390 0.906680
0.000000 0.383035 0.908056
0.000000 0.395498 0.910766
0.000000 0.412953 0.909175
0.354936 0.424896 0.915322
0.768053 0.391949 0.907265
1.000000 0.363335 0.901178
1.000000 0.249084 0.851835
0.000000 0.530567 0.920741
0.000000 0.536223 0.921737
0.000000 0.549207 0.921539
0.000000 0.565237 0.921503
0.000000 0.575759 0.924868
0.000000 0.609313 0.924703
0.689274 0.624961 0.927672
0.964588 0.600831 0.922757
1.000000 0.540072 0.891770
0.000000 0.777842 0.933862
0.000000 0.785630 0.934451
0.000000 0.792543 0.932941
0.000000 0.808756 0.934888
0.000000 0.823973 0.937290
0.000000 0.846539 0.939523
0.527466 0.861368 0.940781
0.873107 0.869933 0.943806
0.990232 0.855500 0.931972
0.000000 0.873794 0.939592
0.000000 0.886231 0.940995
0.000000 0.899736 0.940817
0.000000 0.913035 0.943125
0.000000 0.931577 0.946759
0.000000 0.944785 0.949032
0.403311 0.952942 0.950222
0.823473 0.955462 0.952289
0.953854 0.957356 0.950303
