Assets/Lutify-Free-LUTs-Pack/Lutify Free LUTs Pack/Colour Film Boost Pro - Film Boost 10/Lutify.me-FilmBoost10-SLog2-to-Rec709.cube
# Created with: fylm.ai - Colour Grading and Collaboration Software in Cloud 
# Website: https://fylm.ai 
# META
# Option: Gamut compress
# Block 1: IDT | Sony S-Log2 S-Gamut Daylight 10-bit
# Block 2: colourMatch | Blending Mode: Normal | {"ColorSpace":0,"CrossCovarianceLimit":50,"ReshapingIterations":1,"PercentSaturationShift":100,"PercentShadingShift":100,"ExtraShading":true,"PercentTint":100,"PercentModified":100}
# Block 3: subtractiveColour | Blending Mode: Normal | {"sliders":{"gainY":0.55,"C":0.3,"M":0.3,"Y":0.3}}
# Block 4: LUT | Filmic Curve Response: Low Contrast 2 (100%)
# Block 5: logPrimaries | Blending Mode: Normal | {"wheels":{"shadows":{"Y":"0","R":"1","G":"1","B":"1"},"midtones":{"Y":"0","R":"1","G":"1","B":"1"},"highlights":{"Y":"0","R":"1","G":"1","B":"1"},"offset":{"Y":"0","R":"1","G":"1","B":"1"}},"sliders":{"shadows":{"Y":0,"R":-0.085,"G":0.024,"B":0.134},"midtones":{"Y":0,"R":0,"G":-0.023,"B":0},"highlights":{"Y":0,"R":0,"G":0,"B":0},"offset":{"Y":0,"R":0.012,"G":-0.012,"B":0}}}
# Block 6: HSL | Blending Mode: Normal | {"hue":{"Reds":0,"Yellows":0,"Greens":0,"Cyans":0,"Blues":0,"Magentas":0},"saturation":{"Reds":1,"Yellows":1,"Greens":1,"Cyans":1,"Blues":1,"Magentas":1},"luminance":{"Reds":0.9,"Yellows":0.9,"Greens":0.9,"Cyans":0.9,"Blues":0.9,"Magentas":0.9},"lum_sat":{"Blacks":1,"Shadows":1,"Midtones":1,"Highlights":1,"Whites":1},"sat_sat":{"10":1,"20":1,"30":1,"40":1,"50":1}}
# Block 7: ODT | Rec709
TITLE "Lutify.me-FilmBoost10-SLog2-to-Rec709" 
LUT_3D_SIZE 9
0.000000 0.000000 0.000000
0.074650 0.000000 0.000000
0.210533 0.000000 0.000000
0.371062 0.000000 0.000000
0.585888 0.000000 0.038035
0.814991 0.000000 0.106345
0.983028 0.000000 0.211965
1.000000 0.312030 0.343322
1.000000 0.525923 0.509158
0.000000 0.047376 0.000000
0.059766 0.052489 0.000000
0.252366 0.000000 0.000000
0.399800 0.000000 0.000000
0.599808 0.000000 0.033954
0.818045 0.000000 0.104800
0.982317 0.000000 0.211360
1.000000 0.316210 0.343242
1.000000 0.529231 0.509013
0.000000 0.164189 0.000000
0.000000 0.180754 0.000000
0.286577 0.155408 0.000000
0.441419 0.083647 0.000000
0.626354 0.000000 0.000000
0.824097 0.000000 0.100832
0.985085 0.037970 0.211666
1.000000 0.336872 0.347928
1.000000 0.535845 0.508719
0.000000 0.274454 0.000000
0.000000 0.291805 0.000000
0.000000 0.325136 0.000000
0.493683 0.265095 0.000000
0.657249 0.249012 0.000000
0.842353 0.194240 0.082984
0.988746 0.217528 0.207385
1.000000 0.375814 0.349046
1.000000 0.552653 0.508052
0.000000 0.406686 0.000000
0.000000 0.406686 0.000000
0.000000 0.461888 0.000000
0.357995 0.465098 0.000000
0.663776 0.428144 0.000000
0.851552 0.442280 0.000000
0.982406 0.424498 0.204965
1.000000 0.446485 0.348201
1.000000 0.586081 0.506676
0.000000 0.543050 0.000000
0.000000 0.543050 0.000000
0.000000 0.574922 0.000000
0.000000 0.611069 0.000000
0.517599 0.622659 0.000000
0.810784 0.616693 0.000000
0.954811 0.637116 0.108370
1.000000 0.628557 0.354008
1.000000 0.652372 0.513241
0.000000 0.672774 0.000000
0.000000 0.672774 0.000000
0.000000 0.672774 0.000000
0.000000 0.735838 0.000000
0.000000 0.752550 0.000000
0.630283 0.772253 0.000000
0.909488 0.784186 0.000000
0.999154 0.783066 0.315203
1.000000 0.773645 0.519304
0.000000 0.798200 0.000000
0.000000 0.798200 0.000000
0.000000 0.798200 0.000000
0.000000 0.798200 0.000000
0.000000 0.853172 0.000000
0.000000 0.868856 0.000000
0.789466 0.881579 0.000000
0.964394 0.884732 0.103470
1.000000 0.880177 0.516528
0.000000 0.885267 0.000000
0.000000 0.885267 0.000000
0.000000 0.885267 0.000000
0.000000 0.885267 0.000000
0.000000 0.885267 0.000000
0.000000 0.925224 0.000000
0.449404 0.938900 0.000000
0.888972 0.942616 0.123846
0.996593 0.942360 0.411437
0.000000 0.000000 0.041805
0.054636 0.000000 0.019877
0.199342 0.000000 0.000000
0.364503 0.000000 0.034890
0.590971 0.000000 0.066793
0.820684 0.000000 0.124557
0.985113 0.000000 0.228156
1.000000 0.313219 0.354200
1.000000 0.525923 0.509158
0.000000 0.026332 0.055255
0.029956 0.046540 0.055192
0.228796 0.000000 0.035413
0.400795 0.000000 0.042963
0.607381 0.000000 0.071714
0.824958 0.000000 0.127914
0.984455 0.000000 0.229358
1.000000 0.317398 0.354118
1.000000 0.529231 0.509013
0.000000 0.159513 0.000000
0.000000 0.177047 0.000000
0.240893 0.189398 0.000000
0.441825 0.103125 0.000000
0.626412 0.000000 0.070169
0.828279 0.000000 0.128766
0.986929 0.049160 0.228041
1.000000 0.337945 0.358927
1.000000 0.535845 0.508719
0.000000 0.272683 0.000000
0.000000 0.290747 0.000000
0.000000 0.344526 0.000000
0.440815 0.323301 0.000000
0.667218 0.269691 0.000000
0.849462 0.193981 0.122275
0.990659 0.215041 0.224378
1.000000 0.376680 0.357427
1.000000 0.552955 0.511267
0.000000 0.406681 0.000000
0.000000 0.406679 0.000000
0.000000 0.474649 0.000000
0.000000 0.502113 0.000000
0.650166 0.481061 0.000000
0.858716 0.449980 0.000000
0.983752 0.427167 0.226615
1.000000 0.447642 0.359666
1.000000 0.586685 0.513114
0.000000 0.537114 0.000000
0.000000 0.537114 0.000000
0.000000 0.575064 0.000000
0.000000 0.634902 0.000000
0.384246 0.660762 0.000000
0.815031 0.648763 0.000000
0.956172 0.641641 0.162506
1.000000 0.626301 0.366626
1.000000 0.652960 0.519745
0.000000 0.672774 0.000000
0.000000 0.672774 0.000000
0.000000 0.672774 0.000000
0.000000 0.744362 0.000000
0.000000 0.779307 0.000000
0.609516 0.795594 0.000000
0.910435 0.792711 0.000000
0.998071 0.784473 0.334186
1.000000 0.774067 0.525838
0.000000 0.798200 0.000000
0.000000 0.798200 0.000000
0.000000 0.798200 0.000000
0.000000 0.798200 0.000000
0.000000 0.857270 0.000000
0.000000 0.882420 0.000000
0.792894 0.887638 0.000000
0.965302 0.886413 0.167077
1.000000 0.880542 0.525917
0.000000 0.885267 0.000000
0.000000 0.885267 0.000000
0.000000 0.885267 0.000000
0.000000 0.885267 0.000000
0.000000 0.885267 0.000000
0.000000 0.931428 0.000000
0.451366 0.943267 0.000000
0.890419 0.943591 0.169576
0.995876 0.942829 0.422883
0.000000 0.000000 0.120530
0.017927 0.000000 0.071147
0.196868 0.000000 0.049449
0.352218 0.000000 0.078663
0.584537 0.000000 0.116928
0.815205 0.000000 0.167829
0.983473 0.000000 0.256736
1.000000 0.314883 0.371093
1.000000 0.529515 0.515381
0.000000 0.000000 0.158160
0.000000 0.000000 0.136310
0.213700 0.000000 0.112219
0.393971 0.000000 0.121682
0.609406 0.000000 0.133437
0.827778 0.000000 0.169738
0.987865 0.000000 0.258692
1.000000 0.319054 0.371002
1.000000 0.529815 0.518614
0.000000 0.125523 0.248408
0.000000 0.144850 0.243159
0.192530 0.222258 0.249421
0.456557 0.119251 0.172969
0.645818 0.000000 0.151149
0.840290 0.000000 0.177971
0.988500 0.000000 0.259746
1.000000 0.343039 0.370187
1.000000 0.536747 0.518389
0.000000 0.279097 0.235824
0.000000 0.290619 0.225330
0.000000 0.380018 0.179201
0.437373 0.398855 0.175604
0.683133 0.289315 0.152442
0.857059 0.188677 0.182668
0.990022 0.210876 0.256731
1.000000 0.382133 0.374533
1.000000 0.553557 0.517721
0.000000 0.411655 0.134865
0.000000 0.411631 0.142092
0.000000 0.492402 0.000000
0.000000 0.555697 0.000000
0.655088 0.540466 0.000000
0.865019 0.461729 0.151043
0.982140 0.427947 0.258913
1.000000 0.449957 0.383460
1.000000 0.587592 0.522825
0.000000 0.549000 0.000000
0.000000 0.548998 0.000000
0.000000 0.575096 0.000000
0.000000 0.684969 0.000000
0.327467 0.704629 0.000000
0.818107 0.686022 0.000000
0.957849 0.648328 0.228563
1.000000 0.628726 0.391674
1.000000 0.656702 0.526124
0.000000 0.672770 0.000000
0.000000 0.672769 0.000000
0.000000 0.672767 0.000000
0.000000 0.775158 0.000000
0.000000 0.814031 0.000000
0.588355 0.817648 0.000000
0.912499 0.802736 0.000000
0.995845 0.786476 0.359617
1.000000 0.774547 0.532312
0.000000 0.798195 0.000000
0.000000 0.798194 0.000000
0.000000 0.798192 0.000000
0.000000 0.798188 0.000000
0.000000 0.883733 0.000000
0.000000 0.897972 0.000000
0.780099 0.897494 0.000000
0.966468 0.888759 0.234855
1.000000 0.883572 0.539218
0.000000 0.885267 0.000000
0.000000 0.885267 0.000000
0.000000 0.885267 0.000000
0.000000 0.885267 0.000000
0.000000 0.885264 0.000000
0.000000 0.946032 0.000000
0.444078 0.951556 0.000000
0.890420 0.946066 0.233409
0.995142 0.943578 0.444341
0.000000 0.000000 0.206139
0.000000 0.000000 0.131547
0.189361 0.000000 0.113093
0.334317 0.000000 0.091254
0.567216 0.000000 0.200663
0.812189 0.000000 0.248391
0.983433 0.000000 0.301564
1.000000 0.317143 0.406187
1.000000 0.531615 0.538166
0.000000 0.000000 0.269357
0.000000 0.000000 0.231735
0.177524 0.000000 0.229171
0.373291 0.000000 0.193619
0.601862 0.000000 0.226866
0.821444 0.000000 0.257498
0.988223 0.000000 0.306572
1.000000 0.321500 0.409120
1.000000 0.534931 0.538025
0.000000 0.064760 0.372134
0.000000 0.086648 0.349345
0.061460 0.136709 0.363856
0.465239 0.000000 0.334476
0.642904 0.000000 0.279364
0.840213 0.000000 0.273676
0.988674 0.000000 0.311947
1.000000 0.346615 0.409042
1.000000 0.544877 0.537598
0.000000 0.222208 0.434696
0.000000 0.222208 0.434696
0.000000 0.349730 0.417856
0.409201 0.419463 0.445367
0.689319 0.308875 0.350520
0.865493 0.201329 0.304434
0.991783 0.214690 0.324875
1.000000 0.385518 0.410742
1.000000 0.558397 0.537061
0.000000 0.413971 0.437652
0.000000 0.413800 0.440529
0.000000 0.484268 0.373988
0.000000 0.591825 0.367394
0.644113 0.600354 0.375396
0.861044 0.490257 0.318453
0.984535 0.428263 0.328899
1.000000 0.456495 0.413965
1.000000 0.591965 0.538895
0.000000 0.554690 0.326309
0.000000 0.554678 0.331773
0.000000 0.566690 0.308417
0.000000 0.699070 0.236683
0.272567 0.738014 0.216606
0.814745 0.725445 0.262052
0.956013 0.659154 0.329063
1.000000 0.628924 0.430305
1.000000 0.658456 0.545872
0.000000 0.681690 0.272110
0.000000 0.681686 0.274906
0.000000 0.681682 0.277708
0.000000 0.772082 0.149481
0.000000 0.835271 0.117117
0.583072 0.837055 0.124369
0.911910 0.822589 0.240951
0.995018 0.792123 0.414917
1.000000 0.776022 0.555458
0.000000 0.805087 0.166237
0.000000 0.805080 0.177251
0.000000 0.805078 0.180826
0.000000 0.805065 0.198144
0.000000 0.900733 0.000000
0.000000 0.914430 0.000000
0.781438 0.905411 0.181157
0.963323 0.895260 0.329351
1.000000 0.882111 0.563952
0.000000 0.889885 0.000000
0.000000 0.889882 0.000000
0.000000 0.889878 0.000000
0.000000 0.889866 0.000000
0.000000 0.889842 0.069330
0.000000 0.959372 0.000000
0.461123 0.957529 0.162257
0.883502 0.951370 0.333643
0.993230 0.945688 0.485190
0.000000 0.000000 0.280009
0.000000 0.000000 0.243469
0.119330 0.000000 0.243053
0.346319 0.000000 0.221940
0.521892 0.000000 0.219848
0.803467 0.000000 0.363803
0.980338 0.000000 0.413952
1.000000 0.297895 0.473021
1.000000 0.532297 0.573299
0.000000 0.000000 0.387265
0.000000 0.000000 0.349590
0.004958 0.000000 0.349227
0.377539 0.000000 0.351301
0.568524 0.000000 0.308287
0.814308 0.000000 0.378729
0.981045 0.000000 0.418309
1.000000 0.315854 0.476565
1.000000 0.535966 0.573425
0.000000 0.000000 0.470094
0.000000 0.047681 0.428768
0.000000 0.074682 0.449148
0.364983 0.000000 0.450257
0.637894 0.000000 0.396246
0.833755 0.000000 0.404289
0.983902 0.000000 0.429141
1.000000 0.333421 0.477079
1.000000 0.547511 0.573789
0.000000 0.155618 0.556598
0.000000 0.168211 0.544249
0.000000 0.248258 0.535804
0.254036 0.313984 0.579498
0.697054 0.241717 0.548960
0.860478 0.119127 0.467638
0.990048 0.207425 0.447927
1.000000 0.384155 0.484506
1.000000 0.561489 0.576895
0.000000 0.331692 0.602209
0.000000 0.331692 0.602209
0.000000 0.410641 0.573465
0.000000 0.569243 0.616357
0.623306 0.611832 0.634240
0.859812 0.510252 0.549323
0.984755 0.442697 0.494749
1.000000 0.456676 0.498499
1.000000 0.595395 0.578814
0.000000 0.536440 0.613868
0.000000 0.536440 0.613868
0.000000 0.536256 0.616954
0.000000 0.690546 0.556350
0.000000 0.762718 0.564434
0.799075 0.755489 0.573853
0.950423 0.683501 0.514932
1.000000 0.629963 0.514146
1.000000 0.661569 0.582612
0.000000 0.690168 0.526480
0.000000 0.690168 0.526480
0.000000 0.690157 0.529726
0.000000 0.759853 0.453372
0.000000 0.842857 0.446693
0.581144 0.855896 0.441940
0.903331 0.846137 0.481663
0.992174 0.800493 0.515938
1.000000 0.779366 0.605880
0.000000 0.809162 0.469969
0.000000 0.809153 0.473205
0.000000 0.809153 0.473205
0.000000 0.809134 0.479684
0.000000 0.899386 0.383594
0.000000 0.924354 0.389848
0.778776 0.915165 0.410654
0.959635 0.906491 0.470483
1.000000 0.887496 0.610191
0.000000 0.895524 0.422961
0.000000 0.895524 0.422961
0.000000 0.895517 0.426132
0.000000 0.895509 0.429303
0.000000 0.895479 0.441998
0.000000 0.966877 0.369945
0.465634 0.965318 0.392483
0.881719 0.954673 0.457405
0.992365 0.948248 0.558673
0.000000 0.000000 0.445398
0.000000 0.000000 0.445093
0.000000 0.000000 0.437989
0.263388 0.000000 0.442487
0.566926 0.000000 0.440641
0.753715 0.000000 0.407814
0.974677 0.000000 0.538394
1.000000 0.276726 0.591085
1.000000 0.523871 0.632547
0.000000 0.000000 0.503962
0.000000 0.000000 0.498350
0.000000 0.000000 0.505087
0.251135 0.000000 0.500556
0.588726 0.000000 0.507709
0.784800 0.000000 0.454364
0.978031 0.000000 0.547098
1.000000 0.290901 0.594699
1.000000 0.527860 0.632621
0.000000 0.000000 0.564393
0.000000 0.052556 0.553737
0.000000 0.072728 0.566249
0.219016 0.036427 0.569527
0.628011 0.000000 0.570517
0.825337 0.000000 0.511566
0.981531 0.000000 0.560427
1.000000 0.318056 0.599010
1.000000 0.535226 0.632907
0.000000 0.075014 0.646111
0.000000 0.123346 0.609674
0.000000 0.158960 0.621220
0.000000 0.187801 0.649221
0.604520 0.105136 0.648583
0.861822 0.000000 0.590265
0.986168 0.106032 0.585347
1.000000 0.365444 0.607260
1.000000 0.553586 0.636778
0.000000 0.248848 0.718388
0.000000 0.248848 0.718388
0.000000 0.348965 0.679789
0.000000 0.430928 0.717871
0.479096 0.504050 0.745925
0.874902 0.451234 0.721380
0.985421 0.390060 0.644663
1.000000 0.451169 0.623277
1.000000 0.590581 0.650712
0.000000 0.448861 0.755419
0.000000 0.448861 0.755419
0.000000 0.448861 0.755419
0.000000 0.623182 0.737427
0.000000 0.747970 0.771224
0.778768 0.765980 0.785541
0.938306 0.701884 0.715095
1.000000 0.639265 0.662420
1.000000 0.665426 0.668615
0.000000 0.660871 0.759741
0.000000 0.660871 0.759741
0.000000 0.660871 0.759741
0.000000 0.693708 0.747396
0.000000 0.839589 0.730708
0.540739 0.868435 0.738258
0.891279 0.861776 0.740213
0.984918 0.812861 0.688213
1.000000 0.781551 0.677685
0.000000 0.815002 0.699566
0.000000 0.815002 0.699566
0.000000 0.815002 0.699566
0.000000 0.817178 0.702341
0.000000 0.895606 0.625011
0.000000 0.928621 0.642553
0.761629 0.925843 0.638114
0.953507 0.916576 0.670228
1.000000 0.890648 0.697311
0.000000 0.896274 0.650212
0.000000 0.897748 0.650111
0.000000 0.897748 0.650111
0.000000 0.897735 0.653318
0.000000 0.897721 0.656516
0.000000 0.967408 0.585621
0.477488 0.969532 0.596867
0.875869 0.959610 0.614459
0.986496 0.955347 0.674798
0.000000 0.000000 0.633991
0.000000 0.000000 0.643970
0.000000 0.000000 0.644706
0.131352 0.000000 0.649186
0.468249 0.000000 0.647942
0.796539 0.000000 0.638914
0.953937 0.000000 0.604374
1.000000 0.179118 0.704915
1.000000 0.507425 0.736806
0.000000 0.028642 0.655737
0.000000 0.039407 0.663638
0.000000 0.051854 0.677327
0.052100 0.000000 0.675364
0.465046 0.000000 0.675993
0.814090 0.000000 0.668239
0.960539 0.000000 0.621505
1.000000 0.198669 0.705546
1.000000 0.515124 0.736930
0.000000 0.071395 0.679849
0.000000 0.082609 0.690689
0.000000 0.095084 0.703927
0.000000 0.096064 0.709692
0.458845 0.000000 0.707145
0.832387 0.000000 0.706321
0.974161 0.000000 0.646653
1.000000 0.232956 0.715978
1.000000 0.522474 0.740015
0.000000 0.125889 0.714482
0.000000 0.141848 0.719027
0.000000 0.158635 0.736638
0.000000 0.178445 0.756473
0.422564 0.156898 0.751980
0.834839 0.000000 0.751328
0.987729 0.000000 0.696940
1.000000 0.298707 0.721353
1.000000 0.537169 0.746095
0.000000 0.157907 0.799509
0.000000 0.221377 0.762657
0.000000 0.259247 0.768147
0.000000 0.303840 0.791068
0.299501 0.344430 0.809036
0.817727 0.303790 0.804208
0.995346 0.236404 0.753208
1.000000 0.411487 0.740356
1.000000 0.577827 0.752680
0.000000 0.369723 0.842081
0.000000 0.369723 0.842081
0.000000 0.369723 0.842081
0.000000 0.544419 0.824346
0.000000 0.629392 0.842501
0.683857 0.688903 0.853304
0.954079 0.660413 0.832876
1.000000 0.594812 0.785326
1.000000 0.661469 0.765011
0.000000 0.586323 0.860178
0.000000 0.586323 0.860178
0.000000 0.586323 0.860178
0.000000 0.586323 0.860178
0.000000 0.796579 0.850768
0.443061 0.862764 0.867322
0.880343 0.867716 0.875004
0.975311 0.825922 0.829319
1.000000 0.785155 0.789805
0.000000 0.781617 0.862771
0.000000 0.781617 0.862771
0.000000 0.781617 0.862771
0.000000 0.781483 0.864357
0.000000 0.867031 0.838135
0.000000 0.926358 0.841165
0.751239 0.931748 0.846716
0.942198 0.926696 0.843929
1.000000 0.897604 0.812036
0.000000 0.898366 0.826351
0.000000 0.898366 0.826351
0.000000 0.898366 0.826351
0.000000 0.898366 0.826351
0.000000 0.898356 0.828229
0.000000 0.965107 0.777732
0.382560 0.972609 0.786886
0.864275 0.966304 0.791178
0.979902 0.961047 0.805543
0.000000 0.102048 0.803228
0.000000 0.107560 0.808280
0.000000 0.110554 0.816498
0.000000 0.111647 0.815851
0.333031 0.068097 0.815466
0.693734 0.000000 0.813450
0.972124 0.000000 0.798190
1.000000 0.000000 0.771745
1.000000 0.454487 0.826770
0.000000 0.116589 0.809525
0.000000 0.123978 0.814193
0.000000 0.128292 0.819929
0.000000 0.130957 0.822454
0.332272 0.100269 0.819624
0.695544 0.000000 0.817789
0.975324 0.000000 0.807429
1.000000 0.000000 0.775684
1.000000 0.462117 0.826912
0.000000 0.139648 0.819036
0.000000 0.145152 0.821848
0.000000 0.155576 0.825051
0.000000 0.160954 0.834092
0.312288 0.145577 0.829360
0.692178 0.000000 0.829078
0.983148 0.000000 0.821746
1.000000 0.000000 0.782999
1.000000 0.469732 0.827050
0.000000 0.183867 0.832153
0.000000 0.190569 0.837002
0.000000 0.202048 0.840817
0.000000 0.218713 0.850715
0.269296 0.217096 0.852257
0.683222 0.154223 0.851608
0.987637 0.000000 0.847166
1.000000 0.000000 0.803954
1.000000 0.489086 0.833131
0.000000 0.245651 0.846277
0.000000 0.257095 0.852160
0.000000 0.275096 0.856637
0.000000 0.298134 0.866066
0.000000 0.322826 0.874363
0.641897 0.308588 0.871001
0.970610 0.272794 0.868754
1.000000 0.237701 0.826282
1.000000 0.530328 0.841408
0.000000 0.273873 0.891415
0.000000 0.340658 0.868495
0.000000 0.384828 0.873485
0.000000 0.435365 0.880096
0.000000 0.480048 0.892451
0.520920 0.522599 0.899742
0.933094 0.513654 0.895536
1.000000 0.481605 0.865390
1.000000 0.616109 0.849449
0.000000 0.497266 0.923553
0.000000 0.497266 0.923553
0.000000 0.497266 0.923553
0.000000 0.576698 0.904841
0.000000 0.724946 0.908255
0.000000 0.793231 0.913076
0.819998 0.822242 0.918735
0.982139 0.810775 0.906404
1.000000 0.762203 0.871360
0.000000 0.711860 0.931310
0.000000 0.711860 0.931310
0.000000 0.711860 0.931310
0.000000 0.711860 0.931310
0.000000 0.711860 0.931310
0.000000 0.909826 0.919482
0.691882 0.928152 0.927247
0.935359 0.933359 0.930843
0.996253 0.905717 0.901922
0.000000 0.872378 0.925104
0.000000 0.872378 0.925104
0.000000 0.872378 0.925104
0.000000 0.872378 0.925104
0.000000 0.872378 0.925104
0.000000 0.952964 0.908064
0.137052 0.973751 0.906829
0.846718 0.970255 0.909833
0.971959 0.967393 0.910358
0.000000 0.223625 0.908145
0.000000 0.227894 0.907927
0.000000 0.232125 0.909915
0.000000 0.235759 0.913264
0.289121 0.234221 0.913168
0.563061 0.200649 0.908233
0.901546 0.000000 0.903718
1.000000 0.000000 0.895375
1.000000 0.207043 0.874899
0.000000 0.231084 0.910617
0.000000 0.235355 0.911658
0.000000 0.240034 0.910948
0.000000 0.244020 0.914384
0.281654 0.241806 0.914786
0.557965 0.217197 0.910093
0.901299 0.097523 0.905450
1.000000 0.000000 0.897284
1.000000 0.229475 0.876958
0.000000 0.244465 0.912464
0.000000 0.247008 0.913662
0.000000 0.251970 0.914435
0.000000 0.256570 0.917875
0.257604 0.265065 0.918157
0.556521 0.235558 0.913258
0.900582 0.162473 0.908795
1.000000 0.144456 0.899247
1.000000 0.254670 0.880727
0.000000 0.270765 0.915166
0.000000 0.273764 0.916434
0.000000 0.281505 0.918141
0.000000 0.287590 0.921530
0.222240 0.299774 0.922765
0.533746 0.281441 0.920730
0.894764 0.239615 0.916109
1.000000 0.232170 0.907341
1.000000 0.302387 0.886181
0.000000 0.320699 0.921626
0.000000 0.324683 0.922973
0.000000 0.326595 0.927457
0.000000 0.337985 0.928434
0.072176 0.363579 0.930675
0.496612 0.361736 0.929832
0.864747 0.339013 0.926335
1.000000 0.356405 0.922451
1.000000 0.388347 0.894652
0.000000 0.402803 0.932923
0.000000 0.412392 0.932352
0.000000 0.430082 0.933758
0.000000 0.443538 0.936343
0.000000 0.471078 0.939512
0.403619 0.495738 0.941277
0.831362 0.485862 0.938711
1.000000 0.504523 0.933515
1.000000 0.498992 0.908584
0.000000 0.430304 0.947117
0.000000 0.480525 0.938078
0.000000 0.518315 0.938259
0.000000 0.569594 0.942321
0.000000 0.618814 0.945469
0.000000 0.660842 0.948411
0.725500 0.693843 0.949775
0.987452 0.695445 0.946747
1.000000 0.685613 0.930539
0.000000 0.622631 0.973258
0.000000 0.622631 0.973258
0.000000 0.622631 0.973258
0.000000 0.622631 0.973258
0.000000 0.760705 0.950490
0.000000 0.859578 0.956232
0.485411 0.884768 0.957294
0.902173 0.898041 0.960438
1.000000 0.892717 0.953649
0.000000 0.823359 0.971906
0.000000 0.823359 0.971906
0.000000 0.823359 0.971906
0.000000 0.823359 0.971906
0.000000 0.823359 0.971906
0.000000 0.823359 0.971906
0.000000 0.965263 0.961908
0.824481 0.967398 0.965573
0.968251 0.971801 0.965647
