Assets/Lutify-Free-LUTs-Pack/Lutify Free LUTs Pack/Colour Film Boost Pro - Film Boost 10/Lutify.me-FilmBoost10-DWG-to-DWG.cube
# Created with: fylm.ai - Colour Grading and Collaboration Software in Cloud 
# Website: https://fylm.ai 
# META
# Option: Gamut compress
# Block 2: colourMatch | Blending Mode: Normal | {"ColorSpace":0,"CrossCovarianceLimit":50,"ReshapingIterations":1,"PercentSaturationShift":100,"PercentShadingShift":100,"ExtraShading":true,"PercentTint":100,"PercentModified":100}
# Block 3: subtractiveColour | Blending Mode: Normal | {"sliders":{"gainY":0.55,"C":0.3,"M":0.3,"Y":0.3}}
# Block 4: LUT | Filmic Curve Response: Low Contrast 2 (100%)
# Block 5: logPrimaries | Blending Mode: Normal | {"wheels":{"shadows":{"Y":"0","R":"1","G":"1","B":"1"},"midtones":{"Y":"0","R":"1","G":"1","B":"1"},"highlights":{"Y":"0","R":"1","G":"1","B":"1"},"offset":{"Y":"0","R":"1","G":"1","B":"1"}},"sliders":{"shadows":{"Y":0,"R":-0.085,"G":0.024,"B":0.134},"midtones":{"Y":0,"R":0,"G":-0.023,"B":0},"highlights":{"Y":0,"R":0,"G":0,"B":0},"offset":{"Y":0,"R":0.012,"G":-0.012,"B":0}}}
# Block 6: HSL | Blending Mode: Normal | {"hue":{"Reds":0,"Yellows":0,"Greens":0,"Cyans":0,"Blues":0,"Magentas":0},"saturation":{"Reds":1,"Yellows":1,"Greens":1,"Cyans":1,"Blues":1,"Magentas":1},"luminance":{"Reds":0.9,"Yellows":0.9,"Greens":0.9,"Cyans":0.9,"Blues":0.9,"Magentas":0.9},"lum_sat":{"Blacks":1,"Shadows":1,"Midtones":1,"Highlights":1,"Whites":1},"sat_sat":{"10":1,"20":1,"30":1,"40":1,"50":1}}
TITLE "dwg" 
LUT_3D_SIZE 5
-0.026819 -0.007943 0.011226
0.191249 -0.003009 0.025790
0.400842 0.140389 0.154948
0.582936 0.336335 0.328479
0.821949 0.536614 0.560783
-0.015063 0.188188 0.041630
0.244702 0.197366 0.080983
0.408763 0.173964 0.162155
0.582474 0.339296 0.328090
0.822870 0.536952 0.561446
0.150060 0.372022 0.162957
0.220376 0.375621 0.171674
0.453435 0.362919 0.234465
0.588211 0.365924 0.332729
0.822504 0.539996 0.561086
0.368722 0.532503 0.314931
0.384313 0.531559 0.316102
0.452064 0.530260 0.327255
0.642905 0.512317 0.402783
0.826671 0.564593 0.563756
0.574969 0.731237 0.511269
0.576019 0.731245 0.511410
0.585470 0.731318 0.512677
0.655649 0.736459 0.529820
0.901772 0.708573 0.644215
-0.028056 0.017144 0.129301
0.172087 0.005297 0.094280
0.403591 0.147214 0.181812
0.586721 0.338679 0.335734
0.822197 0.536869 0.561234
0.026772 0.195618 0.247850
0.230942 0.242348 0.253209
0.410384 0.186428 0.189989
0.586527 0.343056 0.335773
0.822073 0.536741 0.561008
0.138598 0.390184 0.223994
0.202920 0.397137 0.223502
0.438864 0.375582 0.232335
0.592615 0.371896 0.340574
0.822874 0.540377 0.561759
0.349952 0.548283 0.332010
0.356377 0.548506 0.332206
0.423695 0.535158 0.325162
0.642905 0.512317 0.402783
0.827348 0.565221 0.564722
0.540984 0.747199 0.521798
0.547845 0.743996 0.519555
0.585470 0.731318 0.512677
0.655649 0.736459 0.529820
0.901772 0.708573 0.644215
0.015986 0.077758 0.216128
0.123390 0.071569 0.205789
0.363099 0.078354 0.176356
0.599203 0.354123 0.385328
0.821724 0.540686 0.564722
0.098417 0.192085 0.335146
0.145892 0.190623 0.329554
0.372167 0.143369 0.264697
0.600534 0.358587 0.387331
0.821724 0.540686 0.564722
0.189556 0.369912 0.432820
0.213334 0.399250 0.432824
0.460545 0.456711 0.461021
0.608705 0.394765 0.397097
0.823552 0.544148 0.566116
0.358139 0.582124 0.433904
0.363891 0.584916 0.434288
0.421379 0.591858 0.435010
0.622908 0.567113 0.417964
0.832805 0.570395 0.573138
0.536127 0.792903 0.571450
0.537053 0.792906 0.571497
0.544802 0.793108 0.571417
0.585873 0.770270 0.547524
0.901772 0.708573 0.644215
0.162545 0.164716 0.315461
0.190464 0.164894 0.314981
0.338790 0.172759 0.315522
0.518765 0.197766 0.298740
0.834000 0.552752 0.596203
0.161645 0.164687 0.315446
0.190464 0.164894 0.314981
0.335819 0.172399 0.315411
0.518765 0.197766 0.298740
0.834000 0.552752 0.596203
0.271523 0.369194 0.507502
0.280616 0.374404 0.511403
0.357405 0.388556 0.521835
0.562439 0.345246 0.470969
0.834157 0.556218 0.596881
0.365601 0.525347 0.613953
0.358368 0.543333 0.602946
0.415417 0.590846 0.622456
0.651528 0.654607 0.647057
0.843251 0.588555 0.607053
0.547213 0.823619 0.641052
0.548144 0.823777 0.641217
0.555680 0.827044 0.642467
0.606159 0.834586 0.645550
0.864749 0.810949 0.658951
0.354219 0.257223 0.410277
0.358110 0.257605 0.410473
0.388527 0.260646 0.412029
0.490270 0.255055 0.392760
0.690487 0.349207 0.443301
0.354219 0.257223 0.410277
0.358110 0.257605 0.410473
0.388527 0.260646 0.412029
0.490270 0.255055 0.392760
0.690487 0.349207 0.443301
0.354219 0.257223 0.410277
0.358110 0.257605 0.410473
0.388527 0.260646 0.412029
0.490270 0.255055 0.392760
0.690487 0.349207 0.443301
0.489248 0.583557 0.725799
0.490296 0.584357 0.726290
0.499720 0.587608 0.729076
0.559376 0.597761 0.735623
0.788681 0.549316 0.670244
0.625927 0.746373 0.876079
0.603855 0.744568 0.853533
0.602470 0.780786 0.848289
0.642116 0.830770 0.862992
0.894039 0.914742 0.897057
