Assets/Lutify-Free-LUTs-Pack/Lutify Free LUTs Pack/Colour Film Boost Pro - Film Boost 10/Lutify.me-FilmBoost10-RWG-to-Rec709.cube
# Created with: fylm.ai - Colour Grading and Collaboration Software in Cloud 
# Website: https://fylm.ai 
# META
# Option: Gamut compress
# Block 1: IDT | RED REDWideGamutRGB Log3G10
# Block 2: colourMatch | Blending Mode: Normal | {"ColorSpace":0,"CrossCovarianceLimit":50,"ReshapingIterations":1,"PercentSaturationShift":100,"PercentShadingShift":100,"ExtraShading":true,"PercentTint":100,"PercentModified":100}
# Block 3: subtractiveColour | Blending Mode: Normal | {"sliders":{"gainY":0.55,"C":0.3,"M":0.3,"Y":0.3}}
# Block 4: LUT | Filmic Curve Response: Low Contrast 2 (100%)
# Block 5: logPrimaries | Blending Mode: Normal | {"wheels":{"shadows":{"Y":"0","R":"1","G":"1","B":"1"},"midtones":{"Y":"0","R":"1","G":"1","B":"1"},"highlights":{"Y":"0","R":"1","G":"1","B":"1"},"offset":{"Y":"0","R":"1","G":"1","B":"1"}},"sliders":{"shadows":{"Y":0,"R":-0.085,"G":0.024,"B":0.134},"midtones":{"Y":0,"R":0,"G":-0.023,"B":0},"highlights":{"Y":0,"R":0,"G":0,"B":0},"offset":{"Y":0,"R":0.012,"G":-0.012,"B":0}}}
# Block 6: HSL | Blending Mode: Normal | {"hue":{"Reds":0,"Yellows":0,"Greens":0,"Cyans":0,"Blues":0,"Magentas":0},"saturation":{"Reds":1,"Yellows":1,"Greens":1,"Cyans":1,"Blues":1,"Magentas":1},"luminance":{"Reds":0.9,"Yellows":0.9,"Greens":0.9,"Cyans":0.9,"Blues":0.9,"Magentas":0.9},"lum_sat":{"Blacks":1,"Shadows":1,"Midtones":1,"Highlights":1,"Whites":1},"sat_sat":{"10":1,"20":1,"30":1,"40":1,"50":1}}
# Block 7: ODT | Rec709
TITLE "Lutify.me-FilmBoost10-RWG-to-Rec709" 
LUT_3D_SIZE 9
0.000000 0.000000 0.000000
0.000000 0.000000 0.000000
0.182597 0.000000 0.000000
0.398010 0.000000 0.000000
0.701529 0.000000 0.000000
0.988936 0.000000 0.000000
1.000000 0.394579 0.192727
1.000000 0.721812 0.455749
1.000000 0.898808 0.760611
0.000000 0.032770 0.000000
0.000000 0.039517 0.000000
0.207901 0.000000 0.000000
0.420622 0.000000 0.000000
0.700372 0.000000 0.000000
0.987976 0.000000 0.000000
1.000000 0.397746 0.190597
1.000000 0.723745 0.453227
1.000000 0.898808 0.760611
0.000000 0.159506 0.000000
0.000000 0.172376 0.000000
0.255238 0.150169 0.000000
0.486671 0.000000 0.000000
0.722562 0.000000 0.000000
0.987189 0.000000 0.000000
1.000000 0.404070 0.186302
1.000000 0.723745 0.453227
1.000000 0.898712 0.759093
0.000000 0.339670 0.000000
0.000000 0.352847 0.000000
0.000000 0.372128 0.000000
0.552334 0.305178 0.000000
0.812053 0.098599 0.000000
0.990606 0.017282 0.000000
1.000000 0.429084 0.165649
1.000000 0.729964 0.450553
1.000000 0.899411 0.759149
0.000000 0.588603 0.000000
0.000000 0.594560 0.000000
0.000000 0.603017 0.000000
0.310940 0.599723 0.000000
0.842667 0.509463 0.000000
1.000000 0.379642 0.000000
1.000000 0.497939 0.000000
1.000000 0.744267 0.437474
1.000000 0.900714 0.757747
0.000000 0.806918 0.000000
0.000000 0.809043 0.000000
0.000000 0.812874 0.000000
0.000000 0.809064 0.000000
0.702153 0.797591 0.000000
0.983919 0.722469 0.000000
1.000000 0.642308 0.000000
1.000000 0.780434 0.342126
1.000000 0.905924 0.748682
0.000000 0.939484 0.000000
0.000000 0.939306 0.000000
0.000000 0.939650 0.000000
0.000000 0.937131 0.000000
0.497530 0.932116 0.000000
0.907048 0.914650 0.000000
1.000000 0.873247 0.000000
1.000000 0.842806 0.402569
1.000000 0.923163 0.713132
0.575828 0.995131 0.166121
0.580414 0.994986 0.166340
0.589435 0.994695 0.166782
0.615352 0.993826 0.168179
0.697187 0.990724 0.174217
0.842772 0.983797 0.197409
0.992346 0.976866 0.327864
1.000000 0.954684 0.519100
1.000000 0.945446 0.722118
0.857253 1.000000 0.606704
0.857253 1.000000 0.606704
0.857253 1.000000 0.606704
0.859951 1.000000 0.606930
0.867920 1.000000 0.607639
0.898834 1.000000 0.611144
0.957965 1.000000 0.634608
1.000000 1.000000 0.742173
1.000000 0.998036 0.801494
0.000000 0.000000 0.039747
0.000000 0.000000 0.033486
0.172205 0.000000 0.000000
0.388381 0.000000 0.000000
0.698627 0.000000 0.000000
0.991793 0.000000 0.042140
1.000000 0.395421 0.197777
1.000000 0.721812 0.455749
1.000000 0.898808 0.760611
0.000000 0.000000 0.043069
0.000000 0.012683 0.035603
0.188520 0.000000 0.000000
0.402876 0.000000 0.000000
0.707236 0.000000 0.000000
0.991172 0.000000 0.034781
1.000000 0.398866 0.197341
1.000000 0.723978 0.455664
1.000000 0.898808 0.760611
0.000000 0.156038 0.000000
0.000000 0.167597 0.000000
0.239068 0.157092 0.000000
0.457985 0.000000 0.000000
0.716006 0.000000 0.000000
0.989951 0.000000 0.000000
1.000000 0.404903 0.191353
1.000000 0.723978 0.455664
1.000000 0.898808 0.760611
0.000000 0.334685 0.000000
0.000000 0.352860 0.000000
0.000000 0.372234 0.000000
0.552718 0.299798 0.000000
0.812053 0.098599 0.000000
0.990130 0.092225 0.000000
1.000000 0.430165 0.172446
1.000000 0.730192 0.452983
1.000000 0.899411 0.759149
0.000000 0.588609 0.000000
0.000000 0.591548 0.000000
0.000000 0.600018 0.000000
0.314743 0.596626 0.000000
0.842667 0.509463 0.000000
1.000000 0.379642 0.000000
1.000000 0.503076 0.000000
1.000000 0.744267 0.437474
1.000000 0.900714 0.757747
0.000000 0.806935 0.000000
0.000000 0.809043 0.000000
0.000000 0.812874 0.000000
0.000000 0.809064 0.000000
0.702153 0.797591 0.000000
0.983919 0.722469 0.000000
1.000000 0.642308 0.000000
1.000000 0.780770 0.345867
1.000000 0.905924 0.748682
0.000000 0.939572 0.000000
0.000000 0.939306 0.000000
0.000000 0.939650 0.000000
0.000000 0.937131 0.000000
0.497530 0.932116 0.000000
0.907048 0.914650 0.000000
1.000000 0.873247 0.000000
1.000000 0.842806 0.402569
1.000000 0.923163 0.713132
0.575828 0.995131 0.166121
0.580414 0.994986 0.166340
0.589435 0.994695 0.166782
0.615352 0.993826 0.168179
0.697187 0.990724 0.174217
0.842772 0.983797 0.197409
0.992346 0.976866 0.327864
1.000000 0.954684 0.519100
1.000000 0.945446 0.722118
0.857253 1.000000 0.606704
0.857253 1.000000 0.606704
0.857253 1.000000 0.606704
0.859951 1.000000 0.606930
0.867920 1.000000 0.607639
0.898834 1.000000 0.611144
0.957965 1.000000 0.634608
1.000000 1.000000 0.742173
1.000000 0.998036 0.801494
0.000000 0.000000 0.107012
0.000000 0.000000 0.089837
0.160389 0.000000 0.057602
0.369984 0.000000 0.062853
0.715857 0.000000 0.066657
0.999297 0.000000 0.096733
1.000000 0.398821 0.218608
1.000000 0.722280 0.460650
1.000000 0.898808 0.760611
0.000000 0.000000 0.134621
0.000000 0.000000 0.121181
0.165211 0.000000 0.083590
0.392795 0.000000 0.076897
0.719261 0.000000 0.065867
0.998733 0.000000 0.093753
1.000000 0.398821 0.218608
1.000000 0.722280 0.460650
1.000000 0.898808 0.760611
0.000000 0.114865 0.239112
0.000000 0.131382 0.225167
0.162030 0.193559 0.217433
0.455115 0.000000 0.091420
0.726517 0.000000 0.052778
0.998657 0.000000 0.082793
1.000000 0.405123 0.214280
1.000000 0.724443 0.460566
1.000000 0.898808 0.760611
0.000000 0.326344 0.000000
0.000000 0.348647 0.000000
0.000000 0.398156 0.000000
0.489422 0.351671 0.000000
0.766024 0.218645 0.000000
0.994925 0.122572 0.000000
1.000000 0.433995 0.196683
1.000000 0.730647 0.457870
1.000000 0.899507 0.760666
0.000000 0.582604 0.000000
0.000000 0.588564 0.000000
0.000000 0.597046 0.000000
0.301059 0.596957 0.000000
0.840159 0.506486 0.000000
1.000000 0.375968 0.000000
1.000000 0.520364 0.077409
1.000000 0.745124 0.446983
1.000000 0.900808 0.759264
0.000000 0.806984 0.000000
0.000000 0.806830 0.000000
0.000000 0.810733 0.000000
0.000000 0.809244 0.000000
0.703561 0.795375 0.000000
0.983919 0.722469 0.000000
1.000000 0.642308 0.000000
1.000000 0.781948 0.359213
1.000000 0.906014 0.750189
0.000000 0.939572 0.000000
0.000000 0.939306 0.000000
0.000000 0.939747 0.000000
0.000000 0.937131 0.000000
0.497530 0.932116 0.000000
0.907615 0.913624 0.000000
1.000000 0.873247 0.000000
1.000000 0.842806 0.402569
1.000000 0.922599 0.714282
0.575828 0.995131 0.166121
0.580414 0.994986 0.166340
0.584949 0.994841 0.166560
0.615352 0.993826 0.168179
0.697187 0.990724 0.174217
0.842772 0.983797 0.197409
0.992346 0.976866 0.327864
1.000000 0.954684 0.519100
1.000000 0.945446 0.722118
0.857253 1.000000 0.606704
0.857253 1.000000 0.606704
0.857253 1.000000 0.606704
0.859951 1.000000 0.606930
0.867920 1.000000 0.607639
0.898834 1.000000 0.611144
0.957965 1.000000 0.634608
1.000000 1.000000 0.742173
1.000000 0.998036 0.801494
0.000000 0.000000 0.184351
0.000000 0.000000 0.166317
0.119838 0.000000 0.150435
0.341234 0.000000 0.073113
0.691100 0.000000 0.205987
1.000000 0.000000 0.205854
1.000000 0.410935 0.276606
1.000000 0.724629 0.485714
1.000000 0.898558 0.764949
0.000000 0.000000 0.236577
0.000000 0.000000 0.216437
0.098713 0.000000 0.197882
0.344163 0.000000 0.111071
0.701461 0.000000 0.218783
1.000000 0.000000 0.205581
1.000000 0.414348 0.276341
1.000000 0.724629 0.485714
1.000000 0.898558 0.764949
0.000000 0.000000 0.362907
0.000000 0.030390 0.348545
0.000000 0.043072 0.343388
0.432410 0.000000 0.281654
0.736729 0.000000 0.237377
1.000000 0.000000 0.204513
1.000000 0.421164 0.275801
1.000000 0.726542 0.483087
1.000000 0.899193 0.766658
0.000000 0.245855 0.488436
0.000000 0.259066 0.479209
0.000000 0.366458 0.470149
0.454090 0.459422 0.486430
0.806629 0.248189 0.276651
1.000000 0.162854 0.196080
1.000000 0.444153 0.265658
1.000000 0.732699 0.480323
1.000000 0.899794 0.765202
0.000000 0.579878 0.208746
0.000000 0.602629 0.192249
0.000000 0.647388 0.149911
0.000000 0.700484 0.000000
0.782310 0.641197 0.000000
0.992299 0.520814 0.000000
1.000000 0.529243 0.209414
1.000000 0.747055 0.468917
1.000000 0.900903 0.760779
0.000000 0.804895 0.000000
0.000000 0.804725 0.000000
0.000000 0.808669 0.000000
0.000000 0.807269 0.000000
0.694536 0.795849 0.000000
0.983316 0.719773 0.000000
1.000000 0.639253 0.000000
1.000000 0.785083 0.401524
1.000000 0.906282 0.754701
0.000000 0.939744 0.000000
0.000000 0.939658 0.000000
0.000000 0.939031 0.000000
0.000000 0.937493 0.000000
0.490793 0.932301 0.000000
0.904133 0.913839 0.000000
1.000000 0.873247 0.000000
1.000000 0.841491 0.402429
1.000000 0.923033 0.722293
0.575828 0.995131 0.166121
0.575828 0.995131 0.166121
0.584949 0.994841 0.166560
0.611148 0.993971 0.167940
0.697187 0.990724 0.174217
0.842772 0.983797 0.197409
0.992346 0.976866 0.327864
1.000000 0.954684 0.519100
1.000000 0.944910 0.721876
0.855896 1.000000 0.606593
0.857253 1.000000 0.606704
0.857253 1.000000 0.606704
0.859951 1.000000 0.606930
0.867920 1.000000 0.607639
0.898834 1.000000 0.611144
0.957204 1.000000 0.634315
1.000000 1.000000 0.742173
1.000000 0.998036 0.801494
0.000000 0.000000 0.259075
0.000000 0.000000 0.252390
0.088944 0.000000 0.240549
0.323277 0.000000 0.173949
0.580825 0.000000 0.106245
0.994024 0.000000 0.439578
1.000000 0.410764 0.440748
1.000000 0.729367 0.563466
1.000000 0.899238 0.775566
0.000000 0.000000 0.327742
0.000000 0.000000 0.321558
0.000000 0.000000 0.307141
0.317622 0.000000 0.261443
0.580825 0.000000 0.106245
0.994730 0.000000 0.443511
1.000000 0.414985 0.443761
1.000000 0.729367 0.563466
1.000000 0.899238 0.775566
0.000000 0.000000 0.495320
0.000000 0.000000 0.498720
0.000000 0.000000 0.491625
0.279977 0.000000 0.472325
0.638819 0.000000 0.312114
0.998959 0.000000 0.461696
1.000000 0.421833 0.443494
1.000000 0.731236 0.560601
1.000000 0.899238 0.775566
0.000000 0.120579 0.610896
0.000000 0.133498 0.613729
0.000000 0.155428 0.625302
0.198329 0.178614 0.642127
0.795798 0.000000 0.573588
1.000000 0.000000 0.494694
1.000000 0.446236 0.439757
1.000000 0.733332 0.560532
1.000000 0.899774 0.775628
0.000000 0.423110 0.742984
0.000000 0.423266 0.740190
0.000000 0.521897 0.704423
0.000000 0.672719 0.738453
0.745764 0.740343 0.752907
0.997455 0.568251 0.542937
1.000000 0.547078 0.423615
1.000000 0.751749 0.550054
1.000000 0.901757 0.774276
0.000000 0.836381 0.462487
0.000000 0.839926 0.467076
0.000000 0.856135 0.464922
0.000000 0.879760 0.448729
0.413661 0.889722 0.399536
0.934407 0.854441 0.245003
1.000000 0.787101 0.291913
1.000000 0.796477 0.496238
1.000000 0.907093 0.768124
0.000000 0.937666 0.000000
0.000000 0.937515 0.000000
0.000000 0.938738 0.000000
0.000000 0.937295 0.000000
0.470871 0.931852 0.000000
0.902358 0.913949 0.000000
1.000000 0.871936 0.000000
1.000000 0.838841 0.402162
1.000000 0.924826 0.744089
0.552110 0.995856 0.165070
0.556962 0.995711 0.165275
0.575828 0.995131 0.166121
0.602604 0.994260 0.167469
0.690545 0.990997 0.173603
0.838734 0.984015 0.196359
0.992346 0.976866 0.327864
1.000000 0.954108 0.518124
1.000000 0.944910 0.721876
0.855896 1.000000 0.606593
0.855896 1.000000 0.606593
0.855896 1.000000 0.606593
0.858605 1.000000 0.606816
0.867920 1.000000 0.607639
0.896507 1.000000 0.610828
0.957204 1.000000 0.634315
1.000000 1.000000 0.740017
1.000000 0.998036 0.801494
0.070166 0.000000 0.341915
0.094674 0.000000 0.339576
0.159895 0.000000 0.328141
0.327850 0.000000 0.309174
0.553441 0.000000 0.229490
0.849487 0.000000 0.161216
1.000000 0.296894 0.712080
1.000000 0.735866 0.706313
1.000000 0.899638 0.811751
0.000000 0.000000 0.433467
0.000000 0.000000 0.427842
0.094861 0.000000 0.410818
0.284392 0.000000 0.375132
0.553441 0.000000 0.229490
0.849487 0.000000 0.161216
1.000000 0.305465 0.712452
1.000000 0.735866 0.706313
1.000000 0.899638 0.811751
0.000000 0.000000 0.642938
0.000000 0.000000 0.639860
0.000000 0.000000 0.630567
0.170928 0.000000 0.616105
0.605547 0.000000 0.538236
0.849487 0.000000 0.161216
1.000000 0.318004 0.716030
1.000000 0.737922 0.706233
1.000000 0.899638 0.811751
0.000000 0.101285 0.773232
0.000000 0.101489 0.776886
0.000000 0.104432 0.782840
0.000000 0.106707 0.785875
0.607556 0.000000 0.765469
0.968539 0.000000 0.625607
1.000000 0.374840 0.730194
1.000000 0.742007 0.706076
1.000000 0.901017 0.811781
0.000000 0.315741 0.836904
0.000000 0.327891 0.837688
0.000000 0.338089 0.844633
0.000000 0.383352 0.857511
0.535287 0.411548 0.863357
1.000000 0.285010 0.817045
1.000000 0.506048 0.751372
1.000000 0.757063 0.708806
1.000000 0.902097 0.807556
0.000000 0.636270 0.902368
0.000000 0.636270 0.902368
0.000000 0.636270 0.902368
0.000000 0.801368 0.878851
0.000000 0.883145 0.895291
0.904712 0.894763 0.899294
1.000000 0.812011 0.786613
1.000000 0.805476 0.691836
1.000000 0.907947 0.806047
0.000000 0.970965 0.741293
0.000000 0.971367 0.740264
0.000000 0.972957 0.738669
0.000000 0.976367 0.738748
0.000000 0.979341 0.732081
0.765011 0.971785 0.702515
0.990462 0.955276 0.605064
1.000000 0.922634 0.627547
1.000000 0.929751 0.790520
0.508762 0.995748 0.143449
0.508762 0.995748 0.143449
0.519547 0.995459 0.143891
0.556374 0.995291 0.158959
0.662242 0.991676 0.165252
0.830597 0.984005 0.189171
0.991922 0.976472 0.323848
1.000000 0.952945 0.516201
1.000000 0.944373 0.721637
0.850417 1.000000 0.606161
0.853166 1.000000 0.606375
0.853166 1.000000 0.606375
0.855896 1.000000 0.606593
0.863960 1.000000 0.607278
0.894153 1.000000 0.610518
0.955668 1.000000 0.633738
1.000000 1.000000 0.740017
1.000000 0.998036 0.801494
0.328713 0.000000 0.442292
0.336752 0.000000 0.442216
0.358873 0.000000 0.442011
0.438889 0.000000 0.438511
0.600760 0.000000 0.398451
0.815070 0.000000 0.317321
1.000000 0.000000 0.240840
1.000000 0.674799 0.878017
1.000000 0.901958 0.874513
0.290214 0.000000 0.500198
0.299610 0.000000 0.491337
0.333673 0.000000 0.479380
0.438889 0.000000 0.438511
0.600760 0.000000 0.398451
0.815070 0.000000 0.317321
1.000000 0.000000 0.240840
1.000000 0.674799 0.878017
1.000000 0.901958 0.874513
0.109764 0.000000 0.750777
0.121539 0.000000 0.750547
0.174506 0.000000 0.747125
0.283519 0.000000 0.724178
0.525614 0.000000 0.626846
0.815070 0.000000 0.317321
1.000000 0.000000 0.237690
1.000000 0.677498 0.879482
1.000000 0.902630 0.874495
0.000000 0.000000 0.888651
0.000000 0.000000 0.887232
0.000000 0.000000 0.885408
0.184528 0.000000 0.882723
0.486168 0.000000 0.872009
0.914251 0.000000 0.831052
1.000000 0.000000 0.237690
1.000000 0.686923 0.879322
1.000000 0.902630 0.874495
0.000000 0.295246 0.938450
0.000000 0.295484 0.938745
0.000000 0.298630 0.939739
0.000000 0.307573 0.942647
0.395639 0.312050 0.940083
0.922578 0.188867 0.926865
1.000000 0.000000 0.859654
1.000000 0.718435 0.882185
1.000000 0.903974 0.874458
0.000000 0.594802 0.958207
0.000000 0.596415 0.958730
0.000000 0.608180 0.958269
0.000000 0.625413 0.960423
0.000000 0.675168 0.961451
0.817138 0.705437 0.958790
1.000000 0.648188 0.938950
1.000000 0.789755 0.895098
1.000000 0.911090 0.873552
0.000000 0.824748 0.978786
0.000000 0.824748 0.978786
0.000000 0.824748 0.978786
0.000000 0.824748 0.978786
0.000000 0.953210 0.965600
0.641589 0.969353 0.967336
0.968773 0.972286 0.966195
1.000000 0.930423 0.908787
1.000000 0.932563 0.872311
0.000000 1.000000 0.892067
0.000000 1.000000 0.892168
0.000000 1.000000 0.892675
0.000000 1.000000 0.889639
0.431948 1.000000 0.892094
0.695880 1.000000 0.887132
0.908769 1.000000 0.877794
1.000000 0.998227 0.846980
1.000000 0.982523 0.852902
0.836384 1.000000 0.605161
0.837813 1.000000 0.605256
0.837813 1.000000 0.605256
0.840646 1.000000 0.605449
0.853166 1.000000 0.606375
0.884479 1.000000 0.609343
0.952659 1.000000 0.629525
1.000000 1.000000 0.737867
1.000000 0.998036 0.801494
0.654435 0.000000 0.577175
0.658283 0.000000 0.577148
0.662133 0.000000 0.577122
0.684729 0.000000 0.569840
0.739427 0.000000 0.547943
0.855725 0.000000 0.492380
1.000000 0.000000 0.411726
1.000000 0.000000 0.337493
1.000000 0.878705 0.956795
0.654435 0.000000 0.577175
0.658283 0.000000 0.577148
0.662133 0.000000 0.577122
0.684729 0.000000 0.569840
0.739427 0.000000 0.547943
0.855725 0.000000 0.492380
1.000000 0.000000 0.411726
1.000000 0.000000 0.337493
1.000000 0.878705 0.956795
0.562013 0.000000 0.687445
0.566796 0.000000 0.681293
0.575402 0.000000 0.675097
0.650092 0.000000 0.637779
0.739427 0.000000 0.547943
0.855725 0.000000 0.492380
1.000000 0.000000 0.411726
1.000000 0.000000 0.337493
1.000000 0.879579 0.956810
0.457309 0.000000 0.941078
0.461521 0.000000 0.941023
0.469932 0.000000 0.940913
0.503380 0.000000 0.939208
0.602679 0.000000 0.930113
0.822501 0.000000 0.887375
1.000000 0.000000 0.411726
1.000000 0.000000 0.337493
1.000000 0.880452 0.956825
0.381138 0.247549 0.990618
0.381138 0.247549 0.990618
0.390914 0.246467 0.990539
0.443143 0.239889 0.990081
0.574510 0.209820 0.987365
0.825007 0.000000 0.979907
1.000000 0.000000 0.963101
1.000000 0.000000 0.337137
1.000000 0.883069 0.957487
0.000000 0.560222 1.000000
0.000000 0.560222 1.000000
0.000000 0.560461 1.000000
0.160651 0.564291 1.000000
0.414172 0.579074 1.000000
0.729831 0.573700 1.000000
1.000000 0.540065 0.995264
1.000000 0.470585 0.962879
1.000000 0.893562 0.959363
0.000000 0.830603 1.000000
0.000000 0.832908 1.000000
0.000000 0.833452 1.000000
0.000000 0.841022 1.000000
0.000000 0.849821 1.000000
0.504024 0.866079 1.000000
0.926603 0.875256 0.998917
1.000000 0.849849 0.989694
1.000000 0.924404 0.963805
0.000000 0.943856 1.000000
0.000000 0.943856 1.000000
0.000000 0.943856 1.000000
0.000000 0.943856 1.000000
0.000000 0.943856 1.000000
0.000000 1.000000 1.000000
0.859933 1.000000 1.000000
0.998963 1.000000 1.000000
1.000000 0.987180 0.973823
0.779328 1.000000 0.968451
0.779328 1.000000 0.968451
0.780408 1.000000 0.968497
0.783644 1.000000 0.968635
0.795589 1.000000 0.968300
0.828995 1.000000 0.968166
0.895773 1.000000 0.966781
0.972949 1.000000 0.962549
1.000000 1.000000 0.952091
0.913320 0.000000 0.649649
0.916004 0.000000 0.649485
0.916004 0.000000 0.649485
0.918657 0.000000 0.649323
0.936172 0.000000 0.645030
0.968006 0.000000 0.630132
1.000000 0.000000 0.581982
1.000000 0.000000 0.500676
1.000000 0.169827 0.470045
0.913320 0.000000 0.649649
0.913320 0.000000 0.649649
0.916004 0.000000 0.649485
0.918657 0.000000 0.649323
0.936172 0.000000 0.645030
0.968006 0.000000 0.630132
1.000000 0.000000 0.581982
1.000000 0.000000 0.500676
1.000000 0.169827 0.470045
0.913320 0.000000 0.649649
0.913320 0.000000 0.649649
0.916004 0.000000 0.649485
0.918657 0.000000 0.649323
0.936172 0.000000 0.645030
0.968006 0.000000 0.630132
1.000000 0.000000 0.581982
1.000000 0.000000 0.500676
1.000000 0.169827 0.470045
0.810765 0.000000 0.910000
0.810374 0.000000 0.909831
0.810686 0.000000 0.905466
0.837750 0.000000 0.894358
0.899009 0.000000 0.825740
0.968006 0.000000 0.630132
1.000000 0.000000 0.581982
1.000000 0.000000 0.500676
1.000000 0.169827 0.470045
0.800784 0.000000 1.000000
0.800784 0.000000 1.000000
0.804670 0.000000 1.000000
0.812365 0.000000 1.000000
0.849592 0.000000 1.000000
0.929341 0.000000 1.000000
1.000000 0.000000 0.991919
1.000000 0.000000 0.500676
1.000000 0.169827 0.470045
0.727023 0.506108 1.000000
0.727023 0.506108 1.000000
0.730671 0.509273 1.000000
0.739214 0.508463 1.000000
0.776446 0.504802 1.000000
0.871753 0.487294 1.000000
1.000000 0.454525 1.000000
1.000000 0.401532 1.000000
1.000000 0.169827 0.470045
0.562268 0.796214 1.000000
0.562268 0.796214 1.000000
0.568346 0.796172 1.000000
0.584650 0.798316 1.000000
0.622499 0.800245 1.000000
0.739206 0.799325 1.000000
0.901475 0.803766 1.000000
1.000000 0.795294 1.000000
1.000000 0.805004 0.999112
0.000000 0.953314 1.000000
0.000000 0.953314 1.000000
0.000000 0.953252 1.000000
0.062249 0.953058 1.000000
0.334890 0.953711 1.000000
0.552268 0.957703 1.000000
0.805840 0.957580 1.000000
0.980449 0.961670 1.000000
1.000000 0.952477 1.000000
0.000000 1.000000 1.000000
0.000000 1.000000 1.000000
0.000000 1.000000 1.000000
0.000000 1.000000 1.000000
0.000000 1.000000 1.000000
0.000000 1.000000 1.000000
0.770165 1.000000 1.000000
0.953306 1.000000 1.000000
1.000000 1.000000 1.000000
