Assets/Lutify-Free-LUTs-Pack/Lutify Free LUTs Pack/Colour Film Boost Pro - Film Boost 10/Lutify.me-FilmBoost10-Cineon-to-Rec709.cube
# Created with: fylm.ai - Colour Grading and Collaboration Software in Cloud 
# Website: https://fylm.ai 
# META
# Option: Gamut compress
# Block 1: IDT | ADX10
# Block 2: colourMatch | Blending Mode: Normal | {"ColorSpace":0,"CrossCovarianceLimit":50,"ReshapingIterations":1,"PercentSaturationShift":100,"PercentShadingShift":100,"ExtraShading":true,"PercentTint":100,"PercentModified":100}
# Block 3: subtractiveColour | Blending Mode: Normal | {"sliders":{"gainY":0.55,"C":0.3,"M":0.3,"Y":0.3}}
# Block 4: LUT | Filmic Curve Response: Low Contrast 2 (100%)
# Block 5: logPrimaries | Blending Mode: Normal | {"wheels":{"shadows":{"Y":"0","R":"1","G":"1","B":"1"},"midtones":{"Y":"0","R":"1","G":"1","B":"1"},"highlights":{"Y":"0","R":"1","G":"1","B":"1"},"offset":{"Y":"0","R":"1","G":"1","B":"1"}},"sliders":{"shadows":{"Y":0,"R":-0.085,"G":0.024,"B":0.134},"midtones":{"Y":0,"R":0,"G":-0.023,"B":0},"highlights":{"Y":0,"R":0,"G":0,"B":0},"offset":{"Y":0,"R":0.012,"G":-0.012,"B":0}}}
# Block 6: HSL | Blending Mode: Normal | {"hue":{"Reds":0,"Yellows":0,"Greens":0,"Cyans":0,"Blues":0,"Magentas":0},"saturation":{"Reds":1,"Yellows":1,"Greens":1,"Cyans":1,"Blues":1,"Magentas":1},"luminance":{"Reds":0.9,"Yellows":0.9,"Greens":0.9,"Cyans":0.9,"Blues":0.9,"Magentas":0.9},"lum_sat":{"Blacks":1,"Shadows":1,"Midtones":1,"Highlights":1,"Whites":1},"sat_sat":{"10":1,"20":1,"30":1,"40":1,"50":1}}
# Block 7: ODT | Rec709
TITLE "Lutify.me-FilmBoost10-Cineon-to-Rec709" 
LUT_3D_SIZE 9
0.000000 0.000000 0.000000
0.000000 0.000000 0.000000
0.066045 0.000000 0.000000
0.139593 0.000000 0.000000
0.235459 0.000000 0.000000
0.369940 0.000000 0.000000
0.554259 0.000000 0.037432
0.764420 0.000000 0.077757
0.955244 0.082182 0.156983
0.000000 0.000000 0.000000
0.000000 0.000000 0.000000
0.097630 0.000000 0.000000
0.174554 0.000000 0.000000
0.279583 0.000000 0.000000
0.421210 0.000000 0.022642
0.617607 0.000000 0.049587
0.830646 0.000000 0.099166
0.990060 0.199821 0.193954
0.000000 0.072885 0.000000
0.000000 0.088887 0.000000
0.109268 0.095087 0.000000
0.224591 0.069565 0.000000
0.345405 0.000000 0.000000
0.496464 0.000000 0.027733
0.686879 0.000000 0.063737
0.893272 0.000000 0.121016
1.000000 0.289059 0.230816
0.000000 0.166783 0.000000
0.000000 0.192661 0.000000
0.000000 0.215227 0.000000
0.258233 0.219336 0.000000
0.422087 0.189908 0.000000
0.590177 0.150601 0.000000
0.773290 0.145481 0.083826
0.945426 0.205986 0.156336
1.000000 0.382739 0.268636
0.000000 0.307359 0.015587
0.000000 0.339891 0.000000
0.000000 0.380666 0.000000
0.000000 0.403904 0.000000
0.469832 0.415421 0.000000
0.680206 0.374046 0.000000
0.847517 0.359543 0.117397
0.976487 0.411630 0.210778
1.000000 0.490834 0.320132
0.000000 0.511257 0.149680
0.000000 0.542297 0.157023
0.000000 0.582487 0.147488
0.000000 0.624872 0.149252
0.257082 0.648865 0.141256
0.704575 0.655812 0.159238
0.887249 0.619657 0.194276
0.985048 0.618321 0.281336
1.000000 0.672471 0.408905
0.000000 0.739406 0.334812
0.000000 0.756358 0.353928
0.000000 0.776860 0.368235
0.000000 0.806291 0.376094
0.000000 0.829226 0.389288
0.588498 0.835346 0.389758
0.867631 0.834695 0.405641
0.965976 0.818254 0.432903
1.000000 0.815919 0.522202
0.000000 0.894725 0.570865
0.000000 0.902969 0.586269
0.000000 0.911087 0.599877
0.000000 0.920196 0.613497
0.000000 0.929689 0.628483
0.484161 0.936576 0.643175
0.795751 0.932445 0.642381
0.938758 0.932209 0.664316
0.999608 0.922437 0.680635
0.000000 0.974232 0.768632
0.000000 0.977276 0.778685
0.000000 0.980540 0.788796
0.000000 0.984419 0.798930
0.303149 0.985456 0.804655
0.565025 0.986048 0.816360
0.763221 0.986110 0.821464
0.899538 0.984246 0.825516
0.976877 0.982857 0.834359
0.000000 0.000000 0.001019
0.000000 0.000000 0.013030
0.062105 0.000000 0.006170
0.141847 0.000000 0.011025
0.242821 0.000000 0.025748
0.381632 0.000000 0.036496
0.567627 0.000000 0.055052
0.773896 0.000000 0.097147
0.961730 0.111370 0.171945
0.000000 0.000000 0.015267
0.000000 0.000000 0.029753
0.097488 0.000000 0.025121
0.177602 0.000000 0.030785
0.287075 0.000000 0.036638
0.430359 0.000000 0.044222
0.628046 0.000000 0.069394
0.837846 0.000000 0.113508
0.992692 0.215845 0.205694
0.000000 0.072935 0.028192
0.000000 0.088778 0.036405
0.103663 0.103582 0.044021
0.225883 0.076549 0.044353
0.349700 0.000000 0.043085
0.509608 0.000000 0.051973
0.700322 0.000000 0.085020
0.899889 0.000000 0.140082
1.000000 0.303015 0.242238
0.000000 0.165503 0.030180
0.000000 0.192937 0.033912
0.000000 0.226292 0.039319
0.259840 0.233201 0.046320
0.429170 0.189403 0.040361
0.601420 0.151629 0.067584
0.782127 0.145321 0.108653
0.949610 0.211659 0.170804
1.000000 0.387692 0.280191
0.000000 0.305312 0.065478
0.000000 0.339677 0.061249
0.000000 0.379816 0.052640
0.000000 0.411125 0.044029
0.481787 0.422333 0.069916
0.688580 0.374494 0.090087
0.853324 0.354148 0.140265
0.979909 0.409391 0.226282
1.000000 0.495724 0.333930
0.000000 0.504927 0.162540
0.000000 0.536294 0.177645
0.000000 0.579931 0.174781
0.000000 0.624340 0.176938
0.287207 0.645112 0.175342
0.717675 0.654199 0.194396
0.892031 0.615043 0.223504
0.987615 0.616331 0.298954
1.000000 0.670012 0.418725
0.000000 0.732955 0.335282
0.000000 0.752894 0.357066
0.000000 0.774280 0.371990
0.000000 0.803976 0.379826
0.000000 0.824852 0.393624
0.602566 0.833329 0.397313
0.871122 0.832696 0.412446
0.968992 0.816146 0.439435
1.000000 0.812224 0.528714
0.000000 0.891387 0.567028
0.000000 0.898632 0.583135
0.000000 0.908386 0.596539
0.000000 0.918915 0.613013
0.000000 0.928626 0.625585
0.500485 0.934147 0.639712
0.803007 0.930278 0.642513
0.943425 0.931097 0.664797
1.000000 0.920365 0.679910
0.000000 0.972926 0.765965
0.000000 0.976033 0.776361
0.000000 0.979436 0.786394
0.000000 0.982795 0.796852
0.274006 0.984042 0.802405
0.576685 0.984348 0.813139
0.769109 0.984919 0.819498
0.904338 0.983117 0.821834
0.980648 0.982237 0.833087
0.000000 0.000000 0.048619
0.000000 0.000000 0.055714
0.057368 0.000000 0.059885
0.137361 0.000000 0.059387
0.249917 0.000000 0.064541
0.390099 0.000000 0.075617
0.587408 0.000000 0.089594
0.786466 0.000000 0.128792
0.965280 0.140230 0.203080
0.000000 0.000000 0.058362
0.000000 0.000000 0.068270
0.083811 0.000000 0.078153
0.177624 0.000000 0.076196
0.291253 0.000000 0.076892
0.449548 0.000000 0.086739
0.645833 0.000000 0.101059
0.848891 0.000000 0.145705
1.000000 0.226414 0.225887
0.000000 0.071755 0.098106
0.000000 0.089708 0.110818
0.092597 0.107993 0.125047
0.233513 0.086354 0.111043
0.365186 0.000000 0.104838
0.519780 0.000000 0.103169
0.710785 0.000000 0.120687
0.906137 0.000000 0.175597
1.000000 0.309611 0.263389
0.000000 0.166607 0.121745
0.000000 0.193739 0.128440
0.000000 0.225599 0.139615
0.259174 0.250814 0.158879
0.439120 0.208402 0.139252
0.610589 0.171206 0.125724
0.793775 0.146161 0.147310
0.953623 0.225628 0.206963
1.000000 0.397672 0.301677
0.000000 0.306681 0.140398
0.000000 0.336775 0.159335
0.000000 0.381696 0.165771
0.000000 0.424177 0.172222
0.476981 0.436543 0.186073
0.696946 0.383126 0.167603
0.867301 0.357388 0.184136
0.983857 0.408228 0.251261
1.000000 0.501588 0.356692
0.000000 0.498164 0.202633
0.000000 0.530281 0.217994
0.000000 0.571006 0.221773
0.000000 0.622909 0.232375
0.311420 0.648916 0.249473
0.720837 0.658179 0.266807
0.896427 0.615512 0.266109
0.990928 0.611428 0.323256
1.000000 0.668327 0.438299
0.000000 0.729287 0.351361
0.000000 0.749871 0.370452
0.000000 0.769043 0.386138
0.000000 0.799639 0.401237
0.000000 0.823716 0.419580
0.623092 0.831980 0.422995
0.877587 0.831786 0.447301
0.971169 0.813170 0.462870
1.000000 0.810596 0.542052
0.000000 0.887947 0.569937
0.000000 0.895390 0.582641
0.000000 0.906959 0.596402
0.000000 0.916501 0.613274
0.000000 0.926466 0.629080
0.522465 0.932656 0.643418
0.818640 0.927902 0.653362
0.947590 0.929831 0.670712
1.000000 0.917357 0.681927
0.000000 0.970921 0.760487
0.000000 0.974150 0.773627
0.000000 0.977631 0.784211
0.000000 0.981701 0.796727
0.273191 0.982949 0.800515
0.582421 0.982697 0.813377
0.783365 0.982901 0.819490
0.909409 0.981633 0.821779
0.983560 0.981705 0.833422
0.000000 0.000000 0.086927
0.000000 0.000000 0.101263
0.034096 0.000000 0.113855
0.137342 0.000000 0.129541
0.262321 0.000000 0.134783
0.402941 0.000000 0.149602
0.599121 0.000000 0.167277
0.808214 0.000000 0.190720
0.970648 0.160490 0.254178
0.000000 0.000000 0.101072
0.000000 0.000000 0.119019
0.055956 0.000000 0.136661
0.180316 0.000000 0.156081
0.307555 0.000000 0.157150
0.458195 0.000000 0.163432
0.665837 0.000000 0.182801
0.868385 0.000000 0.209966
1.000000 0.246821 0.275060
0.000000 0.059292 0.162711
0.000000 0.073696 0.179575
0.000000 0.095097 0.204201
0.229971 0.098438 0.220207
0.377616 0.044655 0.204522
0.538082 0.000000 0.194552
0.734133 0.000000 0.204307
0.917933 0.077164 0.234543
1.000000 0.334892 0.307063
0.000000 0.157796 0.217028
0.000000 0.188032 0.231368
0.000000 0.229533 0.252385
0.233205 0.260595 0.290130
0.447792 0.230488 0.261804
0.632586 0.181341 0.235082
0.808975 0.173431 0.230320
0.961565 0.235838 0.262624
1.000000 0.413281 0.343533
0.000000 0.302819 0.240200
0.000000 0.337913 0.255312
0.000000 0.380876 0.275781
0.000000 0.431401 0.299237
0.499236 0.456211 0.329708
0.705004 0.410788 0.291532
0.866531 0.384914 0.280604
0.990550 0.413211 0.302571
1.000000 0.512830 0.398683
0.000000 0.503066 0.273493
0.000000 0.529705 0.290088
0.000000 0.567800 0.324191
0.000000 0.626341 0.339763
0.340500 0.663072 0.374096
0.733763 0.669172 0.394933
0.900532 0.624282 0.357904
0.990668 0.620469 0.379549
1.000000 0.670559 0.464386
0.000000 0.725811 0.383909
0.000000 0.746525 0.406633
0.000000 0.768714 0.425816
0.000000 0.794944 0.452837
0.000000 0.825003 0.472639
0.626778 0.834916 0.481277
0.883458 0.834712 0.518405
0.973567 0.809088 0.503708
1.000000 0.809424 0.558832
0.000000 0.884404 0.579617
0.000000 0.893748 0.596002
0.000000 0.904000 0.609562
0.000000 0.913977 0.626925
0.000000 0.923093 0.649659
0.544265 0.931520 0.661339
0.824337 0.928151 0.673965
0.950261 0.928943 0.686033
1.000000 0.916796 0.702403
0.000000 0.969504 0.760144
0.000000 0.972811 0.773523
0.000000 0.976405 0.784103
0.000000 0.979383 0.796707
0.255975 0.981910 0.802324
0.582334 0.982163 0.815232
0.789288 0.981750 0.821434
0.913786 0.981013 0.823710
0.985906 0.980923 0.836939
0.000000 0.000000 0.166055
0.000000 0.000000 0.185965
0.000000 0.000000 0.207883
0.096076 0.013929 0.235016
0.271649 0.000000 0.266381
0.436240 0.000000 0.265389
0.624510 0.000000 0.291675
0.819784 0.000000 0.317022
0.977810 0.204509 0.350830
0.000000 0.000000 0.180117
0.000000 0.000000 0.202016
0.000000 0.031826 0.230253
0.138813 0.014502 0.255102
0.319349 0.000000 0.291948
0.493980 0.000000 0.291668
0.683388 0.000000 0.310834
0.878056 0.000000 0.332486
1.000000 0.278743 0.378285
0.000000 0.053486 0.236054
0.000000 0.065642 0.253984
0.000000 0.083931 0.285684
0.165532 0.096026 0.321017
0.386488 0.082364 0.351588
0.570938 0.000000 0.331300
0.744901 0.000000 0.336792
0.930541 0.140565 0.353818
1.000000 0.355874 0.406248
0.000000 0.137095 0.292919
0.000000 0.162694 0.311388
0.000000 0.197292 0.351546
0.162543 0.233435 0.401997
0.465155 0.245926 0.425633
0.649405 0.203253 0.391540
0.823551 0.204717 0.378076
0.969895 0.274671 0.385411
1.000000 0.432730 0.431007
0.000000 0.296234 0.357419
0.000000 0.324794 0.386948
0.000000 0.381181 0.428417
0.000000 0.435929 0.469778
0.473415 0.478582 0.502527
0.706055 0.439352 0.462060
0.888498 0.402704 0.436738
0.989381 0.444752 0.433625
1.000000 0.526173 0.465261
0.000000 0.496429 0.402706
0.000000 0.528831 0.435028
0.000000 0.575267 0.461290
0.000000 0.626643 0.493245
0.287279 0.676750 0.519384
0.730981 0.686626 0.547136
0.895570 0.650307 0.516015
0.988165 0.642089 0.496317
1.000000 0.675990 0.527910
0.000000 0.721659 0.465546
0.000000 0.742985 0.496434
0.000000 0.767266 0.518846
0.000000 0.794646 0.548365
0.000000 0.826839 0.579657
0.629527 0.839646 0.611848
0.883568 0.842014 0.627967
0.971709 0.814440 0.598631
1.000000 0.812458 0.613460
0.000000 0.882574 0.609914
0.000000 0.890134 0.628950
0.000000 0.902384 0.643004
0.000000 0.911293 0.663921
0.000000 0.921817 0.688402
0.558537 0.930901 0.707272
0.824979 0.929334 0.715920
0.953451 0.929062 0.738931
1.000000 0.915865 0.733232
0.000000 0.967281 0.764450
0.000000 0.970732 0.777785
0.000000 0.974482 0.792258
0.000000 0.978323 0.800215
0.236576 0.981401 0.807953
0.587497 0.980417 0.822768
0.795292 0.981239 0.830994
0.916158 0.979904 0.834541
0.987139 0.980756 0.848394
0.000000 0.026545 0.278012
0.000000 0.036629 0.300710
0.000000 0.046426 0.333139
0.000000 0.064157 0.369630
0.196148 0.060048 0.413839
0.426603 0.000000 0.462890
0.667140 0.000000 0.472085
0.846684 0.000000 0.496195
0.980209 0.253780 0.528235
0.000000 0.033422 0.291104
0.000000 0.044248 0.314644
0.000000 0.054471 0.354409
0.000000 0.072832 0.392742
0.251772 0.069311 0.440362
0.507244 0.000000 0.490757
0.729641 0.000000 0.491450
0.899423 0.018541 0.512296
1.000000 0.312079 0.537489
0.000000 0.057236 0.319220
0.000000 0.073785 0.351697
0.000000 0.089338 0.392925
0.000000 0.112188 0.440944
0.317631 0.114972 0.480702
0.586886 0.076097 0.525765
0.788892 0.000000 0.520521
0.938181 0.197669 0.536246
1.000000 0.393450 0.557295
0.000000 0.136759 0.388602
0.000000 0.151290 0.417397
0.000000 0.180584 0.453707
0.000000 0.214447 0.509375
0.357117 0.239697 0.556467
0.669166 0.235523 0.583656
0.848518 0.240180 0.565488
0.969841 0.315077 0.567164
1.000000 0.468465 0.576658
0.000000 0.270955 0.460164
0.000000 0.298946 0.494199
0.000000 0.343832 0.532112
0.000000 0.393745 0.583778
0.359426 0.435666 0.635976
0.730934 0.462230 0.659255
0.892663 0.434836 0.619454
0.990624 0.475816 0.606176
1.000000 0.561792 0.609928
0.000000 0.490538 0.537186
0.000000 0.528358 0.571872
0.000000 0.571676 0.611912
0.000000 0.627420 0.658807
0.246574 0.672446 0.696127
0.729817 0.709381 0.730174
0.889477 0.679945 0.692167
0.984905 0.663772 0.664701
1.000000 0.699072 0.656513
0.000000 0.723404 0.588586
0.000000 0.740776 0.623403
0.000000 0.763173 0.647811
0.000000 0.798836 0.687922
0.000000 0.826183 0.714675
0.632372 0.847390 0.742469
0.881432 0.849200 0.760142
0.963225 0.832377 0.736142
1.000000 0.822031 0.717471
0.000000 0.876807 0.666475
0.000000 0.886655 0.694998
0.000000 0.897723 0.713806
0.000000 0.910893 0.736743
0.000000 0.922582 0.761763
0.571649 0.929237 0.786422
0.830191 0.931231 0.801919
0.948706 0.933286 0.812604
1.000000 0.919301 0.792977
0.000000 0.964885 0.784825
0.000000 0.969279 0.794298
0.000000 0.973123 0.808100
0.000000 0.976391 0.821393
0.208352 0.980793 0.829917
0.590714 0.980184 0.845147
0.801829 0.981563 0.854097
0.917801 0.980475 0.859719
0.987314 0.980237 0.871806
0.000000 0.065868 0.420901
0.000000 0.080084 0.458810
0.000000 0.101596 0.494252
0.000000 0.120252 0.543166
0.000000 0.152271 0.595141
0.322324 0.170614 0.629552
0.639458 0.146181 0.673962
0.874390 0.149980 0.695624
0.991261 0.300893 0.698623
0.000000 0.073105 0.438918
0.000000 0.091497 0.476323
0.000000 0.113098 0.515840
0.000000 0.136560 0.560195
0.000000 0.165975 0.614703
0.405546 0.183457 0.650902
0.718098 0.165569 0.689512
0.927181 0.170302 0.695612
1.000000 0.359886 0.716929
0.000000 0.094118 0.468707
0.000000 0.114661 0.505483
0.000000 0.138586 0.544000
0.000000 0.165645 0.589423
0.176198 0.193354 0.637731
0.484702 0.205491 0.679244
0.785221 0.219559 0.724263
0.956483 0.254218 0.712164
1.000000 0.429522 0.734288
0.000000 0.145105 0.508122
0.000000 0.162879 0.541011
0.000000 0.184478 0.586827
0.000000 0.216674 0.626152
0.231751 0.257989 0.683153
0.572245 0.275355 0.716978
0.857170 0.314593 0.751779
0.980205 0.362918 0.737674
1.000000 0.501437 0.744299
0.000000 0.271996 0.576847
0.000000 0.300089 0.609745
0.000000 0.324115 0.654063
0.000000 0.360210 0.688992
0.225972 0.409401 0.741632
0.625938 0.442031 0.770525
0.903489 0.475467 0.791332
0.991812 0.513717 0.775408
1.000000 0.590877 0.760410
0.000000 0.465837 0.651037
0.000000 0.488922 0.679880
0.000000 0.525788 0.718243
0.000000 0.579537 0.756366
0.000000 0.627761 0.788699
0.635197 0.677560 0.817097
0.893542 0.705616 0.829791
0.977261 0.692378 0.808792
1.000000 0.722329 0.795077
0.000000 0.714718 0.723306
0.000000 0.738425 0.750283
0.000000 0.760182 0.779929
0.000000 0.797242 0.804466
0.000000 0.825480 0.824726
0.616887 0.849248 0.849836
0.874610 0.861493 0.867492
0.956603 0.848523 0.848664
1.000000 0.833336 0.823851
0.000000 0.875637 0.763341
0.000000 0.887349 0.789837
0.000000 0.898468 0.807537
0.000000 0.910351 0.827582
0.000000 0.921061 0.839204
0.568708 0.930746 0.857693
0.833916 0.934897 0.874520
0.945386 0.938929 0.881679
0.997385 0.924956 0.864327
0.000000 0.963897 0.822764
0.000000 0.967605 0.834675
0.000000 0.972277 0.847810
0.000000 0.975580 0.860406
0.160570 0.978284 0.871529
0.587167 0.979978 0.880104
0.805222 0.980864 0.891603
0.918999 0.981847 0.901603
0.986006 0.982762 0.910568
0.000000 0.139719 0.592713
0.000000 0.157354 0.631648
0.000000 0.182410 0.670255
0.000000 0.215921 0.713321
0.000000 0.259301 0.751490
0.130654 0.301808 0.792626
0.512845 0.333612 0.814779
0.822286 0.363801 0.839032
0.991562 0.431090 0.853201
0.000000 0.148256 0.609992
0.000000 0.171586 0.649962
0.000000 0.196710 0.688714
0.000000 0.234424 0.728453
0.000000 0.278454 0.771481
0.241766 0.318015 0.807905
0.597049 0.353054 0.827915
0.885926 0.384488 0.848534
1.000000 0.463629 0.858700
0.000000 0.167065 0.633741
0.000000 0.191392 0.671270
0.000000 0.223850 0.715905
0.000000 0.260276 0.746247
0.000000 0.304000 0.787597
0.338043 0.341123 0.819972
0.689591 0.380391 0.838079
0.939793 0.424875 0.859617
1.000000 0.492965 0.859885
0.000000 0.200234 0.659729
0.000000 0.230159 0.697387
0.000000 0.260276 0.735845
0.000000 0.299838 0.771277
0.000000 0.344925 0.806828
0.429908 0.385247 0.835490
0.766130 0.418440 0.849706
0.969843 0.490335 0.871732
1.000000 0.548153 0.866125
0.000000 0.284885 0.705903
0.000000 0.309771 0.737042
0.000000 0.337504 0.767227
0.000000 0.377814 0.799952
0.000000 0.415517 0.829392
0.508175 0.472937 0.853640
0.828988 0.506223 0.869332
0.986384 0.582147 0.883965
1.000000 0.630488 0.878572
0.000000 0.466292 0.768180
0.000000 0.493697 0.789181
0.000000 0.521065 0.812820
0.000000 0.553138 0.837412
0.000000 0.598674 0.855696
0.516531 0.651780 0.876736
0.847468 0.683963 0.893308
0.975727 0.729177 0.900371
1.000000 0.752454 0.891505
0.000000 0.687749 0.809717
0.000000 0.707249 0.828253
0.000000 0.727221 0.850031
0.000000 0.760785 0.867407
0.000000 0.796386 0.884092
0.508514 0.821922 0.898292
0.836569 0.845997 0.913269
0.961942 0.858078 0.920750
1.000000 0.851274 0.910316
0.000000 0.875214 0.854574
0.000000 0.886793 0.868743
0.000000 0.895529 0.884322
0.000000 0.907815 0.894318
0.000000 0.922991 0.906699
0.554301 0.928939 0.918472
0.819090 0.938152 0.930101
0.944618 0.947511 0.941988
0.992146 0.935249 0.933639
0.000000 0.964382 0.870604
0.000000 0.968848 0.883256
0.000000 0.972145 0.895118
0.000000 0.976119 0.906236
0.085836 0.979806 0.920133
0.577026 0.979766 0.928721
0.793676 0.981273 0.935042
0.918571 0.984210 0.946798
0.984437 0.985150 0.951943
0.000000 0.251721 0.764791
0.000000 0.281063 0.794355
0.000000 0.314301 0.819384
0.000000 0.351199 0.845546
0.000000 0.395239 0.864250
0.000000 0.446355 0.888849
0.366374 0.502341 0.907841
0.679479 0.552269 0.918225
0.911932 0.595552 0.927428
0.000000 0.263707 0.779441
0.000000 0.294874 0.805837
0.000000 0.332176 0.831689
0.000000 0.373692 0.853559
0.000000 0.419942 0.875221
0.000000 0.472354 0.896998
0.434689 0.521927 0.913339
0.771830 0.574338 0.921590
0.953231 0.622462 0.932563
0.000000 0.280684 0.793468
0.000000 0.318761 0.818384
0.000000 0.350625 0.844652
0.000000 0.391110 0.864986
0.000000 0.445141 0.885433
0.236958 0.498679 0.904712
0.514223 0.544136 0.920594
0.829517 0.594914 0.927129
0.984727 0.646441 0.938391
0.000000 0.310187 0.811100
0.000000 0.344534 0.832454
0.000000 0.381650 0.854346
0.000000 0.424873 0.875360
0.000000 0.477371 0.894700
0.305181 0.528430 0.911112
0.605587 0.574401 0.926092
0.877034 0.624485 0.932207
1.000000 0.685418 0.943518
0.000000 0.358795 0.826873
0.000000 0.391575 0.849559
0.000000 0.436096 0.869690
0.000000 0.475232 0.889093
0.000000 0.523580 0.904181
0.375600 0.571957 0.918750
0.698952 0.619586 0.930784
0.918980 0.665668 0.938500
1.000000 0.734118 0.948802
0.000000 0.486758 0.853739
0.000000 0.512406 0.868668
0.000000 0.537839 0.885484
0.000000 0.565952 0.902842
0.000000 0.606635 0.916217
0.420858 0.649800 0.927899
0.744633 0.702967 0.939851
0.939127 0.737899 0.946020
1.000000 0.791410 0.954941
0.000000 0.691176 0.880159
0.000000 0.710806 0.894728
0.000000 0.726463 0.907754
0.000000 0.751149 0.920323
0.000000 0.777332 0.930169
0.388940 0.799017 0.941652
0.769137 0.825512 0.949904
0.929794 0.848092 0.957908
1.000000 0.867884 0.963871
0.000000 0.855917 0.901645
0.000000 0.864565 0.915045
0.000000 0.876876 0.926412
0.000000 0.890670 0.935763
0.000000 0.904648 0.944287
0.438579 0.914357 0.954375
0.774882 0.922712 0.961539
0.923078 0.935075 0.970303
0.991595 0.943965 0.974977
0.000000 0.963982 0.926819
0.000000 0.968490 0.936668
0.000000 0.972226 0.946294
0.000000 0.975273 0.953763
0.000000 0.979099 0.959180
0.566045 0.980305 0.966465
0.790128 0.982876 0.971163
0.915900 0.984776 0.978067
0.981750 0.988967 0.983712
