Assets/Lutify-Free-LUTs-Pack/Lutify Free LUTs Pack/Colour Film Boost Pro - Film Boost 10/Lutify.me-FilmBoost10-SLog2-to-Rec709.cube
# Created with: fylm.ai - Colour Grading and Collaboration Software in Cloud 
# Website: https://fylm.ai 
# META
# Option: Gamut compress
# Block 1: IDT | Sony S-Log2 S-Gamut Daylight 10-bit
# Block 2: colourMatch | Blending Mode: Normal | {"ColorSpace":0,"CrossCovarianceLimit":50,"ReshapingIterations":1,"PercentSaturationShift":100,"PercentShadingShift":100,"ExtraShading":true,"PercentTint":100,"PercentModified":100}
# Block 3: subtractiveColour | Blending Mode: Normal | {"sliders":{"gainY":0.55,"C":0.3,"M":0.3,"Y":0.3}}
# Block 4: LUT | Filmic Curve Response: Low Contrast 2 (100%)
# Block 5: logPrimaries | Blending Mode: Normal | {"wheels":{"shadows":{"Y":"0","R":"1","G":"1","B":"1"},"midtones":{"Y":"0","R":"1","G":"1","B":"1"},"highlights":{"Y":"0","R":"1","G":"1","B":"1"},"offset":{"Y":"0","R":"1","G":"1","B":"1"}},"sliders":{"shadows":{"Y":0,"R":-0.085,"G":0.024,"B":0.134},"midtones":{"Y":0,"R":0,"G":-0.023,"B":0},"highlights":{"Y":0,"R":0,"G":0,"B":0},"offset":{"Y":0,"R":0.012,"G":-0.012,"B":0}}}
# Block 6: HSL | Blending Mode: Normal | {"hue":{"Reds":0,"Yellows":0,"Greens":0,"Cyans":0,"Blues":0,"Magentas":0},"saturation":{"Reds":1,"Yellows":1,"Greens":1,"Cyans":1,"Blues":1,"Magentas":1},"luminance":{"Reds":0.9,"Yellows":0.9,"Greens":0.9,"Cyans":0.9,"Blues":0.9,"Magentas":0.9},"lum_sat":{"Blacks":1,"Shadows":1,"Midtones":1,"Highlights":1,"Whites":1},"sat_sat":{"10":1,"20":1,"30":1,"40":1,"50":1}}
# Block 7: ODT | Rec709
TITLE "Lutify.me-FilmBoost10-SLog2-to-Rec709" 
LUT_3D_SIZE 5
0.000000 0.000000 0.000000
0.210533 0.000000 0.000000
0.585888 0.000000 0.038035
0.983028 0.000000 0.211965
1.000000 0.525923 0.509158
0.000000 0.164189 0.000000
0.286577 0.155408 0.000000
0.626354 0.000000 0.000000
0.985085 0.037970 0.211666
1.000000 0.535845 0.508719
0.000000 0.406686 0.000000
0.000000 0.461888 0.000000
0.663776 0.428144 0.000000
0.982406 0.424498 0.204965
1.000000 0.586081 0.506676
0.000000 0.672774 0.000000
0.000000 0.672774 0.000000
0.000000 0.752550 0.000000
0.909488 0.784186 0.000000
1.000000 0.773645 0.519304
0.000000 0.885267 0.000000
0.000000 0.885267 0.000000
0.000000 0.885267 0.000000
0.449404 0.938900 0.000000
0.996593 0.942360 0.411437
0.000000 0.000000 0.120530
0.196868 0.000000 0.049449
0.584537 0.000000 0.116928
0.983473 0.000000 0.256736
1.000000 0.529515 0.515381
0.000000 0.125523 0.248408
0.192530 0.222258 0.249421
0.645818 0.000000 0.151149
0.988500 0.000000 0.259746
1.000000 0.536747 0.518389
0.000000 0.411655 0.134865
0.000000 0.492402 0.000000
0.655088 0.540466 0.000000
0.982140 0.427947 0.258913
1.000000 0.587592 0.522825
0.000000 0.672770 0.000000
0.000000 0.672767 0.000000
0.000000 0.814031 0.000000
0.912499 0.802736 0.000000
1.000000 0.774547 0.532312
0.000000 0.885267 0.000000
0.000000 0.885267 0.000000
0.000000 0.885264 0.000000
0.444078 0.951556 0.000000
0.995142 0.943578 0.444341
0.000000 0.000000 0.280009
0.119330 0.000000 0.243053
0.521892 0.000000 0.219848
0.980338 0.000000 0.413952
1.000000 0.532297 0.573299
0.000000 0.000000 0.470094
0.000000 0.074682 0.449148
0.637894 0.000000 0.396246
0.983902 0.000000 0.429141
1.000000 0.547511 0.573789
0.000000 0.331692 0.602209
0.000000 0.410641 0.573465
0.623306 0.611832 0.634240
0.984755 0.442697 0.494749
1.000000 0.595395 0.578814
0.000000 0.690168 0.526480
0.000000 0.690157 0.529726
0.000000 0.842857 0.446693
0.903331 0.846137 0.481663
1.000000 0.779366 0.605880
0.000000 0.895524 0.422961
0.000000 0.895517 0.426132
0.000000 0.895479 0.441998
0.465634 0.965318 0.392483
0.992365 0.948248 0.558673
0.000000 0.000000 0.633991
0.000000 0.000000 0.644706
0.468249 0.000000 0.647942
0.953937 0.000000 0.604374
1.000000 0.507425 0.736806
0.000000 0.071395 0.679849
0.000000 0.095084 0.703927
0.458845 0.000000 0.707145
0.974161 0.000000 0.646653
1.000000 0.522474 0.740015
0.000000 0.157907 0.799509
0.000000 0.259247 0.768147
0.299501 0.344430 0.809036
0.995346 0.236404 0.753208
1.000000 0.577827 0.752680
0.000000 0.586323 0.860178
0.000000 0.586323 0.860178
0.000000 0.796579 0.850768
0.880343 0.867716 0.875004
1.000000 0.785155 0.789805
0.000000 0.898366 0.826351
0.000000 0.898366 0.826351
0.000000 0.898356 0.828229
0.382560 0.972609 0.786886
0.979902 0.961047 0.805543
0.000000 0.223625 0.908145
0.000000 0.232125 0.909915
0.289121 0.234221 0.913168
0.901546 0.000000 0.903718
1.000000 0.207043 0.874899
0.000000 0.244465 0.912464
0.000000 0.251970 0.914435
0.257604 0.265065 0.918157
0.900582 0.162473 0.908795
1.000000 0.254670 0.880727
0.000000 0.320699 0.921626
0.000000 0.326595 0.927457
0.072176 0.363579 0.930675
0.864747 0.339013 0.926335
1.000000 0.388347 0.894652
0.000000 0.430304 0.947117
0.000000 0.518315 0.938259
0.000000 0.618814 0.945469
0.725500 0.693843 0.949775
1.000000 0.685613 0.930539
0.000000 0.823359 0.971906
0.000000 0.823359 0.971906
0.000000 0.823359 0.971906
0.000000 0.965263 0.961908
0.968251 0.971801 0.965647
