Assets/Lutify-Free-LUTs-Pack/Lutify Free LUTs Pack/Colour Film Boost Pro - Film Boost 10/Lutify.me-FilmBoost10-LogC4-to-Rec709.cube
# Created with: fylm.ai - Colour Grading and Collaboration Software in Cloud 
# Website: https://fylm.ai 
# META
# Option: Gamut compress
# Block 1: IDT | Arri Alexa 35 - LogC4
# Block 2: colourMatch | Blending Mode: Normal | {"ColorSpace":0,"CrossCovarianceLimit":50,"ReshapingIterations":1,"PercentSaturationShift":100,"PercentShadingShift":100,"ExtraShading":true,"PercentTint":100,"PercentModified":100}
# Block 3: subtractiveColour | Blending Mode: Normal | {"sliders":{"gainY":0.55,"C":0.3,"M":0.3,"Y":0.3}}
# Block 4: LUT | Filmic Curve Response: Low Contrast 2 (100%)
# Block 5: logPrimaries | Blending Mode: Normal | {"wheels":{"shadows":{"Y":"0","R":"1","G":"1","B":"1"},"midtones":{"Y":"0","R":"1","G":"1","B":"1"},"highlights":{"Y":"0","R":"1","G":"1","B":"1"},"offset":{"Y":"0","R":"1","G":"1","B":"1"}},"sliders":{"shadows":{"Y":0,"R":-0.085,"G":0.024,"B":0.134},"midtones":{"Y":0,"R":0,"G":-0.023,"B":0},"highlights":{"Y":0,"R":0,"G":0,"B":0},"offset":{"Y":0,"R":0.012,"G":-0.012,"B":0}}}
# Block 6: HSL | Blending Mode: Normal | {"hue":{"Reds":0,"Yellows":0,"Greens":0,"Cyans":0,"Blues":0,"Magentas":0},"saturation":{"Reds":1,"Yellows":1,"Greens":1,"Cyans":1,"Blues":1,"Magentas":1},"luminance":{"Reds":0.9,"Yellows":0.9,"Greens":0.9,"Cyans":0.9,"Blues":0.9,"Magentas":0.9},"lum_sat":{"Blacks":1,"Shadows":1,"Midtones":1,"Highlights":1,"Whites":1},"sat_sat":{"10":1,"20":1,"30":1,"40":1,"50":1}}
# Block 7: ODT | Rec709
TITLE "Lutify.me-FilmBoost10-LogC4-to-Rec709" 
LUT_3D_SIZE 5
0.000000 0.000000 0.000000
0.238659 0.000000 0.000000
0.882675 0.000000 0.088104
1.000000 0.600421 0.543562
1.000000 0.953980 0.936571
0.000000 0.212770 0.000000
0.338007 0.201735 0.000000
0.900660 0.000000 0.097374
1.000000 0.609718 0.543411
1.000000 0.953980 0.936571
0.000000 0.776672 0.131239
0.000000 0.801809 0.101846
0.895861 0.760643 0.000000
1.000000 0.703497 0.568607
1.000000 0.955494 0.937294
0.417248 1.000000 0.785352
0.460240 1.000000 0.784780
0.679270 1.000000 0.786120
1.000000 0.985243 0.773737
1.000000 0.974204 0.944490
0.934294 1.000000 0.979921
0.934294 1.000000 0.979921
0.938028 1.000000 0.979585
0.969159 1.000000 0.980238
1.000000 1.000000 0.978245
0.000000 0.000000 0.139652
0.223527 0.000000 0.057734
0.889065 0.000000 0.154520
1.000000 0.601645 0.555829
1.000000 0.954047 0.937331
0.000000 0.167232 0.323859
0.259537 0.285503 0.313054
0.911635 0.000000 0.171929
1.000000 0.608054 0.555797
1.000000 0.954047 0.937331
0.000000 0.777040 0.305827
0.000000 0.804859 0.297702
0.888505 0.785601 0.226833
1.000000 0.701987 0.581143
1.000000 0.955494 0.937294
0.408740 1.000000 0.790573
0.452482 1.000000 0.791791
0.679114 1.000000 0.793369
1.000000 0.985308 0.777216
1.000000 0.974250 0.945161
0.934294 1.000000 0.979921
0.934294 1.000000 0.979921
0.937988 1.000000 0.980189
0.969159 1.000000 0.980238
1.000000 1.000000 0.978245
0.000000 0.000000 0.602282
0.000000 0.024571 0.613581
0.781533 0.000000 0.352510
1.000000 0.602163 0.653029
1.000000 0.954246 0.939579
0.000000 0.107164 0.659202
0.000000 0.138390 0.680052
0.890561 0.000000 0.540535
1.000000 0.612456 0.656531
1.000000 0.954246 0.939579
0.000000 0.625658 0.815572
0.000000 0.741408 0.822710
0.853589 0.841407 0.849899
1.000000 0.712506 0.683121
1.000000 0.955276 0.940288
0.347019 1.000000 0.847394
0.399372 1.000000 0.848321
0.663969 1.000000 0.847604
1.000000 0.986480 0.835557
1.000000 0.974436 0.947814
0.932825 1.000000 0.980741
0.934235 1.000000 0.980827
0.937929 1.000000 0.981084
0.969266 1.000000 0.981241
1.000000 1.000000 0.979416
0.000000 0.447653 0.976076
0.000000 0.455633 0.976685
0.597794 0.459028 0.974438
1.000000 0.000000 0.889160
1.000000 0.953112 0.962050
0.000000 0.459915 0.976243
0.000000 0.468036 0.976836
0.593287 0.477266 0.974842
1.000000 0.131111 0.899218
1.000000 0.953112 0.962050
0.000000 0.617067 0.981413
0.000000 0.619259 0.981981
0.512481 0.658063 0.981400
1.000000 0.535246 0.944390
1.000000 0.955408 0.962720
0.000000 0.990914 0.991193
0.000000 0.995406 0.991359
0.184004 1.000000 0.992384
0.990492 0.996802 0.992215
1.000000 0.976482 0.969545
0.928488 1.000000 0.993045
0.928488 1.000000 0.993045
0.933733 1.000000 0.993215
0.966520 1.000000 0.993268
1.000000 1.000000 0.992041
0.777476 0.902854 1.000000
0.779989 0.903991 1.000000
0.805465 0.906023 1.000000
0.962003 0.905819 1.000000
1.000000 0.846011 0.999961
0.776891 0.904038 1.000000
0.779989 0.903991 1.000000
0.804904 0.907179 1.000000
0.962003 0.905819 1.000000
1.000000 0.847031 0.999928
0.773862 0.909689 1.000000
0.776965 0.909640 1.000000
0.802967 0.910373 1.000000
0.959790 0.911605 1.000000
1.000000 0.858373 1.000000
0.743204 0.960824 1.000000
0.746297 0.960751 1.000000
0.775414 0.960743 1.000000
0.938093 0.964232 1.000000
1.000000 0.938976 1.000000
0.787226 1.000000 1.000000
0.790867 1.000000 1.000000
0.806449 1.000000 1.000000
0.926421 1.000000 1.000000
1.000000 1.000000 1.000000
