Assets/Lutify-Free-LUTs-Pack/Lutify Free LUTs Pack/Colour Film Boost Pro - Film Boost 10/Lutify.me-FilmBoost10-ACEScct-to-ACEScct.cube
# Created with: fylm.ai - Colour Grading and Collaboration Software in Cloud 
# Website: https://fylm.ai 
# META
# Option: Gamut compress
# Block 1: subtractiveColour | Blending Mode: Normal | {"sliders":{"gainY":0.55,"C":0.3,"M":0.3,"Y":0.3}}
# Block 2: LUT | Filmic Curve Response: Low Contrast 2 (100%)
# Block 3: logPrimaries | Blending Mode: Normal | {"wheels":{"shadows":{"Y":"0","R":"1","G":"1","B":"1"},"midtones":{"Y":"0","R":"1","G":"1","B":"1"},"highlights":{"Y":"0","R":"1","G":"1","B":"1"},"offset":{"Y":"0","R":"1","G":"1","B":"1"}},"sliders":{"shadows":{"Y":0,"R":-0.085,"G":0.024,"B":0.134},"midtones":{"Y":0,"R":0,"G":-0.023,"B":0},"highlights":{"Y":0,"R":0,"G":0,"B":0},"offset":{"Y":0,"R":0.012,"G":-0.012,"B":0}}}
# Block 4: HSL | Blending Mode: Normal | {"hue":{"Reds":0,"Yellows":0,"Greens":0,"Cyans":0,"Blues":0,"Magentas":0},"saturation":{"Reds":1,"Yellows":1,"Greens":1,"Cyans":1,"Blues":1,"Magentas":1},"luminance":{"Reds":0.9,"Yellows":0.9,"Greens":0.9,"Cyans":0.9,"Blues":0.9,"Magentas":0.9},"lum_sat":{"Blacks":1,"Shadows":1,"Midtones":1,"Highlights":1,"Whites":1},"sat_sat":{"10":1,"20":1,"30":1,"40":1,"50":1}}
TITLE "Lutify.me-FilmBoost10-ACEScct-to-ACEScct" 
LUT_3D_SIZE 33
0.021449 0.038558 0.071622
0.027287 0.038602 0.071703
0.037960 0.048310 0.080453
0.051657 0.052316 0.081624
0.068198 0.048445 0.076790
0.088373 0.046376 0.073675
0.113929 0.044197 0.071350
0.146689 0.041986 0.070873
0.179997 0.040763 0.070415
0.213863 0.040509 0.069976
0.251857 0.040234 0.069501
0.288699 0.043739 0.069102
0.319108 0.049135 0.068813
0.348829 0.061982 0.068623
0.380321 0.084025 0.077699
0.407219 0.116157 0.091383
0.434494 0.152011 0.112506
0.460064 0.194325 0.134565
0.483312 0.232656 0.172756
0.508895 0.267173 0.206273
0.533153 0.301113 0.243791
0.560599 0.337605 0.277441
0.584404 0.365474 0.317246
0.609044 0.393676 0.346343
0.633818 0.419189 0.376473
0.660743 0.442419 0.402505
0.688181 0.467227 0.425481
0.715794 0.490285 0.450418
0.744586 0.510081 0.471197
0.777167 0.528371 0.489577
0.809048 0.553308 0.509958
0.841992 0.575557 0.533198
0.878029 0.596774 0.549021
0.021449 0.045333 0.071622
0.030211 0.044441 0.071743
0.037960 0.049279 0.080453
0.051657 0.053288 0.081624
0.070156 0.050398 0.077777
0.088406 0.048333 0.073703
0.114915 0.046134 0.071363
0.146767 0.044883 0.070911
0.181900 0.042667 0.070415
0.215790 0.043353 0.069988
0.253816 0.044005 0.069523
0.290610 0.046547 0.069113
0.321993 0.053801 0.068833
0.350886 0.067585 0.068663
0.382063 0.089550 0.077677
0.408143 0.120772 0.092306
0.434553 0.155721 0.113443
0.460189 0.198065 0.136445
0.484168 0.234471 0.172732
0.509038 0.269099 0.208182
0.534003 0.302924 0.243756
0.560599 0.337605 0.277441
0.584404 0.365474 0.317246
0.609044 0.393676 0.346343
0.633818 0.420120 0.376473
0.660743 0.442419 0.402505
0.688181 0.467227 0.425481
0.715794 0.490285 0.450418
0.744586 0.510081 0.471197
0.777167 0.528371 0.489577
0.809048 0.553308 0.509958
0.841992 0.575557 0.533198
0.878029 0.596774 0.549021
0.032101 0.054054 0.081316
0.033076 0.054065 0.081331
0.038929 0.054126 0.081423
0.052629 0.055231 0.082596
0.070183 0.052363 0.077807
0.090346 0.050272 0.073703
0.116843 0.048063 0.071363
0.148684 0.046800 0.070911
0.183867 0.046489 0.070439
0.216808 0.046206 0.070011
0.258431 0.046809 0.069501
0.291723 0.051248 0.069155
0.324045 0.059417 0.068874
0.351822 0.072226 0.068664
0.382934 0.096010 0.077667
0.408143 0.127234 0.092306
0.434553 0.158487 0.113443
0.460189 0.199909 0.136445
0.484168 0.235395 0.172732
0.509038 0.270950 0.208182
0.534003 0.302924 0.243756
0.560599 0.338533 0.277441
0.584404 0.365474 0.317246
0.609044 0.393676 0.346343
0.633818 0.420120 0.376473
0.660743 0.442419 0.402505
0.688181 0.467227 0.425481
0.715794 0.490285 0.450418
0.744586 0.510081 0.471197
0.777167 0.528371 0.489577
0.809048 0.553308 0.509958
0.841992 0.575557 0.533198
0.878029 0.596774 0.549021
0.035974 0.065671 0.085188
0.037924 0.065696 0.085220
0.040852 0.065733 0.085268
0.053591 0.065907 0.084523
0.072267 0.063182 0.078931
0.093361 0.059067 0.074758
0.117960 0.055850 0.071455
0.151640 0.052578 0.070949
0.185867 0.051275 0.070476
0.220666 0.051900 0.070034
0.261373 0.052469 0.069534
0.293862 0.058779 0.069219
0.325217 0.065050 0.068925
0.353627 0.079638 0.069582
0.382988 0.101571 0.078602
0.409066 0.132772 0.093229
0.435416 0.163077 0.113428
0.460315 0.202730 0.138327
0.484235 0.237275 0.173680
0.510744 0.270873 0.208123
0.534003 0.304778 0.243756
0.560761 0.338631 0.279378
0.584404 0.367335 0.317246
0.609044 0.393676 0.346343
0.633818 0.420120 0.376473
0.660743 0.442419 0.402505
0.688181 0.467227 0.425481
0.715794 0.490285 0.450418
0.744586 0.510081 0.471197
0.777167 0.528371 0.489577
0.809048 0.553308 0.509958
0.841992 0.575557 0.533198
0.878029 0.596774 0.549021
0.033063 0.082112 0.083236
0.035012 0.082143 0.083267
0.037938 0.083158 0.083314
0.051629 0.084337 0.081580
0.075284 0.084727 0.081957
0.096550 0.076763 0.076920
0.126839 0.072373 0.072529
0.156716 0.067080 0.071077
0.190927 0.064709 0.070586
0.225548 0.060458 0.070081
0.263505 0.060043 0.069600
0.294980 0.063495 0.069261
0.327186 0.070661 0.068948
0.355431 0.086120 0.070500
0.383859 0.107105 0.078591
0.409066 0.139234 0.093229
0.435476 0.168633 0.114366
0.461174 0.204547 0.138308
0.484235 0.239123 0.173680
0.510744 0.272723 0.208123
0.534003 0.304778 0.243756
0.560761 0.338631 0.279378
0.584404 0.367335 0.317246
0.609044 0.393676 0.346343
0.633818 0.420120 0.376473
0.660743 0.442419 0.402505
0.688181 0.467227 0.425481
0.715794 0.490285 0.450418
0.744586 0.510081 0.471197
0.777167 0.528371 0.489577
0.809048 0.553308 0.509958
0.841992 0.575557 0.533198
0.878029 0.596774 0.549021
0.031013 0.100132 0.081001
0.032948 0.101115 0.081016
0.036819 0.103082 0.081046
0.048496 0.104259 0.080245
0.072996 0.105703 0.079637
0.102265 0.104868 0.078769
0.131580 0.098413 0.073443
0.166146 0.089077 0.071002
0.200331 0.083730 0.070539
0.234117 0.076573 0.070095
0.270226 0.070425 0.069636
0.298824 0.072879 0.069285
0.328951 0.079954 0.068927
0.355483 0.093554 0.071438
0.383913 0.115442 0.079527
0.409066 0.144772 0.093229
0.435476 0.171400 0.114366
0.461237 0.208263 0.139249
0.484235 0.240971 0.173680
0.510744 0.274573 0.208123
0.534003 0.305704 0.243756
0.560761 0.340487 0.279378
0.585248 0.367280 0.317199
0.609225 0.394724 0.348309
0.633818 0.420120 0.376473
0.660743 0.442419 0.402505
0.688181 0.467227 0.425481
0.715794 0.490285 0.450418
0.744586 0.510081 0.471197
0.777167 0.528371 0.489577
0.809048 0.553308 0.509958
0.841992 0.575557 0.533198
0.878029 0.596774 0.549021
0.028947 0.122692 0.079659
0.031832 0.124634 0.079673
0.035691 0.125662 0.078756
0.045353 0.128707 0.077894
0.067706 0.133016 0.077201
0.096779 0.136084 0.077299
0.138217 0.129216 0.075306
0.172645 0.117714 0.070913
0.207669 0.109316 0.070441
0.238654 0.102062 0.070036
0.274711 0.095756 0.069580
0.304159 0.090584 0.069220
0.332478 0.092008 0.068886
0.357235 0.102802 0.071417
0.385654 0.123730 0.079505
0.409989 0.150310 0.094152
0.435476 0.176934 0.114366
0.461237 0.211952 0.139249
0.484235 0.242818 0.173680
0.510888 0.275576 0.210032
0.534156 0.307646 0.245680
0.560761 0.340487 0.279378
0.585248 0.367280 0.317199
0.609225 0.394724 0.348309
0.633818 0.420120 0.376473
0.660743 0.442419 0.402505
0.688181 0.467227 0.425481
0.715794 0.490285 0.450418
0.744586 0.510081 0.471197
0.777167 0.528371 0.489577
0.809048 0.553308 0.509958
0.841992 0.575557 0.533198
0.878029 0.596774 0.549021
0.028778 0.153463 0.078239
0.031646 0.155398 0.077299
0.035476 0.157362 0.077326
0.044122 0.159467 0.076465
0.062471 0.161867 0.075738
0.091393 0.165035 0.074912
0.133627 0.165965 0.074898
0.178236 0.159736 0.071807
0.216816 0.149990 0.070320
0.247707 0.139688 0.069920
0.280979 0.130401 0.069502
0.308599 0.125098 0.069167
0.336003 0.114282 0.068845
0.361665 0.120356 0.072303
0.386579 0.136673 0.080429
0.411721 0.156729 0.094126
0.437261 0.184287 0.115272
0.461363 0.215700 0.141132
0.485092 0.245556 0.173656
0.510888 0.277426 0.210032
0.534156 0.308573 0.245680
0.560761 0.341415 0.279378
0.585248 0.368211 0.317199
0.609225 0.394724 0.348309
0.633818 0.420120 0.376473
0.660743 0.442419 0.402505
0.688181 0.467227 0.425481
0.715794 0.490285 0.450418
0.744586 0.510081 0.471197
0.777167 0.528371 0.489577
0.809048 0.553308 0.509958
0.841992 0.575557 0.533198
0.878029 0.596774 0.549021
0.027643 0.187539 0.076783
0.031456 0.187666 0.076835
0.035262 0.189627 0.075912
0.044812 0.191786 0.075065
0.059166 0.196874 0.074242
0.085055 0.199221 0.073454
0.125033 0.202895 0.073403
0.175466 0.204695 0.072412
0.221379 0.192589 0.070261
0.254930 0.184798 0.069828
0.288128 0.169633 0.069415
0.314805 0.163246 0.069093
0.340404 0.155103 0.068795
0.365164 0.146227 0.072262
0.390113 0.152325 0.081320
0.412644 0.170571 0.095049
0.438183 0.194431 0.116194
0.462222 0.222126 0.141112
0.485159 0.251133 0.174604
0.511032 0.281207 0.211942
0.535007 0.310383 0.245645
0.560761 0.342343 0.279378
0.585421 0.368319 0.319154
0.609225 0.395656 0.348309
0.633818 0.421984 0.376473
0.660743 0.442419 0.402505
0.688181 0.467227 0.425481
0.715794 0.490285 0.450418
0.744586 0.510081 0.471197
0.777167 0.528371 0.489577
0.809048 0.553308 0.509958
0.841992 0.575557 0.533198
0.878029 0.596774 0.549021
0.027475 0.221256 0.076315
0.031263 0.221400 0.076365
0.036007 0.221581 0.075483
0.044550 0.223725 0.074626
0.057870 0.227880 0.074749
0.082635 0.232125 0.073002
0.114812 0.233903 0.072017
0.165954 0.234811 0.072005
0.225605 0.234772 0.071046
0.259437 0.228961 0.069771
0.295262 0.215327 0.069328
0.321885 0.205014 0.069010
0.345678 0.199551 0.068734
0.368712 0.191541 0.073157
0.393591 0.179024 0.081274
0.414490 0.190873 0.096895
0.440087 0.210136 0.118977
0.463208 0.230459 0.142977
0.485294 0.257671 0.176500
0.511958 0.285834 0.212868
0.535160 0.313254 0.247570
0.560924 0.344300 0.281316
0.585421 0.369250 0.319154
0.609225 0.395656 0.348309
0.633818 0.421984 0.376473
0.660743 0.443351 0.402505
0.688181 0.468158 0.425481
0.715794 0.491215 0.450418
0.744586 0.510081 0.471197
0.777167 0.529298 0.489577
0.809048 0.553308 0.509958
0.841992 0.575557 0.533198
0.878029 0.596774 0.549021
0.027309 0.255512 0.075856
0.031075 0.255671 0.075903
0.036732 0.255912 0.075037
0.047116 0.258155 0.075144
0.056563 0.262162 0.074275
0.078375 0.265617 0.073511
0.111324 0.267415 0.073487
0.153547 0.271818 0.071522
0.210884 0.273613 0.071499
0.260703 0.273569 0.070547
0.299714 0.261967 0.069274
0.327186 0.253279 0.068948
0.351924 0.244886 0.070541
0.375854 0.237674 0.075881
0.398967 0.227879 0.084010
0.418817 0.225785 0.096829
0.442794 0.230396 0.120805
0.464131 0.243373 0.143899
0.487210 0.266025 0.179298
0.512030 0.290503 0.213824
0.536861 0.316872 0.247499
0.561771 0.347034 0.281275
0.585421 0.372041 0.319154
0.609225 0.397518 0.348309
0.634750 0.422916 0.377405
0.660842 0.443417 0.403497
0.688181 0.468158 0.425481
0.715794 0.491215 0.450418
0.744586 0.510081 0.471197
0.777279 0.529374 0.490574
0.809048 0.553308 0.509958
0.841992 0.575557 0.533198
0.878029 0.596774 0.549021
0.029977 0.285996 0.077362
0.033715 0.287946 0.077385
0.042163 0.288338 0.077490
0.050620 0.290516 0.076639
0.060976 0.293681 0.075797
0.079863 0.296190 0.075961
0.105134 0.297926 0.074988
0.146286 0.300550 0.074004
0.193004 0.303172 0.073022
0.247264 0.303125 0.072075
0.302397 0.303967 0.071117
0.332478 0.292150 0.068886
0.356359 0.288343 0.071427
0.380267 0.281009 0.076764
0.403416 0.272080 0.085821
0.423428 0.265438 0.101439
0.446421 0.259870 0.123555
0.467820 0.263666 0.147589
0.489195 0.279042 0.183046
0.513029 0.297950 0.215706
0.537865 0.324334 0.249389
0.561853 0.350799 0.282244
0.585507 0.374888 0.320132
0.610066 0.399321 0.348257
0.634750 0.423848 0.377405
0.660842 0.444349 0.403497
0.688181 0.468158 0.425481
0.715794 0.491215 0.450418
0.744586 0.510081 0.471197
0.777279 0.529374 0.490574
0.809048 0.554233 0.509958
0.841992 0.575557 0.533198
0.878029 0.596774 0.549021
0.032638 0.313592 0.081684
0.040093 0.316607 0.081744
0.048510 0.317909 0.081840
0.056955 0.318333 0.081018
0.072017 0.319984 0.080267
0.085173 0.322186 0.080351
0.104729 0.324791 0.079368
0.138260 0.327393 0.078387
0.182969 0.329110 0.077418
0.234130 0.331709 0.076439
0.292814 0.331659 0.075496
0.333674 0.334305 0.075462
0.362540 0.320534 0.072293
0.383805 0.316021 0.077656
0.407862 0.309788 0.087631
0.427922 0.303165 0.104178
0.449372 0.298718 0.129140
0.471575 0.291379 0.152222
0.491182 0.294840 0.186796
0.514173 0.310117 0.219502
0.539024 0.332821 0.253206
0.562781 0.355441 0.283173
0.586525 0.377736 0.322041
0.610157 0.401243 0.349240
0.634750 0.424780 0.377405
0.660842 0.446213 0.403497
0.688181 0.469089 0.425481
0.715794 0.491215 0.450418
0.744586 0.511011 0.471197
0.777279 0.529374 0.490574
0.809048 0.554233 0.509958
0.841992 0.575557 0.533198
0.878029 0.596774 0.549021
0.042714 0.343143 0.093457
0.051099 0.344458 0.093563
0.059496 0.346658 0.092729
0.073565 0.347413 0.092002
0.084855 0.348908 0.091220
0.097957 0.350091 0.090355
0.115603 0.352727 0.090314
0.139728 0.353449 0.087469
0.175967 0.355205 0.087443
0.221418 0.356855 0.085532
0.273401 0.357680 0.084578
0.318757 0.360257 0.083600
0.363062 0.360907 0.081679
0.388211 0.350955 0.078536
0.411440 0.345668 0.089451
0.432473 0.339996 0.107851
0.453123 0.335662 0.133771
0.475592 0.329430 0.160635
0.494095 0.323598 0.191473
0.517173 0.327855 0.225155
0.540879 0.343951 0.255061
0.563109 0.361222 0.287053
0.586612 0.382447 0.323020
0.611179 0.405029 0.351155
0.634845 0.427639 0.378394
0.660842 0.447145 0.403497
0.689113 0.470020 0.426412
0.715794 0.492146 0.450418
0.744695 0.511086 0.472196
0.777279 0.529374 0.490574
0.809048 0.554233 0.509958
0.841992 0.575557 0.533198
0.878029 0.596774 0.549021
0.059253 0.372024 0.114515
0.072324 0.372753 0.112888
0.082631 0.373335 0.113065
0.092959 0.374801 0.112300
0.104248 0.377206 0.111534
0.117361 0.378461 0.110699
0.129397 0.379223 0.108791
0.146978 0.380859 0.106868
0.172897 0.383423 0.105877
0.211781 0.384129 0.103031
0.262643 0.386634 0.101102
0.306061 0.387339 0.098263
0.348703 0.387339 0.098263
0.389214 0.390768 0.097266
0.415937 0.380607 0.092193
0.437082 0.375024 0.112460
0.456205 0.370974 0.141248
0.478560 0.366510 0.166243
0.498146 0.361778 0.199939
0.520027 0.353849 0.228894
0.542120 0.358070 0.259849
0.564203 0.371549 0.289925
0.587630 0.389952 0.324930
0.612110 0.408755 0.352087
0.635035 0.430565 0.380372
0.661675 0.448941 0.403437
0.689113 0.471882 0.426412
0.715794 0.493077 0.450418
0.744695 0.512015 0.472196
0.777279 0.530301 0.490574
0.809048 0.554233 0.509958
0.841992 0.576481 0.533198
0.878029 0.596774 0.549021
0.089766 0.399896 0.149670
0.097266 0.400343 0.147988
0.110434 0.401138 0.147355
0.121765 0.401832 0.147610
0.133139 0.402538 0.146939
0.140725 0.403886 0.147092
0.150143 0.404177 0.145334
0.165881 0.404868 0.142454
0.186199 0.407299 0.139537
0.213082 0.408048 0.137616
0.251840 0.410357 0.132811
0.294563 0.410357 0.132811
0.336943 0.412724 0.128965
0.373786 0.414281 0.126091
0.415250 0.414025 0.123233
0.439045 0.404632 0.116178
0.460821 0.401439 0.145864
0.481867 0.397430 0.176599
0.503059 0.393473 0.208388
0.525187 0.388527 0.240256
0.544450 0.381603 0.267506
0.566560 0.385828 0.297621
0.588824 0.399440 0.328801
0.613973 0.416206 0.353950
0.635968 0.433362 0.381304
0.661675 0.452668 0.403437
0.689215 0.473815 0.427406
0.715794 0.494007 0.450418
0.745515 0.512870 0.472127
0.777279 0.530301 0.490574
0.809048 0.555159 0.509958
0.841992 0.576481 0.533198
0.878029 0.597695 0.549021
0.130730 0.425857 0.197260
0.139243 0.426405 0.195659
0.146831 0.426898 0.195885
0.153486 0.427334 0.194226
0.161110 0.427837 0.192594
0.167798 0.428282 0.192795
0.178310 0.429858 0.191218
0.188886 0.430576 0.189669
0.205636 0.431368 0.187739
0.227914 0.432973 0.185758
0.252926 0.434511 0.182819
0.286203 0.435918 0.177968
0.327055 0.435723 0.175094
0.362839 0.438798 0.169255
0.406309 0.439469 0.166367
0.441478 0.439320 0.166311
0.463718 0.430177 0.150522
0.484777 0.427137 0.181273
0.506343 0.425387 0.217867
0.528199 0.420248 0.245928
0.547637 0.412557 0.275138
0.568588 0.408270 0.301430
0.590020 0.413597 0.332675
0.614997 0.424653 0.355866
0.636996 0.439954 0.383226
0.661873 0.456532 0.405422
0.689215 0.476608 0.427406
0.715900 0.495942 0.451416
0.745515 0.513799 0.472127
0.777279 0.531229 0.490574
0.809162 0.555237 0.510955
0.841992 0.576481 0.533198
0.878267 0.597856 0.551012
0.172851 0.452030 0.238624
0.179533 0.452492 0.238868
0.184316 0.452825 0.237184
0.190066 0.453227 0.237395
0.195827 0.453633 0.235743
0.201599 0.454041 0.235956
0.207383 0.454454 0.234303
0.216080 0.455078 0.232756
0.229664 0.456064 0.231386
0.244684 0.457060 0.231416
0.262363 0.458720 0.230372
0.289207 0.460094 0.225445
0.320717 0.461539 0.221499
0.358652 0.461980 0.215661
0.395577 0.464289 0.211702
0.431624 0.464872 0.207816
0.465734 0.464503 0.203926
0.488682 0.455075 0.187826
0.509491 0.453526 0.225446
0.531679 0.448676 0.257401
0.552528 0.443426 0.282698
0.572819 0.438430 0.311010
0.592328 0.435357 0.339453
0.616020 0.436829 0.357782
0.638669 0.449143 0.383111
0.662904 0.463125 0.407347
0.690146 0.481264 0.428338
0.717549 0.498586 0.451282
0.745624 0.515733 0.473125
0.777279 0.534011 0.490574
0.809162 0.556163 0.510955
0.841992 0.577405 0.533198
0.878267 0.597856 0.551012
0.215330 0.474922 0.280386
0.222083 0.475420 0.280680
0.225950 0.475707 0.278983
0.228853 0.475924 0.279110
0.232728 0.476213 0.279280
0.235638 0.476432 0.277539
0.239523 0.476724 0.277709
0.247309 0.477313 0.277116
0.254139 0.477834 0.277419
0.267808 0.479752 0.276109
0.281307 0.481292 0.276454
0.299922 0.482864 0.274398
0.322168 0.484282 0.270381
0.354580 0.485547 0.264415
0.393530 0.486890 0.259443
0.423173 0.488384 0.256434
0.456443 0.488867 0.251522
0.489704 0.488469 0.247580
0.513798 0.480061 0.236854
0.534780 0.474974 0.264061
0.555893 0.471812 0.292300
0.575870 0.468437 0.316739
0.597171 0.462541 0.346086
0.619187 0.456669 0.364523
0.639793 0.461399 0.386023
0.664036 0.472589 0.410266
0.690249 0.486924 0.429333
0.717655 0.502383 0.452279
0.745734 0.517668 0.474124
0.778206 0.535866 0.491502
0.810784 0.557856 0.510811
0.841992 0.579253 0.533198
0.878267 0.598778 0.551012
0.255068 0.500346 0.317479
0.258961 0.500651 0.315804
0.259935 0.500728 0.315852
0.264810 0.501112 0.316095
0.266763 0.501267 0.316192
0.269694 0.501499 0.316339
0.271650 0.501654 0.316437
0.277526 0.502123 0.316733
0.282433 0.502516 0.316981
0.292272 0.503311 0.317482
0.301110 0.504893 0.317887
0.315922 0.506965 0.315770
0.332726 0.507660 0.313732
0.355935 0.509051 0.309663
0.386561 0.510360 0.304615
0.419133 0.510893 0.300614
0.449564 0.512123 0.294605
0.483112 0.511882 0.291652
0.513391 0.513089 0.285654
0.539137 0.504393 0.275544
0.560284 0.501268 0.303833
0.579273 0.497839 0.326397
0.600607 0.491981 0.355791
0.622452 0.486868 0.372261
0.642142 0.483210 0.392847
0.666001 0.485716 0.413126
0.692215 0.495379 0.432191
0.718799 0.506255 0.455206
0.747483 0.522240 0.474984
0.778318 0.538725 0.492500
0.810899 0.559786 0.511809
0.841992 0.580177 0.533198
0.878267 0.599699 0.551012
0.295147 0.523350 0.348376
0.297112 0.523512 0.348485
0.299079 0.523676 0.348593
0.300063 0.523758 0.348648
0.302032 0.523922 0.348757
0.303017 0.524004 0.348812
0.304988 0.524168 0.348921
0.305974 0.524251 0.348976
0.311898 0.524748 0.349307
0.316845 0.525165 0.349584
0.324778 0.525837 0.350032
0.333731 0.526602 0.349599
0.350427 0.528565 0.346498
0.368124 0.530105 0.344384
0.386805 0.531732 0.343273
0.410857 0.533012 0.338172
0.442385 0.534292 0.333086
0.475801 0.535659 0.329006
0.505559 0.536257 0.325979
0.539437 0.535383 0.319820
0.563419 0.526748 0.310544
0.584465 0.522559 0.336961
0.604619 0.519300 0.362494
0.625630 0.514237 0.379022
0.646266 0.507779 0.400555
0.669203 0.504671 0.419907
0.695009 0.505625 0.434985
0.720660 0.514633 0.457068
0.747703 0.527972 0.476983
0.778430 0.544369 0.493499
0.811013 0.562642 0.512807
0.842109 0.582107 0.534196
0.878267 0.601542 0.551012
0.329531 0.545999 0.377238
0.331512 0.546172 0.377357
0.331512 0.546172 0.377357
0.332503 0.546258 0.377417
0.335426 0.547370 0.377537
0.336419 0.547457 0.377596
0.338405 0.547631 0.377716
0.339399 0.547719 0.377777
0.343377 0.548068 0.378018
0.346364 0.548332 0.378200
0.351294 0.549626 0.378443
0.359290 0.550339 0.378934
0.369199 0.552946 0.378485
0.380008 0.553568 0.376076
0.394052 0.553385 0.374063
0.412876 0.554239 0.374001
0.438745 0.556342 0.368795
0.470431 0.557774 0.365668
0.497198 0.558084 0.359606
0.532799 0.558846 0.358549
0.563685 0.557747 0.352208
0.584999 0.551064 0.342874
0.607045 0.545961 0.370308
0.628909 0.540788 0.386785
0.650298 0.535100 0.407276
0.673241 0.529173 0.426633
0.697289 0.524568 0.440838
0.721699 0.526813 0.458998
0.748633 0.536340 0.477913
0.780285 0.549934 0.495354
0.811939 0.566345 0.513732
0.843840 0.585722 0.535046
0.879188 0.604306 0.551934
0.366944 0.570728 0.410055
0.367944 0.570819 0.410121
0.367944 0.570819 0.410121
0.367944 0.570819 0.410121
0.368943 0.570911 0.410187
0.368943 0.570911 0.410187
0.370944 0.571095 0.410319
0.370944 0.571095 0.410319
0.371885 0.572036 0.410319
0.373888 0.572220 0.410451
0.375892 0.572405 0.410583
0.379905 0.572775 0.409907
0.386878 0.574278 0.410307
0.393868 0.575787 0.408822
0.406002 0.576930 0.408688
0.420182 0.576915 0.405839
0.442739 0.577669 0.404759
0.466863 0.579930 0.401523
0.493936 0.580492 0.398426
0.524321 0.582467 0.392184
0.555251 0.583220 0.391114
0.586316 0.582249 0.384817
0.608449 0.574457 0.376209
0.630423 0.569339 0.393687
0.654435 0.563469 0.415003
0.676454 0.558453 0.433432
0.702265 0.549980 0.448496
0.725639 0.546527 0.464722
0.751643 0.549519 0.482704
0.781438 0.559372 0.498280
0.812169 0.572987 0.515730
0.843957 0.589500 0.536045
0.879307 0.607153 0.552930
0.393278 0.597062 0.432627
0.395286 0.597253 0.432766
0.395286 0.597253 0.432766
0.395286 0.597253 0.432766
0.395286 0.597253 0.432766
0.396290 0.597349 0.432835
0.396290 0.597349 0.432835
0.396290 0.597349 0.432835
0.397231 0.598290 0.432835
0.399241 0.598483 0.432033
0.400247 0.598579 0.432103
0.402260 0.598772 0.432242
0.407232 0.600103 0.432522
0.411268 0.600493 0.432804
0.421318 0.602323 0.432498
0.434372 0.603403 0.432327
0.449359 0.603203 0.430292
0.466150 0.603848 0.428188
0.489296 0.607028 0.425876
0.519002 0.608318 0.421684
0.547036 0.608963 0.419592
0.576740 0.610353 0.416425
0.607732 0.610254 0.415415
0.633717 0.601597 0.401477
0.656076 0.595890 0.422936
0.679776 0.590665 0.441242
0.706314 0.582878 0.455228
0.730622 0.575656 0.472384
0.754656 0.570149 0.487499
0.783521 0.571600 0.502137
0.813905 0.582163 0.516582
0.844882 0.595046 0.536969
0.879426 0.612765 0.553927
0.419814 0.620873 0.457300
0.419814 0.620873 0.457300
0.420822 0.620973 0.457373
0.420822 0.620973 0.457373
0.420822 0.620973 0.457373
0.420822 0.620973 0.457373
0.421831 0.621073 0.457447
0.421831 0.621073 0.457447
0.422841 0.621173 0.457521
0.422841 0.621173 0.457521
0.425871 0.621474 0.457742
0.427893 0.621675 0.457891
0.431802 0.623762 0.458039
0.436870 0.624270 0.458412
0.442892 0.625725 0.457844
0.450018 0.626447 0.458372
0.460860 0.627999 0.456924
0.473947 0.627791 0.454881
0.490807 0.628528 0.453784
0.513847 0.630635 0.449483
0.540700 0.632846 0.446211
0.570515 0.635261 0.444978
0.600196 0.634746 0.439907
0.634005 0.635585 0.439836
0.660023 0.625090 0.428683
0.682276 0.620218 0.449136
0.707890 0.613286 0.462178
0.733637 0.606584 0.477186
0.759420 0.599078 0.493153
0.788048 0.591934 0.505777
0.816798 0.594283 0.520359
0.846848 0.605296 0.539817
0.881270 0.621060 0.555770
0.448114 0.648265 0.481842
0.448114 0.648265 0.481842
0.448114 0.648265 0.481842
0.448114 0.648265 0.481842
0.448114 0.648265 0.481842
0.448114 0.648265 0.481842
0.448114 0.648265 0.481842
0.449128 0.648369 0.481920
0.449128 0.648369 0.481920
0.450141 0.648473 0.481997
0.450069 0.649310 0.481920
0.451083 0.649415 0.481997
0.455142 0.649835 0.481367
0.457174 0.650045 0.481523
0.461168 0.651305 0.481758
0.466263 0.651837 0.482151
0.473255 0.654260 0.481602
0.484269 0.655107 0.481280
0.498123 0.655619 0.478127
