Assets/Lutify-Free-LUTs-Pack/Lutify Free LUTs Pack/Colour Film Boost Pro - Film Boost 10/Lutify.me-FilmBoost10-ACEScct-to-ACEScct.cube
# Created with: fylm.ai - Colour Grading and Collaboration Software in Cloud 
# Website: https://fylm.ai 
# META
# Option: Gamut compress
# Block 1: subtractiveColour | Blending Mode: Normal | {"sliders":{"gainY":0.55,"C":0.3,"M":0.3,"Y":0.3}}
# Block 2: LUT | Filmic Curve Response: Low Contrast 2 (100%)
# Block 3: logPrimaries | Blending Mode: Normal | {"wheels":{"shadows":{"Y":"0","R":"1","G":"1","B":"1"},"midtones":{"Y":"0","R":"1","G":"1","B":"1"},"highlights":{"Y":"0","R":"1","G":"1","B":"1"},"offset":{"Y":"0","R":"1","G":"1","B":"1"}},"sliders":{"shadows":{"Y":0,"R":-0.085,"G":0.024,"B":0.134},"midtones":{"Y":0,"R":0,"G":-0.023,"B":0},"highlights":{"Y":0,"R":0,"G":0,"B":0},"offset":{"Y":0,"R":0.012,"G":-0.012,"B":0}}}
# Block 4: HSL | Blending Mode: Normal | {"hue":{"Reds":0,"Yellows":0,"Greens":0,"Cyans":0,"Blues":0,"Magentas":0},"saturation":{"Reds":1,"Yellows":1,"Greens":1,"Cyans":1,"Blues":1,"Magentas":1},"luminance":{"Reds":0.9,"Yellows":0.9,"Greens":0.9,"Cyans":0.9,"Blues":0.9,"Magentas":0.9},"lum_sat":{"Blacks":1,"Shadows":1,"Midtones":1,"Highlights":1,"Whites":1},"sat_sat":{"10":1,"20":1,"30":1,"40":1,"50":1}}
TITLE "Lutify.me-FilmBoost10-ACEScct-to-ACEScct" 
LUT_3D_SIZE 9
0.021449 0.038558 0.071622
0.068198 0.048445 0.076790
0.179997 0.040763 0.070415
0.319108 0.049135 0.068813
0.434494 0.152011 0.112506
0.533153 0.301113 0.243791
0.633818 0.419189 0.376473
0.744586 0.510081 0.471197
0.878029 0.596774 0.549021
0.033063 0.082112 0.083236
0.075284 0.084727 0.081957
0.190927 0.064709 0.070586
0.327186 0.070661 0.068948
0.435476 0.168633 0.114366
0.534003 0.304778 0.243756
0.633818 0.420120 0.376473
0.744586 0.510081 0.471197
0.878029 0.596774 0.549021
0.027643 0.187539 0.076783
0.059166 0.196874 0.074242
0.221379 0.192589 0.070261
0.340404 0.155103 0.068795
0.438183 0.194431 0.116194
0.535007 0.310383 0.245645
0.633818 0.421984 0.376473
0.744586 0.510081 0.471197
0.878029 0.596774 0.549021
0.032638 0.313592 0.081684
0.072017 0.319984 0.080267
0.182969 0.329110 0.077418
0.362540 0.320534 0.072293
0.449372 0.298718 0.129140
0.539024 0.332821 0.253206
0.634750 0.424780 0.377405
0.744586 0.511011 0.471197
0.878029 0.596774 0.549021
0.130730 0.425857 0.197260
0.161110 0.427837 0.192594
0.205636 0.431368 0.187739
0.327055 0.435723 0.175094
0.463718 0.430177 0.150522
0.547637 0.412557 0.275138
0.636996 0.439954 0.383226
0.745515 0.513799 0.472127
0.878267 0.597856 0.551012
0.295147 0.523350 0.348376
0.302032 0.523922 0.348757
0.311898 0.524748 0.349307
0.350427 0.528565 0.346498
0.442385 0.534292 0.333086
0.563419 0.526748 0.310544
0.646266 0.507779 0.400555
0.747703 0.527972 0.476983
0.878267 0.601542 0.551012
0.419814 0.620873 0.457300
0.420822 0.620973 0.457373
0.422841 0.621173 0.457521
0.431802 0.623762 0.458039
0.460860 0.627999 0.456924
0.540700 0.632846 0.446211
0.660023 0.625090 0.428683
0.759420 0.599078 0.493153
0.881270 0.621060 0.555770
0.515948 0.736032 0.545807
0.517986 0.736263 0.545979
0.517986 0.736263 0.545979
0.519006 0.736379 0.546064
0.524028 0.737783 0.545471
0.548974 0.742594 0.544115
0.631141 0.748210 0.535214
0.771497 0.746946 0.519516
0.891337 0.701916 0.571984
0.604074 0.869909 0.633701
0.604074 0.869909 0.633701
0.604074 0.869909 0.633701
0.604074 0.869909 0.632770
0.604915 0.871642 0.632677
0.612063 0.872548 0.633335
0.637604 0.879032 0.630920
0.729896 0.885039 0.620843
0.907184 0.881922 0.601916
0.029051 0.049932 0.104026
0.067928 0.051157 0.099721
0.180059 0.042681 0.082814
0.316599 0.051971 0.080043
0.435454 0.156043 0.127542
0.533613 0.303229 0.249568
0.633913 0.419251 0.377461
0.744586 0.510081 0.471197
0.878029 0.596774 0.549021
0.030899 0.078627 0.119133
0.070890 0.088019 0.115305
0.190993 0.066640 0.089695
0.324822 0.074487 0.084900
0.436500 0.171803 0.130351
0.534618 0.306056 0.251460
0.633913 0.420183 0.377461
0.744586 0.510081 0.471197
0.878029 0.596774 0.549021
0.025730 0.189308 0.118413
0.057243 0.196806 0.110373
0.216150 0.205329 0.100352
0.340793 0.161305 0.092394
0.439335 0.196791 0.134067
0.535623 0.311669 0.253352
0.633913 0.422047 0.377461
0.744586 0.510081 0.471197
0.878029 0.596774 0.549021
0.032638 0.313592 0.131809
0.067269 0.322395 0.122120
0.181173 0.333754 0.114428
0.358040 0.331643 0.101588
0.450810 0.300600 0.150837
0.539335 0.333014 0.257065
0.634845 0.424843 0.378394
0.744695 0.511086 0.472196
0.878029 0.596774 0.549021
0.130730 0.425857 0.226895
0.159156 0.429445 0.224096
0.202371 0.432375 0.220008
0.328598 0.437778 0.204928
0.464691 0.433793 0.177101
0.548202 0.412982 0.281935
0.636996 0.439954 0.383226
0.745624 0.513874 0.473125
0.878267 0.597856 0.551012
0.295147 0.523350 0.353995
0.300063 0.523758 0.354271
0.311898 0.524748 0.354941
0.350667 0.528927 0.353349
0.442885 0.534895 0.340056
0.563845 0.528080 0.315445
0.646463 0.507933 0.402544
0.747703 0.527972 0.476983
0.878386 0.601624 0.552008
0.419814 0.620873 0.459182
0.420822 0.620973 0.459256
0.422841 0.621173 0.459404
0.431802 0.623762 0.459924
0.460937 0.628104 0.457946
0.540877 0.633053 0.448245
0.660125 0.625186 0.429685
0.759420 0.599078 0.493153
0.881270 0.621060 0.555770
0.515948 0.736032 0.545807
0.517986 0.736263 0.545979
0.517986 0.736263 0.545979
0.519006 0.736379 0.546064
0.524028 0.737783 0.546409
0.548974 0.742594 0.544115
0.631141 0.748210 0.535214
0.771613 0.747059 0.520528
0.891337 0.701916 0.571984
0.604074 0.869909 0.633701
0.604074 0.869909 0.633701
0.604074 0.869909 0.633701
0.604074 0.869909 0.633701
0.604915 0.871642 0.632677
0.612063 0.872548 0.633335
0.637604 0.879032 0.630920
0.729896 0.885039 0.620843
0.907184 0.881922 0.601916
0.021039 0.044467 0.172783
0.049826 0.047607 0.166210
0.180184 0.046521 0.140976
0.316740 0.054788 0.125705
0.437252 0.156688 0.154981
0.534233 0.305439 0.257289
0.634008 0.419314 0.378450
0.744695 0.510156 0.472196
0.878029 0.596774 0.549021
0.020937 0.065036 0.199344
0.049596 0.070207 0.193016
0.191161 0.071474 0.178591
0.325216 0.082050 0.140115
0.438434 0.172564 0.159714
0.535240 0.308270 0.259184
0.634008 0.420246 0.378450
0.744695 0.510156 0.472196
0.878029 0.596774 0.549021
0.021697 0.177834 0.248242
0.051036 0.193018 0.244053
0.210046 0.223337 0.240013
0.341588 0.172930 0.169299
0.441349 0.201409 0.164405
0.536169 0.313844 0.260113
0.634008 0.422111 0.378450
0.744695 0.510156 0.472196
0.878029 0.596774 0.549021
0.030755 0.317030 0.253187
0.067249 0.324162 0.243234
0.176410 0.338148 0.233115
0.359940 0.345394 0.207898
0.453293 0.302255 0.187026
0.540201 0.336336 0.267702
0.635035 0.424971 0.380372
0.744695 0.511086 0.472196
0.878029 0.596774 0.549021
0.130730 0.425857 0.267643
0.155345 0.429193 0.265783
0.199377 0.434780 0.260959
0.327751 0.444178 0.245699
0.467282 0.440821 0.225157
0.548936 0.414467 0.290698
0.637092 0.440020 0.384216
0.745624 0.513874 0.473125
0.878267 0.597856 0.551012
0.295147 0.523350 0.362423
0.300063 0.523758 0.362706
0.309873 0.525437 0.361342
0.348663 0.528753 0.360789
0.443389 0.536447 0.347988
0.563094 0.530064 0.326358
0.646562 0.508011 0.403540
0.747703 0.527972 0.476983
0.878386 0.601624 0.552008
0.419814 0.620873 0.461064
0.420822 0.620973 0.461138
0.422841 0.621173 0.461286
0.431802 0.623762 0.460867
0.461014 0.628209 0.458969
0.540965 0.633156 0.449262
0.660228 0.627156 0.430688
0.759420 0.599078 0.493153
0.881270 0.621060 0.555770
0.515948 0.736032 0.545807
0.515948 0.736032 0.545807
0.517986 0.736263 0.545979
0.519006 0.736379 0.546064
0.524028 0.737783 0.546409
0.549063 0.742714 0.545145
0.631241 0.748328 0.536238
0.771613 0.747059 0.520528
0.891337 0.701916 0.571984
0.604074 0.869909 0.633701
0.604074 0.869909 0.633701
0.604074 0.869909 0.633701
0.604074 0.869909 0.633701
0.604915 0.871642 0.633607
0.612063 0.872548 0.633335
0.637604 0.879032 0.630920
0.729896 0.885039 0.620843
0.907184 0.881922 0.601916
0.020618 0.055673 0.287489
0.048795 0.061589 0.283443
0.156952 0.064634 0.277922
0.317071 0.061370 0.247012
0.437751 0.162441 0.263861
0.537352 0.310025 0.295227
0.634773 0.419820 0.386373
0.744804 0.510231 0.473195
0.878267 0.596935 0.551012
0.021483 0.077764 0.307015
0.047685 0.086530 0.303848
0.151535 0.095756 0.300887
0.325465 0.086787 0.276704
0.439848 0.180573 0.268290
0.538368 0.312875 0.297141
0.634773 0.420754 0.386373
0.744804 0.510231 0.473195
0.878267 0.596935 0.551012
0.022303 0.153086 0.337856
0.050244 0.164048 0.334890
0.149204 0.184747 0.335838
0.342437 0.183789 0.320477
0.444460 0.209376 0.277810
0.538533 0.318579 0.299101
0.634773 0.422620 0.386373
0.744804 0.510231 0.473195
0.878267 0.596935 0.551012
0.024951 0.307598 0.372051
0.053681 0.318278 0.370114
0.158838 0.338818 0.371833
0.358433 0.364934 0.378721
0.460008 0.316235 0.312587
0.542522 0.341169 0.305785
0.635706 0.425420 0.387306
0.744804 0.511161 0.473195
0.878267 0.596935 0.551012
0.122188 0.427911 0.371663
0.149573 0.431415 0.372166
0.194521 0.435315 0.371921
0.324335 0.452746 0.367087
0.472826 0.457240 0.352356
0.552049 0.419628 0.327016
0.637960 0.440620 0.393145
0.745734 0.513950 0.474124
0.878267 0.597856 0.551012
0.295147 0.523350 0.392391
0.300063 0.523758 0.392697
0.309873 0.525437 0.392314
0.347490 0.531237 0.390755
0.445898 0.540431 0.383151
0.565435 0.535974 0.362120
0.647355 0.509569 0.411517
0.747923 0.528128 0.478984
0.878386 0.601624 0.552008
0.419814 0.620873 0.467650
0.420822 0.620973 0.467726
0.422841 0.621173 0.467876
0.431802 0.623762 0.467464
0.461180 0.628435 0.465761
0.540644 0.634831 0.457339
0.661051 0.628876 0.438725
0.759645 0.599256 0.495161
0.881270 0.621060 0.555770
0.515948 0.736032 0.547683
0.515948 0.736032 0.547683
0.515948 0.736032 0.547683
0.519006 0.736379 0.547941
0.524028 0.737783 0.547348
0.549151 0.742834 0.546174
0.631341 0.748447 0.537263
0.771730 0.747172 0.521539
0.891337 0.701916 0.571984
0.604074 0.869909 0.633701
0.604074 0.869909 0.633701
0.604074 0.869909 0.633701
0.604074 0.869909 0.633701
0.604915 0.871642 0.633607
0.612063 0.872548 0.634266
0.637604 0.879032 0.630920
0.729896 0.885039 0.620843
0.907311 0.882045 0.602925
0.089628 0.170508 0.409577
0.115000 0.173978 0.409386
0.153915 0.180640 0.410972
0.304965 0.190240 0.409857
0.437119 0.178737 0.385725
0.539170 0.316698 0.389968
0.636578 0.425383 0.413350
0.745463 0.510683 0.479196
0.878386 0.597016 0.552008
0.089592 0.184270 0.412175
0.116819 0.189670 0.412973
0.151938 0.194474 0.413459
0.305642 0.208522 0.415467
0.439109 0.195046 0.391327
0.540276 0.319611 0.390091
0.636578 0.425383 0.413350
0.745463 0.510683 0.479196
0.878386 0.597016 0.552008
0.089494 0.208018 0.419097
0.116720 0.214489 0.418174
0.155593 0.220449 0.419790
0.306679 0.233752 0.421593
0.444629 0.223963 0.401343
0.540702 0.324554 0.392274
0.636578 0.426321 0.413350
0.745463 0.510683 0.479196
0.878386 0.597016 0.552008
0.092049 0.300367 0.436528
0.119164 0.304308 0.438233
0.160753 0.311774 0.440963
0.303412 0.332575 0.447758
0.461263 0.328530 0.436339
0.545430 0.349241 0.398364
0.637515 0.430070 0.414287
0.745463 0.511613 0.479196
0.878386 0.597016 0.552008
0.103726 0.421498 0.465644
0.134573 0.425224 0.466805
0.172400 0.429552 0.467670
0.316809 0.450182 0.475933
0.476613 0.474345 0.480361
0.559601 0.433490 0.428878
0.640428 0.444199 0.418102
0.746504 0.514481 0.481128
0.878386 0.597937 0.552008
0.291085 0.525589 0.474288
0.294964 0.526769 0.474508
0.304749 0.528444 0.475173
0.340327 0.533198 0.473984
0.445714 0.547932 0.472389
0.572188 0.552748 0.461071
0.650093 0.514543 0.438617
0.748587 0.528597 0.484995
0.878505 0.601705 0.553005
0.419679 0.622555 0.491016
0.420687 0.622655 0.491095
0.421696 0.622755 0.491174
0.431802 0.623762 0.491026
0.461180 0.628435 0.492267
0.541103 0.637599 0.484008
0.661605 0.635861 0.468294
0.760324 0.600722 0.501193
0.881390 0.621145 0.556767
0.514849 0.736738 0.553136
0.514849 0.736738 0.553136
0.515867 0.736854 0.553223
0.517905 0.737085 0.553396
0.524028 0.737783 0.553920
0.549432 0.743214 0.552107
0.631844 0.749983 0.543331
0.772433 0.747852 0.527617
0.891582 0.703032 0.573987
0.603895 0.871513 0.634444
0.603895 0.871513 0.634444
0.603895 0.871513 0.634444
0.603895 0.871513 0.634444
0.604915 0.871642 0.634538
0.612063 0.872548 0.635198
0.637895 0.879432 0.634009
0.730113 0.885302 0.622889
0.907566 0.882293 0.604945
0.246064 0.319351 0.505800
0.252849 0.321551 0.506331
0.264560 0.323120 0.506395
0.308774 0.332935 0.509980
0.429619 0.339448 0.510819
0.540190 0.328568 0.488383
0.636165 0.434521 0.490182
0.748039 0.514315 0.502327
0.878983 0.597422 0.556995
0.246027 0.322098 0.506656
0.252811 0.324300 0.507187
0.264520 0.326808 0.507252
0.308774 0.335757 0.509980
0.429762 0.342399 0.511935
0.541302 0.331491 0.489478
0.637004 0.434451 0.490104
0.748039 0.514315 0.502327
0.878983 0.597422 0.556995
0.245990 0.328568 0.507511
0.252773 0.329845 0.508043
0.266429 0.332463 0.508264
0.308724 0.340407 0.510839
0.429174 0.348368 0.513310
0.541820 0.337451 0.490887
0.637106 0.435461 0.490182
0.748039 0.514315 0.502327
0.878983 0.597422 0.556995
0.245772 0.348744 0.512642
0.252547 0.350038 0.513175
0.266226 0.352749 0.512545
0.308478 0.359876 0.515130
0.428727 0.371405 0.517900
0.546406 0.360244 0.499082
0.637414 0.438495 0.491360
0.748039 0.515248 0.502327
0.878983 0.597422 0.556995
0.253772 0.418838 0.529541
0.260542 0.421128 0.530085
0.270242 0.422684 0.530871
0.313373 0.427481 0.533602
0.431672 0.446672 0.541550
0.558483 0.444406 0.529648
0.641589 0.454514 0.495227
0.749087 0.518128 0.504271
0.878983 0.598344 0.556995
0.267165 0.519048 0.555356
0.274899 0.519647 0.555997
0.285568 0.520482 0.556890
0.325690 0.525576 0.560339
0.437786 0.549032 0.566347
0.573382 0.569162 0.574202
0.655179 0.526342 0.518879
0.750954 0.532136 0.506139
0.879103 0.602115 0.557993
0.416458 0.624777 0.561966
0.416458 0.624777 0.561966
0.419478 0.625077 0.562235
0.426538 0.625779 0.560984
0.453724 0.631068 0.561295
0.545366 0.647584 0.559585
0.665579 0.653798 0.551653
0.760405 0.603938 0.523669
0.882112 0.621654 0.562759
0.513670 0.738267 0.574429
0.514688 0.738382 0.574519
0.514607 0.739204 0.574429
0.515625 0.739319 0.574519
0.522759 0.740132 0.574212
0.549432 0.743214 0.576603
0.632206 0.752653 0.566019
0.775420 0.750744 0.553094
0.892444 0.705559 0.581008
0.602876 0.871384 0.641791
0.602876 0.871384 0.641791
0.602876 0.871384 0.641791
0.603895 0.871513 0.641886
0.604915 0.871642 0.641981
0.611041 0.872418 0.642553
0.638299 0.879990 0.640952
0.728685 0.887694 0.628851
0.908463 0.883165 0.612024
0.384070 0.438210 0.598875
0.385069 0.438280 0.598970
0.388070 0.439427 0.599255
0.397093 0.440999 0.600116
0.428411 0.447014 0.603155
0.528146 0.451870 0.602064
0.637090 0.443632 0.580405
0.745990 0.520812 0.572497
0.880188 0.601349 0.580215
0.384070 0.439149 0.598875
0.385069 0.439218 0.598970
0.388070 0.439427 0.599255
0.397093 0.440999 0.600116
0.428411 0.447014 0.603155
0.528236 0.452896 0.602167
0.637929 0.443560 0.580311
0.745990 0.520812 0.572497
0.880188 0.601349 0.580215
0.384070 0.439149 0.598875
0.385069 0.440157 0.598970
0.388070 0.440366 0.599255
0.397093 0.442880 0.600116
0.428411 0.447960 0.603155
0.528416 0.454951 0.602372
0.638032 0.444574 0.580405
0.746107 0.521831 0.572587
0.880188 0.601349 0.580215
0.384009 0.442834 0.599719
0.385008 0.443842 0.599814
0.388009 0.444053 0.600099
0.397030 0.445631 0.600960
0.429357 0.450796 0.604100
0.528597 0.457958 0.603528
0.638343 0.447619 0.581631
0.747748 0.521668 0.573345
0.880188 0.602275 0.580215
0.384645 0.456552 0.604874
0.385643 0.456624 0.604969
0.387641 0.456767 0.605159
0.398719 0.459517 0.605372
0.432193 0.464977 0.606937
0.528919 0.476212 0.608795
0.642537 0.463688 0.586649
0.748332 0.526763 0.574731
0.880188 0.602275 0.580215
0.390236 0.515286 0.624885
0.391232 0.516301 0.624982
0.393225 0.516461 0.625175
0.400211 0.517959 0.625855
0.433535 0.525561 0.627463
0.532031 0.542264 0.633461
0.655653 0.538769 0.619189
0.752688 0.542878 0.579670
0.880437 0.607073 0.582230
0.397084 0.616681 0.655034
0.398075 0.616774 0.655132
0.402044 0.617144 0.655526
0.410000 0.618825 0.656319
0.442267 0.625007 0.657073
0.534084 0.651050 0.662645
0.670166 0.675703 0.664157
0.767534 0.620384 0.604431
0.883339 0.626600 0.586016
0.512334 0.741438 0.654508
0.512334 0.741438 0.654508
0.513350 0.741553 0.654610
0.514367 0.741668 0.654712
0.521330 0.744122 0.654285
0.547959 0.747200 0.654168
0.634946 0.765219 0.652902
0.779229 0.773215 0.638291
0.895053 0.711137 0.608349
0.601503 0.874462 0.669203
0.601503 0.874462 0.669203
0.601503 0.874462 0.669203
0.602521 0.874590 0.669301
0.603539 0.874718 0.668470
0.609567 0.876294 0.668032
0.635012 0.881187 0.670339
0.731081 0.891753 0.659803
0.910685 0.892714 0.641746
0.488108 0.531910 0.704723
0.488108 0.531910 0.704723
0.488108 0.531910 0.704723
0.490140 0.532078 0.704945
0.497263 0.532669 0.705729
0.524920 0.536886 0.708815
0.621324 0.541479 0.707340
0.747280 0.532037 0.678611
0.880642 0.609779 0.661067
0.488108 0.531910 0.704723
0.488108 0.531910 0.704723
0.488108 0.531910 0.704723
0.490140 0.532078 0.704945
0.497263 0.532669 0.705729
0.524920 0.536886 0.708815
0.621324 0.541479 0.707340
0.747280 0.532037 0.678611
0.880772 0.610799 0.661164
0.488108 0.531910 0.704723
0.488108 0.531910 0.704723
0.488108 0.531910 0.704723
0.490140 0.532078 0.704945
0.497263 0.532669 0.705729
0.524920 0.536886 0.708815
0.621428 0.542517 0.707459
0.747280 0.532037 0.678611
0.880772 0.610799 0.661164
0.488108 0.532848 0.704723
0.488108 0.532848 0.704723
0.488108 0.532848 0.704723
0.490140 0.533016 0.704945
0.497263 0.533609 0.705729
0.524920 0.537830 0.708815
0.621428 0.542517 0.707459
0.747398 0.533060 0.678718
0.880772 0.610799 0.663024
0.488031 0.535579 0.705550
0.488031 0.535579 0.705550
0.488031 0.535579 0.705550
0.489047 0.535663 0.705661
0.496165 0.536257 0.706444
0.525864 0.540661 0.709758
0.621846 0.547619 0.708881
0.747753 0.536131 0.679980
0.880902 0.611819 0.663121
0.487496 0.547175 0.711336
0.487496 0.547175 0.711336
0.488509 0.547260 0.711447
0.489523 0.547346 0.711558
0.496711 0.549913 0.711516
0.525520 0.554456 0.713067
0.622265 0.564972 0.714242
0.749792 0.553602 0.688426
0.883022 0.615721 0.664247
0.493692 0.613037 0.732835
0.493692 0.613037 0.732835
0.493692 0.613037 0.732835
0.495714 0.613226 0.733060
0.502958 0.615015 0.732207
0.528442 0.619321 0.735094
0.625974 0.639998 0.743341
0.766948 0.633285 0.728693
0.887533 0.638093 0.670902
0.496464 0.730380 0.769565
0.496464 0.730380 0.769565
0.496464 0.730380 0.769565
0.499472 0.732561 0.769905
0.505574 0.734250 0.769770
0.534050 0.743194 0.771396
0.626622 0.770594 0.779290
0.783364 0.800584 0.783207
0.904041 0.731613 0.700726
0.595987 0.877829 0.762895
0.595987 0.877829 0.762895
0.595987 0.877829 0.762895
0.595987 0.877829 0.762895
0.599032 0.878211 0.763227
0.604026 0.879652 0.763672
0.633312 0.886649 0.760913
0.737361 0.906453 0.761814
0.916301 0.915049 0.747683
0.576156 0.622458 0.832319
0.576156 0.622458 0.832319
0.576156 0.622458 0.832319
0.576156 0.622458 0.832319
0.577175 0.624416 0.832444
0.585338 0.626103 0.833450
0.615341 0.631918 0.835570
0.720024 0.641514 0.834825
0.878472 0.624558 0.798135
0.576156 0.622458 0.832319
0.576156 0.622458 0.832319
0.576156 0.622458 0.832319
0.576156 0.622458 0.832319
0.577175 0.624416 0.832444
0.585338 0.626103 0.833450
0.615341 0.631918 0.835570
0.720024 0.641514 0.834825
0.878472 0.624558 0.798135
0.576156 0.622458 0.832319
0.576156 0.622458 0.832319
0.576156 0.622458 0.832319
0.576156 0.622458 0.832319
0.577175 0.624416 0.832444
0.585338 0.626103 0.833450
0.615341 0.631918 0.835570
0.720024 0.641514 0.834825
0.878472 0.624558 0.798135
0.576156 0.622458 0.832319
0.576156 0.622458 0.832319
0.576156 0.622458 0.832319
0.576156 0.624322 0.832319
0.577175 0.624416 0.832444
0.585338 0.626103 0.833450
0.615341 0.632856 0.835570
0.720024 0.641514 0.834825
0.878472 0.624558 0.798135
0.575984 0.624135 0.833934
0.575984 0.624135 0.833934
0.575984 0.624135 0.833934
0.575984 0.624135 0.833934
0.578020 0.624322 0.834184
0.586183 0.626009 0.835190
0.615148 0.632658 0.837183
0.720258 0.643607 0.835096
0.878604 0.625585 0.798255
0.575984 0.628794 0.833934
0.575984 0.628794 0.833934
0.575984 0.628794 0.833934
0.575984 0.628794 0.833934
0.578020 0.628983 0.834184
0.586183 0.630674 0.835190
0.614955 0.637146 0.838795
0.720258 0.646435 0.837924
0.880868 0.630533 0.802349
0.576485 0.646016 0.838898
0.576485 0.646016 0.838898
0.576485 0.646016 0.838898
0.576485 0.646016 0.838898
0.578520 0.646208 0.839148
0.586673 0.646983 0.840154
0.615413 0.653506 0.843761
0.720021 0.667757 0.846459
0.886236 0.652951 0.814974
0.576829 0.721164 0.865020
0.576829 0.721164 0.865020
0.576829 0.721164 0.865020
0.577839 0.721268 0.865144
0.580872 0.723435 0.865518
0.586948 0.724992 0.866270
0.617724 0.732169 0.868521
0.723318 0.756228 0.876908
0.905765 0.753575 0.859098
0.585075 0.872627 0.904144
0.585075 0.872627 0.904144
0.585075 0.872627 0.904144
0.585075 0.872627 0.904144
0.588085 0.872987 0.904517
0.594115 0.873711 0.905267
0.621600 0.881939 0.907132
0.725126 0.911487 0.915410
0.933770 0.949049 0.934588
