Assets/Lutify-Free-LUTs-Pack/Lutify Free LUTs Pack/Colour Film Boost Pro - Film Boost 10/Lutify.me-FilmBoost10-RWG-to-Rec709.cube
# Created with: fylm.ai - Colour Grading and Collaboration Software in Cloud 
# Website: https://fylm.ai 
# META
# Option: Gamut compress
# Block 1: IDT | RED REDWideGamutRGB Log3G10
# Block 2: colourMatch | Blending Mode: Normal | {"ColorSpace":0,"CrossCovarianceLimit":50,"ReshapingIterations":1,"PercentSaturationShift":100,"PercentShadingShift":100,"ExtraShading":true,"PercentTint":100,"PercentModified":100}
# Block 3: subtractiveColour | Blending Mode: Normal | {"sliders":{"gainY":0.55,"C":0.3,"M":0.3,"Y":0.3}}
# Block 4: LUT | Filmic Curve Response: Low Contrast 2 (100%)
# Block 5: logPrimaries | Blending Mode: Normal | {"wheels":{"shadows":{"Y":"0","R":"1","G":"1","B":"1"},"midtones":{"Y":"0","R":"1","G":"1","B":"1"},"highlights":{"Y":"0","R":"1","G":"1","B":"1"},"offset":{"Y":"0","R":"1","G":"1","B":"1"}},"sliders":{"shadows":{"Y":0,"R":-0.085,"G":0.024,"B":0.134},"midtones":{"Y":0,"R":0,"G":-0.023,"B":0},"highlights":{"Y":0,"R":0,"G":0,"B":0},"offset":{"Y":0,"R":0.012,"G":-0.012,"B":0}}}
# Block 6: HSL | Blending Mode: Normal | {"hue":{"Reds":0,"Yellows":0,"Greens":0,"Cyans":0,"Blues":0,"Magentas":0},"saturation":{"Reds":1,"Yellows":1,"Greens":1,"Cyans":1,"Blues":1,"Magentas":1},"luminance":{"Reds":0.9,"Yellows":0.9,"Greens":0.9,"Cyans":0.9,"Blues":0.9,"Magentas":0.9},"lum_sat":{"Blacks":1,"Shadows":1,"Midtones":1,"Highlights":1,"Whites":1},"sat_sat":{"10":1,"20":1,"30":1,"40":1,"50":1}}
# Block 7: ODT | Rec709
TITLE "Lutify.me-FilmBoost10-RWG-to-Rec709" 
LUT_3D_SIZE 33
0.000000 0.000000 0.000000
0.000000 0.000000 0.000000
0.000000 0.000000 0.000000
0.000000 0.000000 0.000000
0.000000 0.000000 0.000000
0.066584 0.000000 0.000000
0.108626 0.000000 0.000000
0.141902 0.000000 0.000000
0.182597 0.000000 0.000000
0.223325 0.000000 0.000000
0.274861 0.000000 0.000000
0.337455 0.000000 0.000000
0.398010 0.000000 0.000000
0.469854 0.000000 0.000000
0.547056 0.000000 0.000000
0.625871 0.000000 0.000000
0.701529 0.000000 0.000000
0.786092 0.000000 0.000000
0.863381 0.000000 0.000000
0.935954 0.000000 0.000000
0.988936 0.000000 0.000000
1.000000 0.000000 0.058268
1.000000 0.152127 0.096314
1.000000 0.294768 0.144914
1.000000 0.394579 0.192727
1.000000 0.480869 0.242457
1.000000 0.579341 0.306766
1.000000 0.658489 0.379200
1.000000 0.721812 0.455749
1.000000 0.781316 0.537204
1.000000 0.831604 0.620898
1.000000 0.867802 0.694040
1.000000 0.898808 0.760611
0.000000 0.000000 0.000000
0.000000 0.000000 0.000000
0.000000 0.000000 0.000000
0.000000 0.000000 0.000000
0.000000 0.000000 0.000000
0.068581 0.000000 0.000000
0.110305 0.000000 0.000000
0.143626 0.000000 0.000000
0.184017 0.000000 0.000000
0.230653 0.000000 0.000000
0.280421 0.000000 0.000000
0.340094 0.000000 0.000000
0.400457 0.000000 0.000000
0.469872 0.000000 0.000000
0.546858 0.000000 0.000000
0.625661 0.000000 0.000000
0.701299 0.000000 0.000000
0.786086 0.000000 0.000000
0.863137 0.000000 0.000000
0.935910 0.000000 0.000000
0.988767 0.000000 0.000000
1.000000 0.000000 0.058268
1.000000 0.151301 0.093444
1.000000 0.302755 0.143809
1.000000 0.394579 0.192727
1.000000 0.480869 0.242457
1.000000 0.579341 0.306766
1.000000 0.658489 0.379200
1.000000 0.721578 0.453313
1.000000 0.781316 0.537204
1.000000 0.831604 0.620898
1.000000 0.867802 0.694040
1.000000 0.898808 0.760611
0.000000 0.000000 0.000000
0.000000 0.000000 0.000000
0.000000 0.000000 0.000000
0.000000 0.000000 0.000000
0.000000 0.000000 0.000000
0.070298 0.000000 0.000000
0.112190 0.000000 0.000000
0.146603 0.000000 0.000000
0.186893 0.000000 0.000000
0.232450 0.000000 0.000000
0.287741 0.000000 0.000000
0.344368 0.000000 0.000000
0.402923 0.000000 0.000000
0.472831 0.000000 0.000000
0.553350 0.000000 0.000000
0.625675 0.000000 0.000000
0.701065 0.000000 0.000000
0.785575 0.000000 0.000000
0.862876 0.000000 0.000000
0.935483 0.000000 0.000000
0.988767 0.000000 0.000000
1.000000 0.000000 0.052982
1.000000 0.164494 0.092013
1.000000 0.302755 0.143809
1.000000 0.394299 0.191054
1.000000 0.480869 0.242457
1.000000 0.579341 0.306766
1.000000 0.658489 0.379200
1.000000 0.723745 0.453227
1.000000 0.781316 0.537204
1.000000 0.831604 0.620898
1.000000 0.867802 0.694040
1.000000 0.898808 0.760611
0.000000 0.000000 0.000000
0.000000 0.000000 0.000000
0.000000 0.000000 0.000000
0.000000 0.000000 0.000000
0.022658 0.000000 0.000000
0.077580 0.000000 0.000000
0.115847 0.000000 0.000000
0.151685 0.000000 0.000000
0.191090 0.000000 0.000000
0.240657 0.000000 0.000000
0.292014 0.000000 0.000000
0.348586 0.000000 0.000000
0.410393 0.000000 0.000000
0.481760 0.000000 0.000000
0.553378 0.000000 0.000000
0.628634 0.000000 0.000000
0.700839 0.000000 0.000000
0.788551 0.000000 0.000000
0.869063 0.000000 0.000000
0.935395 0.000000 0.000000
0.988328 0.000000 0.000000
1.000000 0.000000 0.052982
1.000000 0.164494 0.092013
1.000000 0.302755 0.143809
1.000000 0.397746 0.190597
1.000000 0.480869 0.242457
1.000000 0.579341 0.306766
1.000000 0.661161 0.379020
1.000000 0.723745 0.453227
1.000000 0.781316 0.537204
1.000000 0.831604 0.620898
1.000000 0.867802 0.694040
1.000000 0.898808 0.760611
0.000000 0.032770 0.000000
0.000000 0.032830 0.000000
0.000000 0.032969 0.000000
0.000000 0.035396 0.000000
0.000000 0.039517 0.000000
0.082630 0.000000 0.000000
0.125283 0.000000 0.000000
0.165054 0.000000 0.000000
0.207901 0.000000 0.000000
0.252286 0.000000 0.000000
0.302556 0.000000 0.000000
0.361380 0.000000 0.000000
0.420622 0.000000 0.000000
0.487789 0.000000 0.000000
0.556685 0.000000 0.000000
0.628455 0.000000 0.000000
0.700372 0.000000 0.000000
0.788038 0.000000 0.000000
0.868785 0.000000 0.000000
0.934667 0.000000 0.000000
0.987976 0.000000 0.000000
1.000000 0.000000 0.051931
1.000000 0.171001 0.092254
1.000000 0.302755 0.143809
1.000000 0.397746 0.190597
1.000000 0.484035 0.242088
1.000000 0.579341 0.306766
1.000000 0.661161 0.379020
1.000000 0.723745 0.453227
1.000000 0.781316 0.537204
1.000000 0.831604 0.620898
1.000000 0.867802 0.694040
1.000000 0.898808 0.760611
0.000000 0.060889 0.000000
0.000000 0.061036 0.000000
0.000000 0.061184 0.000000
0.000000 0.064553 0.000000
0.000000 0.068636 0.000000
0.070248 0.064828 0.000000
0.129042 0.042296 0.000000
0.178322 0.000000 0.000000
0.223816 0.000000 0.000000
0.268714 0.000000 0.000000
0.313394 0.000000 0.000000
0.370278 0.000000 0.000000
0.425929 0.000000 0.000000
0.490862 0.000000 0.000000
0.563259 0.000000 0.000000
0.634363 0.000000 0.000000
0.703136 0.000000 0.000000
0.790510 0.000000 0.000000
0.868009 0.000000 0.000000
0.934362 0.000000 0.000000
0.987360 0.000000 0.000000
1.000000 0.000000 0.048114
1.000000 0.170629 0.090775
1.000000 0.306138 0.140173
1.000000 0.397746 0.190597
1.000000 0.484035 0.242088
1.000000 0.582323 0.306484
1.000000 0.661161 0.379020
1.000000 0.723745 0.453227
1.000000 0.781316 0.537204
1.000000 0.831604 0.620898
1.000000 0.867802 0.694040
1.000000 0.898808 0.760611
0.000000 0.091256 0.000000
0.000000 0.091435 0.000000
0.000000 0.090266 0.000000
0.000000 0.093397 0.000000
0.000000 0.098030 0.000000
0.000000 0.099988 0.000000
0.127079 0.087348 0.000000
0.190450 0.060253 0.000000
0.239955 0.000000 0.000000
0.288908 0.000000 0.000000
0.336747 0.000000 0.000000
0.388851 0.000000 0.000000
0.439339 0.000000 0.000000
0.500031 0.000000 0.000000
0.569901 0.000000 0.000000
0.643461 0.000000 0.000000
0.705214 0.000000 0.000000
0.789505 0.000000 0.000000
0.866977 0.000000 0.000000
0.933585 0.000000 0.000000
0.989068 0.000000 0.000000
1.000000 0.000000 0.043279
1.000000 0.176635 0.090001
1.000000 0.306138 0.140173
1.000000 0.401188 0.190134
1.000000 0.484035 0.242088
1.000000 0.582323 0.306484
1.000000 0.661161 0.379020
1.000000 0.723745 0.453227
1.000000 0.781316 0.537204
1.000000 0.831604 0.620898
1.000000 0.867802 0.694040
1.000000 0.898808 0.760611
0.000000 0.124262 0.000000
0.000000 0.126279 0.000000
0.000000 0.128416 0.000000
0.000000 0.128899 0.000000
0.000000 0.134166 0.000000
0.000000 0.140909 0.000000
0.095965 0.140551 0.000000
0.187860 0.120827 0.000000
0.256101 0.091678 0.000000
0.303672 0.045435 0.000000
0.356334 0.000000 0.000000
0.413971 0.000000 0.000000
0.470675 0.000000 0.000000
0.518674 0.000000 0.000000
0.586538 0.000000 0.000000
0.646934 0.000000 0.000000
0.714452 0.000000 0.000000
0.791732 0.000000 0.000000
0.869354 0.000000 0.000000
0.934575 0.000000 0.000000
0.988269 0.000000 0.000000
1.000000 0.000000 0.032855
1.000000 0.182105 0.087680
1.000000 0.309787 0.138035
1.000000 0.400632 0.186784
1.000000 0.486641 0.237960
1.000000 0.582041 0.304283
1.000000 0.661161 0.379020
1.000000 0.723745 0.453227
1.000000 0.781316 0.537204
1.000000 0.831604 0.620898
1.000000 0.867802 0.694040
1.000000 0.898808 0.760611
0.000000 0.159506 0.000000
0.000000 0.162149 0.000000
0.000000 0.162442 0.000000
0.000000 0.165567 0.000000
0.000000 0.172376 0.000000
0.000000 0.181296 0.000000
0.000000 0.181491 0.000000
0.169764 0.179577 0.000000
0.255238 0.150169 0.000000
0.311938 0.127929 0.000000
0.364982 0.085252 0.000000
0.426154 0.000000 0.000000
0.486671 0.000000 0.000000
0.548038 0.000000 0.000000
0.606717 0.000000 0.000000
0.664104 0.000000 0.000000
0.722562 0.000000 0.000000
0.790002 0.000000 0.000000
0.867312 0.000000 0.000000
0.932757 0.000000 0.000000
0.987189 0.000000 0.000000
1.000000 0.000000 0.000000
1.000000 0.198031 0.081855
1.000000 0.313136 0.134315
1.000000 0.404070 0.186302
1.000000 0.486641 0.237960
1.000000 0.585026 0.303996
1.000000 0.661161 0.379020
1.000000 0.723745 0.453227
1.000000 0.781316 0.537204
1.000000 0.831604 0.620898
1.000000 0.867802 0.694040
1.000000 0.898712 0.759093
0.000000 0.196968 0.000000
0.000000 0.200162 0.000000
0.000000 0.202038 0.000000
0.000000 0.206007 0.000000
0.000000 0.215472 0.000000
0.000000 0.219937 0.000000
0.000000 0.226442 0.000000
0.097431 0.222916 0.000000
0.240903 0.216163 0.000000
0.313093 0.185898 0.000000
0.378590 0.151928 0.000000
0.442639 0.113661 0.000000
0.503890 0.000000 0.000000
0.565762 0.000000 0.000000
0.637414 0.000000 0.000000
0.681370 0.000000 0.000000
0.736463 0.000000 0.000000
0.797555 0.000000 0.000000
0.867720 0.000000 0.000000
0.932826 0.000000 0.000000
0.987731 0.000000 0.000000
1.000000 0.000000 0.000000
1.000000 0.217362 0.070503
1.000000 0.323645 0.125979
1.000000 0.407661 0.184647
1.000000 0.492698 0.235313
1.000000 0.585026 0.303996
1.000000 0.663823 0.378840
1.000000 0.725904 0.453143
1.000000 0.781132 0.534817
1.000000 0.831604 0.620898
1.000000 0.867802 0.694040
1.000000 0.899411 0.759149
0.000000 0.243457 0.000000
0.000000 0.246951 0.000000
0.000000 0.247552 0.000000
0.000000 0.252183 0.000000
0.000000 0.257191 0.000000
0.000000 0.263758 0.000000
0.000000 0.266845 0.000000
0.000000 0.270391 0.000000
0.187026 0.265231 0.000000
0.304344 0.254151 0.000000
0.391307 0.217819 0.000000
0.463407 0.186654 0.000000
0.520131 0.143304 0.000000
0.584342 0.082856 0.000000
0.655394 0.000000 0.000000
0.719458 0.000000 0.000000
0.764139 0.000000 0.000000
0.812448 0.000000 0.000000
0.876739 0.000000 0.000000
0.932841 0.000000 0.000000
0.985567 0.000000 0.000000
1.000000 0.011238 0.000000
1.000000 0.230314 0.053902
1.000000 0.330754 0.121246
1.000000 0.410531 0.180799
1.000000 0.499037 0.234513
1.000000 0.587732 0.301513
1.000000 0.664102 0.377191
1.000000 0.725904 0.453143
1.000000 0.782725 0.534816
1.000000 0.832857 0.620943
1.000000 0.868743 0.694103
1.000000 0.899411 0.759149
0.000000 0.288181 0.000000
0.000000 0.292437 0.000000
0.000000 0.295511 0.000000
0.000000 0.299090 0.000000
0.000000 0.306049 0.000000
0.000000 0.311940 0.000000
0.000000 0.319962 0.000000
0.000000 0.321334 0.000000
0.000000 0.318335 0.000000
0.262494 0.312161 0.000000
0.376600 0.299210 0.000000
0.468745 0.260096 0.000000
0.543313 0.222345 0.000000
0.601068 0.187247 0.000000
0.670898 0.130938 0.000000
0.733879 0.000000 0.000000
0.788250 0.000000 0.000000
0.846236 0.000000 0.000000
0.880830 0.000000 0.000000
0.938909 0.000000 0.000000
0.983661 0.000000 0.000000
1.000000 0.132376 0.000000
1.000000 0.251844 0.000000
1.000000 0.340776 0.109230
1.000000 0.416542 0.174718
1.000000 0.502148 0.230970
1.000000 0.590966 0.299724
1.000000 0.666746 0.377013
1.000000 0.729964 0.450553
1.000000 0.782725 0.534816
1.000000 0.832706 0.618621
1.000000 0.868743 0.694103
1.000000 0.899411 0.759149
0.000000 0.339670 0.000000
0.000000 0.345134 0.000000
0.000000 0.346465 0.000000
0.000000 0.352886 0.000000
0.000000 0.352847 0.000000
0.000000 0.357378 0.000000
0.000000 0.366649 0.000000
0.000000 0.368677 0.000000
0.000000 0.372128 0.000000
0.155907 0.368049 0.000000
0.334143 0.363869 0.000000
0.470437 0.333758 0.000000
0.552334 0.305178 0.000000
0.620508 0.265338 0.000000
0.690072 0.228542 0.000000
0.748379 0.173061 0.000000
0.812053 0.098599 0.000000
0.874158 0.000000 0.000000
0.918743 0.000000 0.000000
0.938246 0.000000 0.000000
0.990606 0.017282 0.000000
1.000000 0.184258 0.000000
1.000000 0.271456 0.000000
1.000000 0.357579 0.090883
1.000000 0.429084 0.165649
1.000000 0.511088 0.225968
1.000000 0.593391 0.295097
1.000000 0.668855 0.372040
1.000000 0.729964 0.450553
1.000000 0.784315 0.534818
1.000000 0.832706 0.618621
1.000000 0.868743 0.694103
1.000000 0.899411 0.759149
0.000000 0.394395 0.000000
0.000000 0.398877 0.000000
0.000000 0.404384 0.000000
0.000000 0.412311 0.000000
0.000000 0.412277 0.000000
0.000000 0.414887 0.000000
0.000000 0.425522 0.000000
0.000000 0.425289 0.000000
0.000000 0.430180 0.000000
0.000000 0.428316 0.000000
0.241253 0.423864 0.000000
0.443261 0.416930 0.000000
0.546020 0.389136 0.000000
0.625258 0.349535 0.000000
0.698378 0.314765 0.000000
0.766014 0.268296 0.000000
0.824889 0.234310 0.000000
0.884317 0.165498 0.000000
0.937756 0.050126 0.000000
0.969983 0.000000 0.000000
0.985792 0.147661 0.000000
1.000000 0.211364 0.000000
1.000000 0.304580 0.000000
1.000000 0.373350 0.055990
1.000000 0.440623 0.148181
1.000000 0.522389 0.214861
1.000000 0.601522 0.287735
1.000000 0.673844 0.369297
1.000000 0.731870 0.448055
1.000000 0.785721 0.532444
1.000000 0.833956 0.618670
1.000000 0.869562 0.692140
1.000000 0.899411 0.759149
0.000000 0.462052 0.000000
0.000000 0.464900 0.000000
0.000000 0.467750 0.000000
0.000000 0.467734 0.000000
0.000000 0.470573 0.000000
0.000000 0.473407 0.000000
0.000000 0.479085 0.000000
0.000000 0.478915 0.000000
0.000000 0.487177 0.000000
0.000000 0.489103 0.000000
0.000000 0.486426 0.000000
0.349000 0.482847 0.000000
0.515550 0.472897 0.000000
0.621738 0.440646 0.000000
0.704863 0.402355 0.000000
0.775397 0.363739 0.000000
0.835754 0.334659 0.000000
0.898117 0.280614 0.000000
0.947785 0.247293 0.000000
0.987211 0.189837 0.000000
1.000000 0.156094 0.000000
1.000000 0.263000 0.000000
1.000000 0.317113 0.000000
1.000000 0.391025 0.000000
1.000000 0.458277 0.125035
1.000000 0.530277 0.202307
1.000000 0.609957 0.282501
1.000000 0.678545 0.364188
1.000000 0.736854 0.447236
1.000000 0.787126 0.530082
1.000000 0.835053 0.616408
1.000000 0.869562 0.692140
1.000000 0.900110 0.759205
0.000000 0.528856 0.000000
0.000000 0.528847 0.000000
0.000000 0.522928 0.000000
0.000000 0.528819 0.000000
0.000000 0.531755 0.000000
0.000000 0.534682 0.000000
0.000000 0.540537 0.000000
0.000000 0.540391 0.000000
0.000000 0.543006 0.000000
0.000000 0.551343 0.000000
0.000000 0.543756 0.000000
0.177128 0.539693 0.000000
0.436486 0.541376 0.000000
0.607271 0.528817 0.000000
0.710768 0.486024 0.000000
0.777659 0.452765 0.000000
0.838465 0.419206 0.000000
0.900748 0.380582 0.000000
0.946204 0.347108 0.000000
0.985940 0.317504 0.000000
1.000000 0.271440 0.000000
1.000000 0.247422 0.000000
1.000000 0.349542 0.000000
1.000000 0.402194 0.000000
1.000000 0.481979 0.082795
1.000000 0.548233 0.187496
1.000000 0.617957 0.268428
1.000000 0.683218 0.359107
1.000000 0.740793 0.444713
1.000000 0.788351 0.525383
1.000000 0.836296 0.616462
1.000000 0.870495 0.692209
1.000000 0.900110 0.759205
0.000000 0.588603 0.000000
0.000000 0.588593 0.000000
0.000000 0.588579 0.000000
0.000000 0.591574 0.000000
0.000000 0.594560 0.000000
0.000000 0.597524 0.000000
0.000000 0.597414 0.000000
0.000000 0.597245 0.000000
0.000000 0.603017 0.000000
0.000000 0.602501 0.000000
0.000000 0.604462 0.000000
0.000000 0.602128 0.000000
0.310940 0.599723 0.000000
0.531085 0.594469 0.000000
0.691788 0.573772 0.000000
0.770389 0.546912 0.000000
0.842667 0.509463 0.000000
0.899908 0.483702 0.000000
0.944048 0.442720 0.000000
0.984030 0.419672 0.000000
1.000000 0.379642 0.000000
1.000000 0.349139 0.000000
1.000000 0.335732 0.000000
1.000000 0.437707 0.000000
1.000000 0.497939 0.000000
1.000000 0.567927 0.158401
1.000000 0.630496 0.248344
1.000000 0.690326 0.346336
1.000000 0.744267 0.437474
1.000000 0.791154 0.520736
1.000000 0.838478 0.611980
1.000000 0.872235 0.690328
1.000000 0.900714 0.757747
0.000000 0.652128 0.000000
0.000000 0.652114 0.000000
0.000000 0.655129 0.000000
0.000000 0.655097 0.000000
0.000000 0.655047 0.000000
0.000000 0.654973 0.000000
0.000000 0.654855 0.000000
0.000000 0.657700 0.000000
0.000000 0.660466 0.000000
0.000000 0.663083 0.000000
0.000000 0.662305 0.000000
0.000000 0.667010 0.000000
0.000000 0.663474 0.000000
0.412551 0.660202 0.000000
0.621702 0.647918 0.000000
0.753274 0.635001 0.000000
0.836631 0.597423 0.000000
0.898167 0.571763 0.000000
0.944405 0.538343 0.000000
0.982401 0.516689 0.000000
1.000000 0.486077 0.000000
1.000000 0.460696 0.000000
1.000000 0.431614 0.000000
1.000000 0.424580 0.000000
1.000000 0.526203 0.000000
1.000000 0.582971 0.085515
1.000000 0.645952 0.220384
1.000000 0.698004 0.323022
1.000000 0.749552 0.424279
1.000000 0.799273 0.515963
1.000000 0.841530 0.611900
1.000000 0.873682 0.690410
1.000000 0.901318 0.756290
0.000000 0.709511 0.000000
0.000000 0.709494 0.000000
0.000000 0.709463 0.000000
0.000000 0.709429 0.000000
0.000000 0.709368 0.000000
0.000000 0.709298 0.000000
0.000000 0.709161 0.000000
0.000000 0.708993 0.000000
0.000000 0.714697 0.000000
0.000000 0.717218 0.000000
0.000000 0.716626 0.000000
0.000000 0.715324 0.000000
0.000000 0.712799 0.000000
0.251167 0.708638 0.000000
0.517172 0.707347 0.000000
0.713003 0.697367 0.000000
0.818451 0.675556 0.000000
0.888143 0.646381 0.000000
0.935049 0.619963 0.000000
0.973101 0.595267 0.000000
1.000000 0.568499 0.000000
1.000000 0.543424 0.000000
1.000000 0.520832 0.000000
1.000000 0.498096 0.000000
1.000000 0.491202 0.000000
1.000000 0.604323 0.000000
1.000000 0.658239 0.174248
1.000000 0.706314 0.296766
1.000000 0.757911 0.405953
1.000000 0.802881 0.502546
1.000000 0.845926 0.605446
1.000000 0.875377 0.688573
1.000000 0.903318 0.754969
0.000000 0.757547 0.000000
0.000000 0.757536 0.000000
0.000000 0.757492 0.000000
0.000000 0.757456 0.000000
0.000000 0.757406 0.000000
0.000000 0.760007 0.000000
0.000000 0.759886 0.000000
0.000000 0.762394 0.000000
0.000000 0.767374 0.000000
0.000000 0.766986 0.000000
0.000000 0.766339 0.000000
0.000000 0.767718 0.000000
0.000000 0.768448 0.000000
0.000000 0.765735 0.000000
0.370351 0.760919 0.000000
0.629105 0.751764 0.000000
0.782679 0.744933 0.000000
0.865466 0.726595 0.000000
0.921642 0.698656 0.000000
0.962180 0.675035 0.000000
0.998465 0.642381 0.000000
1.000000 0.617466 0.000000
1.000000 0.598197 0.000000
1.000000 0.581347 0.000000
1.000000 0.566346 0.000000
1.000000 0.562768 0.096307
1.000000 0.673373 0.071667
1.000000 0.721188 0.248658
1.000000 0.765253 0.385525
1.000000 0.808210 0.488536
1.000000 0.849013 0.593587
1.000000 0.878617 0.682952
1.000000 0.904528 0.752075
0.000000 0.806918 0.000000
0.000000 0.806884 0.000000
0.000000 0.806866 0.000000
0.000000 0.806830 0.000000
0.000000 0.809043 0.000000
0.000000 0.808922 0.000000
0.000000 0.808790 0.000000
0.000000 0.810892 0.000000
0.000000 0.812874 0.000000
0.000000 0.812453 0.000000
0.000000 0.811653 0.000000
0.000000 0.810493 0.000000
0.000000 0.809064 0.000000
0.000000 0.808866 0.000000
0.229117 0.811992 0.000000
0.516956 0.805637 0.000000
0.702153 0.797591 0.000000
0.834301 0.788806 0.000000
0.906193 0.765990 0.000000
0.951605 0.744995 0.000000
0.983919 0.722469 0.000000
1.000000 0.700065 0.000000
1.000000 0.678625 0.000000
1.000000 0.658760 0.000000
1.000000 0.642308 0.000000
1.000000 0.630576 0.102112
1.000000 0.631464 0.164780
1.000000 0.737660 0.180705
1.000000 0.780434 0.342126
1.000000 0.817487 0.476216
1.000000 0.851988 0.577147
1.000000 0.882160 0.675702
1.000000 0.905924 0.748682
0.000000 0.852863 0.000000
0.000000 0.852863 0.000000
0.000000 0.852806 0.000000
0.000000 0.852777 0.000000
0.000000 0.852686 0.000000
0.000000 0.852590 0.000000
0.000000 0.852456 0.000000
0.000000 0.852199 0.000000
0.000000 0.851868 0.000000
0.000000 0.851442 0.000000
0.000000 0.852531 0.000000
0.000000 0.853589 0.000000
0.000000 0.855928 0.000000
0.000000 0.853986 0.000000
0.000000 0.851020 0.000000
0.414123 0.846770 0.000000
0.610108 0.840413 0.000000
0.776473 0.834018 0.000000
0.874841 0.832529 0.000000
0.933578 0.810422 0.000000
0.965988 0.794357 0.000000
0.996854 0.775967 0.000000
1.000000 0.755335 0.000000
1.000000 0.740559 0.000000
1.000000 0.722692 0.000000
1.000000 0.708149 0.096556
1.000000 0.697497 0.192005
1.000000 0.703378 0.237258
1.000000 0.796688 0.277901
1.000000 0.830509 0.436274
1.000000 0.857245 0.559516
1.000000 0.885187 0.663777
1.000000 0.909023 0.743096
0.000000 0.888657 0.000000
0.000000 0.888657 0.000000
0.000000 0.888611 0.000000
0.000000 0.888565 0.000000
0.000000 0.889993 0.000000
0.000000 0.889845 0.000000
0.000000 0.889742 0.000000
0.000000 0.889526 0.000000
0.000000 0.889237 0.000000
0.000000 0.888858 0.000000
0.000000 0.888368 0.000000
0.000000 0.887581 0.000000
0.000000 0.886501 0.000000
0.000000 0.885040 0.000000
0.000000 0.883781 0.000000
0.366823 0.881709 0.000000
0.545950 0.876976 0.000000
0.704402 0.870493 0.000000
0.831279 0.863672 0.000000
0.912988 0.860355 0.000000
0.951987 0.846088 0.000000
0.988650 0.824445 0.000000
1.000000 0.805085 0.000000
1.000000 0.794415 0.000000
1.000000 0.778862 0.000000
1.000000 0.769660 0.093913
1.000000 0.758941 0.199833
1.000000 0.754295 0.276865
1.000000 0.758799 0.326463
1.000000 0.838167 0.391688
1.000000 0.865381 0.526960
1.000000 0.888364 0.645168
1.000000 0.912589 0.739804
0.000000 0.913770 0.000000
0.000000 0.913770 0.000000
0.000000 0.913634 0.000000
0.000000 0.913634 0.000000
0.000000 0.913565 0.000000
0.000000 0.913495 0.000000
0.000000 0.913280 0.000000
0.000000 0.913132 0.000000
0.000000 0.914162 0.000000
0.000000 0.913681 0.000000
0.000000 0.914586 0.000000
0.000000 0.913857 0.000000
0.000000 0.914191 0.000000
0.000000 0.912363 0.000000
0.110077 0.909930 0.000000
0.374561 0.907077 0.000000
0.534724 0.903001 0.000000
0.663380 0.898190 0.000000
0.782630 0.892424 0.000000
0.877276 0.889415 0.000000
0.934580 0.887238 0.000000
0.975521 0.869263 0.000000
1.000000 0.856023 0.000000
1.000000 0.841705 0.000000
1.000000 0.827909 0.000000
1.000000 0.818896 0.102917
1.000000 0.805196 0.213058
1.000000 0.803555 0.300331
1.000000 0.798270 0.384809
1.000000 0.808118 0.428257
1.000000 0.873290 0.492774
1.000000 0.896524 0.618692
1.000000 0.916705 0.730750
0.000000 0.939484 0.000000
0.000000 0.939484 0.000000
0.000000 0.939484 0.000000
0.000000 0.939306 0.000000
0.000000 0.939306 0.000000
0.000000 0.939215 0.000000
0.000000 0.940123 0.000000
0.000000 0.939937 0.000000
0.000000 0.939650 0.000000
0.000000 0.939354 0.000000
0.000000 0.938734 0.000000
0.000000 0.938187 0.000000
0.000000 0.937131 0.000000
0.000000 0.935574 0.000000
0.213472 0.936144 0.000000
0.357876 0.935263 0.000000
0.497530 0.932116 0.000000
0.628430 0.927779 0.000000
0.744198 0.922727 0.000000
0.832916 0.918060 0.000000
0.907048 0.914650 0.000000
0.959913 0.910284 0.000000
0.991888 0.898144 0.000000
1.000000 0.883105 0.000000
1.000000 0.873247 0.000000
1.000000 0.862650 0.152032
1.000000 0.853195 0.238579
1.000000 0.848494 0.320270
1.000000 0.842806 0.402569
1.000000 0.842633 0.494651
1.000000 0.851968 0.529281
1.000000 0.904407 0.598096
1.000000 0.923163 0.713132
0.000000 0.959617 0.000000
0.000000 0.959617 0.000000
0.000000 0.959617 0.000000
0.000000 0.959617 0.000000
0.000000 0.959505 0.000000
0.000000 0.959392 0.000000
0.000000 0.959392 0.000000
0.000000 0.959047 0.000000
