Assets/Lutify-Free-LUTs-Pack/Lutify Free LUTs Pack/Colour Film Boost Pro - Film Boost 10/Lutify.me-FilmBoost10-RWG-to-RWG.cube
# Created with: fylm.ai - Colour Grading and Collaboration Software in Cloud 
# Website: https://fylm.ai 
# META
# Option: Gamut compress
# Block 1: colourMatch | Blending Mode: Normal | {"ColorSpace":0,"CrossCovarianceLimit":50,"ReshapingIterations":1,"PercentSaturationShift":100,"PercentShadingShift":100,"ExtraShading":true,"PercentTint":100,"PercentModified":100}
# Block 2: subtractiveColour | Blending Mode: Normal | {"sliders":{"gainY":0.55,"C":0.3,"M":0.3,"Y":0.3}}
# Block 3: LUT | Filmic Curve Response: Low Contrast 2 (100%)
# Block 4: logPrimaries | Blending Mode: Normal | {"wheels":{"shadows":{"Y":"0","R":"1","G":"1","B":"1"},"midtones":{"Y":"0","R":"1","G":"1","B":"1"},"highlights":{"Y":"0","R":"1","G":"1","B":"1"},"offset":{"Y":"0","R":"1","G":"1","B":"1"}},"sliders":{"shadows":{"Y":0,"R":-0.085,"G":0.024,"B":0.134},"midtones":{"Y":0,"R":0,"G":-0.023,"B":0},"highlights":{"Y":0,"R":0,"G":0,"B":0},"offset":{"Y":0,"R":0.012,"G":-0.012,"B":0}}}
# Block 5: HSL | Blending Mode: Normal | {"hue":{"Reds":0,"Yellows":0,"Greens":0,"Cyans":0,"Blues":0,"Magentas":0},"saturation":{"Reds":1,"Yellows":1,"Greens":1,"Cyans":1,"Blues":1,"Magentas":1},"luminance":{"Reds":0.9,"Yellows":0.9,"Greens":0.9,"Cyans":0.9,"Blues":0.9,"Magentas":0.9},"lum_sat":{"Blacks":1,"Shadows":1,"Midtones":1,"Highlights":1,"Whites":1},"sat_sat":{"10":1,"20":1,"30":1,"40":1,"50":1}}
TITLE "ipp2" 
LUT_3D_SIZE 9
0.059970 0.073048 0.085414
0.101442 0.076948 0.088100
0.202411 0.080769 0.097265
0.308994 0.117830 0.128057
0.401909 0.183027 0.183835
0.494353 0.273580 0.263012
0.595912 0.369757 0.360387
0.710174 0.464984 0.465900
0.844822 0.573061 0.586946
0.068348 0.111985 0.095573
0.107203 0.115778 0.097773
0.218114 0.100070 0.103770
0.317377 0.130764 0.133429
0.401612 0.187323 0.183898
0.494033 0.274949 0.262732
0.595813 0.370268 0.360274
0.710059 0.465448 0.465731
0.844822 0.573061 0.586946
0.082522 0.199105 0.127608
0.107261 0.206957 0.132489
0.250367 0.206928 0.143858
0.339451 0.183660 0.154852
0.407870 0.202793 0.187310
0.494160 0.280667 0.263331
0.595617 0.371292 0.360049
0.710059 0.465448 0.465731
0.844696 0.572924 0.586712
0.124208 0.289863 0.182838
0.146667 0.295282 0.187346
0.226764 0.304096 0.197217
0.359301 0.295835 0.209454
0.433792 0.272206 0.221854
0.497312 0.297422 0.265714
0.595608 0.375520 0.359519
0.709956 0.467252 0.465919
0.844698 0.573388 0.586807
0.197765 0.374411 0.250022
0.207380 0.376377 0.251944
0.241530 0.379482 0.255757
0.345114 0.382816 0.265853
0.449659 0.370304 0.276664
0.524015 0.350269 0.295508
0.596889 0.389089 0.357102
0.711213 0.471635 0.466813
0.844576 0.574181 0.586765
0.282248 0.449138 0.317625
0.286284 0.450138 0.318663
0.300040 0.452176 0.321005
0.343267 0.452542 0.323431
0.442732 0.458161 0.337756
0.539533 0.440488 0.347940
0.624667 0.426207 0.380569
0.714409 0.483060 0.465419
0.844670 0.577434 0.586657
0.379484 0.536721 0.401573
0.380526 0.536727 0.401617
0.384928 0.537738 0.402738
0.399056 0.537841 0.403452
0.436442 0.541122 0.408527
0.537835 0.544043 0.421898
0.643867 0.520730 0.434723
0.749009 0.515559 0.490521
0.849120 0.591905 0.589739
0.476586 0.636717 0.499615
0.477120 0.636720 0.499637
0.478188 0.636726 0.499681
0.481789 0.636750 0.499854
0.495612 0.636848 0.500550
0.536091 0.637231 0.503218
0.645625 0.644328 0.521928
0.768104 0.615875 0.541874
0.849982 0.615072 0.590341
0.579551 0.747467 0.609387
0.579551 0.747467 0.609387
0.579551 0.747467 0.609387
0.580621 0.747473 0.609431
0.583831 0.747491 0.609563
0.598723 0.747590 0.610265
0.643674 0.750965 0.615836
0.782053 0.755548 0.637530
0.851889 0.738896 0.646728
0.062953 0.081438 0.110662
0.098103 0.083203 0.109115
0.195200 0.081202 0.100568
0.305323 0.117320 0.131581
0.401131 0.186126 0.188442
0.495714 0.274792 0.265939
0.596223 0.370089 0.361205
0.710174 0.464984 0.465900
0.844822 0.573061 0.586946
0.066944 0.103634 0.116743
0.099651 0.108187 0.115278
0.206223 0.095820 0.104042
0.310887 0.131101 0.134897
0.403558 0.190563 0.189377
0.495557 0.276308 0.266009
0.596228 0.370712 0.361365
0.710178 0.465585 0.466040
0.844822 0.573061 0.586946
0.081522 0.197020 0.127530
0.099971 0.204129 0.130779
0.244287 0.209057 0.143991
0.330273 0.185189 0.152516
0.406113 0.206093 0.191716
0.495485 0.281822 0.265856
0.595927 0.371624 0.360866
0.710178 0.465585 0.466040
0.844822 0.573061 0.586946
0.121777 0.287806 0.181317
0.144509 0.295267 0.187269
0.224879 0.304069 0.197076
0.359214 0.294046 0.208397
0.433792 0.272206 0.221854
0.497389 0.299893 0.268187
0.596014 0.375917 0.360399
0.710074 0.467380 0.466218
0.844698 0.573388 0.586807
0.197032 0.374407 0.249998
0.206400 0.375411 0.251106
0.240185 0.378513 0.254898
0.345045 0.381870 0.265106
0.449659 0.370304 0.276664
0.524015 0.350269 0.295508
0.595855 0.390149 0.357526
0.711213 0.471635 0.466813
0.844576 0.574181 0.586765
0.281860 0.449136 0.317611
0.286284 0.450138 0.318663
0.300040 0.452176 0.321005
0.343267 0.452542 0.323431
0.442732 0.458161 0.337756
0.539533 0.440488 0.347940
0.624667 0.426207 0.380569
0.714623 0.483264 0.465812
0.844670 0.577434 0.586657
0.378963 0.536718 0.401552
0.380526 0.536727 0.401617
0.384928 0.537738 0.402738
0.399056 0.537841 0.403452
0.436442 0.541122 0.408527
0.537835 0.544043 0.421898
0.643867 0.520730 0.434723
0.749009 0.515559 0.490521
0.849120 0.591905 0.589739
0.476586 0.636717 0.499615
0.477120 0.636720 0.499637
0.478188 0.636726 0.499681
0.481789 0.636750 0.499854
0.495612 0.636848 0.500550
0.536091 0.637231 0.503218
0.645625 0.644328 0.521928
0.768104 0.615875 0.541874
0.849982 0.615072 0.590341
0.579551 0.747467 0.609387
0.579551 0.747467 0.609387
0.579551 0.747467 0.609387
0.580621 0.747473 0.609431
0.583831 0.747491 0.609563
0.598723 0.747590 0.610265
0.643674 0.750965 0.615836
0.782053 0.755548 0.637530
0.851889 0.738896 0.646728
0.070810 0.096958 0.160126
0.081645 0.092368 0.148037
0.190580 0.090181 0.131822
0.298173 0.116597 0.155611
0.405915 0.189924 0.205255
0.499471 0.279575 0.275449
0.597483 0.371429 0.364494
0.710411 0.465265 0.466522
0.844822 0.573061 0.586946
0.075248 0.108294 0.179336
0.082267 0.106558 0.170846
0.195157 0.101482 0.150788
0.307141 0.133475 0.167955
0.406924 0.194854 0.206628
0.499297 0.280477 0.275228
0.597483 0.371429 0.364494
0.710411 0.465265 0.466522
0.844822 0.573061 0.586946
0.104800 0.201225 0.247346
0.107819 0.207467 0.242359
0.233240 0.243567 0.251687
0.330511 0.195687 0.194217
0.409193 0.212847 0.209491
0.499776 0.285920 0.275809
0.597282 0.372452 0.364264
0.710415 0.465860 0.466661
0.844822 0.573061 0.586946
0.119301 0.286501 0.204752
0.134591 0.295114 0.205572
0.201037 0.313505 0.212720
0.345163 0.308122 0.216211
0.421023 0.288325 0.229311
0.500079 0.303928 0.276581
0.597459 0.377449 0.364091
0.710312 0.467637 0.466816
0.844824 0.573521 0.587039
0.192755 0.372499 0.248321
0.202464 0.374436 0.250179
0.237805 0.377536 0.253986
0.343302 0.381831 0.264881
0.448683 0.369354 0.275811
0.524005 0.349500 0.295200
0.598685 0.394817 0.363248
0.711681 0.472126 0.467830
0.844703 0.574314 0.586997
0.280715 0.449130 0.317569
0.284435 0.449151 0.317711
0.298179 0.451189 0.320043
0.341886 0.452529 0.323344
0.442701 0.457208 0.336996
0.539533 0.440488 0.347940
0.624667 0.426207 0.380569
0.715378 0.483982 0.467191
0.844794 0.577566 0.586887
0.378963 0.536718 0.401552
0.380526 0.536727 0.401617
0.384318 0.537733 0.402707
0.399056 0.537841 0.403452
0.436442 0.541122 0.408527
0.537803 0.543085 0.421112
0.643867 0.520730 0.434723
0.749009 0.515559 0.490521
0.849233 0.591452 0.589787
0.476586 0.636717 0.499615
0.477120 0.636720 0.499637
0.477654 0.636723 0.499659
0.481789 0.636750 0.499854
0.495612 0.636848 0.500550
0.536091 0.637231 0.503218
0.645625 0.644328 0.521928
0.768104 0.615875 0.541874
0.849982 0.615072 0.590341
0.579551 0.747467 0.609387
0.579551 0.747467 0.609387
0.579551 0.747467 0.609387
0.580621 0.747473 0.609431
0.583831 0.747491 0.609563
0.598723 0.747590 0.610265
0.643674 0.750965 0.615836
0.782053 0.755548 0.637530
0.851889 0.738896 0.646728
0.082913 0.120006 0.208803
0.097984 0.115262 0.199054
0.175303 0.113833 0.192370
0.286022 0.107108 0.157492
0.398657 0.192313 0.255098
0.503424 0.285769 0.300530
0.600751 0.375855 0.374238
0.711610 0.466679 0.469649
0.843428 0.572663 0.586399
0.092641 0.137860 0.237846
0.101680 0.132954 0.227438
0.171110 0.130467 0.219149
0.286594 0.116187 0.180754
0.401588 0.199831 0.261476
0.503439 0.287363 0.300863
0.600756 0.376472 0.374388
0.711610 0.466679 0.469649
0.843428 0.572663 0.586399
0.120165 0.192680 0.296135
0.123078 0.192083 0.290979
0.175095 0.196620 0.290154
0.315586 0.189763 0.272867
0.411794 0.222779 0.273215
0.504472 0.293663 0.302512
0.600766 0.377707 0.374689
0.711493 0.467103 0.469463
0.845330 0.573615 0.587891
0.161658 0.290077 0.346603
0.161681 0.293539 0.344637
0.202618 0.325962 0.348904
0.357995 0.359629 0.364939
0.436136 0.311081 0.308386
0.510352 0.315835 0.309145
0.601330 0.381782 0.374893
0.711388 0.468882 0.469617
0.845205 0.573935 0.587746
0.187796 0.376477 0.307063
0.199530 0.383136 0.308218
0.228113 0.396578 0.311661
0.316926 0.414014 0.316289
0.442034 0.406725 0.310193
0.517674 0.383493 0.320574
0.602910 0.398938 0.375387
0.712747 0.473269 0.470384
0.844829 0.574448 0.587229
0.274883 0.448122 0.316476
0.279462 0.448147 0.316645
0.294418 0.450190 0.319010
0.339603 0.451535 0.322336
0.440805 0.457151 0.336655
0.538545 0.439511 0.347006
0.624659 0.425463 0.380296
0.715884 0.485753 0.470402
0.845170 0.577964 0.587579
0.377921 0.536712 0.401509
0.378442 0.536715 0.401530
0.382141 0.536737 0.401687
0.397195 0.537827 0.403358
0.435655 0.541113 0.408463
0.535889 0.543027 0.420756
0.643867 0.520730 0.434723
0.749004 0.514911 0.490328
0.849935 0.592125 0.590901
0.476586 0.636717 0.499615
0.476586 0.636717 0.499615
0.477654 0.636723 0.499659
0.481161 0.636746 0.499822
0.495612 0.636848 0.500550
0.536091 0.637231 0.503218
0.645625 0.644328 0.521928
0.768104 0.615875 0.541874
0.849977 0.614421 0.590147
0.579016 0.747464 0.609365
0.579551 0.747467 0.609387
0.579551 0.747467 0.609387
0.580621 0.747473 0.609431
0.583831 0.747491 0.609563
0.598723 0.747590 0.610265
0.642874 0.750956 0.615770
0.782053 0.755548 0.637530
0.851889 0.738896 0.646728
0.125969 0.144689 0.249897
0.136657 0.142808 0.246714
0.175136 0.140646 0.241762
0.274176 0.130855 0.214801
0.367377 0.136587 0.198538
0.496541 0.286245 0.353740
0.604228 0.382150 0.399213
0.715191 0.470504 0.479313
0.844326 0.573660 0.588169
0.131865 0.166437 0.281128
0.141804 0.165048 0.278670
0.171485 0.162042 0.273070
0.274985 0.155433 0.258196
0.367377 0.136587 0.198538
0.497061 0.288642 0.355062
0.605329 0.383200 0.400274
0.715191 0.470504 0.479313
0.844326 0.573660 0.588169
0.155732 0.221857 0.340550
0.163817 0.223116 0.341725
0.185023 0.223096 0.339771
0.278661 0.222649 0.336098
0.378721 0.192707 0.290782
0.499852 0.297830 0.360949
0.605339 0.384387 0.400519
0.715068 0.470881 0.479036
0.844326 0.573660 0.588169
0.176226 0.273464 0.378954
0.183301 0.277131 0.380186
0.204642 0.285293 0.384511
0.287900 0.299170 0.392016
0.420862 0.291976 0.378399
0.509825 0.325181 0.374153
0.607195 0.388870 0.401650
0.715071 0.471424 0.479149
0.846098 0.574451 0.589315
0.225009 0.366994 0.429803
0.224402 0.366611 0.428893
0.231266 0.385052 0.422630
0.310253 0.425807 0.442496
0.456421 0.455728 0.458555
0.533294 0.408846 0.406419
0.611751 0.409082 0.406045
0.716532 0.476981 0.480014
0.845976 0.575689 0.589351
0.272297 0.467931 0.399427
0.276238 0.469746 0.401079
0.290461 0.477961 0.404973
0.330535 0.491745 0.410012
0.419452 0.506616 0.414699
0.537101 0.500406 0.407883
0.618424 0.473909 0.417518
0.716960 0.491665 0.479372
0.846307 0.579167 0.589666
0.370385 0.533723 0.398441
0.371406 0.533729 0.398484
0.377486 0.535728 0.400572
0.392508 0.536813 0.402212
0.433106 0.540107 0.407376
0.534931 0.542997 0.420578
0.643846 0.519811 0.434201
0.748995 0.513617 0.489943
0.851849 0.594554 0.594086
0.473926 0.636701 0.499506
0.474456 0.636704 0.499528
0.476586 0.636717 0.499615
0.479904 0.636737 0.499759
0.494355 0.636839 0.500486
0.534492 0.637212 0.503087
0.645625 0.644328 0.521928
0.768089 0.615001 0.541442
0.849977 0.614421 0.590147
0.579016 0.747464 0.609365
0.579016 0.747464 0.609365
0.579016 0.747464 0.609365
0.580086 0.747470 0.609409
0.583831 0.747491 0.609563
0.597458 0.747581 0.610202
0.642874 0.750956 0.615770
0.780170 0.755538 0.637114
0.851889 0.738896 0.646728
0.192239 0.171682 0.287973
0.198418 0.171305 0.287224
0.219603 0.169211 0.283387
0.281682 0.169144 0.279136
0.356350 0.161144 0.253863
0.442692 0.177607 0.248778
0.596524 0.382636 0.446286
0.719708 0.477770 0.499354
0.847616 0.576056 0.594943
0.189970 0.195720 0.320301
0.194218 0.194433 0.318534
0.213268 0.190739 0.313346
0.271230 0.185366 0.303351
0.356350 0.161144 0.253863
0.442692 0.177607 0.248778
0.596762 0.383630 0.446572
0.719708 0.477770 0.499354
0.847616 0.576056 0.594943
0.209081 0.257433 0.387164
0.211493 0.256714 0.386234
0.223259 0.254673 0.383498
0.267455 0.252102 0.379886
0.369419 0.238978 0.360837
0.442692 0.177607 0.248778
0.597139 0.385538 0.447773
0.719711 0.478303 0.499457
0.847616 0.576056 0.594943
0.232742 0.308638 0.430895
0.236432 0.309822 0.432269
0.246068 0.312267 0.434625
0.283059 0.316199 0.436587
0.382851 0.316214 0.432978
0.478132 0.288531 0.397103
0.599868 0.394699 0.453114
0.719718 0.479370 0.499662
0.847621 0.576963 0.595116
0.253273 0.364230 0.462256
0.256013 0.366603 0.463046
0.264970 0.370523 0.466843
0.299708 0.383156 0.475476
0.393149 0.396752 0.483304
0.516950 0.387513 0.467555
0.609086 0.418077 0.464243
0.721804 0.484251 0.501933
0.847223 0.577407 0.594432
0.297921 0.443058 0.514360
0.297921 0.443058 0.514360
0.297921 0.443058 0.514360
0.317897 0.477547 0.511318
0.413212 0.519481 0.534561
0.552330 0.547616 0.549892
0.631468 0.497918 0.496223
0.725916 0.501244 0.505049
0.848872 0.581719 0.596007
0.372651 0.572569 0.495941
0.374414 0.573236 0.496062
0.379632 0.575731 0.496960
0.392817 0.582043 0.500059
0.432152 0.596292 0.507322
0.510861 0.612280 0.514211
0.637298 0.607153 0.511432
0.735164 0.574617 0.523075
0.851754 0.600158 0.599426
0.468321 0.633704 0.496443
0.468321 0.633704 0.496443
0.469382 0.633710 0.496487
0.474001 0.635713 0.498565
0.488969 0.635814 0.499280
0.531101 0.636189 0.501906
0.644630 0.643334 0.520941
0.768059 0.613253 0.540576
0.849972 0.613769 0.589953
0.576876 0.747452 0.609277
0.577946 0.747458 0.609321
0.577946 0.747458 0.609321
0.579016 0.747464 0.609365
0.582226 0.747482 0.609497
0.596194 0.747572 0.610138
0.641274 0.750937 0.615639
0.780170 0.755538 0.637114
0.851889 0.738896 0.646728
0.290656 0.203468 0.326380
0.293189 0.203673 0.326483
0.300017 0.204244 0.326762
0.322640 0.205763 0.326978
0.364348 0.202394 0.317592
0.431968 0.202022 0.301051
0.519263 0.230093 0.305353
0.706660 0.477580 0.537668
0.852435 0.582327 0.610149
0.283688 0.216890 0.344207
0.285711 0.214805 0.341505
0.294797 0.212542 0.338118
0.322640 0.205763 0.326978
0.364348 0.202394 0.317592
0.431968 0.202022 0.301051
0.519263 0.230093 0.305353
0.706660 0.477580 0.537668
0.852435 0.582327 0.610149
0.283295 0.286811 0.422539
0.284387 0.286722 0.422485
0.290462 0.285843 0.421470
0.307163 0.279493 0.414359
0.354011 0.255748 0.386369
0.431968 0.202022 0.301051
0.519255 0.229682 0.304478
0.706804 0.478389 0.538515
0.852437 0.582774 0.610230
0.302157 0.350807 0.484968
0.303974 0.350344 0.484204
0.308618 0.349605 0.483277
0.325124 0.348821 0.482287
0.368929 0.345791 0.478397
0.460772 0.334805 0.463234
0.519255 0.229682 0.304478
0.709118 0.480594 0.539513
0.852437 0.582774 0.610230
0.326182 0.405139 0.526113
0.327190 0.405418 0.526419
0.331078 0.406693 0.527567
0.345194 0.410658 0.531141
0.382007 0.413515 0.531632
0.478510 0.412177 0.526804
0.576656 0.382088 0.489624
0.711723 0.488062 0.543182
0.852442 0.583668 0.610391
0.346858 0.462102 0.562334
0.348298 0.462770 0.563074
0.352245 0.464494 0.563525
0.365193 0.469324 0.567697
0.400002 0.481245 0.574774
0.490658 0.494981 0.581811
0.613950 0.483562 0.564101
0.721913 0.511108 0.557084
0.854210 0.588807 0.611936
0.388547 0.526742 0.614752
0.388547 0.526742 0.614752
0.388547 0.526742 0.614752
0.388547 0.526742 0.614752
0.421827 0.580494 0.616834
0.509353 0.622666 0.635030
0.651949 0.655372 0.647949
0.746548 0.594819 0.590249
0.858749 0.607793 0.617700
0.482601 0.689350 0.598720
0.482891 0.689469 0.598832
0.484343 0.690067 0.599397
0.488782 0.693105 0.599880
0.501388 0.698123 0.603860
0.535161 0.716100 0.613471
0.610330 0.731402 0.622394
0.752564 0.731895 0.627602
0.869956 0.686166 0.640296
0.571526 0.747421 0.609058
0.572061 0.747424 0.609080
0.572061 0.747424 0.609080
0.573131 0.747430 0.609124
0.577946 0.747458 0.609321
0.591136 0.747536 0.609883
0.637961 0.749908 0.614465
0.778288 0.755528 0.636700
0.851889 0.738896 0.646728
0.382833 0.245686 0.373072
0.383766 0.245796 0.373123
0.384699 0.245906 0.373174
0.390072 0.245059 0.371458
0.403405 0.242253 0.366098
0.438201 0.237583 0.353739
0.508045 0.247531 0.345558
0.602377 0.294549 0.367471
0.839835 0.581528 0.644147
0.382833 0.245686 0.373072
0.383766 0.245796 0.373123
0.384699 0.245906 0.373174
0.390072 0.245059 0.371458
0.403405 0.242253 0.366098
0.438201 0.237583 0.353739
0.508045 0.247531 0.345558
0.602377 0.294549 0.367471
0.839835 0.581528 0.644147
0.365953 0.271110 0.405276
0.366731 0.269633 0.403459
0.368408 0.268239 0.401677
0.384253 0.260683 0.391371
0.403405 0.242253 0.366098
0.438201 0.237583 0.353739
0.508045 0.247531 0.345558
0.602377 0.294549 0.367471
0.839980 0.582003 0.644311
0.380414 0.386119 0.526236
0.381056 0.386139 0.526244
0.382341 0.386179 0.526261
0.387032 0.385209 0.525179
0.401684 0.379208 0.518657
0.439933 0.354272 0.491420
0.508045 0.247531 0.345558
0.602377 0.294549 0.367471
0.840124 0.582479 0.644476
0.404043 0.452531 0.586785
0.404043 0.452531 0.586785
0.404966 0.452549 0.586793
0.410051 0.452649 0.586837
0.424752 0.450902 0.584829
0.462926 0.446343 0.579145
0.556102 0.434407 0.564409
0.601385 0.293825 0.366896
0.840565 0.584161 0.645571
0.431961 0.510123 0.634867
0.431961 0.510123 0.634867
0.433116 0.510460 0.635226
0.436709 0.511615 0.636212
0.449087 0.513813 0.637019
0.480609 0.515225 0.637204
0.572593 0.512784 0.631974
0.686268 0.481597 0.587891
0.845019 0.591349 0.650208
0.454525 0.563713 0.673693
0.455119 0.564321 0.673946
0.456337 0.564827 0.674499
0.460370 0.567591 0.676284
0.471125 0.571787 0.678975
0.501335 0.582256 0.685570
0.583738 0.594164 0.690854
0.724923 0.580459 0.668716
0.856306 0.615094 0.663109
0.506223 0.633137 0.739503
0.506223 0.633137 0.739503
0.506223 0.633137 0.739503
0.506223 0.633137 0.739503
0.506223 0.633137 0.739503
0.535715 0.695622 0.734061
0.615030 0.745242 0.754021
0.768529 0.784682 0.771418
0.884001 0.711431 0.704052
0.606409 0.823382 0.720495
0.606409 0.823382 0.720495
0.606668 0.823513 0.720619
0.607445 0.823904 0.720992
0.610610 0.826096 0.722134
0.622769 0.835204 0.727795
0.652046 0.851033 0.738011
0.721451 0.868387 0.749353
0.887514 0.867560 0.757114
0.454169 0.274657 0.400346
0.455105 0.274815 0.400394
0.455105 0.274815 0.400394
0.456040 0.274974 0.400442
0.462595 0.275408 0.399873
0.476627 0.275367 0.397160
0.512779 0.276863 0.389627
0.587824 0.300233 0.390989
0.705099 0.382759 0.448670
0.454169 0.274657 0.400346
0.454169 0.274657 0.400346
0.455105 0.274815 0.400394
0.456040 0.274974 0.400442
0.462595 0.275408 0.399873
0.476627 0.275367 0.397160
0.512779 0.276863 0.389627
0.587824 0.300233 0.390989
0.705099 0.382759 0.448670
0.454169 0.274657 0.400346
0.454169 0.274657 0.400346
0.455105 0.274815 0.400394
0.456040 0.274974 0.400442
0.462595 0.275408 0.399873
0.476627 0.275367 0.397160
0.512779 0.276863 0.389627
0.587824 0.300233 0.390989
0.705099 0.382759 0.448670
0.439815 0.365412 0.506060
0.439701 0.365244 0.505929
0.439212 0.362372 0.502861
0.444190 0.356106 0.495880
0.455397 0.324123 0.459897
0.476627 0.275367 0.397160
0.512779 0.276863 0.389627
0.587824 0.300233 0.390989
0.705099 0.382759 0.448670
0.476995 0.494104 0.635485
0.476995 0.494104 0.635485
0.477570 0.494118 0.635490
0.478719 0.494147 0.635502
0.484588 0.492411 0.633547
0.499002 0.485033 0.625858
0.531836 0.460138 0.600165
0.587824 0.300233 0.390989
0.705099 0.382759 0.448670
0.507283 0.562041 0.698866
0.507283 0.562041 0.698866
0.507881 0.562296 0.699002
0.508828 0.562314 0.699010
0.512126 0.560733 0.697133
0.525495 0.560527 0.696991
0.559529 0.555377 0.691049
0.660169 0.541689 0.673270
0.705099 0.382759 0.448670
0.540537 0.620251 0.751236
0.540537 0.620251 0.751236
0.540940 0.620379 0.751370
0.542186 0.620944 0.751783
0.545059 0.622032 0.752738
0.556345 0.625378 0.756198
0.582857 0.625084 0.754085
0.674187 0.620911 0.746791
0.817325 0.589680 0.696247
0.575678 0.682625 0.800500
0.575678 0.682625 0.800500
0.575901 0.682740 0.800623
0.576572 0.683085 0.800992
0.580335 0.685360 0.802788
0.586001 0.688357 0.802200
0.611718 0.697930 0.809285
0.692566 0.713944 0.819483
0.861617 0.699538 0.795402
0.601079 0.734147 0.832875
0.601079 0.734147 0.832875
0.601079 0.734147 0.832875
0.601079 0.734147 0.832875
0.601079 0.734147 0.832875
0.601079 0.734147 0.832875
0.665557 0.831588 0.867881
0.735168 0.882503 0.892527
0.914656 0.932630 0.918635
