Assets/Lutify-Free-LUTs-Pack/Lutify Free LUTs Pack/Colour Film Boost Pro - Film Boost 10/Lutify.me-FilmBoost10-LLog-to-Rec709.cube
# Created with: fylm.ai - Colour Grading and Collaboration Software in Cloud 
# Website: https://fylm.ai 
# META
# Option: Gamut compress
# Block 1: IDT | Leica BT2020 L-Log
# Block 2: colourMatch | Blending Mode: Normal | {"ColorSpace":0,"CrossCovarianceLimit":50,"ReshapingIterations":1,"PercentSaturationShift":100,"PercentShadingShift":100,"ExtraShading":true,"PercentTint":100,"PercentModified":100}
# Block 3: subtractiveColour | Blending Mode: Normal | {"sliders":{"gainY":0.55,"C":0.3,"M":0.3,"Y":0.3}}
# Block 4: LUT | Filmic Curve Response: Low Contrast 2 (100%)
# Block 5: logPrimaries | Blending Mode: Normal | {"wheels":{"shadows":{"Y":"0","R":"1","G":"1","B":"1"},"midtones":{"Y":"0","R":"1","G":"1","B":"1"},"highlights":{"Y":"0","R":"1","G":"1","B":"1"},"offset":{"Y":"0","R":"1","G":"1","B":"1"}},"sliders":{"shadows":{"Y":0,"R":-0.085,"G":0.024,"B":0.134},"midtones":{"Y":0,"R":0,"G":-0.023,"B":0},"highlights":{"Y":0,"R":0,"G":0,"B":0},"offset":{"Y":0,"R":0.012,"G":-0.012,"B":0}}}
# Block 6: HSL | Blending Mode: Normal | {"hue":{"Reds":0,"Yellows":0,"Greens":0,"Cyans":0,"Blues":0,"Magentas":0},"saturation":{"Reds":1,"Yellows":1,"Greens":1,"Cyans":1,"Blues":1,"Magentas":1},"luminance":{"Reds":0.9,"Yellows":0.9,"Greens":0.9,"Cyans":0.9,"Blues":0.9,"Magentas":0.9},"lum_sat":{"Blacks":1,"Shadows":1,"Midtones":1,"Highlights":1,"Whites":1},"sat_sat":{"10":1,"20":1,"30":1,"40":1,"50":1}}
# Block 7: ODT | Rec709
TITLE "Lutify.me-FilmBoost10-LLog-to-Rec709" 
LUT_3D_SIZE 33
0.000000 0.000000 0.000000
0.000000 0.000000 0.000000
0.000000 0.000000 0.000000
0.000000 0.000000 0.000000
0.000000 0.000000 0.000000
0.000000 0.000000 0.000000
0.039527 0.000000 0.000000
0.069213 0.000000 0.000000
0.097636 0.000000 0.000000
0.121445 0.000000 0.000000
0.147670 0.000000 0.000000
0.178325 0.000000 0.000000
0.211092 0.000000 0.000000
0.248731 0.000000 0.000000
0.289322 0.000000 0.000000
0.336830 0.000000 0.000000
0.388377 0.000000 0.000000
0.441692 0.000000 0.000000
0.509675 0.000000 0.000000
0.578410 0.000000 0.000000
0.646458 0.000000 0.030740
0.716021 0.000000 0.046768
0.789841 0.000000 0.063720
0.862713 0.000000 0.084794
0.920876 0.000000 0.109196
0.976222 0.000000 0.139427
1.000000 0.000000 0.182294
1.000000 0.142003 0.219341
1.000000 0.262179 0.258007
1.000000 0.353605 0.305425
1.000000 0.427157 0.365021
1.000000 0.493257 0.409335
1.000000 0.571835 0.464109
0.000000 0.000000 0.000000
0.000000 0.000000 0.000000
0.000000 0.000000 0.000000
0.000000 0.000000 0.000000
0.000000 0.000000 0.000000
0.000000 0.000000 0.000000
0.043039 0.000000 0.000000
0.071228 0.000000 0.000000
0.099680 0.000000 0.000000
0.123055 0.000000 0.000000
0.147976 0.000000 0.000000
0.181000 0.000000 0.000000
0.212887 0.000000 0.000000
0.250699 0.000000 0.000000
0.291596 0.000000 0.000000
0.338897 0.000000 0.000000
0.388392 0.000000 0.000000
0.441718 0.000000 0.000000
0.509904 0.000000 0.000000
0.578663 0.000000 0.000000
0.646462 0.000000 0.030303
0.716014 0.000000 0.046503
0.789829 0.000000 0.063581
0.862654 0.000000 0.084495
0.920876 0.000000 0.109196
0.976122 0.000000 0.139255
1.000000 0.000000 0.182294
1.000000 0.142003 0.219341
1.000000 0.262179 0.258007
1.000000 0.353605 0.305425
1.000000 0.427157 0.365021
1.000000 0.493257 0.409335
1.000000 0.571835 0.464109
0.000000 0.000000 0.000000
0.000000 0.000000 0.000000
0.000000 0.000000 0.000000
0.000000 0.000000 0.000000
0.000000 0.000000 0.000000
0.000000 0.000000 0.000000
0.047279 0.000000 0.000000
0.075250 0.000000 0.000000
0.101935 0.000000 0.000000
0.125587 0.000000 0.000000
0.152667 0.000000 0.000000
0.183717 0.000000 0.000000
0.217259 0.000000 0.000000
0.257733 0.000000 0.000000
0.295460 0.000000 0.000000
0.345168 0.000000 0.000000
0.390934 0.000000 0.000000
0.444471 0.000000 0.000000
0.513200 0.000000 0.000000
0.578928 0.000000 0.000000
0.650403 0.000000 0.031186
0.716293 0.000000 0.047195
0.789803 0.000000 0.063292
0.863173 0.000000 0.086157
0.920819 0.000000 0.109034
0.976122 0.000000 0.139255
1.000000 0.000000 0.182294
1.000000 0.142003 0.219341
1.000000 0.262179 0.258007
1.000000 0.353605 0.305425
1.000000 0.427157 0.365021
1.000000 0.493257 0.409335
1.000000 0.571835 0.464109
0.000000 0.000000 0.000000
0.000000 0.000000 0.000000
0.000000 0.000000 0.000000
0.000000 0.000000 0.000000
0.000000 0.000000 0.000000
0.000000 0.000000 0.000000
0.050796 0.000000 0.000000
0.078179 0.000000 0.000000
0.106282 0.000000 0.000000
0.127521 0.000000 0.000000
0.157697 0.000000 0.000000
0.187558 0.000000 0.000000
0.220516 0.000000 0.000000
0.260090 0.000000 0.000000
0.297271 0.000000 0.000000
0.347241 0.000000 0.000000
0.395907 0.000000 0.000000
0.444685 0.000000 0.000000
0.513225 0.000000 0.000000
0.582485 0.000000 0.000000
0.650405 0.000000 0.030866
0.716279 0.000000 0.046630
0.790372 0.000000 0.064751
0.863173 0.000000 0.086157
0.924093 0.000000 0.111187
0.976021 0.000000 0.139079
1.000000 0.000000 0.182123
1.000000 0.156125 0.218960
1.000000 0.262179 0.258007
1.000000 0.353605 0.305425
1.000000 0.427157 0.365021
1.000000 0.493257 0.409335
1.000000 0.571835 0.464109
0.000000 0.000000 0.000000
0.000000 0.000000 0.000000
0.000000 0.000000 0.000000
0.000000 0.000000 0.000000
0.000000 0.000000 0.000000
0.028946 0.000000 0.000000
0.064214 0.000000 0.000000
0.087788 0.000000 0.000000
0.112322 0.000000 0.000000
0.131938 0.000000 0.000000
0.161180 0.000000 0.000000
0.191448 0.000000 0.000000
0.225252 0.000000 0.000000
0.263534 0.000000 0.000000
0.300801 0.000000 0.000000
0.349472 0.000000 0.000000
0.396098 0.000000 0.000000
0.447651 0.000000 0.000000
0.516535 0.000000 0.000000
0.582745 0.000000 0.000000
0.650411 0.000000 0.030174
0.716836 0.000000 0.048012
0.790345 0.000000 0.064449
0.863141 0.000000 0.086002
0.924093 0.000000 0.111187
0.976021 0.000000 0.139079
1.000000 0.000000 0.182123
1.000000 0.156125 0.218960
1.000000 0.266642 0.257793
1.000000 0.353605 0.305425
1.000000 0.427157 0.365021
1.000000 0.496560 0.409163
1.000000 0.571835 0.464109
0.000000 0.012874 0.000000
0.000000 0.014282 0.000000
0.000000 0.015618 0.000000
0.000000 0.017244 0.000000
0.000000 0.022057 0.000000
0.022607 0.018655 0.000000
0.060726 0.000000 0.000000
0.092793 0.000000 0.000000
0.116209 0.000000 0.000000
0.139165 0.000000 0.000000
0.167143 0.000000 0.000000
0.195408 0.000000 0.000000
0.229725 0.000000 0.000000
0.268643 0.000000 0.000000
0.304341 0.000000 0.000000
0.353847 0.000000 0.000000
0.398714 0.000000 0.000000
0.447677 0.000000 0.000000
0.516784 0.000000 0.000000
0.583012 0.000000 0.000000
0.650679 0.000000 0.030735
0.716828 0.000000 0.047712
0.793805 0.000000 0.064057
0.863077 0.000000 0.085683
0.923973 0.000000 0.110860
0.976234 0.000000 0.141414
1.000000 0.000000 0.182123
1.000000 0.156125 0.218960
1.000000 0.266642 0.257793
1.000000 0.353605 0.305425
1.000000 0.427157 0.365021
1.000000 0.496560 0.409163
1.000000 0.574975 0.463946
0.000000 0.041088 0.000000
0.000000 0.041214 0.000000
0.000000 0.042399 0.000000
0.000000 0.043700 0.000000
0.000000 0.045817 0.000000
0.000000 0.048137 0.000000
0.052868 0.043737 0.000000
0.086808 0.030322 0.000000
0.118417 0.000000 0.000000
0.144208 0.000000 0.000000
0.175735 0.000000 0.000000
0.202706 0.000000 0.000000
0.234160 0.000000 0.000000
0.272066 0.000000 0.000000
0.313391 0.000000 0.000000
0.356164 0.000000 0.000000
0.401352 0.000000 0.000000
0.456270 0.000000 0.000000
0.517039 0.000000 0.000000
0.583031 0.000000 0.000000
0.657508 0.000000 0.029580
0.720568 0.000000 0.047947
0.794356 0.000000 0.065358
0.866285 0.000000 0.085510
0.923912 0.000000 0.110691
0.976234 0.000000 0.141414
1.000000 0.000000 0.181772
1.000000 0.163086 0.220565
1.000000 0.266642 0.257793
1.000000 0.357676 0.307621
1.000000 0.430654 0.364841
1.000000 0.496560 0.409163
1.000000 0.574975 0.463946
0.000000 0.057705 0.000000
0.000000 0.057848 0.000000
0.000000 0.057986 0.000000
0.000000 0.060174 0.000000
0.000000 0.063106 0.000000
0.000000 0.065433 0.000000
0.039769 0.065280 0.000000
0.082736 0.056883 0.000000
0.115822 0.047166 0.000000
0.148605 0.025051 0.000000
0.183118 0.000000 0.000000
0.216753 0.000000 0.000000
0.247665 0.000000 0.000000
0.277180 0.000000 0.000000
0.317284 0.000000 0.000000
0.362855 0.000000 0.000000
0.404185 0.000000 0.000000
0.456711 0.000000 0.000000
0.520703 0.000000 0.000000
0.586624 0.000000 0.000000
0.657781 0.000000 0.029499
0.720551 0.000000 0.047270
0.794325 0.000000 0.065018
0.866793 0.000000 0.087185
0.924303 0.000000 0.112658
0.978360 0.000000 0.141332
1.000000 0.000000 0.181701
1.000000 0.162696 0.220689
1.000000 0.271057 0.257577
1.000000 0.357676 0.307621
1.000000 0.430654 0.364841
1.000000 0.496560 0.409163
1.000000 0.574975 0.463946
0.000000 0.075782 0.000000
0.000000 0.075987 0.000000
0.000000 0.076154 0.000000
0.000000 0.078981 0.000000
0.000000 0.082538 0.000000
0.000000 0.085520 0.000000
0.000000 0.087534 0.000000
0.075311 0.085705 0.000000
0.114212 0.076396 0.000000
0.152297 0.061566 0.000000
0.191619 0.037867 0.000000
0.223523 0.000000 0.000000
0.255744 0.000000 0.000000
0.288871 0.000000 0.000000
0.323349 0.000000 0.000000
0.369731 0.000000 0.000000
0.411918 0.000000 0.000000
0.462894 0.000000 0.000000
0.527379 0.000000 0.000000
0.593795 0.000000 0.000000
0.657798 0.000000 0.027468
0.720812 0.000000 0.047218
0.794541 0.000000 0.065022
0.866688 0.000000 0.086669
0.926888 0.000000 0.112179
0.978141 0.000000 0.140958
1.000000 0.000000 0.184864
1.000000 0.175155 0.220291
1.000000 0.271178 0.257727
1.000000 0.357676 0.307621
1.000000 0.430654 0.364841
1.000000 0.496560 0.409163
1.000000 0.574975 0.463946
0.000000 0.096401 0.000000
0.000000 0.097401 0.000000
0.000000 0.097566 0.000000
0.000000 0.100138 0.000000
0.000000 0.103667 0.000000
0.000000 0.106532 0.000000
0.000000 0.111062 0.000000
0.040443 0.110843 0.000000
0.109394 0.107535 0.000000
0.152815 0.094565 0.000000
0.194354 0.079672 0.000000
0.228927 0.064403 0.000000
0.266074 0.032472 0.000000
0.301363 0.000000 0.000000
0.337674 0.000000 0.000000
0.377005 0.000000 0.000000
0.419971 0.000000 0.000000
0.469263 0.000000 0.000000
0.540761 0.000000 0.000000
0.597671 0.000000 0.000000
0.661761 0.000000 0.027265
0.725379 0.000000 0.049238
0.801737 0.000000 0.065016
0.867153 0.000000 0.088176
0.927193 0.000000 0.113984
0.978443 0.000000 0.143504
1.000000 0.000000 0.184684
1.000000 0.181081 0.220087
1.000000 0.280485 0.261433
1.000000 0.361438 0.307415
1.000000 0.430654 0.364841
1.000000 0.496560 0.409163
1.000000 0.574975 0.463946
0.000000 0.121722 0.000000
0.000000 0.123740 0.000000
0.000000 0.123988 0.000000
0.000000 0.127323 0.000000
0.000000 0.133673 0.000000
0.000000 0.135197 0.000000
0.000000 0.141079 0.000000
0.000000 0.143736 0.000000
0.069880 0.142339 0.000000
0.140722 0.141708 0.000000
0.196023 0.119635 0.000000
0.240402 0.104889 0.000000
0.272563 0.089933 0.000000
0.309459 0.066611 0.000000
0.349185 0.000000 0.000000
0.389943 0.000000 0.000000
0.431619 0.000000 0.000000
0.481854 0.000000 0.000000
0.548111 0.000000 0.000000
0.605208 0.000000 0.000000
0.666005 0.000000 0.026948
0.725896 0.000000 0.049017
0.802238 0.000000 0.065857
0.870452 0.000000 0.088264
0.929728 0.000000 0.113462
0.978096 0.000000 0.142921
1.000000 0.000000 0.184124
1.000000 0.186838 0.219878
1.000000 0.284764 0.261213
1.000000 0.361438 0.307415
1.000000 0.434443 0.367473
1.000000 0.499862 0.408990
1.000000 0.578418 0.466787
0.000000 0.149646 0.000000
0.000000 0.154424 0.000000
0.000000 0.154922 0.000000
0.000000 0.157843 0.000000
0.000000 0.162324 0.000000
0.000000 0.167633 0.000000
0.000000 0.168557 0.000000
0.000000 0.174596 0.000000
0.000000 0.173739 0.000000
0.115333 0.171530 0.000000
0.188505 0.168564 0.000000
0.241662 0.146041 0.000000
0.279333 0.135785 0.000000
0.316150 0.116845 0.000000
0.359799 0.094284 0.000000
0.404142 0.062081 0.000000
0.441504 0.000000 0.000000
0.496049 0.000000 0.000000
0.556019 0.000000 0.000000
0.613333 0.000000 0.000000
0.674226 0.000000 0.027060
0.730440 0.000000 0.050301
0.806746 0.000000 0.067851
0.873665 0.000000 0.088074
0.929851 0.000000 0.114859
0.978060 0.000000 0.143902
1.000000 0.044593 0.185140
1.000000 0.198576 0.223103
1.000000 0.289007 0.260990
1.000000 0.368925 0.306995
1.000000 0.434443 0.367473
1.000000 0.499862 0.408990
1.000000 0.578418 0.466787
0.000000 0.179879 0.000000
0.000000 0.184238 0.000000
0.000000 0.187757 0.000000
0.000000 0.188540 0.000000
0.000000 0.194226 0.000000
0.000000 0.198445 0.000000
0.000000 0.201121 0.000000
0.000000 0.203752 0.000000
0.000000 0.204739 0.000000
0.030899 0.203143 0.000000
0.165425 0.201849 0.000000
0.229513 0.198990 0.000000
0.287578 0.174738 0.000000
0.325448 0.161619 0.000000
0.370581 0.144919 0.000000
0.416892 0.122290 0.000000
0.461105 0.097038 0.000000
0.504955 0.038610 0.000000
0.564760 0.000000 0.000000
0.624801 0.000000 0.000000
0.682223 0.000000 0.020239
0.738132 0.000000 0.049208
0.811208 0.000000 0.069533
0.876957 0.000000 0.088131
0.932321 0.000000 0.114821
0.980162 0.000000 0.145965
1.000000 0.094990 0.187884
1.000000 0.208903 0.222791
1.000000 0.293215 0.260764
1.000000 0.372944 0.309211
1.000000 0.437932 0.367292
1.000000 0.506764 0.411556
1.000000 0.581561 0.466623
0.000000 0.213990 0.000000
0.000000 0.217833 0.000000
0.000000 0.223251 0.000000
0.000000 0.224677 0.000000
0.000000 0.230080 0.000000
0.000000 0.234539 0.000000
0.000000 0.237489 0.000000
0.000000 0.238745 0.000000
0.000000 0.242907 0.000000
0.000000 0.243372 0.000000
0.092179 0.240915 0.000000
0.189168 0.242363 0.000000
0.271787 0.233764 0.000000
0.328490 0.209532 0.000000
0.377540 0.194038 0.000000
0.425243 0.175203 0.000000
0.473464 0.157090 0.000000
0.521022 0.131030 0.000000
0.577805 0.092823 0.000000
0.641094 0.000000 0.000000
0.694021 0.000000 0.000000
0.756747 0.000000 0.048364
0.819027 0.000000 0.070106
0.880702 0.000000 0.090244
0.935099 0.000000 0.116968
0.979885 0.000000 0.147696
1.000000 0.132527 0.188669
1.000000 0.224405 0.223958
1.000000 0.306041 0.262329
1.000000 0.376658 0.308997
1.000000 0.444900 0.366924
1.000000 0.510065 0.411380
1.000000 0.581561 0.466623
0.000000 0.253254 0.000000
0.000000 0.259118 0.000000
0.000000 0.260835 0.000000
0.000000 0.264101 0.000000
0.000000 0.268512 0.000000
0.000000 0.270087 0.000000
0.000000 0.275199 0.000000
0.000000 0.278553 0.000000
0.000000 0.278132 0.000000
0.000000 0.284597 0.000000
0.000000 0.283259 0.000000
0.109499 0.282761 0.000000
0.230816 0.278449 0.000000
0.319921 0.272609 0.000000
0.381944 0.247054 0.000000
0.437024 0.230540 0.000000
0.490046 0.217176 0.000000
0.533033 0.201004 0.000000
0.591947 0.178887 0.000000
0.651694 0.147226 0.000000
0.707007 0.100439 0.000000
0.765117 0.000000 0.039033
0.826543 0.000000 0.068100
0.887112 0.000000 0.090929
0.934762 0.000000 0.117390
0.981963 0.000000 0.152193
1.000000 0.161037 0.191093
1.000000 0.248447 0.224739
1.000000 0.318799 0.265889
1.000000 0.388686 0.313598
1.000000 0.448942 0.369760
1.000000 0.513366 0.411203
1.000000 0.584706 0.466460
0.000000 0.299395 0.000000
0.000000 0.301361 0.000000
0.000000 0.302896 0.000000
0.000000 0.308439 0.000000
0.000000 0.312608 0.000000
0.000000 0.314453 0.000000
0.000000 0.320468 0.000000
0.000000 0.324306 0.000000
0.000000 0.325980 0.000000
0.000000 0.327526 0.000000
0.000000 0.332723 0.000000
0.000000 0.335636 0.000000
0.133092 0.333248 0.000000
0.258416 0.328837 0.000000
0.362540 0.325777 0.000000
0.442871 0.292406 0.000000
0.497032 0.279095 0.000000
0.546347 0.265669 0.000000
0.607642 0.245860 0.000000
0.665425 0.222648 0.000000
0.717531 0.201526 0.000000
0.774093 0.157077 0.000000
0.834135 0.088290 0.063590
0.890711 0.000000 0.093615
0.942685 0.000000 0.121610
0.983168 0.119662 0.153169
1.000000 0.199314 0.191368
1.000000 0.266835 0.225713
1.000000 0.330827 0.265317
1.000000 0.396298 0.315652
1.000000 0.455876 0.369387
1.000000 0.517647 0.414379
1.000000 0.588151 0.469310
0.000000 0.346481 0.000000
0.000000 0.352741 0.000000
0.000000 0.355264 0.000000
0.000000 0.357863 0.000000
0.000000 0.362100 0.000000
0.000000 0.365730 0.000000
0.000000 0.367594 0.000000
0.000000 0.369772 0.000000
0.000000 0.374511 0.000000
0.000000 0.378008 0.000000
0.000000 0.379614 0.000000
0.000000 0.383539 0.000000
0.000000 0.383928 0.000000
0.169871 0.381434 0.000000
0.310305 0.379097 0.000000
0.422512 0.367865 0.000000
0.496369 0.343117 0.000000
0.558662 0.329015 0.000000
0.617498 0.310979 0.000000
0.676704 0.290759 0.000000
0.727002 0.273948 0.000000
0.783826 0.254899 0.000000
0.851018 0.210638 0.051137
0.899146 0.177237 0.092924
0.946651 0.162770 0.123464
0.984095 0.189641 0.157667
1.000000 0.234380 0.194720
1.000000 0.297368 0.227876
1.000000 0.347120 0.268829
1.000000 0.407800 0.320035
1.000000 0.462798 0.369008
1.000000 0.524218 0.414024
1.000000 0.594809 0.469212
0.000000 0.401001 0.000000
0.000000 0.403141 0.000000
0.000000 0.405328 0.000000
0.000000 0.407187 0.000000
0.000000 0.409456 0.000000
0.000000 0.417144 0.000000
0.000000 0.419075 0.000000
0.000000 0.421115 0.000000
0.000000 0.426057 0.000000
0.000000 0.428672 0.000000
0.000000 0.435755 0.000000
0.000000 0.437544 0.000000
0.000000 0.439397 0.000000
0.000000 0.444974 0.000000
0.227913 0.441528 0.000000
0.371668 0.439568 0.000000
0.489876 0.430190 0.000000
0.557049 0.397214 0.000000
0.625500 0.378107 0.000000
0.689096 0.355192 0.000000
0.740754 0.343898 0.000000
0.795254 0.327199 0.000000
0.857512 0.303168 0.018978
0.902804 0.272443 0.084809
0.946660 0.256820 0.124778
0.984185 0.251984 0.162856
1.000000 0.280129 0.198825
1.000000 0.322724 0.232159
1.000000 0.370656 0.271719
1.000000 0.422409 0.319306
1.000000 0.477197 0.373971
1.000000 0.537659 0.416239
1.000000 0.601693 0.474936
0.000000 0.465526 0.000000
0.000000 0.467612 0.000000
0.000000 0.469516 0.000000
0.000000 0.471443 0.000000
0.000000 0.473393 0.000000
0.000000 0.475146 0.000000
0.000000 0.477362 0.000000
0.000000 0.482742 0.000000
0.000000 0.486477 0.000000
0.000000 0.488337 0.000000
0.000000 0.495995 0.000000
0.000000 0.498004 0.000000
0.000000 0.496736 0.000000
0.000000 0.500003 0.000000
0.000000 0.503487 0.000000
0.292956 0.499112 0.000000
0.424425 0.499579 0.000000
0.543901 0.490229 0.000000
0.625020 0.457394 0.000000
0.691826 0.438564 0.000000
0.751464 0.421425 0.000000
0.806050 0.410131 0.000000
0.860936 0.392813 0.000000
0.907724 0.367202 0.076422
0.949060 0.348616 0.125214
0.982668 0.338920 0.161964
1.000000 0.338628 0.203254
1.000000 0.362877 0.235117
1.000000 0.397784 0.276807
1.000000 0.440626 0.320711
1.000000 0.491382 0.373547
1.000000 0.547812 0.418641
1.000000 0.611125 0.474440
0.000000 0.525768 0.000000
0.000000 0.533563 0.000000
0.000000 0.534957 0.000000
0.000000 0.536831 0.000000
0.000000 0.538249 0.000000
0.000000 0.540154 0.000000
0.000000 0.542076 0.000000
0.000000 0.544502 0.000000
0.000000 0.547442 0.000000
0.000000 0.550561 0.000000
0.000000 0.555890 0.000000
0.000000 0.557567 0.000000
0.000000 0.559462 0.000000
0.000000 0.558419 0.000000
0.000000 0.563752 0.000000
0.150518 0.566657 0.000000
0.335323 0.566198 0.000000
0.478351 0.560191 0.000000
0.610800 0.549577 0.000000
0.692449 0.519207 0.000000
0.756861 0.501096 0.000000
0.810436 0.483785 0.000000
0.864528 0.468350 0.000000
0.907377 0.450543 0.035144
0.946886 0.430962 0.119735
0.981732 0.419178 0.165415
1.000000 0.412251 0.207482
1.000000 0.405118 0.237931
1.000000 0.424172 0.279807
1.000000 0.470035 0.326808
1.000000 0.508789 0.375428
1.000000 0.564792 0.420891
1.000000 0.620865 0.476986
0.000000 0.591525 0.000000
0.000000 0.593010 0.000000
0.000000 0.593757 0.000000
0.000000 0.595257 0.000000
0.000000 0.596515 0.000000
0.000000 0.597778 0.000000
0.000000 0.599557 0.000000
0.000000 0.601345 0.000000
0.000000 0.604432 0.000000
0.000000 0.610086 0.000000
0.000000 0.614544 0.000000
0.000000 0.617371 0.000000
0.000000 0.621415 0.000000
0.000000 0.622783 0.000000
0.000000 0.624464 0.000000
0.000000 0.623888 0.000000
0.235658 0.629424 0.000000
0.404596 0.625375 0.000000
0.554636 0.620497 0.000000
0.672769 0.614323 0.000000
0.756607 0.580550 0.000000
0.808800 0.562430 0.000000
0.868375 0.536449 0.000000
0.906616 0.527565 0.015336
0.944327 0.514432 0.109551
0.976762 0.497128 0.168325
1.000000 0.486737 0.210888
1.000000 0.472907 0.247020
1.000000 0.471753 0.280810
1.000000 0.502654 0.332824
1.000000 0.537115 0.382710
1.000000 0.582076 0.428917
1.000000 0.634027 0.479597
0.000000 0.648489 0.000000
0.000000 0.652333 0.000000
0.000000 0.653378 0.000000
0.000000 0.654164 0.000000
0.000000 0.655477 0.000000
0.000000 0.656533 0.000000
0.000000 0.657854 0.000000
0.000000 0.659180 0.000000
0.000000 0.661840 0.000000
0.000000 0.663976 0.000000
0.000000 0.666652 0.000000
0.000000 0.671718 0.000000
0.000000 0.673840 0.000000
0.000000 0.678215 0.000000
0.000000 0.684932 0.000000
0.000000 0.683006 0.000000
0.000000 0.683079 0.000000
0.307121 0.684358 0.000000
0.501077 0.679163 0.000000
0.624016 0.678144 0.000000
0.732082 0.668377 0.000000
0.797213 0.644124 0.000000
0.860861 0.612403 0.000000
0.909610 0.595103 0.000000
0.939256 0.587376 0.111426
0.969619 0.573415 0.168865
0.999189 0.560482 0.221779
1.000000 0.549390 0.253178
1.000000 0.537654 0.292732
1.000000 0.548886 0.337993
1.000000 0.572050 0.389650
1.000000 0.609066 0.433645
1.000000 0.649758 0.481854
0.000000 0.714120 0.107450
0.000000 0.714646 0.107671
0.000000 0.715697 0.108122
0.000000 0.715960 0.108235
0.000000 0.717274 0.108813
0.000000 0.717800 0.109047
0.000000 0.718851 0.109524
0.000000 0.719901 0.110010
0.000000 0.720951 0.105672
0.000000 0.723307 0.096450
0.000000 0.725388 0.097592
0.000000 0.730624 0.077441
0.000000 0.735030 0.075731
0.000000 0.736877 0.053497
0.000000 0.738559 0.032720
0.000000 0.741665 0.000000
0.000000 0.738983 0.000000
0.204637 0.735496 0.000000
0.401877 0.741270 0.000000
0.564898 0.735639 0.000000
0.681012 0.729402 0.000000
0.779943 0.720105 0.000000
0.844888 0.699603 0.000000
0.897105 0.678320 0.000000
0.932239 0.666599 0.121563
0.960841 0.656301 0.180457
0.988584 0.642948 0.230491
1.000000 0.632076 0.264470
1.000000 0.619778 0.304319
1.000000 0.616338 0.354010
1.000000 0.617449 0.402100
1.000000 0.636516 0.444529
1.000000 0.669081 0.490630
0.000000 0.766264 0.178570
0.000000 0.766502 0.178727
0.000000 0.766975 0.179040
0.000000 0.767448 0.179356
0.000000 0.767920 0.179674
0.000000 0.768627 0.180155
0.000000 0.769097 0.180478
0.000000 0.769801 0.180967
0.000000 0.770971 0.178260
0.000000 0.771900 0.178931
0.000000 0.773747 0.173115
0.000000 0.775566 0.170868
0.000000 0.780342 0.167987
0.000000 0.783592 0.168132
0.000000 0.784857 0.159559
0.000000 0.786008 0.155002
0.000000 0.787649 0.126434
0.000000 0.789858 0.125361
0.328002 0.787601 0.104350
0.484574 0.785268 0.085932
0.632539 0.779421 0.092758
0.743103 0.773147 0.087507
0.824221 0.770005 0.070275
0.880515 0.752165 0.000000
0.920930 0.729444 0.137389
0.953101 0.719067 0.195350
0.979318 0.706766 0.244881
1.000000 0.696344 0.274530
1.000000 0.685388 0.325528
1.000000 0.680594 0.365038
1.000000 0.677591 0.414376
1.000000 0.675174 0.452107
1.000000 0.692871 0.495963
0.000000 0.811160 0.249635
0.000000 0.811167 0.242995
0.000000 0.811567 0.243403
0.000000 0.811766 0.243608
0.000000 0.812361 0.244225
0.000000 0.814784 0.243950
0.000000 0.815368 0.244577
0.000000 0.815754 0.244999
0.000000 0.816331 0.245636
0.000000 0.817280 0.246709
0.000000 0.818032 0.244227
0.000000 0.819138 0.242184
0.000000 0.820747 0.237442
0.000000 0.821946 0.235646
0.000000 0.824187 0.236308
0.000000 0.824973 0.228958
0.000000 0.827424 0.224982
0.000000 0.828445 0.213942
0.223821 0.829010 0.210649
0.431003 0.826819 0.204323
0.569785 0.821561 0.191200
0.698377 0.815806 0.194839
0.793381 0.813835 0.187858
0.860911 0.808934 0.180929
0.904937 0.795144 0.169529
0.941385 0.776226 0.223372
0.967123 0.764732 0.264343
0.992052 0.755440 0.301148
1.000000 0.746895 0.334918
1.000000 0.735123 0.387680
1.000000 0.728381 0.427986
1.000000 0.722725 0.469149
1.000000 0.721369 0.507761
0.000000 0.850056 0.326863
0.000000 0.850056 0.326863
0.000000 0.850366 0.327371
0.000000 0.852366 0.327417
0.000000 0.852366 0.327417
0.000000 0.852670 0.327929
0.000000 0.852971 0.328444
0.000000 0.853121 0.328702
