Assets/Lutify-Free-LUTs-Pack/Lutify Free LUTs Pack/Colour Film Boost Pro - Film Boost 10/Lutify.me-FilmBoost10-ZLog2-to-Rec709.cube
# Created with: fylm.ai - Colour Grading and Collaboration Software in Cloud 
# Website: https://fylm.ai 
# META
# Option: Gamut compress
# Block 1: IDT | Z-Cam Z-Log2 - BETA
# Block 2: colourMatch | Blending Mode: Normal | {"ColorSpace":0,"CrossCovarianceLimit":50,"ReshapingIterations":1,"PercentSaturationShift":100,"PercentShadingShift":100,"ExtraShading":true,"PercentTint":100,"PercentModified":100}
# Block 3: subtractiveColour | Blending Mode: Normal | {"sliders":{"gainY":0.55,"C":0.3,"M":0.3,"Y":0.3}}
# Block 4: LUT | Filmic Curve Response: Low Contrast 2 (100%)
# Block 5: logPrimaries | Blending Mode: Normal | {"wheels":{"shadows":{"Y":"0","R":"1","G":"1","B":"1"},"midtones":{"Y":"0","R":"1","G":"1","B":"1"},"highlights":{"Y":"0","R":"1","G":"1","B":"1"},"offset":{"Y":"0","R":"1","G":"1","B":"1"}},"sliders":{"shadows":{"Y":0,"R":-0.085,"G":0.024,"B":0.134},"midtones":{"Y":0,"R":0,"G":-0.023,"B":0},"highlights":{"Y":0,"R":0,"G":0,"B":0},"offset":{"Y":0,"R":0.012,"G":-0.012,"B":0}}}
# Block 6: HSL | Blending Mode: Normal | {"hue":{"Reds":0,"Yellows":0,"Greens":0,"Cyans":0,"Blues":0,"Magentas":0},"saturation":{"Reds":1,"Yellows":1,"Greens":1,"Cyans":1,"Blues":1,"Magentas":1},"luminance":{"Reds":0.9,"Yellows":0.9,"Greens":0.9,"Cyans":0.9,"Blues":0.9,"Magentas":0.9},"lum_sat":{"Blacks":1,"Shadows":1,"Midtones":1,"Highlights":1,"Whites":1},"sat_sat":{"10":1,"20":1,"30":1,"40":1,"50":1}}
# Block 7: ODT | Rec709
TITLE "Lutify.me-FilmBoost10-ZLog2-to-Rec709" 
LUT_3D_SIZE 33
0.000000 0.000000 0.000000
0.000000 0.000000 0.000000
0.000000 0.000000 0.000000
0.000000 0.000000 0.000000
0.000000 0.000000 0.000000
0.000000 0.000000 0.000000
0.023369 0.000000 0.000000
0.048465 0.000000 0.000000
0.064251 0.000000 0.000000
0.077973 0.000000 0.000000
0.091860 0.000000 0.000000
0.105914 0.000000 0.000000
0.116976 0.000000 0.000000
0.130291 0.000000 0.000000
0.144757 0.000000 0.000000
0.159623 0.000000 0.000000
0.175494 0.000000 0.000000
0.191086 0.000000 0.000000
0.209656 0.000000 0.000000
0.227586 0.000000 0.000000
0.250142 0.000000 0.000000
0.271672 0.000000 0.000000
0.297480 0.000000 0.014139
0.323694 0.000000 0.023617
0.348950 0.000000 0.029014
0.376342 0.000000 0.032305
0.404281 0.000000 0.036501
0.434719 0.000000 0.042586
0.471274 0.000000 0.047841
0.510216 0.000000 0.052706
0.551303 0.000000 0.058985
0.587232 0.000000 0.066805
0.621911 0.000000 0.076160
0.000000 0.000000 0.000000
0.000000 0.000000 0.000000
0.000000 0.000000 0.000000
0.000000 0.000000 0.000000
0.000000 0.000000 0.000000
0.000000 0.000000 0.000000
0.032463 0.000000 0.000000
0.051876 0.000000 0.000000
0.066337 0.000000 0.000000
0.079890 0.000000 0.000000
0.094332 0.000000 0.000000
0.107904 0.000000 0.000000
0.118598 0.000000 0.000000
0.131238 0.000000 0.000000
0.145780 0.000000 0.000000
0.160750 0.000000 0.000000
0.175792 0.000000 0.000000
0.193531 0.000000 0.000000
0.209914 0.000000 0.000000
0.229213 0.000000 0.000000
0.250383 0.000000 0.000000
0.271949 0.000000 0.000000
0.297777 0.000000 0.014283
0.324159 0.000000 0.023759
0.351419 0.000000 0.028919
0.376912 0.000000 0.032838
0.407097 0.000000 0.037392
0.435455 0.000000 0.043476
0.471675 0.000000 0.047823
0.510651 0.000000 0.052693
0.551776 0.000000 0.058981
0.587725 0.000000 0.066807
0.622427 0.000000 0.076167
0.000000 0.000000 0.000000
0.000000 0.000000 0.000000
0.000000 0.000000 0.000000
0.000000 0.000000 0.000000
0.000000 0.000000 0.000000
0.013305 0.000000 0.000000
0.043682 0.000000 0.000000
0.059899 0.000000 0.000000
0.072095 0.000000 0.000000
0.084233 0.000000 0.000000
0.096807 0.000000 0.000000
0.110263 0.000000 0.000000
0.121006 0.000000 0.000000
0.133114 0.000000 0.000000
0.147828 0.000000 0.000000
0.163020 0.000000 0.000000
0.176967 0.000000 0.000000
0.194934 0.000000 0.000000
0.212716 0.000000 0.000000
0.232298 0.000000 0.000000
0.252207 0.000000 0.000000
0.275646 0.000000 0.000000
0.301693 0.000000 0.014228
0.326648 0.000000 0.022846
0.351785 0.000000 0.028185
0.379634 0.000000 0.033272
0.407735 0.000000 0.037329
0.439045 0.000000 0.043326
0.475205 0.000000 0.047200
0.511289 0.000000 0.052132
0.555496 0.000000 0.058896
0.588241 0.000000 0.067445
0.622944 0.000000 0.076174
0.000000 0.000000 0.000000
0.000000 0.000000 0.000000
0.000000 0.000000 0.000000
0.000000 0.000000 0.000000
0.000000 0.000000 0.000000
0.032136 0.000000 0.000000
0.053047 0.000000 0.000000
0.066137 0.000000 0.000000
0.079032 0.000000 0.000000
0.091669 0.000000 0.000000
0.103154 0.000000 0.000000
0.113663 0.000000 0.000000
0.124313 0.000000 0.000000
0.137369 0.000000 0.000000
0.151662 0.000000 0.000000
0.165109 0.000000 0.000000
0.182530 0.000000 0.000000
0.197606 0.000000 0.000000
0.214292 0.000000 0.000000
0.234053 0.000000 0.000000
0.255714 0.000000 0.000000
0.277880 0.000000 0.000000
0.304096 0.000000 0.012545
0.327110 0.000000 0.022879
0.356807 0.000000 0.028615
0.380361 0.000000 0.033764
0.411060 0.000000 0.037658
0.439566 0.000000 0.042349
0.476232 0.000000 0.047146
0.518112 0.000000 0.051906
0.555973 0.000000 0.058891
0.589235 0.000000 0.067445
0.627360 0.000000 0.076120
0.000000 0.017543 0.000000
0.000000 0.019182 0.000000
0.000000 0.020773 0.000000
0.000000 0.020226 0.000000
0.000000 0.021517 0.000000
0.029627 0.015624 0.000000
0.050938 0.000000 0.000000
0.066337 0.000000 0.000000
0.081641 0.000000 0.000000
0.094820 0.000000 0.000000
0.108175 0.000000 0.000000
0.117682 0.000000 0.000000
0.127771 0.000000 0.000000
0.139810 0.000000 0.000000
0.154394 0.000000 0.000000
0.169256 0.000000 0.000000
0.185015 0.000000 0.000000
0.199106 0.000000 0.000000
0.218728 0.000000 0.000000
0.237374 0.000000 0.000000
0.259580 0.000000 0.000000
0.281922 0.000000 0.000000
0.306523 0.000000 0.012578
0.333786 0.000000 0.021461
0.357455 0.000000 0.028517
0.385748 0.000000 0.034035
0.412075 0.000000 0.038580
0.440486 0.000000 0.042282
0.476853 0.000000 0.047110
0.518814 0.000000 0.052427
0.556710 0.000000 0.059480
0.593558 0.000000 0.067370
0.627883 0.000000 0.076122
0.000000 0.036354 0.000000
0.000000 0.037916 0.000000
0.000000 0.039392 0.000000
0.000000 0.039317 0.000000
0.000000 0.039591 0.000000
0.030144 0.037561 0.000000
0.047168 0.032721 0.000000
0.062922 0.024664 0.000000
0.082117 0.000000 0.000000
0.095901 0.000000 0.000000
0.109748 0.000000 0.000000
0.119762 0.000000 0.000000
0.130762 0.000000 0.000000
0.145846 0.000000 0.000000
0.160962 0.000000 0.000000
0.172784 0.000000 0.000000
0.189026 0.000000 0.000000
0.203519 0.000000 0.000000
0.222142 0.000000 0.000000
0.241319 0.000000 0.000000
0.262101 0.000000 0.000000
0.284247 0.000000 0.000000
0.310992 0.000000 0.012022
0.336498 0.000000 0.022188
0.360551 0.000000 0.028973
0.386807 0.000000 0.034468
0.418348 0.000000 0.038266
0.447091 0.000000 0.041981
0.483859 0.000000 0.046832
0.519964 0.000000 0.052386
0.557432 0.000000 0.059469
0.594315 0.000000 0.067364
0.628712 0.000000 0.077525
0.000000 0.047967 0.000000
0.000000 0.048710 0.000000
0.000000 0.049644 0.000000
0.000000 0.049811 0.000000
0.000000 0.049941 0.000000
0.000000 0.050670 0.000000
0.045065 0.048865 0.000000
0.060095 0.044581 0.000000
0.077023 0.038119 0.000000
0.094439 0.028053 0.000000
0.109709 0.010986 0.000000
0.123695 0.000000 0.000000
0.136908 0.000000 0.000000
0.150675 0.000000 0.000000
0.165188 0.000000 0.000000
0.177865 0.000000 0.000000
0.195138 0.000000 0.000000
0.209181 0.000000 0.000000
0.227037 0.000000 0.000000
0.248366 0.000000 0.000000
0.268148 0.000000 0.000000
0.288535 0.000000 0.000000
0.313794 0.000000 0.013375
0.341648 0.000000 0.022631
0.366177 0.000000 0.029250
0.393099 0.000000 0.034066
0.419387 0.000000 0.038165
0.448048 0.000000 0.041899
0.484685 0.000000 0.045768
0.523602 0.000000 0.052276
0.562149 0.000000 0.059355
0.595329 0.000000 0.067351
0.630294 0.000000 0.077525
0.000000 0.057673 0.000000
0.000000 0.058759 0.000000
0.000000 0.059837 0.000000
0.000000 0.060138 0.000000
0.000000 0.061152 0.000000
0.000000 0.061173 0.000000
0.036680 0.060516 0.000000
0.059125 0.058041 0.000000
0.077587 0.051157 0.000000
0.093921 0.045577 0.000000
0.108614 0.041212 0.000000
0.122534 0.033695 0.000000
0.138380 0.021111 0.000000
0.157901 0.000000 0.000000
0.173259 0.000000 0.000000
0.188340 0.000000 0.000000
0.199546 0.000000 0.000000
0.215517 0.000000 0.000000
0.231239 0.000000 0.000000
0.252920 0.000000 0.000000
0.271581 0.000000 0.000000
0.293888 0.000000 0.000000
0.318178 0.000000 0.012084
0.345248 0.000000 0.023999
0.370132 0.000000 0.029552
0.396783 0.000000 0.033212
0.423549 0.000000 0.036827
0.452383 0.000000 0.041145
0.489217 0.000000 0.046558
0.525005 0.000000 0.052214
0.563622 0.000000 0.059309
0.596898 0.000000 0.068627
0.638145 0.000000 0.077392
0.000000 0.069328 0.000000
0.000000 0.070021 0.000000
0.000000 0.071353 0.000000
0.000000 0.071622 0.000000
0.000000 0.071633 0.000000
0.000000 0.073561 0.000000
0.024186 0.073057 0.000000
0.056892 0.071004 0.000000
0.076024 0.067406 0.000000
0.094181 0.061175 0.000000
0.110447 0.055061 0.000000
0.127188 0.048950 0.000000
0.142692 0.039221 0.000000
0.159299 0.022777 0.000000
0.178920 0.000000 0.000000
0.194945 0.000000 0.000000
0.210824 0.000000 0.000000
0.224881 0.000000 0.000000
0.238323 0.000000 0.000000
0.257513 0.000000 0.000000
0.274931 0.000000 0.000000
0.295511 0.000000 0.000000
0.319995 0.000000 0.009497
0.347168 0.000000 0.022312
0.372379 0.000000 0.028376
0.399551 0.000000 0.032210
0.426732 0.000000 0.036472
0.456227 0.000000 0.040898
0.490306 0.000000 0.046474
0.529613 0.000000 0.052041
0.568169 0.000000 0.060406
0.601526 0.000000 0.068525
0.639757 0.000000 0.077366
0.000000 0.081243 0.000000
0.000000 0.082683 0.000000
0.000000 0.084278 0.000000
0.000000 0.084402 0.000000
0.000000 0.084363 0.000000
0.000000 0.086650 0.000000
0.000000 0.087643 0.000000
0.043465 0.085692 0.000000
0.072490 0.084691 0.000000
0.094222 0.079002 0.000000
0.111782 0.072008 0.000000
0.127498 0.066799 0.000000
0.144128 0.059122 0.000000
0.163617 0.048086 0.000000
0.183622 0.029566 0.000000
0.198085 0.000000 0.000000
0.214582 0.000000 0.000000
0.233452 0.000000 0.000000
0.252176 0.000000 0.000000
0.267356 0.000000 0.000000
0.284528 0.000000 0.000000
0.300622 0.000000 0.000000
0.325603 0.000000 0.000000
0.351072 0.000000 0.019044
0.376917 0.000000 0.027662
0.404466 0.000000 0.031577
0.426535 0.000000 0.035641
0.456431 0.000000 0.041162
0.494681 0.000000 0.046160
0.531770 0.000000 0.051889
0.570174 0.000000 0.060314
0.603610 0.000000 0.068452
0.641148 0.000000 0.078776
0.000000 0.094053 0.000000
0.000000 0.095852 0.000000
0.000000 0.095996 0.000000
0.000000 0.096028 0.000000
0.000000 0.097346 0.000000
0.000000 0.098596 0.000000
0.000000 0.098293 0.000000
0.027992 0.097758 0.000000
0.065458 0.096960 0.000000
0.095454 0.094865 0.000000
0.113410 0.089079 0.000000
0.130469 0.083842 0.000000
0.149162 0.078573 0.000000
0.174425 0.066712 0.000000
0.190985 0.055482 0.000000
0.203781 0.043657 0.000000
0.221208 0.016320 0.000000
0.237821 0.000000 0.000000
0.256999 0.000000 0.000000
0.273954 0.000000 0.000000
0.292828 0.000000 0.000000
0.311246 0.000000 0.000000
0.329263 0.000000 0.000000
0.355187 0.000000 0.016018
0.379055 0.000000 0.026135
0.406952 0.000000 0.030964
0.429361 0.000000 0.035760
0.459265 0.000000 0.040677
0.497703 0.000000 0.045759
0.535766 0.000000 0.052734
0.575283 0.000000 0.060064
0.612471 0.000000 0.069549
0.646743 0.000000 0.078639
0.000000 0.107920 0.000000
0.000000 0.109739 0.000000
0.000000 0.109771 0.000000
0.000000 0.109757 0.000000
0.000000 0.111276 0.000000
0.000000 0.113634 0.000000
0.000000 0.113402 0.000000
0.000000 0.112946 0.000000
0.056276 0.110553 0.000000
0.089956 0.109424 0.000000
0.114379 0.107086 0.000000
0.130167 0.103648 0.000000
0.155265 0.095084 0.000000
0.177042 0.085183 0.000000
0.194445 0.078711 0.000000
0.215563 0.067099 0.000000
0.229485 0.053934 0.000000
0.246957 0.037360 0.000000
0.261957 0.000000 0.000000
0.278639 0.000000 0.000000
0.299820 0.000000 0.000000
0.318688 0.000000 0.000000
0.336928 0.000000 0.000000
0.359395 0.000000 0.009045
0.381068 0.000000 0.023037
0.409464 0.000000 0.030082
0.434697 0.000000 0.034806
0.467904 0.000000 0.039827
0.503787 0.000000 0.045046
0.538976 0.000000 0.052168
0.575263 0.000000 0.059715
0.613019 0.000000 0.069274
0.647588 0.000000 0.078454
0.000000 0.125513 0.000000
0.000000 0.125544 0.000000
0.000000 0.125546 0.000000
0.000000 0.126388 0.000000
0.000000 0.128164 0.000000
0.000000 0.131902 0.000000
0.000000 0.133697 0.000000
0.000000 0.131367 0.000000
0.016228 0.130814 0.000000
0.072332 0.130069 0.000000
0.104749 0.128940 0.000000
0.129857 0.127611 0.000000
0.155899 0.117689 0.000000
0.178623 0.107588 0.000000
0.199611 0.098016 0.000000
0.218811 0.088826 0.000000
0.236559 0.079915 0.000000
0.256585 0.069868 0.000000
0.273413 0.056361 0.000000
0.287101 0.037912 0.000000
0.305162 0.000000 0.000000
0.324621 0.000000 0.000000
0.349411 0.000000 0.000000
0.367805 0.000000 0.000000
0.388023 0.000000 0.017856
0.411680 0.000000 0.026711
0.439937 0.000000 0.032762
0.470848 0.000000 0.038718
0.506852 0.000000 0.044150
0.538979 0.000000 0.051667
0.579088 0.000000 0.060473
0.616345 0.000000 0.068733
0.650959 0.000000 0.078098
0.000000 0.143417 0.000000
0.000000 0.143417 0.000000
0.000000 0.143371 0.000000
0.000000 0.144355 0.000000
0.000000 0.146405 0.000000
0.000000 0.148480 0.000000
0.000000 0.148260 0.000000
0.000000 0.147999 0.000000
0.000000 0.147569 0.000000
0.056368 0.146884 0.000000
0.094471 0.145999 0.000000
0.123143 0.147100 0.000000
0.155985 0.142670 0.000000
0.180275 0.131844 0.000000
0.205525 0.120399 0.000000
0.226409 0.112296 0.000000
0.245536 0.103757 0.000000
0.264186 0.097673 0.000000
0.281605 0.084565 0.000000
0.299517 0.073007 0.000000
0.312656 0.059078 0.000000
0.328643 0.037935 0.000000
0.358229 0.000000 0.000000
0.379148 0.000000 0.000000
0.402389 0.000000 0.000000
0.421953 0.000000 0.020339
0.442789 0.000000 0.030133
0.474299 0.000000 0.038153
0.510192 0.000000 0.043396
0.542228 0.000000 0.050671
0.585698 0.000000 0.059606
0.620257 0.000000 0.069683
0.658347 0.000000 0.079135
0.000000 0.158983 0.000000
0.000000 0.160113 0.000000
0.000000 0.162430 0.000000
0.000000 0.162367 0.000000
0.000000 0.162284 0.000000
0.000000 0.164598 0.000000
0.000000 0.164430 0.000000
0.000000 0.164193 0.000000
0.000000 0.163834 0.000000
0.000000 0.163248 0.000000
0.089671 0.159883 0.000000
0.119912 0.161317 0.000000
0.155080 0.162124 0.000000
0.182054 0.157185 0.000000
0.209754 0.147391 0.000000
0.231816 0.135295 0.000000
0.253390 0.128444 0.000000
0.269854 0.119599 0.000000
0.286154 0.114166 0.000000
0.304946 0.100735 0.000000
0.324438 0.089603 0.000000
0.342892 0.074499 0.000000
0.365157 0.046787 0.000000
0.386338 0.000000 0.000000
0.409989 0.000000 0.000000
0.435270 0.000000 0.000000
0.456629 0.000000 0.022149
0.480419 0.000000 0.035336
0.513356 0.000000 0.041655
0.545007 0.000000 0.048220
0.588482 0.000000 0.057382
0.623607 0.000000 0.069136
0.658282 0.000000 0.078631
0.000000 0.174876 0.000000
0.000000 0.176127 0.000000
0.000000 0.178677 0.000000
0.000000 0.181255 0.000000
0.000000 0.181172 0.000000
0.000000 0.182390 0.000000
0.000000 0.182245 0.000000
0.000000 0.182034 0.000000
0.000000 0.181705 0.000000
0.000000 0.181203 0.000000
0.067291 0.180473 0.000000
0.114255 0.179413 0.000000
0.151219 0.177963 0.000000
0.189121 0.175116 0.000000
0.213057 0.165203 0.000000
0.239424 0.155683 0.000000
0.259298 0.148048 0.000000
0.279059 0.138573 0.000000
0.292610 0.132737 0.000000
0.310007 0.126991 0.000000
0.328541 0.116505 0.000000
0.353963 0.103789 0.000000
0.376641 0.087434 0.000000
0.394137 0.071676 0.000000
0.417657 0.009056 0.000000
0.440916 0.000000 0.000000
0.471048 0.000000 0.000000
0.494711 0.000000 0.024899
0.523069 0.000000 0.038520
0.558093 0.000000 0.045885
0.591829 0.000000 0.056193
0.623568 0.000000 0.068183
0.661640 0.000000 0.077885
0.000000 0.196346 0.000000
0.000000 0.196313 0.000000
0.000000 0.197690 0.000000
0.000000 0.199052 0.000000
0.000000 0.198971 0.000000
0.000000 0.198869 0.000000
0.000000 0.198700 0.000000
0.000000 0.198487 0.000000
0.000000 0.198133 0.000000
0.000000 0.197660 0.000000
0.063269 0.196907 0.000000
0.109032 0.197262 0.000000
0.148337 0.195512 0.000000
0.185135 0.193171 0.000000
0.215908 0.187054 0.000000
0.246358 0.178414 0.000000
0.264030 0.171205 0.000000
0.285200 0.164510 0.000000
0.302775 0.152086 0.000000
0.323692 0.139786 0.000000
0.340377 0.133957 0.000000
0.360620 0.125696 0.000000
0.386367 0.116149 0.000000
0.406653 0.101307 0.000000
0.423146 0.089739 0.000000
0.449563 0.057243 0.000000
0.477771 0.000000 0.000000
0.504057 0.000000 0.000000
0.532143 0.000000 0.028429
0.564828 0.000000 0.042475
0.595234 0.000000 0.054111
0.630319 0.000000 0.066880
0.665581 0.000000 0.078524
0.000000 0.215316 0.000000
0.000000 0.215280 0.000000
0.000000 0.215230 0.000000
0.000000 0.216677 0.000000
0.000000 0.216549 0.000000
0.000000 0.216378 0.000000
0.000000 0.216147 0.000000
0.000000 0.215805 0.000000
0.000000 0.215356 0.000000
0.000000 0.214721 0.000000
0.043177 0.213686 0.000000
0.105934 0.215392 0.000000
0.141779 0.215556 0.000000
0.182560 0.213434 0.000000
0.219636 0.210718 0.000000
0.246307 0.202657 0.000000
0.268412 0.193234 0.000000
0.289807 0.183543 0.000000
0.312832 0.173104 0.000000
0.326084 0.170510 0.000000
0.351124 0.155346 0.000000
0.373758 0.144634 0.000000
0.393651 0.138152 0.000000
0.416931 0.131619 0.000000
0.434001 0.120730 0.000000
0.454889 0.104248 0.000000
0.486821 0.078445 0.000000
0.510667 0.000000 0.000000
0.541910 0.000000 0.000000
0.574111 0.000000 0.030940
0.601556 0.000000 0.048904
0.632631 0.000000 0.061329
0.668351 0.000000 0.075392
0.000000 0.232960 0.000000
0.000000 0.235949 0.000000
0.000000 0.235884 0.000000
0.000000 0.235775 0.000000
0.000000 0.235646 0.000000
0.000000 0.235509 0.000000
0.000000 0.236822 0.000000
0.000000 0.236547 0.000000
0.000000 0.236071 0.000000
0.000000 0.235480 0.000000
0.000000 0.234520 0.000000
0.106620 0.233271 0.000000
0.150858 0.231804 0.000000
0.186823 0.230059 0.000000
0.226423 0.227507 0.000000
0.251299 0.223154 0.000000
0.274636 0.215050 0.000000
0.296018 0.203551 0.000000
0.320585 0.194503 0.000000
0.342528 0.185439 0.000000
0.364195 0.177652 0.000000
0.381116 0.172200 0.000000
0.403212 0.163323 0.000000
0.422326 0.153847 0.000000
0.447669 0.147304 0.000000
0.469062 0.135167 0.000000
0.489814 0.124656 0.000000
0.519688 0.101223 0.000000
0.554985 0.044374 0.000000
0.587148 0.000000 0.000000
0.617303 0.000000 0.036176
0.642360 0.000000 0.055667
0.674579 0.000000 0.071245
0.000000 0.253368 0.000000
0.000000 0.253279 0.000000
0.000000 0.253200 0.000000
0.000000 0.253096 0.000000
0.000000 0.252944 0.000000
0.000000 0.252741 0.000000
0.000000 0.252469 0.000000
0.000000 0.252129 0.000000
0.000000 0.251626 0.000000
0.000000 0.250868 0.000000
0.052374 0.249994 0.000000
0.129218 0.248585 0.000000
0.164902 0.247312 0.000000
0.196070 0.247507 0.000000
0.223969 0.247587 0.000000
0.255566 0.245258 0.000000
0.280106 0.238676 0.000000
0.302439 0.230288 0.000000
0.326883 0.221280 0.000000
0.348398 0.212368 0.000000
0.374521 0.204048 0.000000
0.400779 0.193270 0.000000
0.419131 0.183576 0.000000
0.432421 0.180421 0.000000
0.453244 0.172563 0.000000
0.481058 0.166280 0.000000
0.503613 0.149937 0.000000
0.526307 0.142311 0.000000
0.561215 0.121549 0.000000
0.593984 0.076007 0.000000
0.623599 0.000000 0.000000
0.655347 0.000000 0.045617
0.680866 0.000000 0.065933
0.000000 0.271909 0.000000
0.000000 0.271841 0.000000
0.000000 0.271738 0.000000
0.000000 0.275176 0.000000
0.000000 0.275042 0.000000
0.000000 0.274844 0.000000
0.000000 0.274581 0.000000
0.000000 0.274226 0.000000
0.000000 0.273699 0.000000
0.000000 0.272960 0.000000
0.000000 0.272200 0.000000
0.116906 0.271084 0.000000
0.155975 0.270000 0.000000
0.192558 0.268564 0.000000
0.225553 0.268716 0.000000
0.259477 0.266612 0.000000
0.290161 0.263645 0.000000
0.314564 0.254747 0.000000
0.341194 0.245251 0.000000
0.367375 0.235429 0.000000
0.390400 0.225716 0.000000
0.410181 0.218177 0.000000
0.432606 0.213758 0.000000
0.449685 0.206117 0.000000
0.470118 0.199675 0.000000
0.489373 0.190195 0.000000
0.516382 0.189589 0.000000
0.538074 0.174748 0.000000
0.566757 0.165620 0.000000
0.603315 0.143864 0.000000
0.633793 0.106935 0.000000
0.668553 0.000000 0.024031
0.694113 0.000000 0.057324
0.000000 0.295612 0.000000
0.000000 0.297474 0.000000
0.000000 0.297401 0.000000
0.000000 0.297251 0.000000
0.000000 0.299062 0.000000
0.000000 0.298911 0.000000
0.000000 0.298601 0.000000
0.000000 0.298284 0.000000
0.000000 0.297729 0.000000
0.000000 0.297179 0.000000
0.000000 0.296436 0.000000
0.075882 0.295770 0.000000
0.133895 0.294802 0.000000
0.178000 0.293519 0.000000
0.216599 0.291952 0.000000
0.257668 0.287801 0.000000
0.294035 0.285358 0.000000
0.327439 0.279285 0.000000
0.354658 0.265282 0.000000
0.382207 0.257110 0.000000
0.404029 0.247421 0.000000
0.428381 0.236973 0.000000
0.452415 0.226138 0.000000
0.470185 0.226743 0.000000
0.485187 0.225822 0.000000
0.503877 0.220145 0.000000
0.524599 0.212987 0.000000
0.553099 0.213324 0.000000
0.576032 0.198568 0.000000
0.609226 0.189331 0.000000
0.639865 0.171132 0.000000
0.674791 0.147323 0.000000
0.700838 0.113442 0.038156
0.000000 0.319345 0.000000
0.000000 0.319278 0.000000
0.000000 0.321280 0.000000
0.000000 0.321162 0.000000
0.000000 0.320984 0.000000
0.000000 0.318706 0.000000
0.000000 0.318434 0.000000
0.000000 0.318073 0.000000
0.000000 0.317685 0.000000
0.000000 0.317169 0.000000
0.000000 0.316555 0.000000
0.067161 0.315745 0.000000
0.130842 0.314864 0.000000
0.176191 0.313707 0.000000
0.218213 0.312176 0.000000
0.254296 0.310476 0.000000
0.293150 0.308218 0.000000
0.327578 0.307554 0.000000
0.354082 0.302105 0.000000
0.385922 0.288888 0.000000
0.413616 0.275901 0.000000
0.443600 0.262158 0.000000
0.469218 0.253203 0.000000
0.488155 0.247543 0.000000
0.503710 0.246912 0.000000
0.519217 0.241548 0.000000
0.541717 0.239846 0.000000
0.557451 0.236536 0.000000
0.586904 0.232941 0.000000
0.614247 0.222324 0.000000
0.648996 0.214112 0.000000
0.676711 0.200510 0.000000
0.706740 0.176025 0.000000
0.000000 0.340508 0.000000
0.000000 0.340423 0.000000
0.000000 0.340354 0.000000
0.000000 0.340205 0.000000
0.000000 0.340067 0.000000
0.000000 0.339818 0.000000
0.000000 0.339605 0.000000
0.000000 0.339324 0.000000
0.000000 0.338954 0.000000
0.000000 0.338529 0.000000
0.000000 0.337907 0.000000
0.025313 0.337169 0.000000
0.125409 0.336294 0.000000
0.172566 0.335258 0.000000
0.211469 0.334034 0.000000
0.250765 0.332422 0.000000
0.288832 0.330474 0.000000
0.322038 0.330737 0.000000
0.359909 0.327156 0.000000
0.384782 0.321691 0.000000
0.418738 0.307583 0.000000
0.454646 0.295293 0.000000
0.482479 0.283728 0.000000
0.512408 0.271379 0.000000
0.531759 0.260514 0.000000
0.544367 0.262989 0.000000
0.556922 0.255540 0.000000
0.573886 0.265464 0.000000
0.593878 0.259420 0.000000
0.627711 0.255820 0.000000
0.653030 0.243547 0.000000
0.682068 0.237765 0.000000
0.714636 0.224210 0.000000
0.000000 0.365525 0.000000
0.000000 0.365447 0.000000
0.000000 0.365308 0.000000
0.000000 0.365218 0.000000
0.000000 0.365056 0.000000
0.000000 0.364878 0.000000
0.000000 0.364641 0.000000
0.000000 0.364331 0.000000
0.000000 0.363981 0.000000
0.000000 0.361172 0.000000
0.000000 0.360581 0.000000
0.000000 0.359974 0.000000
0.116456 0.359184 0.000000
0.166484 0.358266 0.000000
0.210055 0.357067 0.000000
0.245314 0.355795 0.000000
0.286370 0.353945 0.000000
0.314164 0.354882 0.000000
0.351476 0.352767 0.000000
0.395621 0.348418 0.000000
0.428550 0.334008 0.000000
0.462853 0.321692 0.000000
0.492152 0.309689 0.000000
0.519631 0.302771 0.000000
0.549907 0.292416 0.000000
0.572882 0.277752 0.000000
0.576036 0.282370 0.000000
0.592036 0.276607 0.000000
0.606347 0.285626 0.000000
0.633504 0.281141 0.000000
0.665709 0.279258 0.000000
0.686333 0.271940 0.000000
0.718438 0.265854 0.000000
0.000000 0.387258 0.000000
0.000000 0.387161 0.000000
0.000000 0.387058 0.000000
0.000000 0.386950 0.000000
0.000000 0.386795 0.000000
0.000000 0.386587 0.000000
0.000000 0.386360 0.000000
0.000000 0.386060 0.000000
