Assets/Lutify-Free-LUTs-Pack/Lutify Free LUTs Pack/Colour Film Boost Pro - Film Boost 10/Lutify.me-FilmBoost10-SLog3CineVenice-to-Rec709.cube
# Created with: fylm.ai - Colour Grading and Collaboration Software in Cloud 
# Website: https://fylm.ai 
# META
# Option: Gamut compress
# Block 1: IDT | Sony Venice S-Log3 S-Gamut3.Cine
# Block 2: colourMatch | Blending Mode: Normal | {"ColorSpace":0,"CrossCovarianceLimit":50,"ReshapingIterations":1,"PercentSaturationShift":100,"PercentShadingShift":100,"ExtraShading":true,"PercentTint":100,"PercentModified":100}
# Block 3: subtractiveColour | Blending Mode: Normal | {"sliders":{"gainY":0.55,"C":0.3,"M":0.3,"Y":0.3}}
# Block 4: LUT | Filmic Curve Response: Low Contrast 2 (100%)
# Block 5: logPrimaries | Blending Mode: Normal | {"wheels":{"shadows":{"Y":"0","R":"1","G":"1","B":"1"},"midtones":{"Y":"0","R":"1","G":"1","B":"1"},"highlights":{"Y":"0","R":"1","G":"1","B":"1"},"offset":{"Y":"0","R":"1","G":"1","B":"1"}},"sliders":{"shadows":{"Y":0,"R":-0.085,"G":0.024,"B":0.134},"midtones":{"Y":0,"R":0,"G":-0.023,"B":0},"highlights":{"Y":0,"R":0,"G":0,"B":0},"offset":{"Y":0,"R":0.012,"G":-0.012,"B":0}}}
# Block 6: HSL | Blending Mode: Normal | {"hue":{"Reds":0,"Yellows":0,"Greens":0,"Cyans":0,"Blues":0,"Magentas":0},"saturation":{"Reds":1,"Yellows":1,"Greens":1,"Cyans":1,"Blues":1,"Magentas":1},"luminance":{"Reds":0.9,"Yellows":0.9,"Greens":0.9,"Cyans":0.9,"Blues":0.9,"Magentas":0.9},"lum_sat":{"Blacks":1,"Shadows":1,"Midtones":1,"Highlights":1,"Whites":1},"sat_sat":{"10":1,"20":1,"30":1,"40":1,"50":1}}
# Block 7: ODT | Rec709
TITLE "Lutify.me-FilmBoost10-SLog3CineVenice-to-Rec709" 
LUT_3D_SIZE 5
0.000000 0.000000 0.000000
0.110120 0.000000 0.000000
0.422983 0.000000 0.000000
0.972157 0.000000 0.084198
1.000000 0.582971 0.442966
0.000000 0.107913 0.000000
0.141097 0.108761 0.000000
0.462014 0.000000 0.000000
0.976874 0.000000 0.085919
1.000000 0.588604 0.442652
0.000000 0.456645 0.000000
0.000000 0.461850 0.000000
0.577018 0.408447 0.000000
0.988831 0.162315 0.071382
1.000000 0.607161 0.450325
0.000000 0.891434 0.270241
0.000000 0.892399 0.266765
0.000000 0.889850 0.236011
0.933540 0.845789 0.000000
1.000000 0.756172 0.484383
0.751040 1.000000 0.801545
0.753535 1.000000 0.801558
0.763179 1.000000 0.799844
0.849290 1.000000 0.793102
1.000000 0.989907 0.734338
0.000000 0.000000 0.063961
0.086583 0.000000 0.039416
0.410039 0.000000 0.025300
0.974374 0.000000 0.106263
1.000000 0.580761 0.448530
0.000000 0.081724 0.146625
0.096417 0.112429 0.130154
0.467255 0.000000 0.038930
0.978779 0.000000 0.107694
1.000000 0.583571 0.448377
0.000000 0.466209 0.000000
0.000000 0.493330 0.000000
0.562643 0.467422 0.000000
0.992541 0.168162 0.105347
1.000000 0.607460 0.453057
0.000000 0.895389 0.321464
0.000000 0.894609 0.318018
0.000000 0.891710 0.283693
0.935030 0.848480 0.000000
1.000000 0.758547 0.487180
0.751206 1.000000 0.803308
0.753699 1.000000 0.803320
0.763335 1.000000 0.801611
0.849361 1.000000 0.794859
1.000000 0.989934 0.735991
0.000000 0.000000 0.160490
0.045396 0.000000 0.132301
0.382190 0.000000 0.068154
0.979402 0.000000 0.228194
1.000000 0.583332 0.478554
0.000000 0.000000 0.304809
0.000000 0.000000 0.287730
0.393071 0.000000 0.147912
0.984069 0.000000 0.237690
1.000000 0.587192 0.481640
0.000000 0.388841 0.524865
0.000000 0.444196 0.537264
0.541670 0.536056 0.561282
1.000000 0.173503 0.286388
1.000000 0.613229 0.486013
0.000000 0.895315 0.510960
0.000000 0.897341 0.509851
0.000000 0.902342 0.502836
0.929524 0.876091 0.403396
1.000000 0.759156 0.524795
0.752383 1.000000 0.815448
0.752383 1.000000 0.815448
0.761862 1.000000 0.812061
0.850053 1.000000 0.806338
1.000000 0.990278 0.757259
0.112684 0.000000 0.292233
0.154045 0.000000 0.291801
0.371309 0.000000 0.267644
0.832435 0.000000 0.148360
1.000000 0.561033 0.666119
0.094912 0.000000 0.316111
0.147671 0.000000 0.305520
0.371468 0.000000 0.263897
0.832435 0.000000 0.148360
1.000000 0.564214 0.666272
0.000000 0.155769 0.774516
0.000000 0.161188 0.780313
0.191673 0.153962 0.782125
0.958462 0.000000 0.598685
1.000000 0.601365 0.677049
0.000000 0.863601 0.889661
0.000000 0.866883 0.890711
0.000000 0.884959 0.894074
0.904518 0.898857 0.900592
1.000000 0.763818 0.721362
0.742561 1.000000 0.880686
0.742561 1.000000 0.880686
0.756409 1.000000 0.881351
0.845583 1.000000 0.878992
1.000000 0.993698 0.854708
0.591084 0.000000 0.509155
0.594637 0.000000 0.508953
0.630729 0.000000 0.497705
0.813587 0.000000 0.417189
1.000000 0.000000 0.282533
0.591084 0.000000 0.509155
0.594637 0.000000 0.508953
0.630729 0.000000 0.497705
0.813587 0.000000 0.417189
1.000000 0.000000 0.282533
0.594637 0.000000 0.508953
0.598193 0.000000 0.508752
0.630729 0.000000 0.497705
0.822555 0.000000 0.416819
1.000000 0.000000 0.282533
0.000000 0.588867 0.988412
0.069103 0.589222 0.987902
0.302052 0.590434 0.987831
0.768311 0.580831 0.984483
1.000000 0.368608 0.935757
0.537272 1.000000 0.995660
0.542337 1.000000 0.995676
0.579652 1.000000 0.995704
0.768086 1.000000 0.995594
0.994443 0.999594 0.995848
