Assets/Lutify-Free-LUTs-Pack/Lutify Free LUTs Pack/Colour Film Boost Pro - Film Boost 10/Lutify.me-FilmBoost10-LLog-to-Rec709.cube
# Created with: fylm.ai - Colour Grading and Collaboration Software in Cloud 
# Website: https://fylm.ai 
# META
# Option: Gamut compress
# Block 1: IDT | Leica BT2020 L-Log
# Block 2: colourMatch | Blending Mode: Normal | {"ColorSpace":0,"CrossCovarianceLimit":50,"ReshapingIterations":1,"PercentSaturationShift":100,"PercentShadingShift":100,"ExtraShading":true,"PercentTint":100,"PercentModified":100}
# Block 3: subtractiveColour | Blending Mode: Normal | {"sliders":{"gainY":0.55,"C":0.3,"M":0.3,"Y":0.3}}
# Block 4: LUT | Filmic Curve Response: Low Contrast 2 (100%)
# Block 5: logPrimaries | Blending Mode: Normal | {"wheels":{"shadows":{"Y":"0","R":"1","G":"1","B":"1"},"midtones":{"Y":"0","R":"1","G":"1","B":"1"},"highlights":{"Y":"0","R":"1","G":"1","B":"1"},"offset":{"Y":"0","R":"1","G":"1","B":"1"}},"sliders":{"shadows":{"Y":0,"R":-0.085,"G":0.024,"B":0.134},"midtones":{"Y":0,"R":0,"G":-0.023,"B":0},"highlights":{"Y":0,"R":0,"G":0,"B":0},"offset":{"Y":0,"R":0.012,"G":-0.012,"B":0}}}
# Block 6: HSL | Blending Mode: Normal | {"hue":{"Reds":0,"Yellows":0,"Greens":0,"Cyans":0,"Blues":0,"Magentas":0},"saturation":{"Reds":1,"Yellows":1,"Greens":1,"Cyans":1,"Blues":1,"Magentas":1},"luminance":{"Reds":0.9,"Yellows":0.9,"Greens":0.9,"Cyans":0.9,"Blues":0.9,"Magentas":0.9},"lum_sat":{"Blacks":1,"Shadows":1,"Midtones":1,"Highlights":1,"Whites":1},"sat_sat":{"10":1,"20":1,"30":1,"40":1,"50":1}}
# Block 7: ODT | Rec709
TITLE "Lutify.me-FilmBoost10-LLog-to-Rec709" 
LUT_3D_SIZE 9
0.000000 0.000000 0.000000
0.000000 0.000000 0.000000
0.097636 0.000000 0.000000
0.211092 0.000000 0.000000
0.388377 0.000000 0.000000
0.646458 0.000000 0.030740
0.920876 0.000000 0.109196
1.000000 0.262179 0.258007
1.000000 0.571835 0.464109
0.000000 0.000000 0.000000
0.000000 0.000000 0.000000
0.112322 0.000000 0.000000
0.225252 0.000000 0.000000
0.396098 0.000000 0.000000
0.650411 0.000000 0.030174
0.924093 0.000000 0.111187
1.000000 0.266642 0.257793
1.000000 0.571835 0.464109
0.000000 0.075782 0.000000
0.000000 0.082538 0.000000
0.114212 0.076396 0.000000
0.255744 0.000000 0.000000
0.411918 0.000000 0.000000
0.657798 0.000000 0.027468
0.926888 0.000000 0.112179
1.000000 0.271178 0.257727
1.000000 0.574975 0.463946
0.000000 0.179879 0.000000
0.000000 0.194226 0.000000
0.000000 0.204739 0.000000
0.287578 0.174738 0.000000
0.461105 0.097038 0.000000
0.682223 0.000000 0.020239
0.932321 0.000000 0.114821
1.000000 0.293215 0.260764
1.000000 0.581561 0.466623
0.000000 0.346481 0.000000
0.000000 0.362100 0.000000
0.000000 0.374511 0.000000
0.000000 0.383928 0.000000
0.496369 0.343117 0.000000
0.727002 0.273948 0.000000
0.946651 0.162770 0.123464
1.000000 0.347120 0.268829
1.000000 0.594809 0.469212
0.000000 0.591525 0.000000
0.000000 0.596515 0.000000
0.000000 0.604432 0.000000
0.000000 0.621415 0.000000
0.235658 0.629424 0.000000
0.756607 0.580550 0.000000
0.944327 0.514432 0.109551
1.000000 0.471753 0.280810
1.000000 0.634027 0.479597
0.000000 0.811160 0.249635
0.000000 0.812361 0.244225
0.000000 0.816331 0.245636
0.000000 0.820747 0.237442
0.000000 0.827424 0.224982
0.569785 0.821561 0.191200
0.904937 0.795144 0.169529
1.000000 0.746895 0.334918
1.000000 0.721369 0.507761
0.000000 0.935091 0.520710
0.000000 0.935158 0.521630
0.000000 0.935196 0.522245
0.000000 0.936333 0.521564
0.000000 0.937235 0.518333
0.449590 0.933810 0.512023
0.812186 0.923895 0.497893
0.972449 0.908716 0.473042
1.000000 0.883825 0.589049
0.438061 0.989540 0.753970
0.438061 0.989540 0.753970
0.445972 0.989431 0.754220
0.461282 0.989211 0.754721
0.504188 0.989037 0.754123
0.598911 0.988710 0.749775
0.744346 0.984539 0.744785
0.908754 0.978288 0.733255
1.000000 0.971784 0.733900
0.000000 0.000000 0.011448
0.000000 0.000000 0.006453
0.093744 0.000000 0.000000
0.204023 0.000000 0.000000
0.391749 0.000000 0.000000
0.651560 0.000000 0.045174
0.922443 0.000000 0.116034
1.000000 0.262817 0.262137
1.000000 0.572135 0.467110
0.000000 0.000000 0.026599
0.000000 0.000000 0.022800
0.109794 0.000000 0.000000
0.218854 0.000000 0.000000
0.400670 0.000000 0.004410
0.656065 0.000000 0.046886
0.925525 0.000000 0.117811
1.000000 0.267275 0.261929
1.000000 0.572135 0.467110
0.000000 0.075932 0.022711
0.000000 0.082570 0.000000
0.105371 0.086444 0.000000
0.254864 0.000000 0.000000
0.411920 0.000000 0.013183
0.664276 0.000000 0.048224
0.928420 0.000000 0.119278
1.000000 0.272121 0.263953
1.000000 0.575276 0.466949
0.000000 0.179888 0.000000
0.000000 0.196739 0.000000
0.000000 0.216505 0.000000
0.269777 0.193878 0.000000
0.459791 0.105099 0.000000
0.684481 0.000000 0.046550
0.933959 0.000000 0.123433
1.000000 0.294125 0.267111
1.000000 0.581561 0.466623
0.000000 0.346147 0.000000
0.000000 0.366664 0.000000
0.000000 0.385067 0.000000
0.000000 0.395098 0.000000
0.503959 0.366062 0.000000
0.733497 0.277697 0.000000
0.947737 0.163950 0.130979
1.000000 0.347700 0.273247
1.000000 0.595410 0.475263
0.000000 0.591513 0.000000
0.000000 0.599046 0.000000
0.000000 0.606964 0.000000
0.000000 0.627758 0.000000
0.228763 0.634393 0.000000
0.756166 0.588849 0.000000
0.945109 0.516023 0.126731
1.000000 0.472040 0.283249
1.000000 0.634027 0.479597
0.000000 0.811144 0.262849
0.000000 0.812338 0.264103
0.000000 0.816311 0.262276
0.000000 0.820370 0.260513
0.000000 0.828653 0.246786
0.571682 0.822676 0.213954
0.905610 0.796311 0.191877
1.000000 0.747370 0.341225
1.000000 0.721369 0.507761
0.000000 0.935061 0.530443
0.000000 0.935148 0.524872
0.000000 0.935186 0.525487
0.000000 0.936313 0.528036
0.000000 0.937216 0.524779
0.450296 0.933995 0.519005
0.812295 0.923989 0.501267
0.972438 0.909025 0.482396
1.000000 0.883825 0.589049
0.437755 0.989529 0.756220
0.437755 0.989529 0.756220
0.445673 0.989420 0.756468
0.460996 0.989201 0.756963
0.503935 0.989026 0.756361
0.598710 0.988700 0.752016
0.744475 0.984577 0.747286
0.908754 0.978288 0.733255
1.000000 0.971784 0.733900
0.000000 0.000000 0.061502
0.000000 0.000000 0.057142
0.081505 0.000000 0.043868
0.203880 0.000000 0.037123
0.392879 0.000000 0.040865
0.659125 0.000000 0.064131
0.924950 0.000000 0.127598
1.000000 0.263774 0.268437
1.000000 0.572135 0.467110
0.000000 0.000000 0.077895
0.000000 0.000000 0.074803
0.089889 0.000000 0.062289
0.219376 0.000000 0.050135
0.406074 0.000000 0.045716
0.663955 0.000000 0.067046
0.927800 0.000000 0.128466
1.000000 0.268223 0.268236
1.000000 0.572436 0.470120
0.000000 0.070612 0.125673
0.000000 0.081983 0.121907
0.084609 0.098816 0.115442
0.258305 0.000000 0.072039
0.421789 0.000000 0.050151
0.672471 0.000000 0.069977
0.931100 0.000000 0.132520
1.000000 0.273063 0.270304
1.000000 0.575576 0.469960
0.000000 0.186250 0.137439
0.000000 0.203544 0.120484
0.000000 0.228389 0.107599
0.264650 0.232520 0.084382
0.472952 0.119160 0.051648
0.688866 0.000000 0.071576
0.936492 0.000000 0.137503
1.000000 0.294732 0.271413
1.000000 0.581861 0.469636
0.000000 0.350765 0.100405
0.000000 0.368101 0.088941
0.000000 0.388303 0.068489
0.000000 0.420217 0.000000
0.505864 0.382028 0.000000
0.741020 0.282345 0.059774
0.949951 0.172055 0.147404
1.000000 0.348571 0.279982
1.000000 0.595410 0.475263
0.000000 0.590752 0.126167
0.000000 0.599024 0.125875
0.000000 0.612548 0.111016
0.000000 0.634274 0.095297
0.186213 0.641858 0.000000
0.754651 0.600706 0.000000
0.946381 0.518709 0.152738
1.000000 0.472898 0.290652
1.000000 0.634325 0.482658
0.000000 0.811105 0.292499
0.000000 0.812298 0.293808
0.000000 0.816267 0.295421
0.000000 0.822478 0.283466
0.000000 0.830284 0.275506
0.565964 0.826183 0.239058
0.906694 0.798253 0.226776
1.000000 0.747844 0.347543
1.000000 0.721618 0.510897
0.000000 0.935041 0.536941
0.000000 0.935107 0.537861
0.000000 0.935145 0.538476
0.000000 0.936282 0.537760
0.000000 0.937196 0.531234
0.450993 0.934180 0.526000
0.812510 0.924177 0.508027
0.972427 0.909230 0.488661
1.000000 0.883940 0.592177
0.437448 0.989519 0.758453
0.437448 0.989519 0.758453
0.445374 0.989409 0.758698
0.460710 0.989190 0.759189
0.503683 0.989015 0.758583
0.598309 0.988679 0.756454
0.744605 0.984615 0.749768
0.908763 0.978371 0.738196
1.000000 0.971830 0.736162
0.000000 0.000000 0.134621
0.000000 0.000000 0.126261
0.069858 0.000000 0.119938
0.205265 0.000000 0.091029
0.393230 0.000000 0.108960
0.666761 0.000000 0.110209
0.930088 0.000000 0.167137
1.000000 0.266004 0.283647
1.000000 0.573338 0.479202
0.000000 0.000000 0.170161
0.000000 0.000000 0.162121
0.061291 0.000000 0.154359
0.227295 0.000000 0.128114
0.409505 0.000000 0.123307
0.673371 0.000000 0.114978
0.932713 0.000000 0.168149
1.000000 0.270749 0.285697
1.000000 0.573338 0.479202
0.000000 0.053370 0.227062
0.000000 0.063898 0.219141
0.000000 0.078286 0.223137
0.264889 0.000000 0.202833
0.429468 0.000000 0.140293
0.685952 0.000000 0.119979
0.932671 0.000000 0.170368
1.000000 0.275260 0.285636
1.000000 0.576479 0.479044
0.000000 0.166117 0.278111
0.000000 0.189603 0.272256
0.000000 0.224594 0.278135
0.229369 0.256567 0.287911
0.489590 0.152093 0.189519
0.707566 0.000000 0.134329
0.937917 0.000000 0.177463
1.000000 0.296858 0.286931
1.000000 0.582763 0.478727
0.000000 0.355158 0.284214
0.000000 0.373704 0.280395
0.000000 0.397770 0.276832
0.000000 0.438455 0.262235
0.505624 0.446231 0.242412
0.749522 0.318021 0.167068
0.950369 0.196134 0.190520
1.000000 0.350024 0.291505
1.000000 0.596312 0.484401
0.000000 0.593680 0.257714
0.000000 0.601963 0.257079
0.000000 0.612958 0.252501
0.000000 0.640473 0.249603
0.143982 0.666659 0.214697
0.754376 0.638475 0.194017
0.949576 0.526174 0.218332
1.000000 0.475487 0.313677
1.000000 0.635218 0.491892
0.000000 0.810985 0.362704
0.000000 0.814405 0.363772
0.000000 0.816151 0.362579
0.000000 0.824305 0.353647
0.000000 0.836477 0.351479
0.578663 0.830006 0.317942
0.908671 0.802125 0.294062
1.000000 0.749982 0.376159
1.000000 0.722366 0.520347
0.000000 0.934977 0.556482
0.000000 0.935043 0.557403
0.000000 0.935081 0.558019
0.000000 0.936218 0.557265
0.000000 0.937123 0.553899
0.445734 0.935106 0.554088
0.813226 0.924833 0.531818
0.970869 0.911236 0.511230
1.000000 0.884399 0.604739
0.436838 0.989497 0.762868
0.436838 0.989497 0.762868
0.444780 0.989388 0.763109
0.460144 0.989168 0.763590
0.503181 0.988994 0.762976
0.597912 0.988658 0.760829
0.744626 0.985152 0.754859
0.908773 0.978453 0.743077
1.000000 0.971923 0.740652
0.000000 0.000000 0.288501
0.000000 0.000000 0.287416
0.000000 0.011516 0.290958
0.197869 0.000000 0.286584
0.414882 0.000000 0.226730
0.675456 0.000000 0.248004
0.936118 0.000000 0.255142
1.000000 0.277020 0.333912
1.000000 0.575450 0.500689
0.000000 0.027209 0.307720
0.000000 0.034785 0.308875
0.000000 0.036558 0.312194
0.195485 0.000000 0.310396
0.437123 0.000000 0.255411
0.682566 0.000000 0.256511
0.939633 0.000000 0.257352
1.000000 0.281357 0.333764
1.000000 0.578590 0.500538
0.000000 0.051126 0.339324
0.000000 0.060194 0.338580
0.000000 0.065912 0.340326
0.191440 0.047660 0.342191
0.458575 0.000000 0.290647
0.698909 0.000000 0.271886
0.940753 0.000000 0.259734
1.000000 0.294570 0.335996
1.000000 0.578590 0.500538
0.000000 0.154131 0.401622
0.000000 0.161411 0.406000
0.000000 0.184100 0.411564
0.101541 0.216742 0.435905
0.511256 0.157929 0.410970
0.722184 0.000000 0.304529
0.945839 0.000000 0.270655
1.000000 0.315913 0.340573
1.000000 0.585175 0.503338
0.000000 0.338608 0.465921
0.000000 0.353619 0.472775
0.000000 0.385834 0.485547
0.000000 0.453082 0.494421
0.476574 0.481750 0.505739
0.770369 0.351825 0.384185
0.954239 0.220409 0.295626
1.000000 0.364398 0.349573
1.000000 0.598724 0.509134
0.000000 0.602195 0.496524
0.000000 0.606982 0.487645
0.000000 0.619483 0.492491
0.000000 0.650929 0.494953
0.000000 0.693607 0.484930
0.751186 0.680230 0.468233
0.943159 0.560580 0.357168
1.000000 0.496203 0.375044
1.000000 0.637304 0.513711
0.000000 0.814539 0.488897
0.000000 0.815731 0.483666
0.000000 0.817851 0.483132
0.000000 0.823976 0.488662
0.000000 0.840779 0.480493
0.567644 0.841952 0.465430
0.901246 0.824516 0.449525
1.000000 0.758132 0.447735
1.000000 0.723861 0.539424
0.000000 0.934776 0.612144
0.000000 0.934855 0.609784
0.000000 0.934893 0.610401
0.000000 0.936031 0.609564
0.000000 0.936880 0.609969
0.432174 0.938860 0.610866
0.811754 0.926377 0.583354
0.968394 0.913402 0.569375
1.000000 0.885284 0.626848
0.435339 0.989444 0.773600
0.435339 0.989444 0.773600
0.443318 0.989335 0.773828
0.458749 0.989115 0.774284
0.501703 0.988931 0.775739
0.596739 0.988596 0.773554
0.745574 0.985415 0.771374
0.906721 0.979641 0.755345
1.000000 0.972203 0.753844
0.000000 0.081034 0.510408
0.000000 0.083882 0.515202
0.000000 0.087524 0.523389
0.000000 0.091666 0.529580
0.416181 0.000000 0.517357
0.716997 0.000000 0.453121
0.939943 0.000000 0.455912
1.000000 0.302668 0.464152
1.000000 0.586703 0.560454
0.000000 0.090618 0.519182
0.000000 0.095937 0.521437
0.000000 0.100144 0.529672
0.000000 0.105525 0.538495
0.415702 0.000000 0.532340
0.721167 0.000000 0.464963
0.943136 0.000000 0.459801
1.000000 0.302668 0.464152
1.000000 0.589861 0.560312
0.000000 0.106509 0.534296
0.000000 0.113712 0.533555
0.000000 0.117634 0.541886
0.000000 0.126379 0.557659
0.415318 0.051866 0.548458
0.736819 0.000000 0.478088
0.944123 0.000000 0.470225
1.000000 0.316121 0.464531
1.000000 0.589861 0.560312
0.000000 0.158239 0.558401
0.000000 0.164962 0.563749
0.000000 0.171187 0.568933
0.000000 0.186639 0.581604
0.420242 0.163713 0.580153
0.761417 0.000000 0.535911
0.948392 0.000000 0.491978
1.000000 0.333777 0.467925
1.000000 0.596915 0.560217
0.000000 0.332128 0.629363
0.000000 0.341189 0.632738
0.000000 0.354504 0.638273
0.000000 0.375914 0.655028
0.305740 0.425207 0.677831
0.787806 0.372864 0.648255
0.956635 0.265483 0.530644
1.000000 0.392440 0.484679
1.000000 0.610157 0.562984
0.000000 0.571697 0.687922
0.000000 0.580249 0.690036
0.000000 0.597243 0.696996
0.000000 0.634791 0.707600
0.000000 0.693907 0.722068
0.731535 0.716083 0.733199
0.941523 0.605782 0.620194
1.000000 0.516477 0.516236
1.000000 0.649093 0.574379
0.000000 0.819224 0.715227
0.000000 0.820758 0.714213
0.000000 0.822637 0.713734
0.000000 0.831292 0.719857
0.000000 0.845138 0.715399
0.539486 0.858624 0.715962
0.891188 0.846294 0.702311
1.000000 0.776901 0.577919
1.000000 0.733680 0.601063
0.000000 0.936387 0.716070
0.000000 0.936430 0.716608
0.000000 0.936485 0.717416
0.000000 0.937601 0.716561
0.000000 0.939457 0.718625
0.394034 0.940340 0.717893
0.794191 0.934330 0.708861
0.964690 0.922108 0.686264
1.000000 0.887468 0.686704
0.423596 0.989890 0.801163
0.431840 0.989781 0.801363
0.431840 0.989781 0.801363
0.447749 0.989563 0.801762
0.498707 0.989266 0.803192
0.593959 0.988448 0.802797
0.747469 0.985908 0.799438
0.906304 0.981156 0.790502
0.999554 0.972953 0.786597
0.000000 0.208452 0.748085
0.000000 0.212506 0.746926
0.000000 0.218816 0.744159
0.000000 0.225329 0.752781
0.240634 0.226125 0.760515
0.706197 0.148153 0.750457
0.963830 0.000000 0.681007
1.000000 0.328771 0.683957
1.000000 0.602814 0.671785
0.000000 0.217343 0.747831
0.000000 0.219647 0.750040
0.000000 0.223997 0.749655
0.000000 0.232724 0.758103
0.237646 0.235118 0.761381
0.705895 0.161271 0.753896
0.964347 0.000000 0.685360
1.000000 0.333187 0.684152
1.000000 0.602814 0.671785
0.000000 0.226127 0.753163
0.000000 0.230579 0.752505
0.000000 0.233214 0.755706
0.000000 0.242442 0.760550
0.239443 0.245553 0.770463
0.705610 0.177792 0.757524
0.965118 0.000000 0.693293
1.000000 0.337432 0.687609
1.000000 0.602814 0.671785
0.000000 0.254453 0.763706
0.000000 0.257200 0.762629
0.000000 0.260419 0.763032
0.000000 0.273180 0.770812
0.218146 0.281514 0.783780
0.703064 0.237896 0.774131
0.970455 0.000000 0.712823
1.000000 0.359149 0.691387
1.000000 0.609791 0.678276
0.000000 0.332163 0.782919
0.000000 0.335623 0.784400
0.000000 0.342369 0.786910
0.000000 0.354717 0.791401
0.155428 0.372401 0.800483
0.683922 0.364276 0.797240
0.973695 0.270437 0.745200
1.000000 0.409128 0.702927
1.000000 0.627943 0.684989
0.000000 0.569134 0.820402
0.000000 0.570277 0.821304
0.000000 0.579400 0.822919
0.000000 0.586293 0.828308
0.000000 0.623586 0.832035
0.601069 0.669694 0.841211
0.946598 0.624063 0.819775
1.000000 0.552752 0.732148
1.000000 0.668957 0.698598
0.000000 0.797230 0.853335
0.000000 0.801190 0.854217
0.000000 0.805859 0.855708
0.000000 0.818196 0.855773
0.000000 0.838961 0.859159
0.510798 0.860768 0.867174
0.877471 0.864652 0.870516
0.988842 0.804029 0.804361
1.000000 0.752121 0.721957
0.000000 0.938608 0.861757
0.000000 0.938629 0.861905
0.000000 0.938687 0.862350
0.000000 0.939780 0.861597
0.000000 0.940704 0.859430
0.364993 0.943298 0.858490
0.792581 0.941491 0.860560
0.954505 0.934838 0.847534
1.000000 0.898331 0.779928
0.398575 0.991178 0.861256
0.398575 0.991178 0.861256
0.407414 0.991071 0.861401
0.424396 0.990855 0.861693
0.471381 0.990671 0.861065
0.583078 0.989610 0.860760
0.746642 0.986663 0.859836
0.905820 0.982646 0.854679
0.994341 0.978137 0.848520
0.000000 0.413700 0.897008
0.000000 0.414066 0.897416
0.000000 0.414419 0.897822
0.000000 0.415482 0.899162
0.195128 0.426926 0.900707
0.542351 0.429962 0.899711
0.931158 0.410741 0.893865
1.000000 0.344368 0.851975
1.000000 0.614560 0.842360
0.000000 0.416785 0.896871
0.000000 0.417157 0.897279
0.000000 0.417515 0.897685
0.000000 0.418599 0.899026
0.190720 0.430131 0.900569
0.541018 0.433406 0.901127
0.931158 0.410741 0.893865
1.000000 0.348548 0.853979
1.000000 0.614560 0.842360
0.000000 0.420129 0.897006
0.000000 0.420254 0.897142
0.000000 0.420618 0.897548
0.000000 0.421723 0.898889
0.180080 0.436342 0.901706
0.538372 0.444417 0.901170
0.929978 0.419001 0.895328
1.000000 0.357687 0.854136
1.000000 0.621607 0.844267
0.000000 0.435498 0.897762
0.000000 0.435631 0.897897
0.000000 0.436151 0.898433
0.000000 0.440389 0.899484
0.176125 0.452381 0.902643
0.534111 0.458937 0.902582
0.925150 0.436029 0.896834
1.000000 0.383823 0.859863
1.000000 0.625158 0.844286
0.000000 0.466692 0.902370
0.000000 0.470035 0.902346
0.000000 0.470471 0.902729
0.000000 0.475145 0.902335
0.122014 0.487868 0.905337
0.498913 0.500181 0.907965
0.912105 0.485757 0.902347
1.000000 0.434749 0.867644
1.000000 0.643194 0.845950
0.000000 0.565930 0.910655
0.000000 0.566489 0.910994
0.000000 0.566856 0.911218
0.000000 0.571962 0.912150
0.000000 0.589903 0.911800
0.461024 0.608167 0.915031
0.893703 0.606046 0.910091
1.000000 0.569542 0.886390
1.000000 0.680084 0.853176
0.000000 0.789858 0.923852
0.000000 0.790353 0.924125
0.000000 0.790839 0.924397
0.000000 0.794819 0.925030
0.000000 0.805400 0.926643
0.242010 0.820740 0.925678
0.805656 0.836621 0.929316
0.985824 0.826658 0.918119
1.000000 0.774284 0.869695
0.000000 0.931892 0.938150
0.000000 0.931963 0.938307
0.000000 0.932061 0.938542
0.000000 0.932413 0.938438
0.000000 0.934955 0.939185
0.275980 0.940929 0.940354
0.764667 0.943647 0.943289
0.945352 0.948219 0.942754
1.000000 0.912108 0.902110
0.371899 0.992657 0.940424
0.371962 0.992664 0.939634
0.390706 0.992454 0.939778
0.408365 0.992241 0.939923
0.456785 0.992041 0.940261
0.575937 0.989993 0.938498
0.722856 0.989176 0.937538
0.898676 0.987224 0.936004
0.987390 0.983541 0.932443
0.275486 0.646790 0.969248
0.286011 0.646871 0.969295
0.305925 0.647027 0.969389
0.324599 0.647175 0.969483
0.398537 0.647746 0.969891
0.542169 0.655912 0.969069
0.775763 0.661917 0.967575
1.000000 0.671289 0.962360
1.000000 0.637755 0.941585
0.275486 0.646790 0.969248
0.286011 0.646871 0.969295
0.305925 0.647027 0.969389
0.324599 0.647175 0.969483
0.398537 0.647746 0.969891
0.546258 0.659408 0.968920
0.774667 0.665757 0.967457
1.000000 0.671289 0.962360
1.000000 0.637469 0.942556
0.270411 0.650196 0.969056
0.281199 0.650279 0.969103
0.301543 0.650439 0.969198
0.320562 0.650591 0.969291
0.395488 0.651179 0.969700
0.545554 0.658919 0.970287
0.774667 0.665757 0.967457
1.000000 0.671289 0.962360
1.000000 0.641111 0.942487
0.275773 0.653450 0.969613
0.275773 0.653450 0.969613
0.296605 0.653614 0.969706
0.316010 0.653769 0.969798
0.392014 0.654373 0.970201
0.543498 0.662397 0.970096
0.772466 0.673364 0.967222
0.999319 0.678420 0.962853
1.000000 0.651911 0.942279
0.247703 0.670224 0.969335
0.247703 0.670224 0.969335
0.271499 0.670404 0.969427
0.303394 0.670661 0.969563
0.383346 0.671329 0.969960
0.532522 0.679484 0.969803
0.767144 0.687518 0.968762
0.995424 0.692353 0.963812
1.000000 0.665498 0.943904
0.204164 0.703055 0.970159
0.204164 0.703055 0.970159
0.212654 0.706415 0.970005
0.242133 0.706594 0.970093
0.351275 0.707612 0.969859
0.519836 0.715121 0.970419
0.754532 0.721717 0.970834
0.987199 0.725151 0.966109
1.000000 0.701165 0.948587
0.000000 0.783854 0.972059
0.000000 0.783919 0.972102
0.000000 0.783919 0.972102
0.000000 0.784104 0.972229
0.245415 0.784564 0.972603
0.469354 0.790366 0.972573
0.728841 0.797256 0.972028
0.959209 0.804363 0.969301
1.000000 0.782265 0.954535
0.000000 0.915046 0.977737
0.000000 0.915017 0.977775
0.000000 0.916265 0.977681
0.000000 0.916165 0.977794
0.000000 0.917001 0.978035
0.405140 0.920599 0.977021
0.679757 0.920439 0.977820
0.912043 0.930255 0.978530
1.000000 0.924259 0.972616
0.281617 0.989770 0.983050
0.307695 0.989572 0.983108
0.307695 0.989572 0.983108
0.346752 0.990358 0.982743
0.405143 0.990248 0.982879
0.511464 0.990739 0.983136
0.703973 0.988192 0.983611
0.894123 0.988251 0.983968
0.982468 0.989523 0.984003
