Assets/Lutify-Free-LUTs-Pack/Lutify Free LUTs Pack/Colour Film Boost Pro - Film Boost 10/Lutify.me-FilmBoost10-BMDFilmGen4-to-Rec709.cube
# Created with: fylm.ai - Colour Grading and Collaboration Software in Cloud 
# Website: https://fylm.ai 
# META
# Option: Gamut compress
# Block 1: IDT | BMD Wide Gamut BMDFilm Gen 4
# Block 2: colourMatch | Blending Mode: Normal | {"ColorSpace":0,"CrossCovarianceLimit":50,"ReshapingIterations":1,"PercentSaturationShift":100,"PercentShadingShift":100,"ExtraShading":true,"PercentTint":100,"PercentModified":100}
# Block 3: subtractiveColour | Blending Mode: Normal | {"sliders":{"gainY":0.55,"C":0.3,"M":0.3,"Y":0.3}}
# Block 4: LUT | Filmic Curve Response: Low Contrast 2 (100%)
# Block 5: logPrimaries | Blending Mode: Normal | {"wheels":{"shadows":{"Y":"0","R":"1","G":"1","B":"1"},"midtones":{"Y":"0","R":"1","G":"1","B":"1"},"highlights":{"Y":"0","R":"1","G":"1","B":"1"},"offset":{"Y":"0","R":"1","G":"1","B":"1"}},"sliders":{"shadows":{"Y":0,"R":-0.085,"G":0.024,"B":0.134},"midtones":{"Y":0,"R":0,"G":-0.023,"B":0},"highlights":{"Y":0,"R":0,"G":0,"B":0},"offset":{"Y":0,"R":0.012,"G":-0.012,"B":0}}}
# Block 6: HSL | Blending Mode: Normal | {"hue":{"Reds":0,"Yellows":0,"Greens":0,"Cyans":0,"Blues":0,"Magentas":0},"saturation":{"Reds":1,"Yellows":1,"Greens":1,"Cyans":1,"Blues":1,"Magentas":1},"luminance":{"Reds":0.9,"Yellows":0.9,"Greens":0.9,"Cyans":0.9,"Blues":0.9,"Magentas":0.9},"lum_sat":{"Blacks":1,"Shadows":1,"Midtones":1,"Highlights":1,"Whites":1},"sat_sat":{"10":1,"20":1,"30":1,"40":1,"50":1}}
# Block 7: ODT | Rec709
TITLE "Lutify.me-FilmBoost10-BMDFilmGen4-to-Rec709" 
LUT_3D_SIZE 9
0.000000 0.000000 0.000000
0.065092 0.000000 0.000000
0.165598 0.000000 0.000000
0.280353 0.000000 0.000000
0.414907 0.000000 0.000000
0.586936 0.000000 0.000000
0.758402 0.000000 0.000000
0.925792 0.000000 0.068313
1.000000 0.174230 0.146923
0.000000 0.066442 0.000000
0.081786 0.072789 0.000000
0.212282 0.000000 0.000000
0.309938 0.000000 0.000000
0.435990 0.000000 0.000000
0.597144 0.000000 0.000000
0.765259 0.000000 0.000000
0.924810 0.000000 0.062145
1.000000 0.191243 0.145778
0.000000 0.167471 0.000000
0.000000 0.186021 0.000000
0.242988 0.163292 0.000000
0.359422 0.117048 0.000000
0.478420 0.000000 0.000000
0.614612 0.000000 0.000000
0.775737 0.000000 0.000000
0.932514 0.000000 0.058187
1.000000 0.221892 0.146787
0.000000 0.279476 0.000000
0.000000 0.289769 0.000000
0.186673 0.291257 0.000000
0.399983 0.254316 0.000000
0.521538 0.218081 0.000000
0.656531 0.173474 0.000000
0.793905 0.115269 0.000000
0.938672 0.098114 0.040055
1.000000 0.272206 0.141608
0.000000 0.402019 0.000000
0.000000 0.411590 0.000000
0.000000 0.414069 0.000000
0.359344 0.405496 0.000000
0.569695 0.358562 0.000000
0.691585 0.330993 0.000000
0.816152 0.313482 0.000000
0.941131 0.306118 0.000000
1.000000 0.353592 0.132626
0.000000 0.545106 0.000000
0.000000 0.549897 0.000000
0.000000 0.547978 0.000000
0.169796 0.554321 0.000000
0.508896 0.542214 0.000000
0.730249 0.476607 0.000000
0.830841 0.482876 0.000000
0.943363 0.475758 0.000000
1.000000 0.486035 0.099297
0.000000 0.697349 0.000000
0.000000 0.695703 0.000000
0.000000 0.693686 0.000000
0.000000 0.692393 0.000000
0.377981 0.692748 0.000000
0.654007 0.679369 0.000000
0.842124 0.618242 0.000000
0.928070 0.633586 0.000000
1.000000 0.646962 0.000000
0.000000 0.815073 0.000000
0.000000 0.819001 0.000000
0.000000 0.819625 0.000000
0.000000 0.818929 0.000000
0.309552 0.816548 0.000000
0.564489 0.807028 0.000000
0.791383 0.790743 0.000000
0.914170 0.742442 0.000000
0.980274 0.760077 0.000000
0.000000 0.901999 0.000000
0.000000 0.902938 0.000000
0.138271 0.902485 0.000000
0.260948 0.903538 0.000000
0.409258 0.901462 0.000000
0.570946 0.898655 0.000000
0.746660 0.889311 0.000000
0.878365 0.879707 0.000000
0.958105 0.848287 0.000000
0.000000 0.000000 0.052968
0.048592 0.000000 0.042181
0.158099 0.000000 0.026116
0.268542 0.000000 0.024143
0.413246 0.000000 0.026921
0.584664 0.000000 0.032568
0.761834 0.000000 0.052593
0.927469 0.000000 0.090228
1.000000 0.171905 0.164142
0.000000 0.050879 0.092777
0.055260 0.069643 0.082233
0.198318 0.000000 0.050450
0.302398 0.000000 0.033945
0.432618 0.000000 0.026931
0.598827 0.000000 0.029395
0.765432 0.000000 0.049426
0.929673 0.000000 0.088070
1.000000 0.194628 0.162844
0.000000 0.163265 0.054408
0.000000 0.194786 0.000000
0.206781 0.193753 0.000000
0.348163 0.139045 0.000000
0.476204 0.045007 0.000000
0.627243 0.000000 0.000000
0.783385 0.000000 0.043850
0.937215 0.000000 0.086622
1.000000 0.219592 0.161418
0.000000 0.285426 0.000000
0.000000 0.308427 0.000000
0.000000 0.311218 0.000000
0.362171 0.296056 0.000000
0.517820 0.242240 0.000000
0.661798 0.193440 0.000000
0.803274 0.106660 0.000000
0.940603 0.097866 0.078872
1.000000 0.275205 0.159859
0.000000 0.425235 0.000000
0.000000 0.434330 0.000000
0.000000 0.439644 0.000000
0.264818 0.439312 0.000000
0.536674 0.407135 0.000000
0.693474 0.359974 0.000000
0.820694 0.325955 0.000000
0.945306 0.306704 0.000000
1.000000 0.352568 0.153638
0.000000 0.577389 0.000000
0.000000 0.576547 0.000000
0.000000 0.579848 0.000000
0.000000 0.583250 0.000000
0.463502 0.570233 0.000000
0.692497 0.529687 0.000000
0.841456 0.493266 0.000000
0.942950 0.482424 0.000000
1.000000 0.488647 0.126008
0.000000 0.712438 0.000000
0.000000 0.711462 0.000000
0.000000 0.712578 0.000000
0.000000 0.716957 0.000000
0.358479 0.710974 0.000000
0.630775 0.702115 0.000000
0.833193 0.656066 0.000000
0.931894 0.646423 0.000000
1.000000 0.650594 0.000000
0.000000 0.829253 0.000000
0.000000 0.828429 0.000000
0.000000 0.827084 0.000000
0.000000 0.826587 0.000000
0.308354 0.824896 0.000000
0.565145 0.817490 0.000000
0.792146 0.801411 0.000000
0.911167 0.765272 0.000000
0.979411 0.766368 0.000000
0.000000 0.905380 0.000000
0.000000 0.905082 0.000000
0.161362 0.904386 0.000000
0.274452 0.905731 0.000000
0.418550 0.903714 0.000000
0.577741 0.900711 0.000000
0.734393 0.893242 0.000000
0.882126 0.880938 0.000000
0.955611 0.859930 0.000000
0.000000 0.000000 0.096380
0.000000 0.000000 0.086014
0.144592 0.000000 0.063184
0.254481 0.000000 0.065465
0.406727 0.000000 0.078640
0.594338 0.000000 0.076795
0.775655 0.000000 0.093312
0.933299 0.000000 0.117958
1.000000 0.177103 0.186448
0.000000 0.000000 0.147004
0.000000 0.000000 0.140506
0.169298 0.000000 0.121968
0.292327 0.000000 0.103581
0.434137 0.000000 0.093831
0.611989 0.000000 0.083431
0.778834 0.000000 0.091645
0.935827 0.000000 0.118853
1.000000 0.193897 0.187452
0.000000 0.131313 0.226772
0.000000 0.173337 0.225180
0.169867 0.199612 0.224254
0.350657 0.148921 0.162752
0.485672 0.028398 0.116680
0.631388 0.000000 0.087379
0.789046 0.000000 0.088870
0.943146 0.000000 0.118980
1.000000 0.219086 0.186313
0.000000 0.284469 0.206013
0.000000 0.313410 0.192720
0.000000 0.342285 0.180466
0.342339 0.345903 0.157623
0.538326 0.265623 0.103566
0.676108 0.192234 0.072469
0.815016 0.121375 0.085614
0.946632 0.086196 0.117223
1.000000 0.275009 0.185879
0.000000 0.438778 0.112843
0.000000 0.457883 0.085382
0.000000 0.476347 0.000000
0.232049 0.474532 0.000000
0.535949 0.459778 0.000000
0.704872 0.384472 0.000000
0.835173 0.344469 0.000000
0.951233 0.305316 0.101190
1.000000 0.356772 0.183243
0.000000 0.597359 0.000000
0.000000 0.605097 0.000000
0.000000 0.607917 0.000000
0.000000 0.608207 0.000000
0.432444 0.604037 0.000000
0.699310 0.574292 0.000000
0.847218 0.525639 0.000000
0.944682 0.502183 0.000000
1.000000 0.489315 0.164250
0.000000 0.735019 0.000000
0.000000 0.736834 0.000000
0.000000 0.739896 0.000000
0.000000 0.737186 0.000000
0.312818 0.738180 0.000000
0.623133 0.729563 0.000000
0.833125 0.693073 0.000000
0.931193 0.669267 0.000000
1.000000 0.656177 0.108853
0.000000 0.837291 0.000000
0.000000 0.836454 0.000000
0.000000 0.835376 0.000000
0.000000 0.835076 0.000000
0.286049 0.833551 0.000000
0.555252 0.828530 0.000000
0.784709 0.817149 0.000000
0.913014 0.786616 0.000000
0.977915 0.774916 0.000000
0.000000 0.911060 0.000000
0.000000 0.910618 0.000000
0.121560 0.909932 0.000000
0.264818 0.908824 0.000000
0.413922 0.906894 0.000000
0.579388 0.904743 0.000000
0.741717 0.896613 0.000000
0.869908 0.890965 0.000000
0.955549 0.869859 0.000000
0.000000 0.000000 0.139652
0.000000 0.000000 0.125848
0.133711 0.000000 0.115137
0.247506 0.000000 0.087065
0.383604 0.000000 0.124499
0.583047 0.000000 0.157452
0.781371 0.000000 0.152506
0.936516 0.000000 0.177687
1.000000 0.183416 0.219382
0.000000 0.000000 0.208861
0.000000 0.000000 0.200608
0.132416 0.000000 0.194984
0.279536 0.000000 0.163039
0.421924 0.000000 0.171035
0.604828 0.000000 0.171309
0.790085 0.000000 0.157970
0.938563 0.000000 0.178235
1.000000 0.199987 0.218741
0.000000 0.078059 0.299332
0.000000 0.097755 0.295471
0.109222 0.114059 0.307962
0.344362 0.079917 0.296746
0.481357 0.000000 0.235457
0.638290 0.000000 0.194350
0.802568 0.000000 0.163128
0.942816 0.000000 0.178374
1.000000 0.230597 0.221158
0.000000 0.234967 0.352120
0.000000 0.272561 0.353724
0.000000 0.321078 0.373172
0.321159 0.342834 0.364653
0.529994 0.285158 0.300905
0.685604 0.200565 0.226334
0.823707 0.092267 0.173951
0.953471 0.121941 0.181443
1.000000 0.276243 0.220625
0.000000 0.429002 0.343119
0.000000 0.452816 0.340441
0.000000 0.482195 0.330747
0.131886 0.505631 0.323616
0.528278 0.501904 0.294402
0.718650 0.421194 0.226837
0.845195 0.349753 0.172188
0.956812 0.316128 0.179428
1.000000 0.349962 0.219127
0.000000 0.604330 0.254364
0.000000 0.616466 0.250838
0.000000 0.632522 0.244020
0.000000 0.642741 0.230284
0.394576 0.642275 0.206246
0.711248 0.627957 0.168165
0.852920 0.561535 0.123357
0.950910 0.514419 0.153891
1.000000 0.492283 0.218388
0.000000 0.750699 0.161143
0.000000 0.753502 0.160513
0.000000 0.754648 0.147919
0.000000 0.761113 0.111196
0.272945 0.756840 0.074053
0.612107 0.749522 0.000000
0.831862 0.728062 0.000000
0.933841 0.685860 0.047083
1.000000 0.664731 0.206017
0.000000 0.847588 0.145838
0.000000 0.849069 0.145563
0.000000 0.849847 0.135435
0.000000 0.849312 0.119641
0.274396 0.845849 0.080080
0.543139 0.841731 0.000000
0.777397 0.832542 0.000000
0.909378 0.811300 0.000000
0.978893 0.787756 0.115680
0.000000 0.916711 0.219891
0.000000 0.916421 0.220038
0.000000 0.915710 0.216566
0.245680 0.914608 0.217143
0.397850 0.911754 0.203193
0.570911 0.908422 0.179960
0.732999 0.905103 0.153325
0.871324 0.896020 0.116624
0.955441 0.881541 0.000000
0.000000 0.000000 0.182503
0.000000 0.000000 0.171323
0.093585 0.000000 0.168392
0.241445 0.000000 0.145155
0.355451 0.000000 0.120387
0.554434 0.000000 0.224338
0.765198 0.000000 0.260289
0.939346 0.000000 0.259108
1.000000 0.178272 0.286437
0.000000 0.000000 0.262091
0.000000 0.000000 0.257098
0.067452 0.000000 0.253905
0.260447 0.000000 0.255996
0.397534 0.000000 0.215431
0.583665 0.000000 0.260254
0.781506 0.000000 0.269862
0.942977 0.000000 0.263355
1.000000 0.195306 0.288343
0.000000 0.031015 0.350283
0.000000 0.041991 0.347939
0.000000 0.043386 0.358152
0.263445 0.000000 0.351510
0.466050 0.000000 0.314549
0.631173 0.000000 0.302657
0.796889 0.000000 0.291252
0.948045 0.000000 0.270446
1.000000 0.226464 0.287447
0.000000 0.172159 0.438268
0.000000 0.184809 0.441652
0.000000 0.213902 0.458327
0.233323 0.241917 0.476701
0.531109 0.211983 0.464169
0.685583 0.110684 0.374125
0.827193 0.000000 0.326024
0.954828 0.085437 0.281738
1.000000 0.277100 0.287990
0.000000 0.376531 0.499751
0.000000 0.404760 0.512717
0.000000 0.447020 0.526708
0.000000 0.489453 0.534469
0.515132 0.509813 0.538228
0.707308 0.445259 0.447833
0.855198 0.360621 0.372063
0.961649 0.306923 0.291876
1.000000 0.355596 0.293768
0.000000 0.592147 0.503422
0.000000 0.608060 0.501705
0.000000 0.629059 0.501572
0.000000 0.649931 0.503068
0.361016 0.671407 0.491589
0.696438 0.663698 0.465910
0.853821 0.589215 0.377305
0.953436 0.532394 0.307557
1.000000 0.505536 0.301225
0.000000 0.750659 0.429336
0.000000 0.756498 0.425373
0.000000 0.766123 0.425892
0.000000 0.777467 0.419906
0.248813 0.781873 0.407867
0.603473 0.777298 0.379845
0.830428 0.763910 0.349245
0.932099 0.710721 0.289897
1.000000 0.680294 0.296488
0.000000 0.860393 0.363769
0.000000 0.860884 0.365183
0.000000 0.861088 0.366930
0.000000 0.858743 0.360135
0.285244 0.858279 0.335454
0.549544 0.854561 0.322797
0.787109 0.844076 0.303726
0.907600 0.835129 0.251767
0.978230 0.800624 0.269453
0.000000 0.920619 0.376260
0.000000 0.921217 0.369633
0.000000 0.920761 0.369761
0.242638 0.920652 0.366873
0.397943 0.919227 0.364429
0.574797 0.914976 0.352747
0.736031 0.911860 0.337839
0.862571 0.904829 0.311089
0.956753 0.892992 0.272590
0.000000 0.000000 0.215732
0.000000 0.000000 0.214247
0.074542 0.000000 0.213779
0.214997 0.000000 0.218848
0.356659 0.000000 0.185681
0.487905 0.000000 0.173615
0.738517 0.000000 0.341119
0.931763 0.000000 0.398023
1.000000 0.146383 0.400463
0.000000 0.000000 0.315336
0.000000 0.000000 0.309381
0.000000 0.000000 0.311679
0.183482 0.000000 0.311185
0.386203 0.000000 0.306213
0.538528 0.000000 0.274685
0.757775 0.000000 0.369539
0.936052 0.000000 0.402436
1.000000 0.161082 0.403583
0.000000 0.000000 0.424589
0.000000 0.000000 0.427748
0.000000 0.000000 0.431313
0.158427 0.000000 0.426565
0.426322 0.000000 0.425424
0.602755 0.000000 0.382544
0.785208 0.000000 0.407053
0.941326 0.000000 0.413990
1.000000 0.198953 0.407175
0.000000 0.095111 0.502566
0.000000 0.102718 0.513059
0.000000 0.113455 0.523065
0.140531 0.118732 0.526610
0.432696 0.047512 0.533657
0.679861 0.000000 0.485222
0.821636 0.000000 0.453506
0.949567 0.000000 0.436490
1.000000 0.257504 0.414214
0.000000 0.293991 0.594346
0.000000 0.311666 0.599590
0.000000 0.329897 0.615255
0.000000 0.374460 0.627585
0.401145 0.401077 0.643735
0.722802 0.372288 0.632210
0.859624 0.302098 0.543299
0.963141 0.270162 0.466769
1.000000 0.348129 0.424751
0.000000 0.535174 0.652835
0.000000 0.552560 0.660740
0.000000 0.583258 0.661908
0.000000 0.622815 0.679628
0.277781 0.648423 0.691056
0.694428 0.667007 0.693448
0.843104 0.611938 0.609110
0.953225 0.541787 0.517260
1.000000 0.498650 0.448189
0.000000 0.743402 0.653919
0.000000 0.749852 0.657715
0.000000 0.763135 0.655853
0.000000 0.773058 0.655790
0.000000 0.786174 0.649214
0.561331 0.795860 0.649738
0.812455 0.787984 0.626959
0.925245 0.738101 0.543208
0.995441 0.695218 0.454203
0.000000 0.857655 0.590396
0.000000 0.857966 0.591296
0.000000 0.860686 0.594031
0.000000 0.865320 0.591228
0.099578 0.869840 0.578697
0.526787 0.868987 0.577014
0.752857 0.864449 0.552211
0.901463 0.853292 0.517461
0.971451 0.820254 0.453036
0.000000 0.927703 0.533035
0.000000 0.928640 0.534377
0.000000 0.928395 0.535010
0.236335 0.927118 0.535189
0.389524 0.924642 0.528396
0.563584 0.921442 0.508149
0.740964 0.916820 0.496959
0.858371 0.910876 0.481443
0.953073 0.904671 0.450285
0.000000 0.000000 0.269272
0.000000 0.000000 0.269165
0.087564 0.000000 0.268756
0.176499 0.000000 0.274854
0.334738 0.000000 0.275555
0.496346 0.000000 0.258108
0.642025 0.000000 0.277827
0.913787 0.000000 0.493599
1.000000 0.000000 0.549431
0.000000 0.000000 0.380394
0.000000 0.000000 0.380819
0.000000 0.000000 0.383308
0.131893 0.000000 0.383655
0.320774 0.000000 0.394099
0.538949 0.000000 0.385424
0.694629 0.000000 0.367079
0.923110 0.000000 0.508980
1.000000 0.000000 0.550268
0.000000 0.000000 0.511704
0.000000 0.000000 0.514579
0.000000 0.000000 0.510290
0.000000 0.000000 0.513744
0.307468 0.000000 0.508755
0.579897 0.000000 0.516667
0.744736 0.000000 0.453779
0.932984 0.000000 0.525928
1.000000 0.098955 0.557728
0.000000 0.071061 0.594324
0.000000 0.075391 0.598879
0.000000 0.084682 0.604649
0.000000 0.083922 0.612023
0.323047 0.000000 0.606417
0.621911 0.000000 0.604206
0.804982 0.000000 0.552040
0.946977 0.000000 0.558614
1.000000 0.194158 0.563180
0.000000 0.183370 0.657452
0.000000 0.186988 0.662168
0.000000 0.200891 0.669303
0.000000 0.217537 0.685228
0.297037 0.219230 0.688533
0.637693 0.171446 0.688185
0.859957 0.000000 0.647730
0.960820 0.119557 0.611794
1.000000 0.315190 0.583281
0.000000 0.442117 0.740295
0.000000 0.451822 0.741197
0.000000 0.468920 0.746874
0.000000 0.488540 0.758481
0.000000 0.528751 0.770890
0.582226 0.558667 0.774097
0.860313 0.545467 0.763715
0.956702 0.488027 0.688307
1.000000 0.469647 0.618002
0.000000 0.691116 0.781755
0.000000 0.702193 0.782337
0.000000 0.719409 0.785347
0.000000 0.738440 0.790856
0.000000 0.763753 0.794495
0.522584 0.782309 0.803347
0.802514 0.790888 0.803692
0.914146 0.749483 0.747230
0.991592 0.703741 0.667305
0.000000 0.855526 0.780514
0.000000 0.857788 0.781083
0.000000 0.858684 0.777918
0.000000 0.861794 0.773254
0.000000 0.868858 0.775465
0.489295 0.870168 0.774006
0.748756 0.873355 0.773250
0.889114 0.867632 0.755097
0.963071 0.833467 0.687958
0.000000 0.927019 0.732648
0.000000 0.926988 0.730392
0.000000 0.926910 0.731205
0.000000 0.926700 0.727499
0.298799 0.927070 0.725576
0.530918 0.929159 0.729247
0.717981 0.925428 0.715718
0.842462 0.921295 0.697954
0.944920 0.915033 0.677297
0.086785 0.000000 0.277628
0.113044 0.000000 0.277406
0.156581 0.000000 0.280559
0.216540 0.000000 0.290985
0.326334 0.000000 0.303112
0.478624 0.000000 0.302308
0.636716 0.000000 0.328628
0.811574 0.000000 0.402403
1.000000 0.000000 0.636536
0.000000 0.000000 0.401660
0.000000 0.000000 0.404448
0.028506 0.000000 0.404620
0.144436 0.000000 0.418218
0.271259 0.000000 0.429620
0.488106 0.000000 0.461265
0.689207 0.000000 0.462928
0.841707 0.000000 0.471052
1.000000 0.000000 0.645015
0.000000 0.000000 0.572824
0.000000 0.000000 0.573210
0.000000 0.000000 0.573531
0.000000 0.000000 0.567994
0.239890 0.000000 0.575646
0.479590 0.000000 0.583506
0.731319 0.000000 0.572645
0.882452 0.000000 0.541032
1.000000 0.000000 0.654021
0.000000 0.034885 0.676240
0.000000 0.042584 0.678730
0.000000 0.044762 0.679848
0.000000 0.030549 0.680358
0.220376 0.000000 0.677788
0.491212 0.000000 0.678250
0.788252 0.000000 0.680785
0.925372 0.000000 0.621831
1.000000 0.000000 0.677665
0.000000 0.147478 0.740263
0.000000 0.152333 0.744077
0.000000 0.160673 0.747523
0.000000 0.165100 0.758771
0.158452 0.168199 0.759462
0.505223 0.110704 0.749745
0.797448 0.000000 0.749646
0.957694 0.000000 0.694753
1.000000 0.127326 0.705923
0.000000 0.301451 0.793174
0.000000 0.307741 0.795991
0.000000 0.312821 0.800843
0.000000 0.332758 0.801881
0.000000 0.353066 0.811946
0.491962 0.352490 0.813350
0.807073 0.329865 0.811776
0.972516 0.288064 0.777573
1.000000 0.372526 0.747348
0.000000 0.597716 0.835153
0.000000 0.603835 0.836976
0.000000 0.615191 0.839962
0.000000 0.622609 0.845379
0.000000 0.652133 0.849476
0.380350 0.681797 0.856354
0.740988 0.705980 0.859720
0.930086 0.701248 0.846412
0.996055 0.653132 0.804789
0.000000 0.822297 0.863888
0.000000 0.823672 0.863368
0.000000 0.827727 0.863154
0.000000 0.837002 0.865721
0.000000 0.852956 0.870670
0.406021 0.860446 0.871214
0.712039 0.871566 0.871841
0.881110 0.871048 0.876515
0.951526 0.845027 0.837571
0.000000 0.925389 0.856397
0.000000 0.925376 0.857026
0.000000 0.925350 0.855978
0.000000 0.925216 0.855562
0.000000 0.926763 0.856010
0.477773 0.928944 0.856179
0.695278 0.926855 0.853666
0.841896 0.926907 0.854862
0.931243 0.924359 0.841621
0.178657 0.000000 0.336628
0.196377 0.000000 0.338634
0.226105 0.000000 0.342741
0.278427 0.000000 0.355852
0.349264 0.000000 0.372061
0.464172 0.000000 0.399747
0.627572 0.000000 0.448581
0.824947 0.000000 0.532118
0.965261 0.000000 0.577956
0.064576 0.000000 0.474105
0.095641 0.000000 0.479965
0.135076 0.000000 0.482860
0.193448 0.000000 0.494463
0.272811 0.000000 0.509526
0.413246 0.000000 0.540042
0.648801 0.000000 0.589406
0.850454 0.000000 0.598596
0.975653 0.000000 0.616079
0.000000 0.000000 0.643593
0.000000 0.000000 0.647453
0.000000 0.000000 0.647951
0.093263 0.000000 0.651771
0.232906 0.000000 0.649727
0.393898 0.000000 0.660908
0.644230 0.000000 0.676177
0.884672 0.000000 0.675732
0.994872 0.000000 0.657386
0.000000 0.000000 0.756855
0.000000 0.000000 0.756797
0.000000 0.000000 0.757131
0.000000 0.000000 0.754483
0.194939 0.000000 0.754467
0.388790 0.000000 0.758051
0.660719 0.000000 0.756770
0.916058 0.000000 0.756285
1.000000 0.000000 0.707637
0.000000 0.131625 0.815769
0.000000 0.131256 0.817839
0.000000 0.132837 0.820148
0.000000 0.137042 0.820832
0.146648 0.131161 0.820780
0.391738 0.094604 0.813292
0.675629 0.000000 0.816231
0.939837 0.000000 0.812035
1.000000 0.000000 0.764620
0.000000 0.264859 0.854471
0.000000 0.267569 0.855770
0.000000 0.270738 0.856074
0.000000 0.280968 0.857720
0.000000 0.286206 0.863202
0.364347 0.287650 0.864666
0.682315 0.253037 0.858720
0.941429 0.221261 0.857488
1.000000 0.135077 0.822628
0.000000 0.454253 0.882659
0.000000 0.455331 0.883531
0.000000 0.457441 0.885269
0.000000 0.463126 0.887277
0.000000 0.483378 0.888674
0.292889 0.504480 0.892663
0.663133 0.502611 0.891899
0.921419 0.500092 0.888645
1.000000 0.488544 0.869217
0.000000 0.745463 0.905075
0.000000 0.746530 0.905602
0.000000 0.755011 0.905183
0.000000 0.760856 0.906561
0.000000 0.771233 0.909043
0.000000 0.783729 0.910874
0.583799 0.803288 0.912705
0.844343 0.814944 0.913559
0.960975 0.817368 0.909688
0.000000 0.904499 0.917612
0.000000 0.904654 0.917901
0.000000 0.904930 0.918477
0.000000 0.908208 0.919519
0.000000 0.912409 0.920939
0.325730 0.916409 0.922542
0.645347 0.919308 0.923215
0.821054 0.924315 0.922090
0.930356 0.926171 0.926540
