Assets/Lutify-Free-LUTs-Pack/Lutify Free LUTs Pack/Colour Film Boost Pro - Film Boost 10/Lutify.me-FilmBoost10-SLog3Venice-to-Rec709.cube
# Created with: fylm.ai - Colour Grading and Collaboration Software in Cloud 
# Website: https://fylm.ai 
# META
# Option: Gamut compress
# Block 1: IDT | Sony Venice S-Log3 S-Gamut3
# Block 2: colourMatch | Blending Mode: Normal | {"ColorSpace":0,"CrossCovarianceLimit":50,"ReshapingIterations":1,"PercentSaturationShift":100,"PercentShadingShift":100,"ExtraShading":true,"PercentTint":100,"PercentModified":100}
# Block 3: subtractiveColour | Blending Mode: Normal | {"sliders":{"gainY":0.55,"C":0.3,"M":0.3,"Y":0.3}}
# Block 4: LUT | Filmic Curve Response: Low Contrast 2 (100%)
# Block 5: logPrimaries | Blending Mode: Normal | {"wheels":{"shadows":{"Y":"0","R":"1","G":"1","B":"1"},"midtones":{"Y":"0","R":"1","G":"1","B":"1"},"highlights":{"Y":"0","R":"1","G":"1","B":"1"},"offset":{"Y":"0","R":"1","G":"1","B":"1"}},"sliders":{"shadows":{"Y":0,"R":-0.085,"G":0.024,"B":0.134},"midtones":{"Y":0,"R":0,"G":-0.023,"B":0},"highlights":{"Y":0,"R":0,"G":0,"B":0},"offset":{"Y":0,"R":0.012,"G":-0.012,"B":0}}}
# Block 6: HSL | Blending Mode: Normal | {"hue":{"Reds":0,"Yellows":0,"Greens":0,"Cyans":0,"Blues":0,"Magentas":0},"saturation":{"Reds":1,"Yellows":1,"Greens":1,"Cyans":1,"Blues":1,"Magentas":1},"luminance":{"Reds":0.9,"Yellows":0.9,"Greens":0.9,"Cyans":0.9,"Blues":0.9,"Magentas":0.9},"lum_sat":{"Blacks":1,"Shadows":1,"Midtones":1,"Highlights":1,"Whites":1},"sat_sat":{"10":1,"20":1,"30":1,"40":1,"50":1}}
# Block 7: ODT | Rec709
TITLE "Lutify.me-FilmBoost10-SLog3Venice-to-Rec709" 
LUT_3D_SIZE 33
0.000000 0.000000 0.000000
0.000000 0.000000 0.000000
0.000000 0.000000 0.000000
0.000000 0.000000 0.000000
0.000000 0.000000 0.000000
0.037452 0.000000 0.000000
0.067891 0.000000 0.000000
0.099180 0.000000 0.000000
0.124818 0.000000 0.000000
0.150233 0.000000 0.000000
0.182597 0.000000 0.000000
0.214525 0.000000 0.000000
0.255913 0.000000 0.000000
0.301910 0.000000 0.000000
0.351569 0.000000 0.000000
0.401590 0.000000 0.000000
0.465072 0.000000 0.000000
0.541873 0.000000 0.000000
0.606287 0.000000 0.000000
0.681219 0.000000 0.014275
0.762807 0.000000 0.039866
0.833409 0.000000 0.058541
0.902344 0.000000 0.081401
0.960519 0.000000 0.109545
1.000000 0.000000 0.146716
1.000000 0.000000 0.185006
1.000000 0.153663 0.223434
1.000000 0.276925 0.271052
1.000000 0.370547 0.326361
1.000000 0.448934 0.376102
1.000000 0.527164 0.432648
1.000000 0.609457 0.494671
1.000000 0.678251 0.559284
0.000000 0.000000 0.000000
0.000000 0.000000 0.000000
0.000000 0.000000 0.000000
0.000000 0.000000 0.000000
0.000000 0.000000 0.000000
0.037268 0.000000 0.000000
0.068236 0.000000 0.000000
0.099180 0.000000 0.000000
0.124818 0.000000 0.000000
0.151974 0.000000 0.000000
0.183711 0.000000 0.000000
0.219053 0.000000 0.000000
0.261245 0.000000 0.000000
0.308060 0.000000 0.000000
0.359028 0.000000 0.000000
0.404237 0.000000 0.000000
0.471303 0.000000 0.000000
0.542131 0.000000 0.000000
0.609897 0.000000 0.000000
0.681221 0.000000 0.011830
0.762788 0.000000 0.039295
0.833382 0.000000 0.058263
0.902846 0.000000 0.083201
0.962847 0.000000 0.109330
1.000000 0.000000 0.146402
1.000000 0.000000 0.184678
1.000000 0.153663 0.223434
1.000000 0.276925 0.271052
1.000000 0.370547 0.326361
1.000000 0.448934 0.376102
1.000000 0.527164 0.432648
1.000000 0.609457 0.494671
1.000000 0.678251 0.559284
0.000000 0.000000 0.000000
0.000000 0.000000 0.000000
0.000000 0.000000 0.000000
0.000000 0.000000 0.000000
0.000000 0.000000 0.000000
0.037191 0.000000 0.000000
0.069957 0.000000 0.000000
0.101701 0.000000 0.000000
0.126707 0.000000 0.000000
0.156932 0.000000 0.000000
0.187830 0.000000 0.000000
0.223753 0.000000 0.000000
0.263594 0.000000 0.000000
0.312544 0.000000 0.000000
0.361304 0.000000 0.000000
0.411727 0.000000 0.000000
0.474275 0.000000 0.000000
0.545603 0.000000 0.000000
0.610162 0.000000 0.000000
0.681486 0.000000 0.012805
0.762774 0.000000 0.038832
0.833327 0.000000 0.057669
0.902779 0.000000 0.082903
0.962847 0.000000 0.109330
1.000000 0.000000 0.146402
1.000000 0.000000 0.184678
1.000000 0.154560 0.226995
1.000000 0.276925 0.271052
1.000000 0.370547 0.326361
1.000000 0.448934 0.376102
1.000000 0.527164 0.432648
1.000000 0.609457 0.494671
1.000000 0.678251 0.559284
0.000000 0.000000 0.000000
0.000000 0.000000 0.000000
0.000000 0.000000 0.000000
0.000000 0.000000 0.000000
0.000000 0.000000 0.000000
0.042961 0.000000 0.000000
0.073868 0.000000 0.000000
0.105722 0.000000 0.000000
0.128894 0.000000 0.000000
0.159530 0.000000 0.000000
0.193221 0.000000 0.000000
0.228744 0.000000 0.000000
0.269524 0.000000 0.000000
0.316959 0.000000 0.000000
0.363533 0.000000 0.000000
0.416826 0.000000 0.000000
0.474312 0.000000 0.000000
0.545853 0.000000 0.000000
0.610430 0.000000 0.000000
0.684932 0.000000 0.008181
0.763320 0.000000 0.040094
0.833882 0.000000 0.059173
0.905755 0.000000 0.082928
0.963010 0.000000 0.110293
1.000000 0.000000 0.146376
1.000000 0.000000 0.184510
1.000000 0.154560 0.226995
1.000000 0.285322 0.270648
1.000000 0.377681 0.325987
1.000000 0.448934 0.376102
1.000000 0.530240 0.432487
1.000000 0.609457 0.494671
1.000000 0.678251 0.559284
0.000000 0.012572 0.000000
0.000000 0.012836 0.000000
0.000000 0.013165 0.000000
0.000000 0.013854 0.000000
0.000000 0.018404 0.000000
0.046293 0.000000 0.000000
0.082254 0.000000 0.000000
0.112361 0.000000 0.000000
0.133687 0.000000 0.000000
0.165031 0.000000 0.000000
0.197501 0.000000 0.000000
0.233911 0.000000 0.000000
0.275282 0.000000 0.000000
0.320811 0.000000 0.000000
0.367956 0.000000 0.000000
0.422182 0.000000 0.000000
0.477499 0.000000 0.000000
0.549334 0.000000 0.000000
0.617404 0.000000 0.000000
0.685462 0.000000 0.012731
0.763309 0.000000 0.039758
0.844066 0.000000 0.058811
0.905686 0.000000 0.082618
0.962947 0.000000 0.110134
1.000000 0.000000 0.146376
1.000000 0.000000 0.184510
1.000000 0.161272 0.226809
1.000000 0.285322 0.270648
1.000000 0.377681 0.325987
1.000000 0.448934 0.376102
1.000000 0.530240 0.432487
1.000000 0.609457 0.494671
1.000000 0.678251 0.559284
0.000000 0.042844 0.000000
0.000000 0.042052 0.000000
0.000000 0.042258 0.000000
0.000000 0.043471 0.000000
0.000000 0.044935 0.000000
0.032182 0.045026 0.000000
0.073543 0.032414 0.000000
0.111248 0.000000 0.000000
0.140833 0.000000 0.000000
0.174008 0.000000 0.000000
0.205379 0.000000 0.000000
0.240036 0.000000 0.000000
0.280497 0.000000 0.000000
0.324648 0.000000 0.000000
0.372454 0.000000 0.000000
0.424830 0.000000 0.000000
0.480500 0.000000 0.000000
0.549595 0.000000 0.000000
0.617925 0.000000 0.000000
0.685728 0.000000 0.013242
0.766780 0.000000 0.039035
0.844575 0.000000 0.059999
0.906144 0.000000 0.084283
0.962883 0.000000 0.109972
1.000000 0.000000 0.147557
1.000000 0.000000 0.184510
1.000000 0.161272 0.226809
1.000000 0.285322 0.270648
1.000000 0.377681 0.325987
1.000000 0.448934 0.376102
1.000000 0.530240 0.432487
1.000000 0.609457 0.494671
1.000000 0.678251 0.559284
0.000000 0.057468 0.000000
0.000000 0.058442 0.000000
0.000000 0.057756 0.000000
0.000000 0.058951 0.000000
0.000000 0.063088 0.000000
0.000000 0.065262 0.000000
0.063134 0.062139 0.000000
0.105733 0.048269 0.000000
0.141856 0.025721 0.000000
0.181115 0.000000 0.000000
0.216914 0.000000 0.000000
0.252376 0.000000 0.000000
0.285397 0.000000 0.000000
0.330481 0.000000 0.000000
0.374795 0.000000 0.000000
0.427689 0.000000 0.000000
0.480747 0.000000 0.000000
0.553102 0.000000 0.000000
0.621562 0.000000 0.000000
0.685730 0.000000 0.010502
0.766757 0.000000 0.038252
0.844540 0.000000 0.059657
0.906108 0.000000 0.084123
0.962753 0.000000 0.109638
1.000000 0.000000 0.147223
1.000000 0.000000 0.187273
1.000000 0.173925 0.226424
1.000000 0.290164 0.270846
1.000000 0.377681 0.325987
1.000000 0.455477 0.375758
1.000000 0.530240 0.432487
1.000000 0.609457 0.494671
1.000000 0.678251 0.559284
0.000000 0.075622 0.000000
0.000000 0.078066 0.000000
0.000000 0.078315 0.000000
0.000000 0.078649 0.000000
0.000000 0.082337 0.000000
0.000000 0.085520 0.000000
0.000000 0.087280 0.000000
0.099258 0.079611 0.000000
0.143273 0.062127 0.000000
0.185303 0.038017 0.000000
0.225077 0.000000 0.000000
0.263847 0.000000 0.000000
0.295649 0.000000 0.000000
0.336562 0.000000 0.000000
0.384107 0.000000 0.000000
0.430584 0.000000 0.000000
0.486994 0.000000 0.000000
0.556644 0.000000 0.000000
0.621849 0.000000 0.000000
0.689708 0.000000 0.012113
0.767008 0.000000 0.038201
0.844485 0.000000 0.059117
0.905996 0.000000 0.083622
0.965105 0.000000 0.109564
1.000000 0.000000 0.147052
1.000000 0.000000 0.187256
1.000000 0.173925 0.226424
1.000000 0.290481 0.272945
1.000000 0.381235 0.325797
1.000000 0.455477 0.375758
1.000000 0.530240 0.432487
1.000000 0.609457 0.494671
1.000000 0.678251 0.559284
0.000000 0.096961 0.000000
0.000000 0.099198 0.000000
0.000000 0.102495 0.000000
0.000000 0.102797 0.000000
0.000000 0.104072 0.000000
0.000000 0.111407 0.000000
0.000000 0.115332 0.000000
0.070307 0.111870 0.000000
0.139764 0.100732 0.000000
0.190023 0.080661 0.000000
0.232105 0.055998 0.000000
0.270885 0.000000 0.000000
0.304763 0.000000 0.000000
0.349160 0.000000 0.000000
0.389153 0.000000 0.000000
0.438931 0.000000 0.000000
0.493540 0.000000 0.000000
0.566528 0.000000 0.000000
0.625271 0.000000 0.000000
0.690243 0.000000 0.010997
0.770446 0.000000 0.036252
0.847724 0.000000 0.057849
0.906406 0.000000 0.085124
0.965269 0.000000 0.111147
1.000000 0.000000 0.146836
1.000000 0.000000 0.187079
1.000000 0.180218 0.226579
1.000000 0.294573 0.272739
1.000000 0.381235 0.325797
1.000000 0.455477 0.375758
1.000000 0.530240 0.432487
1.000000 0.612374 0.494522
1.000000 0.680786 0.559172
0.000000 0.123307 0.000000
0.000000 0.124221 0.000000
0.000000 0.128113 0.000000
0.000000 0.132258 0.000000
0.000000 0.132852 0.000000
0.000000 0.141038 0.000000
0.000000 0.144360 0.000000
0.000000 0.145802 0.000000
0.103045 0.145705 0.000000
0.183606 0.131421 0.000000
0.238699 0.105255 0.000000
0.281073 0.080255 0.000000
0.316668 0.042360 0.000000
0.360777 0.000000 0.000000
0.404617 0.000000 0.000000
0.444874 0.000000 0.000000
0.506129 0.000000 0.000000
0.573700 0.000000 0.000000
0.635709 0.000000 0.000000
0.697410 0.000000 0.000000
0.770958 0.000000 0.036465
0.848141 0.000000 0.058232
0.909139 0.000000 0.084228
0.969718 0.000000 0.110601
1.000000 0.000000 0.149388
1.000000 0.000000 0.186714
1.000000 0.186423 0.228180
1.000000 0.294573 0.272739
1.000000 0.385209 0.325840
1.000000 0.455477 0.375758
1.000000 0.533319 0.432326
1.000000 0.612374 0.494522
1.000000 0.680786 0.559172
0.000000 0.156032 0.000000
0.000000 0.153740 0.000000
0.000000 0.157242 0.000000
0.000000 0.160020 0.000000
0.000000 0.160718 0.000000
0.000000 0.167724 0.000000
0.000000 0.172390 0.000000
0.000000 0.181128 0.000000
0.000000 0.180012 0.000000
0.151219 0.177963 0.000000
0.231857 0.156949 0.000000
0.285109 0.133113 0.000000
0.325680 0.109292 0.000000
0.367061 0.080285 0.000000
0.416450 0.000000 0.000000
0.463263 0.000000 0.000000
0.513012 0.000000 0.000000
0.581457 0.000000 0.000000
0.642852 0.000000 0.000000
0.704849 0.000000 0.000000
0.775192 0.000000 0.035997
0.848542 0.000000 0.058485
0.912300 0.000000 0.085137
0.969751 0.000000 0.111949
1.000000 0.000000 0.148836
1.000000 0.000000 0.187913
1.000000 0.197590 0.227771
1.000000 0.298635 0.272530
1.000000 0.385509 0.328315
1.000000 0.458747 0.375584
1.000000 0.533319 0.432326
1.000000 0.612977 0.500406
1.000000 0.680786 0.559172
0.000000 0.183227 0.000000
0.000000 0.185891 0.000000
0.000000 0.185958 0.000000
0.000000 0.190642 0.000000
0.000000 0.195581 0.000000
0.000000 0.198091 0.000000
0.000000 0.205068 0.000000
0.000000 0.210821 0.000000
0.000000 0.219050 0.000000
0.051262 0.216446 0.000000
0.206261 0.207364 0.000000
0.281078 0.184995 0.000000
0.333248 0.162605 0.000000
0.385161 0.134462 0.000000
0.427032 0.106290 0.000000
0.480267 0.051155 0.000000
0.524676 0.000000 0.000000
0.592652 0.000000 0.000000
0.653968 0.000000 0.000000
0.712295 0.000000 0.000000
0.779366 0.000000 0.033247
0.852525 0.000000 0.059602
0.915347 0.000000 0.085754
0.971979 0.000000 0.113164
1.000000 0.000000 0.150977
1.000000 0.000000 0.190517
1.000000 0.208421 0.227525
1.000000 0.310656 0.271888
1.000000 0.389039 0.328124
1.000000 0.462017 0.375408
1.000000 0.537000 0.437885
1.000000 0.615897 0.500258
1.000000 0.680786 0.559172
0.000000 0.212806 0.000000
0.000000 0.217332 0.000000
0.000000 0.217331 0.000000
0.000000 0.224016 0.000000
0.000000 0.230595 0.000000
0.000000 0.231880 0.000000
0.000000 0.240091 0.000000
0.000000 0.247751 0.000000
0.000000 0.250513 0.000000
0.000000 0.255674 0.000000
0.126949 0.250299 0.000000
0.256441 0.243361 0.000000
0.325972 0.225037 0.000000
0.390404 0.195420 0.000000
0.435840 0.172581 0.000000
0.492867 0.142010 0.000000
0.546355 0.097015 0.000000
0.601803 0.000000 0.000000
0.662477 0.000000 0.000000
0.720535 0.000000 0.000000
0.794500 0.000000 0.031746
0.859451 0.000000 0.057736
0.918072 0.000000 0.085168
0.971829 0.000000 0.114210
1.000000 0.000000 0.152982
1.000000 0.081824 0.190066
1.000000 0.228949 0.228456
1.000000 0.315235 0.274002
1.000000 0.396080 0.327735
1.000000 0.465286 0.375231
1.000000 0.540082 0.437724
1.000000 0.615897 0.500258
1.000000 0.683311 0.559062
0.000000 0.250886 0.000000
0.000000 0.255766 0.000000
0.000000 0.259069 0.000000
0.000000 0.259698 0.000000
0.000000 0.263789 0.000000
0.000000 0.273853 0.000000
0.000000 0.278185 0.000000
0.000000 0.286687 0.000000
0.000000 0.292021 0.000000
0.000000 0.299001 0.000000
0.000000 0.303085 0.000000
0.161356 0.295188 0.000000
0.285408 0.293018 0.000000
0.383571 0.265549 0.000000
0.450355 0.238025 0.000000
0.503636 0.213509 0.000000
0.561178 0.192133 0.000000
0.615382 0.153343 0.000000
0.672538 0.099114 0.000000
0.729432 0.000000 0.000000
0.802772 0.000000 0.020824
0.866449 0.000000 0.056301
0.923284 0.000000 0.083435
0.973673 0.000000 0.114748
1.000000 0.000000 0.154538
1.000000 0.133077 0.190757
1.000000 0.248162 0.227679
1.000000 0.326947 0.273336
1.000000 0.403692 0.332362
1.000000 0.468554 0.375052
1.000000 0.546252 0.437398
1.000000 0.618820 0.500110
1.000000 0.683584 0.562039
0.000000 0.281541 0.000000
0.000000 0.290729 0.000000
0.000000 0.294491 0.000000
0.000000 0.300766 0.000000
0.000000 0.301749 0.000000
0.000000 0.309233 0.000000
0.000000 0.322074 0.000000
0.000000 0.326590 0.000000
0.000000 0.337111 0.000000
0.000000 0.343145 0.000000
0.000000 0.346599 0.000000
0.000000 0.351416 0.000000
0.187126 0.347041 0.000000
0.334810 0.339775 0.000000
0.441064 0.311602 0.000000
0.506164 0.285339 0.000000
0.568176 0.266655 0.000000
0.632707 0.237649 0.000000
0.686379 0.203987 0.000000
0.749480 0.167768 0.000000
0.810191 0.051320 0.000000
0.873838 0.000000 0.054598
0.926394 0.000000 0.085886
0.975489 0.000000 0.117106
1.000000 0.043320 0.155649
1.000000 0.175155 0.194291
1.000000 0.266731 0.228706
1.000000 0.342895 0.276740
1.000000 0.410684 0.331966
1.000000 0.475685 0.380213
1.000000 0.549340 0.437234
1.000000 0.624675 0.499812
1.000000 0.686099 0.561930
0.000000 0.326404 0.000000
0.000000 0.330646 0.000000
0.000000 0.332787 0.000000
0.000000 0.337609 0.000000
0.000000 0.347608 0.000000
0.000000 0.349190 0.000000
0.000000 0.361150 0.000000
0.000000 0.370798 0.000000
0.000000 0.385300 0.000000
0.000000 0.389737 0.000000
0.000000 0.398163 0.000000
0.000000 0.399429 0.000000
0.000000 0.404435 0.000000
0.225216 0.399676 0.000000
0.384548 0.394768 0.000000
0.499872 0.360123 0.000000
0.575833 0.333167 0.000000
0.648372 0.316010 0.000000
0.703359 0.286139 0.000000
0.757822 0.261591 0.000000
0.818856 0.225480 0.000000
0.879229 0.148012 0.030300
0.928681 0.095348 0.085624
0.976347 0.103035 0.116650
1.000000 0.158291 0.159006
1.000000 0.223957 0.195446
1.000000 0.297351 0.230790
1.000000 0.358232 0.275998
1.000000 0.421787 0.334141
1.000000 0.486390 0.380242
1.000000 0.556830 0.440394
1.000000 0.627905 0.502621
1.000000 0.688604 0.561822
0.000000 0.368970 0.000000
0.000000 0.376212 0.000000
0.000000 0.381121 0.000000
0.000000 0.381409 0.000000
0.000000 0.390373 0.000000
0.000000 0.399576 0.000000
0.000000 0.402425 0.000000
0.000000 0.418234 0.000000
0.000000 0.436635 0.000000
0.000000 0.448657 0.000000
0.000000 0.454181 0.000000
0.000000 0.464008 0.000000
0.000000 0.464382 0.000000
0.000000 0.466313 0.000000
0.276997 0.462903 0.000000
0.446223 0.451445 0.000000
0.563850 0.423422 0.000000
0.647406 0.394069 0.000000
0.713709 0.373028 0.000000
0.766319 0.342218 0.000000
0.825586 0.315329 0.000000
0.889485 0.283394 0.000000
0.935969 0.234830 0.071125
0.976616 0.209681 0.119365
1.000000 0.228568 0.159398
1.000000 0.270602 0.196303
1.000000 0.322665 0.235081
1.000000 0.385001 0.280919
1.000000 0.435929 0.335887
1.000000 0.496433 0.382465
1.000000 0.566364 0.442780
1.000000 0.634255 0.502648
1.000000 0.691100 0.561715
0.000000 0.417167 0.000000
0.000000 0.425222 0.000000
0.000000 0.430670 0.000000
0.000000 0.430833 0.000000
0.000000 0.438042 0.000000
0.000000 0.445496 0.000000
0.000000 0.459404 0.000000
0.000000 0.467534 0.000000
0.000000 0.483715 0.000000
0.000000 0.498253 0.000000
0.000000 0.515056 0.000000
0.000000 0.524412 0.000000
0.000000 0.533956 0.000000
0.000000 0.533623 0.000000
0.000000 0.538199 0.000000
0.326905 0.528556 0.000000
0.503325 0.522515 0.000000
0.630445 0.492160 0.000000
0.709772 0.463182 0.000000
0.774851 0.435875 0.000000
0.830899 0.416981 0.000000
0.890375 0.393493 0.000000
0.938138 0.353990 0.043277
0.974785 0.320932 0.109941
1.000000 0.308600 0.161658
1.000000 0.330169 0.200512
1.000000 0.362487 0.238421
1.000000 0.407584 0.284122
1.000000 0.456600 0.334599
1.000000 0.509429 0.381712
1.000000 0.578702 0.442108
1.000000 0.640325 0.505321
1.000000 0.696816 0.564842
0.000000 0.464377 0.088111
0.000000 0.467229 0.074674
0.000000 0.475810 0.050960
0.000000 0.481560 0.000000
0.000000 0.491949 0.000000
0.000000 0.493886 0.000000
0.000000 0.505337 0.000000
0.000000 0.521994 0.000000
0.000000 0.529594 0.000000
0.000000 0.546841 0.000000
0.000000 0.566121 0.000000
0.000000 0.577271 0.000000
0.000000 0.588055 0.000000
0.000000 0.596626 0.000000
0.000000 0.596151 0.000000
0.000000 0.599787 0.000000
0.399383 0.592969 0.000000
0.568862 0.582141 0.000000
0.694005 0.551685 0.000000
0.766698 0.523449 0.000000
0.838656 0.495968 0.000000
0.890827 0.479529 0.000000
0.934313 0.456614 0.000000
0.974799 0.423957 0.105537
1.000000 0.398480 0.158014
1.000000 0.388689 0.200173
1.000000 0.400766 0.241517
1.000000 0.436988 0.286805
1.000000 0.478008 0.338748
1.000000 0.526938 0.389458
1.000000 0.591793 0.444633
1.000000 0.649205 0.507867
1.000000 0.701974 0.567628
0.000000 0.513481 0.160915
0.000000 0.519363 0.143360
0.000000 0.522309 0.135282
0.000000 0.531340 0.124352
0.000000 0.539051 0.102432
0.000000 0.549248 0.075184
0.000000 0.555397 0.062731
0.000000 0.569229 0.000000
0.000000 0.582605 0.000000
0.000000 0.590860 0.000000
0.000000 0.609665 0.000000
0.000000 0.632669 0.000000
0.000000 0.641217 0.000000
0.000000 0.652605 0.000000
0.000000 0.658223 0.000000
0.000000 0.659186 0.000000
0.216031 0.662830 0.000000
0.471979 0.654565 0.000000
0.640527 0.647298 0.000000
0.757068 0.613338 0.000000
0.830539 0.584866 0.000000
0.888201 0.557515 0.000000
0.929402 0.543218 0.000000
0.966677 0.521708 0.068871
1.000000 0.495189 0.158479
1.000000 0.467355 0.202493
1.000000 0.456167 0.242484
1.000000 0.476381 0.286402
1.000000 0.509381 0.339817
1.000000 0.553183 0.390724
1.000000 0.611233 0.452363
1.000000 0.660512 0.507311
1.000000 0.709236 0.567338
0.000000 0.566828 0.214654
0.000000 0.578846 0.197606
0.000000 0.578852 0.190456
0.000000 0.585054 0.181592
0.000000 0.592722 0.167820
0.000000 0.603457 0.143806
0.000000 0.612161 0.136104
0.000000 0.619910 0.116750
0.000000 0.635818 0.092996
0.000000 0.650214 0.060078
0.000000 0.663278 0.000000
0.000000 0.680509 0.000000
0.000000 0.698739 0.000000
0.000000 0.709916 0.000000
0.000000 0.718474 0.000000
0.000000 0.724207 0.000000
0.000000 0.726844 0.000000
0.332227 0.723181 0.000000
0.541608 0.715100 0.000000
0.705522 0.704884 0.000000
0.815647 0.678118 0.000000
0.874898 0.650381 0.000000
0.922685 0.632591 0.000000
0.957285 0.612018 0.032657
0.990880 0.589062 0.152728
1.000000 0.562058 0.209051
1.000000 0.539737 0.249561
1.000000 0.529588 0.289214
1.000000 0.554635 0.347897
1.000000 0.587078 0.400468
1.000000 0.630165 0.451623
1.000000 0.675332 0.512945
1.000000 0.716648 0.570060
0.000000 0.621031 0.262449
0.000000 0.627102 0.253449
0.000000 0.633185 0.236615
0.000000 0.639623 0.227596
0.000000 0.644320 0.217080
0.000000 0.652271 0.205628
0.000000 0.660642 0.196653
0.000000 0.668427 0.186324
0.000000 0.680914 0.175014
0.000000 0.694855 0.166383
0.000000 0.706682 0.144970
0.000000 0.720985 0.136656
0.000000 0.738748 0.114439
0.000000 0.755897 0.085102
0.000000 0.765039 0.078841
0.000000 0.772180 0.000000
0.000000 0.776790 0.000000
0.000000 0.775956 0.000000
0.427396 0.775631 0.000000
0.613908 0.770102 0.000000
0.758177 0.758295 0.000000
0.856612 0.731769 0.000000
0.908749 0.707716 0.000000
0.945069 0.694861 0.000000
0.977696 0.679463 0.143972
1.000000 0.657825 0.213674
1.000000 0.638817 0.258354
1.000000 0.614671 0.305297
1.000000 0.609900 0.358528
1.000000 0.627023 0.407041
1.000000 0.655040 0.456183
1.000000 0.692201 0.512859
1.000000 0.727021 0.573418
0.000000 0.666449 0.317359
0.000000 0.669490 0.313967
0.000000 0.675585 0.298597
0.000000 0.685438 0.280326
0.000000 0.692799 0.271344
0.000000 0.694858 0.269583
0.000000 0.706435 0.249010
0.000000 0.716674 0.244007
0.000000 0.725396 0.231654
0.000000 0.738753 0.234215
0.000000 0.754494 0.217776
0.000000 0.769781 0.202918
0.000000 0.777709 0.201359
0.000000 0.792861 0.194306
0.000000 0.805476 0.177751
0.000000 0.815142 0.180817
0.000000 0.817701 0.155181
0.000000 0.824673 0.128561
0.198711 0.821915 0.077352
0.526468 0.816004 0.000000
0.680325 0.810514 0.000000
0.820777 0.799100 0.000000
0.890468 0.780064 0.000000
0.931065 0.760359 0.000000
0.965491 0.746679 0.150484
0.995212 0.729933 0.217412
1.000000 0.713216 0.264038
1.000000 0.691593 0.319363
1.000000 0.677041 0.375343
1.000000 0.669157 0.414219
1.000000 0.685621 0.464517
1.000000 0.710892 0.518089
1.000000 0.743803 0.582274
0.000000 0.714678 0.379915
0.000000 0.717664 0.363839
0.000000 0.726431 0.359415
0.000000 0.733232 0.349901
0.000000 0.740141 0.328041
0.000000 0.747614 0.325397
0.000000 0.749715 0.320699
0.000000 0.762100 0.310004
0.000000 0.774420 0.302668
0.000000 0.781022 0.298367
0.000000 0.792382 0.293136
0.000000 0.805344 0.286495
0.000000 0.816750 0.275823
0.000000 0.823597 0.276079
0.000000 0.836012 0.272113
0.000000 0.847755 0.258941
0.000000 0.858431 0.263155
0.000000 0.858356 0.245704
0.000000 0.859193 0.231715
0.384209 0.855582 0.211280
0.587708 0.851681 0.186854
0.758363 0.844734 0.177788
0.856508 0.837414 0.151157
0.911015 0.820452 0.115239
0.950641 0.804124 0.172231
0.981467 0.789818 0.237948
1.000000 0.777800 0.281621
1.000000 0.761282 0.328602
1.000000 0.746535 0.394014
1.000000 0.725293 0.433369
1.000000 0.722128 0.475598
1.000000 0.736747 0.529618
1.000000 0.759227 0.587923
0.000000 0.765015 0.442962
0.000000 0.770290 0.429479
0.000000 0.772921 0.413155
0.000000 0.776874 0.410869
0.000000 0.783021 0.401598
0.000000 0.792256 0.392735
0.000000 0.796336 0.394017
0.000000 0.802440 0.381204
0.000000 0.810649 0.368052
0.000000 0.820291 0.363166
0.000000 0.825784 0.369112
0.000000 0.836109 0.359333
0.000000 0.847698 0.359320
0.000000 0.857515 0.353840
0.000000 0.863104 0.355183
0.000000 0.873599 0.356632
0.000000 0.881399 0.348305
0.000000 0.890398 0.348338
0.000000 0.889885 0.332734
0.033855 0.889074 0.323392
0.500969 0.884667 0.300480
0.686576 0.878319 0.286220
0.806493 0.873130 0.281580
0.888778 0.867111 0.266282
0.934275 0.854136 0.238326
0.966942 0.837274 0.250535
0.990759 0.826590 0.297220
1.000000 0.814688 0.352595
1.000000 0.803590 0.407579
1.000000 0.786220 0.454664
1.000000 0.771349 0.493293
1.000000 0.769344 0.538980
1.000000 0.781969 0.594318
0.000000 0.809086 0.495909
0.000000 0.818016 0.481971
0.000000 0.820845 0.472755
0.000000 0.824006 0.470476
0.000000 0.829356 0.458447
0.000000 0.834692 0.449859
0.000000 0.840123 0.448112
