Assets/Lutify-Free-LUTs-Pack/Lutify Free LUTs Pack/Colour Film Boost Pro - Film Boost 10/Lutify.me-FilmBoost10-DragonColor2RLF-to-Rec709.cube
# Created with: fylm.ai - Colour Grading and Collaboration Software in Cloud 
# Website: https://fylm.ai 
# META
# Option: Gamut compress
# Block 1: IDT | RED DragonColor2 REDLogFilm
# Block 2: colourMatch | Blending Mode: Normal | {"ColorSpace":0,"CrossCovarianceLimit":50,"ReshapingIterations":1,"PercentSaturationShift":100,"PercentShadingShift":100,"ExtraShading":true,"PercentTint":100,"PercentModified":100}
# Block 3: subtractiveColour | Blending Mode: Normal | {"sliders":{"gainY":0.55,"C":0.3,"M":0.3,"Y":0.3}}
# Block 4: LUT | Filmic Curve Response: Low Contrast 2 (100%)
# Block 5: logPrimaries | Blending Mode: Normal | {"wheels":{"shadows":{"Y":"0","R":"1","G":"1","B":"1"},"midtones":{"Y":"0","R":"1","G":"1","B":"1"},"highlights":{"Y":"0","R":"1","G":"1","B":"1"},"offset":{"Y":"0","R":"1","G":"1","B":"1"}},"sliders":{"shadows":{"Y":0,"R":-0.085,"G":0.024,"B":0.134},"midtones":{"Y":0,"R":0,"G":-0.023,"B":0},"highlights":{"Y":0,"R":0,"G":0,"B":0},"offset":{"Y":0,"R":0.012,"G":-0.012,"B":0}}}
# Block 6: HSL | Blending Mode: Normal | {"hue":{"Reds":0,"Yellows":0,"Greens":0,"Cyans":0,"Blues":0,"Magentas":0},"saturation":{"Reds":1,"Yellows":1,"Greens":1,"Cyans":1,"Blues":1,"Magentas":1},"luminance":{"Reds":0.9,"Yellows":0.9,"Greens":0.9,"Cyans":0.9,"Blues":0.9,"Magentas":0.9},"lum_sat":{"Blacks":1,"Shadows":1,"Midtones":1,"Highlights":1,"Whites":1},"sat_sat":{"10":1,"20":1,"30":1,"40":1,"50":1}}
# Block 7: ODT | Rec709
TITLE "Lutify.me-FilmBoost10-DragonColor2RLF-to-Rec709" 
LUT_3D_SIZE 5
0.000000 0.000000 0.000000
0.060092 0.000000 0.000000
0.297175 0.000000 0.000000
0.726320 0.000000 0.000000
1.000000 0.312560 0.059139
0.000000 0.073295 0.000000
0.098477 0.070953 0.000000
0.332708 0.000000 0.000000
0.730065 0.000000 0.000000
1.000000 0.317039 0.062543
0.000000 0.340695 0.000000
0.000000 0.338193 0.000000
0.457327 0.286033 0.000000
0.782906 0.150991 0.000000
1.000000 0.361258 0.061180
0.309768 0.756456 0.000000
0.357503 0.757599 0.000000
0.504179 0.753267 0.000000
0.857521 0.686941 0.000000
1.000000 0.625788 0.000000
0.830701 0.952629 0.552569
0.830701 0.952629 0.552569
0.837840 0.952167 0.549752
0.878507 0.950668 0.528464
0.993461 0.932193 0.378664
0.000000 0.000000 0.062483
0.052665 0.000000 0.054237
0.292303 0.000000 0.024681
0.729405 0.000000 0.000000
1.000000 0.316245 0.090561
0.000000 0.072735 0.114978
0.073871 0.090565 0.104747
0.329163 0.000000 0.034310
0.741078 0.000000 0.000000
1.000000 0.320188 0.089373
0.000000 0.366757 0.000000
0.000000 0.366394 0.000000
0.441477 0.332945 0.000000
0.789238 0.175168 0.000000
1.000000 0.364324 0.091137
0.291211 0.764582 0.000000
0.329308 0.763650 0.000000
0.497796 0.758931 0.000000
0.858750 0.702583 0.000000
1.000000 0.635456 0.016471
0.830945 0.952827 0.562175
0.830945 0.952827 0.562175
0.837994 0.952300 0.556133
0.878597 0.950804 0.534671
0.992721 0.932801 0.393125
0.000000 0.000000 0.273474
0.000000 0.000000 0.273591
0.330631 0.000000 0.239521
0.772050 0.000000 0.179484
1.000000 0.344628 0.193585
0.000000 0.054514 0.311111
0.000000 0.059274 0.318506
0.367561 0.000000 0.296620
0.779768 0.000000 0.185767
1.000000 0.352255 0.192748
0.000000 0.386495 0.460706
0.000000 0.404589 0.461822
0.429426 0.434663 0.461191
0.836566 0.231352 0.223086
1.000000 0.394592 0.195760
0.303682 0.792394 0.398816
0.329509 0.794001 0.394908
0.489638 0.790557 0.370152
0.860270 0.760842 0.266217
1.000000 0.656741 0.219118
0.826535 0.954707 0.607655
0.828989 0.954574 0.607754
0.836064 0.954054 0.601537
0.879145 0.951812 0.581934
0.991591 0.935783 0.458302
0.000000 0.177372 0.689450
0.000000 0.180675 0.693241
0.194955 0.177318 0.701547
0.846489 0.000000 0.662664
1.000000 0.412281 0.553097
0.000000 0.189984 0.700048
0.000000 0.193491 0.703018
0.204154 0.195586 0.707119
0.855022 0.000000 0.671704
1.000000 0.420353 0.553376
0.000000 0.309045 0.744159
0.000000 0.312427 0.746957
0.225639 0.336170 0.755914
0.871249 0.297214 0.744023
1.000000 0.460204 0.564164
0.183471 0.810348 0.829093
0.240172 0.810496 0.829652
0.440611 0.815677 0.832903
0.834134 0.824260 0.837277
1.000000 0.714768 0.620871
0.824763 0.960466 0.799812
0.824763 0.960466 0.799812
0.831720 0.960026 0.797687
0.871070 0.959556 0.793731
0.981805 0.950174 0.733725
0.377193 0.548930 0.944741
0.381599 0.552380 0.944647
0.426297 0.555942 0.944993
0.704156 0.562914 0.941681
1.000000 0.540358 0.922354
0.374567 0.552354 0.944573
0.378989 0.555809 0.944477
0.424024 0.559392 0.944823
0.708010 0.566421 0.941583
1.000000 0.544453 0.922317
0.373232 0.579456 0.945313
0.380519 0.579496 0.945386
0.426555 0.583170 0.945714
0.710035 0.592406 0.942918
1.000000 0.572661 0.925351
0.409958 0.732992 0.951337
0.418047 0.733042 0.951399
0.471355 0.733337 0.951824
0.734530 0.752527 0.950281
1.000000 0.761167 0.941698
0.813736 0.966663 0.967419
0.813736 0.966663 0.967419
0.821288 0.966509 0.967594
0.864363 0.968510 0.967154
0.967724 0.971311 0.965095
