Assets/Lutify-Free-LUTs-Pack/Lutify Free LUTs Pack/Colour Film Boost Pro - Film Boost 10/Lutify.me-FilmBoost10-BMDFilmGen5-to-Rec709.cube
# Created with: fylm.ai - Colour Grading and Collaboration Software in Cloud 
# Website: https://fylm.ai 
# META
# Option: Gamut compress
# Block 1: IDT | BMD Wide Gamut BMDFilm Gen 5
# Block 2: colourMatch | Blending Mode: Normal | {"ColorSpace":0,"CrossCovarianceLimit":50,"ReshapingIterations":1,"PercentSaturationShift":100,"PercentShadingShift":100,"ExtraShading":true,"PercentTint":100,"PercentModified":100}
# Block 3: subtractiveColour | Blending Mode: Normal | {"sliders":{"gainY":0.55,"C":0.3,"M":0.3,"Y":0.3}}
# Block 4: LUT | Filmic Curve Response: Low Contrast 2 (100%)
# Block 5: logPrimaries | Blending Mode: Normal | {"wheels":{"shadows":{"Y":"0","R":"1","G":"1","B":"1"},"midtones":{"Y":"0","R":"1","G":"1","B":"1"},"highlights":{"Y":"0","R":"1","G":"1","B":"1"},"offset":{"Y":"0","R":"1","G":"1","B":"1"}},"sliders":{"shadows":{"Y":0,"R":-0.085,"G":0.024,"B":0.134},"midtones":{"Y":0,"R":0,"G":-0.023,"B":0},"highlights":{"Y":0,"R":0,"G":0,"B":0},"offset":{"Y":0,"R":0.012,"G":-0.012,"B":0}}}
# Block 6: HSL | Blending Mode: Normal | {"hue":{"Reds":0,"Yellows":0,"Greens":0,"Cyans":0,"Blues":0,"Magentas":0},"saturation":{"Reds":1,"Yellows":1,"Greens":1,"Cyans":1,"Blues":1,"Magentas":1},"luminance":{"Reds":0.9,"Yellows":0.9,"Greens":0.9,"Cyans":0.9,"Blues":0.9,"Magentas":0.9},"lum_sat":{"Blacks":1,"Shadows":1,"Midtones":1,"Highlights":1,"Whites":1},"sat_sat":{"10":1,"20":1,"30":1,"40":1,"50":1}}
# Block 7: ODT | Rec709
TITLE "Lutify.me-FilmBoost10-BMDFilmGen5-to-Rec709" 
LUT_3D_SIZE 9
0.000000 0.000000 0.000000
0.000000 0.000000 0.000000
0.103865 0.000000 0.000000
0.269136 0.000000 0.000000
0.567655 0.000000 0.000000
0.925313 0.000000 0.065765
1.000000 0.430561 0.259004
1.000000 0.760639 0.570971
1.000000 0.922445 0.834407
0.000000 0.000000 0.000000
0.000000 0.011603 0.000000
0.123604 0.000000 0.000000
0.288767 0.000000 0.000000
0.574372 0.000000 0.000000
0.924959 0.000000 0.063252
1.000000 0.430561 0.259004
1.000000 0.760639 0.570971
1.000000 0.922445 0.834407
0.000000 0.099665 0.000000
0.000000 0.111436 0.000000
0.140971 0.105080 0.000000
0.325697 0.000000 0.000000
0.587723 0.000000 0.000000
0.932347 0.000000 0.057832
1.000000 0.437631 0.258352
1.000000 0.764648 0.570894
1.000000 0.922445 0.834407
0.000000 0.272394 0.000000
0.000000 0.279265 0.000000
0.000000 0.284330 0.000000
0.396274 0.242577 0.000000
0.644692 0.170888 0.000000
0.938365 0.087201 0.036084
1.000000 0.452626 0.261945
1.000000 0.766631 0.570860
1.000000 0.923079 0.834436
0.000000 0.534799 0.000000
0.000000 0.537161 0.000000
0.000000 0.538840 0.000000
0.211278 0.538199 0.000000
0.721530 0.464786 0.000000
0.945161 0.466000 0.000000
1.000000 0.540012 0.257848
1.000000 0.778265 0.568258
1.000000 0.923711 0.834465
0.000000 0.823149 0.000000
0.000000 0.822858 0.000000
0.000000 0.822098 0.000000
0.000000 0.823075 0.000000
0.561007 0.811783 0.000000
0.916415 0.750859 0.000000
1.000000 0.775012 0.240234
1.000000 0.819973 0.576798
1.000000 0.927804 0.835511
0.584460 0.957130 0.290826
0.584460 0.957130 0.290826
0.589830 0.956948 0.290947
0.614995 0.955905 0.285656
0.689272 0.954163 0.279141
0.848031 0.947893 0.248951
0.994933 0.925145 0.106601
1.000000 0.926655 0.610110
1.000000 0.945601 0.841281
0.854046 1.000000 0.705348
0.854046 1.000000 0.705348
0.855644 1.000000 0.705423
0.855644 1.000000 0.705423
0.861884 1.000000 0.703843
0.890581 1.000000 0.701710
0.954216 0.999465 0.692934
1.000000 0.991945 0.653911
1.000000 0.988740 0.864664
0.957786 1.000000 0.903818
0.957786 1.000000 0.903818
0.957786 1.000000 0.903818
0.957786 1.000000 0.903818
0.958915 1.000000 0.903867
0.961637 1.000000 0.904488
0.971528 1.000000 0.904442
0.999008 1.000000 0.905888
1.000000 1.000000 0.901657
0.000000 0.000000 0.014851
0.000000 0.000000 0.012975
0.096610 0.000000 0.000000
0.259283 0.000000 0.000000
0.567154 0.000000 0.000000
0.927715 0.000000 0.078137
1.000000 0.431417 0.265544
1.000000 0.760639 0.570971
1.000000 0.922445 0.834407
0.000000 0.000000 0.023898
0.000000 0.000000 0.019885
0.115936 0.000000 0.000000
0.276889 0.000000 0.000000
0.574067 0.000000 0.000000
0.927978 0.000000 0.079437
1.000000 0.431417 0.265544
1.000000 0.760639 0.570971
1.000000 0.922445 0.834407
0.000000 0.095985 0.000000
0.000000 0.105269 0.000000
0.122954 0.109629 0.000000
0.312077 0.000000 0.000000
0.594194 0.000000 0.000000
0.935058 0.000000 0.074226
1.000000 0.438486 0.264916
1.000000 0.764648 0.570894
1.000000 0.922445 0.834407
0.000000 0.278647 0.000000
0.000000 0.285422 0.000000
0.000000 0.292719 0.000000
0.367695 0.264389 0.000000
0.639186 0.178121 0.000000
0.940971 0.091394 0.062675
1.000000 0.452910 0.264156
1.000000 0.766631 0.570860
1.000000 0.923079 0.834436
0.000000 0.544360 0.000000
0.000000 0.546932 0.000000
0.000000 0.551466 0.000000
0.000000 0.556355 0.000000
0.690006 0.498677 0.000000
0.945114 0.469537 0.000000
1.000000 0.540580 0.262567
1.000000 0.778458 0.571163
1.000000 0.923711 0.834465
0.000000 0.827256 0.000000
0.000000 0.826960 0.000000
0.000000 0.826369 0.000000
0.000000 0.826859 0.000000
0.561510 0.818548 0.000000
0.913664 0.765963 0.000000
1.000000 0.775606 0.248818
1.000000 0.819973 0.576798
1.000000 0.927804 0.835511
0.585859 0.957396 0.302668
0.585859 0.957396 0.302668
0.591210 0.957214 0.302784
0.616608 0.956240 0.300441
0.690043 0.954363 0.287878
0.848572 0.948166 0.259829
0.993594 0.925974 0.125236
1.000000 0.926812 0.615253
1.000000 0.945601 0.841281
0.854046 1.000000 0.705348
0.854046 1.000000 0.705348
0.854046 1.000000 0.705348
0.855644 1.000000 0.705423
0.861884 1.000000 0.703843
0.890581 1.000000 0.701710
0.954216 0.999465 0.692934
1.000000 0.991968 0.655003
1.000000 0.988740 0.864664
0.957786 1.000000 0.903818
0.957786 1.000000 0.903818
0.957786 1.000000 0.903818
0.957786 1.000000 0.903818
0.958915 1.000000 0.903867
0.961637 1.000000 0.904488
0.971546 1.000000 0.904978
0.999008 1.000000 0.905888
1.000000 1.000000 0.901657
0.000000 0.000000 0.066525
0.000000 0.000000 0.060676
0.078846 0.000000 0.046424
0.250729 0.000000 0.039961
0.572477 0.000000 0.045658
0.931910 0.000000 0.098492
1.000000 0.432275 0.272198
1.000000 0.760851 0.573890
1.000000 0.922445 0.834407
0.000000 0.000000 0.079098
0.000000 0.000000 0.073418
0.088066 0.000000 0.060556
0.272894 0.000000 0.051754
0.583180 0.000000 0.045655
0.931925 0.000000 0.098880
1.000000 0.432275 0.272198
1.000000 0.760851 0.573890
1.000000 0.922445 0.834407
0.000000 0.076245 0.138309
0.000000 0.089165 0.134419
0.094307 0.111596 0.128037
0.315390 0.000000 0.065935
0.591493 0.000000 0.045739
0.939351 0.000000 0.097055
1.000000 0.435812 0.271897
1.000000 0.764856 0.573813
1.000000 0.922445 0.834407
0.000000 0.278797 0.064936
0.000000 0.289812 0.043765
0.000000 0.315536 0.000000
0.344974 0.306443 0.000000
0.650905 0.189835 0.000000
0.945388 0.075114 0.093386
1.000000 0.454052 0.273129
1.000000 0.766837 0.573780
1.000000 0.923079 0.834436
0.000000 0.571966 0.000000
0.000000 0.573835 0.000000
0.000000 0.575305 0.000000
0.000000 0.582854 0.000000
0.682067 0.540838 0.000000
0.946377 0.475294 0.000000
1.000000 0.541720 0.272138
1.000000 0.778458 0.571163
1.000000 0.923711 0.834465
0.000000 0.832747 0.000000
0.000000 0.832448 0.000000
0.000000 0.833706 0.000000
0.000000 0.832320 0.000000
0.554505 0.824859 0.000000
0.913004 0.779660 0.000000
1.000000 0.776400 0.260288
1.000000 0.819973 0.576798
1.000000 0.927804 0.835511
0.581988 0.958730 0.321364
0.587381 0.958548 0.321470
0.592701 0.958367 0.321578
0.618275 0.957463 0.322140
0.691569 0.954762 0.305262
0.847345 0.948841 0.281230
0.992947 0.928142 0.162949
1.000000 0.926891 0.617837
1.000000 0.945601 0.841281
0.854177 1.000000 0.709131
0.854112 1.000000 0.707240
0.854112 1.000000 0.707240
0.855709 1.000000 0.707314
0.861946 1.000000 0.705733
0.890718 1.000000 0.707196
0.954236 0.999514 0.697970
1.000000 0.992060 0.659415
1.000000 0.988740 0.864664
0.957818 1.000000 0.904378
0.957818 1.000000 0.904378
0.957818 1.000000 0.904378
0.957818 1.000000 0.904378
0.958946 1.000000 0.904426
0.961637 1.000000 0.904488
0.971546 1.000000 0.904978
0.999008 1.000000 0.905888
1.000000 1.000000 0.901657
0.000000 0.000000 0.136612
0.000000 0.000000 0.122857
0.041550 0.000000 0.112394
0.239233 0.000000 0.079375
0.563110 0.000000 0.146475
0.938210 0.000000 0.172967
1.000000 0.429523 0.307844
1.000000 0.761062 0.576817
1.000000 0.922445 0.834407
0.000000 0.000000 0.165255
0.000000 0.000000 0.153236
0.029730 0.000000 0.145206
0.245196 0.000000 0.114688
0.576252 0.000000 0.158276
0.938348 0.000000 0.175529
1.000000 0.429523 0.307844
1.000000 0.761062 0.576817
1.000000 0.922445 0.834407
0.000000 0.000000 0.239764
0.000000 0.000000 0.226430
0.000000 0.005768 0.228613
0.291848 0.000000 0.201379
0.602498 0.000000 0.172401
0.943124 0.000000 0.176248
1.000000 0.436602 0.307353
1.000000 0.761062 0.576817
1.000000 0.922445 0.834407
0.000000 0.224095 0.346058
0.000000 0.246774 0.344089
0.000000 0.286309 0.353715
0.310226 0.335404 0.353700
0.670531 0.192719 0.217728
0.955334 0.101040 0.175417
1.000000 0.454226 0.306084
1.000000 0.767042 0.576706
1.000000 0.923079 0.834436
0.000000 0.591568 0.254094
0.000000 0.598247 0.250089
0.000000 0.613441 0.245890
0.000000 0.632561 0.224081
0.694199 0.616170 0.166395
0.953170 0.496218 0.155851
1.000000 0.538589 0.305251
1.000000 0.776965 0.577008
1.000000 0.923711 0.834465
0.000000 0.850814 0.145132
0.000000 0.850518 0.145321
0.000000 0.850211 0.145516
0.000000 0.850321 0.113488
0.535657 0.844125 0.000000
0.910845 0.813457 0.000000
1.000000 0.779576 0.307035
1.000000 0.820632 0.588328
1.000000 0.927884 0.836808
0.583239 0.961005 0.384046
0.588600 0.960825 0.384130
0.593889 0.960644 0.384214
0.614051 0.959862 0.381607
0.692997 0.956385 0.368840
0.846092 0.950860 0.351259
0.993451 0.934474 0.270875
1.000000 0.927237 0.627817
1.000000 0.945665 0.842505
0.852770 1.000000 0.717647
0.852770 1.000000 0.717647
0.854438 1.000000 0.716676
0.854438 1.000000 0.716676
0.860694 1.000000 0.715081
0.889533 1.000000 0.714403
0.954258 0.999578 0.704700
1.000000 0.992356 0.674220
1.000000 0.988765 0.865541
0.957827 1.000000 0.905425
0.957827 1.000000 0.905425
0.957827 1.000000 0.905425
0.957827 1.000000 0.905425
0.958949 1.000000 0.905472
0.961664 1.000000 0.905041
0.971564 1.000000 0.905516
0.999008 1.000000 0.905888
1.000000 1.000000 0.901966
0.000000 0.000000 0.210133
0.000000 0.000000 0.206021
0.000000 0.000000 0.205863
0.207355 0.000000 0.204653
0.474010 0.000000 0.159947
0.934722 0.000000 0.387111
1.000000 0.430077 0.416449
1.000000 0.763595 0.612453
1.000000 0.922613 0.837043
0.000000 0.000000 0.259338
0.000000 0.000000 0.257855
0.000000 0.000000 0.254649
0.180997 0.000000 0.256918
0.496366 0.000000 0.214899
0.935629 0.000000 0.388005
1.000000 0.433633 0.416294
1.000000 0.763595 0.612453
1.000000 0.922697 0.838354
0.000000 0.000000 0.356184
0.000000 0.000000 0.358349
0.000000 0.000000 0.357027
0.162503 0.000000 0.352678
0.545577 0.000000 0.305786
0.939722 0.000000 0.397850
1.000000 0.437185 0.416137
1.000000 0.763595 0.612453
1.000000 0.922697 0.838354
0.000000 0.088867 0.494422
0.000000 0.094031 0.496794
0.000000 0.106135 0.498966
0.123211 0.115452 0.516694
0.665592 0.000000 0.479671
0.951956 0.000000 0.421444
1.000000 0.458884 0.418296
1.000000 0.769504 0.612337
1.000000 0.923329 0.838380
0.000000 0.522166 0.639834
0.000000 0.536143 0.644089
0.000000 0.554392 0.652923
0.000000 0.609418 0.670060
0.680170 0.657693 0.680681
0.955683 0.525876 0.503809
1.000000 0.541210 0.433122
1.000000 0.777625 0.615577
1.000000 0.923960 0.838406
0.000000 0.860019 0.571067
0.000000 0.860308 0.571968
0.000000 0.862527 0.569778
0.000000 0.867419 0.565122
0.525500 0.868035 0.554698
0.904417 0.853508 0.496047
1.000000 0.791731 0.462283
1.000000 0.820978 0.623504
1.000000 0.928652 0.839424
0.584846 0.965089 0.564286
0.584846 0.965089 0.564286
0.590160 0.964911 0.564328
0.610459 0.964141 0.561248
0.680136 0.963118 0.547225
0.844507 0.956530 0.525911
0.988164 0.945719 0.480117
1.000000 0.928410 0.667340
1.000000 0.945855 0.846156
0.850549 1.000000 0.748683
0.850549 1.000000 0.748683
0.853728 1.000000 0.748788
0.853728 1.000000 0.748788
0.859917 1.000000 0.747226
0.886238 1.000000 0.746607
0.954324 0.999893 0.738320
1.000000 0.994007 0.720231
1.000000 0.988868 0.869026
0.957921 1.000000 0.907095
0.957921 1.000000 0.907095
0.957921 1.000000 0.907095
0.957921 1.000000 0.907095
0.959041 1.000000 0.907141
0.961236 1.000000 0.907237
0.971637 1.000000 0.907672
0.998961 1.000000 0.908249
1.000000 1.000000 0.905120
0.046200 0.000000 0.296450
0.070103 0.000000 0.296357
0.104142 0.000000 0.296134
0.194153 0.000000 0.304964
0.451506 0.000000 0.328175
0.818972 0.000000 0.417877
1.000000 0.383812 0.688341
1.000000 0.765792 0.708790
1.000000 0.924253 0.852491
0.000000 0.000000 0.360485
0.000000 0.000000 0.360428
0.000000 0.000000 0.360448
0.152024 0.000000 0.372315
0.448883 0.000000 0.419753
0.836915 0.000000 0.459594
1.000000 0.387865 0.688523
1.000000 0.765792 0.708790
1.000000 0.924253 0.852491
0.000000 0.000000 0.496334
0.000000 0.000000 0.496501
0.000000 0.000000 0.499763
0.076302 0.000000 0.501069
0.437757 0.000000 0.524538
0.863295 0.000000 0.512921
1.000000 0.392157 0.688532
1.000000 0.765792 0.708790
1.000000 0.924253 0.852491
0.000000 0.024349 0.677338
0.000000 0.029405 0.677258
0.000000 0.038400 0.678396
0.000000 0.027616 0.679655
0.448068 0.000000 0.677944
0.925483 0.000000 0.624858
1.000000 0.420022 0.696120
1.000000 0.768361 0.709021
1.000000 0.924253 0.852491
0.000000 0.287577 0.790142
0.000000 0.288341 0.791649
0.000000 0.289960 0.794893
0.000000 0.309897 0.799025
0.450496 0.330732 0.810353
0.972158 0.248047 0.773703
1.000000 0.517847 0.717862
1.000000 0.779940 0.711553
1.000000 0.925500 0.852524
0.000000 0.825250 0.864326
0.000000 0.826058 0.865065
0.000000 0.829288 0.864111
0.000000 0.839274 0.867546
0.385632 0.860302 0.872358
0.882467 0.872528 0.877928
1.000000 0.807419 0.774287
1.000000 0.819874 0.722571
1.000000 0.929270 0.853888
0.517589 0.970565 0.827211
0.524398 0.970455 0.827397
0.531084 0.970345 0.827583
0.562489 0.970426 0.828424
0.658717 0.968590 0.822831
0.831366 0.964851 0.816438
0.974375 0.959118 0.791283
1.000000 0.933271 0.764772
1.000000 0.946026 0.859164
0.852902 1.000000 0.833153
0.852902 1.000000 0.833153
0.854454 1.000000 0.833174
0.854454 1.000000 0.833174
0.862006 1.000000 0.831802
0.885810 1.000000 0.827394
0.948941 1.000000 0.820266
1.000000 0.997485 0.813907
1.000000 0.989278 0.881245
0.957356 1.000000 0.919244
0.957356 1.000000 0.919244
0.957356 1.000000 0.919244
0.957906 1.000000 0.919262
0.958453 1.000000 0.919279
0.961103 1.000000 0.918829
0.971865 1.000000 0.918779
0.998763 1.000000 0.917876
1.000000 1.000000 0.914900
0.315957 0.000000 0.406336
0.326181 0.000000 0.406246
0.336646 0.000000 0.406154
0.378194 0.000000 0.405805
0.506858 0.000000 0.406001
0.785496 0.000000 0.632894
1.000000 0.000000 0.755151
1.000000 0.738398 0.876145
1.000000 0.925114 0.887702
0.311807 0.000000 0.417351
0.313921 0.000000 0.420094
0.323777 0.000000 0.422772
0.356460 0.000000 0.439220
0.479854 0.000000 0.492504
0.801406 0.000000 0.680411
1.000000 0.000000 0.761993
1.000000 0.738398 0.876145
1.000000 0.925114 0.887702
0.206326 0.000000 0.574336
0.210796 0.000000 0.577513
0.218002 0.000000 0.580671
0.257448 0.000000 0.595874
0.410921 0.000000 0.634356
0.799704 0.000000 0.735830
1.000000 0.000000 0.772421
1.000000 0.738398 0.876145
1.000000 0.925114 0.887702
0.000000 0.000000 0.808752
0.000000 0.000000 0.808736
0.000000 0.000000 0.808613
0.159527 0.000000 0.808829
0.383445 0.000000 0.812856
0.810819 0.000000 0.828081
1.000000 0.000000 0.805197
1.000000 0.745698 0.877646
1.000000 0.925114 0.887702
0.000000 0.230402 0.907300
0.000000 0.230343 0.907697
0.000000 0.230232 0.908225
0.000000 0.229034 0.909419
0.350781 0.229128 0.907234
0.843573 0.093449 0.899964
1.000000 0.000000 0.867461
1.000000 0.760383 0.880430
1.000000 0.925734 0.887692
0.000000 0.590135 0.942375
0.000000 0.590499 0.942542
0.000000 0.594185 0.942524
0.000000 0.599929 0.943491
0.183570 0.615709 0.944157
0.799015 0.650725 0.941723
1.000000 0.643197 0.925391
1.000000 0.809128 0.888655
1.000000 0.930421 0.888986
0.000000 0.961786 0.960260
0.000000 0.962470 0.960308
0.000000 0.962397 0.960363
0.184901 0.963625 0.960516
0.452992 0.961599 0.961632
0.786964 0.963841 0.962798
0.964110 0.968768 0.961561
1.000000 0.936845 0.914869
1.000000 0.946439 0.893854
0.833333 1.000000 0.938704
0.833333 1.000000 0.938704
0.835123 1.000000 0.938790
0.836902 1.000000 0.938876
0.847463 1.000000 0.937987
0.876490 1.000000 0.939578
0.941748 1.000000 0.936227
1.000000 1.000000 0.927544
1.000000 0.990882 0.915304
0.955014 1.000000 0.948451
0.955014 1.000000 0.948451
0.955014 1.000000 0.948451
0.956055 1.000000 0.947967
0.956591 1.000000 0.947974
0.959186 1.000000 0.947514
0.969146 1.000000 0.945805
0.995578 1.000000 0.946486
1.000000 1.000000 0.942726
0.664435 0.000000 0.542534
0.671664 0.000000 0.542138
0.671811 0.000000 0.538989
0.682753 0.000000 0.535263
0.715035 0.000000 0.521090
0.806772 0.000000 0.479618
1.000000 0.000000 0.906112
1.000000 0.208155 0.931281
1.000000 0.913750 0.960859
0.664435 0.000000 0.542534
0.671664 0.000000 0.542138
0.671811 0.000000 0.538989
0.682753 0.000000 0.535263
0.715035 0.000000 0.521090
0.806772 0.000000 0.479618
1.000000 0.000000 0.909739
1.000000 0.211269 0.932443
1.000000 0.915319 0.960895
0.664435 0.000000 0.542534
0.671664 0.000000 0.542138
0.671811 0.000000 0.538989
0.682753 0.000000 0.535263
0.718534 0.000000 0.520909
0.811362 0.000000 0.665478
1.000000 0.000000 0.916269
1.000000 0.223983 0.932587
1.000000 0.915319 0.960895
0.514953 0.000000 0.855571
0.519347 0.000000 0.855772
0.523361 0.000000 0.855716
0.535940 0.000000 0.858029
0.598375 0.000000 0.866644
0.752891 0.000000 0.894652
1.000000 0.000000 0.937611
1.000000 0.260706 0.935050
1.000000 0.915319 0.960895
0.493951 0.058861 0.967357
0.493951 0.058861 0.967357
0.498296 0.053372 0.967304
0.515727 0.033430 0.967151
0.584354 0.000000 0.967248
0.763158 0.000000 0.967393
1.000000 0.000000 0.966349
1.000000 0.380691 0.948820
1.000000 0.916100 0.960914
0.425731 0.501898 0.997774
0.425731 0.501898 0.997774
0.431817 0.501860 0.997796
0.449691 0.501552 0.997266
0.529322 0.500541 0.996698
0.714915 0.508147 0.993679
1.000000 0.514738 0.989241
1.000000 0.599773 0.969255
1.000000 0.921825 0.962693
0.366536 0.839305 0.999026
0.366536 0.839305 0.999026
0.376410 0.839279 0.999037
0.383747 0.841233 0.998911
0.450231 0.844853 0.998725
0.646123 0.849597 0.996960
0.927391 0.865575 0.995536
1.000000 0.865961 0.987838
1.000000 0.943082 0.966993
0.751141 1.000000 1.000000
0.751141 1.000000 1.000000
0.751141 1.000000 1.000000
0.756230 1.000000 1.000000
0.774439 1.000000 1.000000
0.827007 1.000000 1.000000
0.923210 1.000000 1.000000
0.999439 1.000000 1.000000
1.000000 0.993371 0.980998
0.952713 1.000000 0.991852
0.952713 1.000000 0.991852
0.952713 1.000000 0.991852
0.952713 1.000000 0.991852
0.953295 1.000000 0.991882
0.955607 1.000000 0.991561
0.967084 1.000000 0.992252
0.992150 1.000000 0.990637
1.000000 1.000000 0.987928
0.943062 0.000000 0.641392
0.945367 0.000000 0.641242
0.945367 0.000000 0.641242
0.945367 0.000000 0.641242
0.953773 0.000000 0.634300
0.969680 0.000000 0.626828
1.000000 0.000000 0.588790
1.000000 0.000000 1.000000
1.000000 0.733176 0.992076
0.943062 0.000000 0.641392
0.945367 0.000000 0.641242
0.945367 0.000000 0.641242
0.945367 0.000000 0.641242
0.953773 0.000000 0.634300
0.969680 0.000000 0.626828
1.000000 0.000000 0.588790
1.000000 0.000000 1.000000
1.000000 0.733176 0.992076
0.945367 0.000000 0.641242
0.945367 0.000000 0.641242
0.945367 0.000000 0.641242
0.945367 0.000000 0.641242
0.953773 0.000000 0.634300
0.969680 0.000000 0.626828
1.000000 0.000000 0.588790
1.000000 0.000000 1.000000
1.000000 0.734283 0.992480
0.945367 0.000000 0.641242
0.945367 0.000000 0.641242
0.945367 0.000000 0.641242
0.945367 0.000000 0.641242
0.953773 0.000000 0.634300
0.971637 0.000000 0.626691
1.000000 0.000000 0.890832
1.000000 0.000000 1.000000
1.000000 0.737012 0.992417
0.872336 0.000000 0.986406
0.872336 0.000000 0.986406
0.872336 0.000000 0.986406
0.875464 0.000000 0.987006
0.889665 0.000000 0.987049
0.935787 0.000000 0.990812
1.000000 0.000000 1.000000
1.000000 0.242740 1.000000
1.000000 0.752219 0.994361
0.840988 0.391856 1.000000
0.844437 0.391324 1.000000
0.844437 0.391324 1.000000
0.847855 0.390795 1.000000
0.860850 0.392491 1.000000
0.905434 0.396857 1.000000
1.000000 0.403470 1.000000
1.000000 0.519059 1.000000
1.000000 0.788678 0.998863
0.764614 0.771308 1.000000
0.764614 0.771308 1.000000
0.764614 0.771308 1.000000
0.768156 0.771101 1.000000
0.778523 0.770491 1.000000
0.814534 0.773581 1.000000
0.913549 0.780248 1.000000
1.000000 0.800957 1.000000
1.000000 0.865323 1.000000
0.775133 0.954664 1.000000
0.775133 0.954664 1.000000
0.775133 0.954664 1.000000
0.775133 0.954664 1.000000
0.780023 0.956763 1.000000
0.806280 0.956989 1.000000
0.872359 0.957133 1.000000
0.985595 0.964578 1.000000
1.000000 0.966327 1.000000
0.925638 1.000000 1.000000
0.925638 1.000000 1.000000
0.925638 1.000000 1.000000
0.925638 1.000000 1.000000
0.926337 1.000000 1.000000
0.930948 1.000000 1.000000
0.946481 1.000000 1.000000
0.984654 1.000000 1.000000
1.000000 1.000000 1.000000
