Assets/Lutify-Free-LUTs-Pack/Lutify Free LUTs Pack/Colour Film Boost Pro - Film Boost 10/Lutify.me-FilmBoost10-SLog3CineVenice-to-Rec709.cube
# Created with: fylm.ai - Colour Grading and Collaboration Software in Cloud 
# Website: https://fylm.ai 
# META
# Option: Gamut compress
# Block 1: IDT | Sony Venice S-Log3 S-Gamut3.Cine
# Block 2: colourMatch | Blending Mode: Normal | {"ColorSpace":0,"CrossCovarianceLimit":50,"ReshapingIterations":1,"PercentSaturationShift":100,"PercentShadingShift":100,"ExtraShading":true,"PercentTint":100,"PercentModified":100}
# Block 3: subtractiveColour | Blending Mode: Normal | {"sliders":{"gainY":0.55,"C":0.3,"M":0.3,"Y":0.3}}
# Block 4: LUT | Filmic Curve Response: Low Contrast 2 (100%)
# Block 5: logPrimaries | Blending Mode: Normal | {"wheels":{"shadows":{"Y":"0","R":"1","G":"1","B":"1"},"midtones":{"Y":"0","R":"1","G":"1","B":"1"},"highlights":{"Y":"0","R":"1","G":"1","B":"1"},"offset":{"Y":"0","R":"1","G":"1","B":"1"}},"sliders":{"shadows":{"Y":0,"R":-0.085,"G":0.024,"B":0.134},"midtones":{"Y":0,"R":0,"G":-0.023,"B":0},"highlights":{"Y":0,"R":0,"G":0,"B":0},"offset":{"Y":0,"R":0.012,"G":-0.012,"B":0}}}
# Block 6: HSL | Blending Mode: Normal | {"hue":{"Reds":0,"Yellows":0,"Greens":0,"Cyans":0,"Blues":0,"Magentas":0},"saturation":{"Reds":1,"Yellows":1,"Greens":1,"Cyans":1,"Blues":1,"Magentas":1},"luminance":{"Reds":0.9,"Yellows":0.9,"Greens":0.9,"Cyans":0.9,"Blues":0.9,"Magentas":0.9},"lum_sat":{"Blacks":1,"Shadows":1,"Midtones":1,"Highlights":1,"Whites":1},"sat_sat":{"10":1,"20":1,"30":1,"40":1,"50":1}}
# Block 7: ODT | Rec709
TITLE "Lutify.me-FilmBoost10-SLog3CineVenice-to-Rec709" 
LUT_3D_SIZE 33
0.000000 0.000000 0.000000
0.000000 0.000000 0.000000
0.000000 0.000000 0.000000
0.000000 0.000000 0.000000
0.000000 0.000000 0.000000
0.000000 0.000000 0.000000
0.049729 0.000000 0.000000
0.079605 0.000000 0.000000
0.110120 0.000000 0.000000
0.134894 0.000000 0.000000
0.162979 0.000000 0.000000
0.192947 0.000000 0.000000
0.229840 0.000000 0.000000
0.272139 0.000000 0.000000
0.319756 0.000000 0.000000
0.370389 0.000000 0.000000
0.422983 0.000000 0.000000
0.489545 0.000000 0.000000
0.561562 0.000000 0.000000
0.628534 0.000000 0.000000
0.699360 0.000000 0.000000
0.782173 0.000000 0.000000
0.853199 0.000000 0.032765
0.913159 0.000000 0.056164
0.972157 0.000000 0.084198
1.000000 0.000000 0.111482
1.000000 0.000000 0.146221
1.000000 0.046355 0.184011
1.000000 0.237587 0.230453
1.000000 0.339141 0.278303
1.000000 0.428352 0.328708
1.000000 0.506121 0.385354
1.000000 0.582971 0.442966
0.000000 0.000000 0.000000
0.000000 0.000000 0.000000
0.000000 0.000000 0.000000
0.000000 0.000000 0.000000
0.000000 0.000000 0.000000
0.000774 0.000000 0.000000
0.053624 0.000000 0.000000
0.082520 0.000000 0.000000
0.112538 0.000000 0.000000
0.137181 0.000000 0.000000
0.166875 0.000000 0.000000
0.196561 0.000000 0.000000
0.234621 0.000000 0.000000
0.277919 0.000000 0.000000
0.328155 0.000000 0.000000
0.378433 0.000000 0.000000
0.428254 0.000000 0.000000
0.492585 0.000000 0.000000
0.561821 0.000000 0.000000
0.632173 0.000000 0.000000
0.699365 0.000000 0.000000
0.782701 0.000000 0.000000
0.853165 0.000000 0.031911
0.913550 0.000000 0.057331
0.972106 0.000000 0.084003
1.000000 0.000000 0.111280
1.000000 0.000000 0.146221
1.000000 0.069564 0.183792
1.000000 0.237587 0.230453
1.000000 0.339141 0.278303
1.000000 0.431559 0.328510
1.000000 0.509099 0.385181
1.000000 0.582971 0.442966
0.000000 0.000000 0.000000
0.000000 0.000000 0.000000
0.000000 0.000000 0.000000
0.000000 0.000000 0.000000
0.000000 0.000000 0.000000
0.011580 0.000000 0.000000
0.057689 0.000000 0.000000
0.087426 0.000000 0.000000
0.114876 0.000000 0.000000
0.142219 0.000000 0.000000
0.170271 0.000000 0.000000
0.203435 0.000000 0.000000
0.243978 0.000000 0.000000
0.283594 0.000000 0.000000
0.335215 0.000000 0.000000
0.386040 0.000000 0.000000
0.436249 0.000000 0.000000
0.495852 0.000000 0.000000
0.565113 0.000000 0.000000
0.632435 0.000000 0.000000
0.703340 0.000000 0.000000
0.782690 0.000000 0.000000
0.853413 0.000000 0.032657
0.913522 0.000000 0.057108
0.972106 0.000000 0.084003
1.000000 0.000000 0.110865
1.000000 0.000000 0.145806
1.000000 0.069564 0.183792
1.000000 0.237587 0.230453
1.000000 0.339141 0.278303
1.000000 0.431559 0.328510
1.000000 0.509099 0.385181
1.000000 0.582971 0.442966
0.000000 0.000000 0.000000
0.000000 0.000000 0.000000
0.000000 0.000000 0.000000
0.000000 0.000000 0.000000
0.000000 0.000000 0.000000
0.039034 0.000000 0.000000
0.067319 0.000000 0.000000
0.093443 0.000000 0.000000
0.120333 0.000000 0.000000
0.145538 0.000000 0.000000
0.175176 0.000000 0.000000
0.211885 0.000000 0.000000
0.249396 0.000000 0.000000
0.291202 0.000000 0.000000
0.340253 0.000000 0.000000
0.388458 0.000000 0.000000
0.438979 0.000000 0.000000
0.501957 0.000000 0.000000
0.568638 0.000000 0.000000
0.636083 0.000000 0.000000
0.703344 0.000000 0.000000
0.782674 0.000000 0.000000
0.853375 0.000000 0.031717
0.913465 0.000000 0.056647
0.972002 0.000000 0.083602
1.000000 0.000000 0.111062
1.000000 0.000000 0.145806
1.000000 0.069564 0.183792
1.000000 0.242181 0.230223
1.000000 0.339141 0.278303
1.000000 0.431559 0.328510
1.000000 0.509099 0.385181
1.000000 0.582971 0.442966
0.000000 0.021150 0.000000
0.000000 0.021352 0.000000
0.000000 0.021642 0.000000
0.000000 0.022277 0.000000
0.000000 0.025987 0.000000
0.041517 0.014184 0.000000
0.074616 0.000000 0.000000
0.107037 0.000000 0.000000
0.127435 0.000000 0.000000
0.152390 0.000000 0.000000
0.184623 0.000000 0.000000
0.216652 0.000000 0.000000
0.258191 0.000000 0.000000
0.297175 0.000000 0.000000
0.344431 0.000000 0.000000
0.393237 0.000000 0.000000
0.441735 0.000000 0.000000
0.505037 0.000000 0.000000
0.568661 0.000000 0.000000
0.636349 0.000000 0.000000
0.703606 0.000000 0.000000
0.786150 0.000000 0.000000
0.856660 0.000000 0.030850
0.916795 0.000000 0.058272
0.974278 0.000000 0.083526
1.000000 0.000000 0.110631
1.000000 0.000000 0.145824
1.000000 0.085325 0.183569
1.000000 0.242181 0.230223
1.000000 0.342736 0.278088
1.000000 0.431559 0.328510
1.000000 0.509099 0.385181
1.000000 0.582971 0.442966
0.000000 0.047448 0.000000
0.000000 0.047233 0.000000
0.000000 0.047414 0.000000
0.000000 0.048206 0.000000
0.000000 0.049790 0.000000
0.033800 0.049238 0.000000
0.068127 0.040995 0.000000
0.106088 0.016531 0.000000
0.135925 0.000000 0.000000
0.166641 0.000000 0.000000
0.195430 0.000000 0.000000
0.228304 0.000000 0.000000
0.263577 0.000000 0.000000
0.300781 0.000000 0.000000
0.348616 0.000000 0.000000
0.395670 0.000000 0.000000
0.450025 0.000000 0.000000
0.508126 0.000000 0.000000
0.571961 0.000000 0.000000
0.643151 0.000000 0.000000
0.707066 0.000000 0.000000
0.786133 0.000000 0.000000
0.856633 0.000000 0.030114
0.916702 0.000000 0.057548
0.974582 0.000000 0.085200
1.000000 0.000000 0.112955
1.000000 0.000000 0.145824
1.000000 0.085325 0.183569
1.000000 0.242181 0.230223
1.000000 0.342736 0.278088
1.000000 0.431559 0.328510
1.000000 0.509099 0.385181
1.000000 0.582971 0.442966
0.000000 0.062849 0.000000
0.000000 0.062028 0.000000
0.000000 0.063261 0.000000
0.000000 0.065791 0.000000
0.000000 0.067511 0.000000
0.000000 0.069280 0.000000
0.064816 0.066372 0.000000
0.102161 0.053985 0.000000
0.138064 0.033933 0.000000
0.171650 0.000000 0.000000
0.204775 0.000000 0.000000
0.237010 0.000000 0.000000
0.272065 0.000000 0.000000
0.309731 0.000000 0.000000
0.354957 0.000000 0.000000
0.400597 0.000000 0.000000
0.452895 0.000000 0.000000
0.514293 0.000000 0.000000
0.572005 0.000000 0.000000
0.646827 0.000000 0.000000
0.707328 0.000000 0.000000
0.786385 0.000000 0.000000
0.856575 0.000000 0.028480
0.916637 0.000000 0.057035
0.974526 0.000000 0.084990
1.000000 0.000000 0.112740
1.000000 0.000000 0.148274
1.000000 0.086726 0.184076
1.000000 0.246712 0.229990
1.000000 0.342736 0.278088
1.000000 0.431559 0.328510
1.000000 0.509099 0.385181
1.000000 0.582971 0.442966
0.000000 0.083823 0.000000
0.000000 0.084123 0.000000
0.000000 0.084381 0.000000
0.000000 0.087470 0.000000
0.000000 0.090182 0.000000
0.000000 0.094165 0.000000
0.039566 0.091714 0.000000
0.101951 0.085755 0.000000
0.142323 0.066761 0.000000
0.182341 0.046923 0.000000
0.217866 0.000000 0.000000
0.255677 0.000000 0.000000
0.288800 0.000000 0.000000
0.320942 0.000000 0.000000
0.363718 0.000000 0.000000
0.403173 0.000000 0.000000
0.456005 0.000000 0.000000
0.517422 0.000000 0.000000
0.582161 0.000000 0.000000
0.650506 0.000000 0.000000
0.711049 0.000000 0.000000
0.786360 0.000000 0.000000
0.856529 0.000000 0.027075
0.916571 0.000000 0.056500
0.974293 0.000000 0.084101
1.000000 0.000000 0.112298
1.000000 0.000000 0.148274
1.000000 0.111174 0.186668
1.000000 0.246712 0.229990
1.000000 0.342736 0.278088
1.000000 0.434765 0.328310
1.000000 0.512079 0.385008
1.000000 0.582971 0.442966
0.000000 0.107913 0.000000
0.000000 0.109813 0.000000
0.000000 0.110100 0.000000
0.000000 0.113197 0.000000
0.000000 0.117402 0.000000
0.000000 0.119897 0.000000
0.000000 0.121087 0.000000
0.089543 0.117319 0.000000
0.141097 0.108761 0.000000
0.189109 0.088329 0.000000
0.227387 0.064974 0.000000
0.266006 0.011218 0.000000
0.297700 0.000000 0.000000
0.332896 0.000000 0.000000
0.375079 0.000000 0.000000
0.413302 0.000000 0.000000
0.462014 0.000000 0.000000
0.530401 0.000000 0.000000
0.589099 0.000000 0.000000
0.657365 0.000000 0.000000
0.714514 0.000000 0.000000
0.789807 0.000000 0.000000
0.860254 0.000000 0.027229
0.916469 0.000000 0.055648
0.976874 0.000000 0.085919
1.000000 0.000000 0.112070
1.000000 0.000000 0.148059
1.000000 0.120608 0.186438
1.000000 0.255941 0.231294
1.000000 0.346318 0.277869
1.000000 0.434765 0.328310
1.000000 0.512079 0.385008
1.000000 0.588604 0.442652
0.000000 0.136932 0.000000
0.000000 0.137263 0.000000
0.000000 0.139832 0.000000
0.000000 0.143721 0.000000
0.000000 0.148801 0.000000
0.000000 0.151974 0.000000
0.000000 0.156176 0.000000
0.000000 0.152878 0.000000
0.119104 0.153002 0.000000
0.189375 0.134138 0.000000
0.237959 0.114739 0.000000
0.275949 0.088755 0.000000
0.311202 0.058277 0.000000
0.354414 0.000000 0.000000
0.394529 0.000000 0.000000
0.429265 0.000000 0.000000
0.471032 0.000000 0.000000
0.534069 0.000000 0.000000
0.596102 0.000000 0.000000
0.661080 0.000000 0.000000
0.718239 0.000000 0.000000
0.794313 0.000000 0.000000
0.860122 0.000000 0.022572
0.919151 0.000000 0.054118
0.976683 0.000000 0.085203
1.000000 0.000000 0.113945
1.000000 0.000000 0.147618
1.000000 0.129235 0.186204
1.000000 0.260303 0.231053
1.000000 0.354647 0.278076
1.000000 0.434765 0.328310
1.000000 0.512079 0.385008
1.000000 0.588604 0.442652
0.000000 0.168383 0.000000
0.000000 0.166479 0.000000
0.000000 0.171140 0.000000
0.000000 0.178813 0.000000
0.000000 0.178825 0.000000
0.000000 0.182649 0.000000
0.000000 0.189170 0.000000
0.000000 0.188588 0.000000
0.086231 0.184141 0.000000
0.179042 0.180169 0.000000
0.241803 0.160725 0.000000
0.288594 0.136451 0.000000
0.323800 0.117312 0.000000
0.365041 0.087102 0.000000
0.406133 0.000000 0.000000
0.443992 0.000000 0.000000
0.492556 0.000000 0.000000
0.544359 0.000000 0.000000
0.602964 0.000000 0.000000
0.665327 0.000000 0.000000
0.728632 0.000000 0.000000
0.794499 0.000000 0.000000
0.863744 0.000000 0.019817
0.922234 0.000000 0.054407
0.978938 0.000000 0.086009
1.000000 0.000000 0.115632
1.000000 0.000000 0.148739
1.000000 0.145165 0.185978
1.000000 0.265123 0.231083
1.000000 0.354647 0.278076
1.000000 0.437971 0.328108
1.000000 0.515062 0.384832
1.000000 0.588604 0.442652
0.000000 0.202264 0.000000
0.000000 0.203411 0.000000
0.000000 0.210394 0.000000
0.000000 0.215484 0.000000
0.000000 0.216964 0.000000
0.000000 0.216875 0.000000
0.000000 0.221031 0.000000
0.000000 0.223383 0.000000
0.000000 0.221870 0.000000
0.135525 0.221725 0.000000
0.232429 0.215573 0.000000
0.289095 0.186812 0.000000
0.335250 0.165398 0.000000
0.378385 0.143371 0.000000
0.421410 0.114258 0.000000
0.466315 0.070779 0.000000
0.506670 0.000000 0.000000
0.558400 0.000000 0.000000
0.613625 0.000000 0.000000
0.672810 0.000000 0.000000
0.739533 0.000000 0.000000
0.802421 0.000000 0.000000
0.870233 0.000000 0.000000
0.930698 0.000000 0.053881
0.980718 0.000000 0.084449
1.000000 0.000000 0.114618
1.000000 0.000000 0.148259
1.000000 0.166348 0.188335
1.000000 0.269379 0.230837
1.000000 0.361692 0.277623
1.000000 0.441176 0.327904
1.000000 0.515062 0.384832
1.000000 0.591427 0.442495
0.000000 0.242624 0.000000
0.000000 0.247375 0.000000
0.000000 0.250730 0.000000
0.000000 0.255472 0.000000
0.000000 0.255380 0.000000
0.000000 0.255277 0.000000
0.000000 0.260099 0.000000
0.000000 0.261423 0.000000
0.000000 0.260500 0.000000
0.056857 0.258216 0.000000
0.194612 0.256113 0.000000
0.276245 0.248271 0.000000
0.342611 0.216957 0.000000
0.395503 0.196230 0.000000
0.442886 0.169987 0.000000
0.484150 0.145015 0.000000
0.525183 0.107860 0.000000
0.583189 0.000000 0.000000
0.628250 0.000000 0.000000
0.680168 0.000000 0.000000
0.746946 0.000000 0.000000
0.812659 0.000000 0.000000
0.877007 0.000000 0.000000
0.936179 0.000000 0.052982
0.982644 0.000000 0.084357
1.000000 0.000000 0.115940
1.000000 0.000000 0.150001
1.000000 0.178556 0.187817
1.000000 0.282228 0.231883
1.000000 0.365504 0.279475
1.000000 0.444979 0.332489
1.000000 0.521633 0.389731
1.000000 0.591427 0.442495
0.000000 0.287940 0.000000
0.000000 0.293426 0.000000
0.000000 0.297081 0.000000
0.000000 0.296908 0.000000
0.000000 0.296736 0.000000
0.000000 0.298486 0.000000
0.000000 0.300302 0.000000
0.000000 0.305819 0.000000
0.000000 0.307011 0.000000
0.000000 0.305535 0.000000
0.104865 0.303199 0.000000
0.222210 0.303727 0.000000
0.326074 0.290079 0.000000
0.399171 0.258647 0.000000
0.461041 0.235004 0.000000
0.500090 0.216122 0.000000
0.548111 0.191013 0.000000
0.596450 0.162402 0.000000
0.647347 0.107354 0.000000
0.695465 0.000000 0.000000
0.754339 0.000000 0.000000
0.819808 0.000000 0.000000
0.885957 0.000000 0.000000
0.938372 0.000000 0.046996
0.984356 0.000000 0.083594
1.000000 0.000000 0.116706
1.000000 0.000000 0.151416
1.000000 0.206584 0.188022
1.000000 0.294874 0.231380
1.000000 0.375978 0.278776
1.000000 0.448182 0.332286
1.000000 0.524624 0.389555
1.000000 0.594851 0.447756
0.000000 0.340047 0.000000
0.000000 0.341947 0.000000
0.000000 0.343861 0.000000
0.000000 0.346063 0.000000
0.000000 0.350401 0.000000
0.000000 0.350205 0.000000
0.000000 0.349960 0.000000
0.000000 0.349776 0.000000
0.000000 0.353719 0.000000
0.000000 0.352554 0.000000
0.000000 0.353341 0.000000
0.120629 0.353048 0.000000
0.268557 0.345808 0.000000
0.379052 0.337332 0.000000
0.462586 0.306469 0.000000
0.521826 0.274597 0.000000
0.560551 0.260095 0.000000
0.615680 0.231750 0.000000
0.666576 0.203870 0.000000
0.717598 0.160289 0.000000
0.767337 0.090550 0.000000
0.834405 0.000000 0.000000
0.889070 0.000000 0.000000
0.942973 0.000000 0.037713
0.988055 0.000000 0.082541
1.000000 0.000000 0.116529
1.000000 0.106346 0.153535
1.000000 0.232511 0.190007
1.000000 0.307209 0.230853
1.000000 0.386388 0.278052
1.000000 0.458383 0.332056
1.000000 0.530614 0.389199
1.000000 0.597681 0.447599
0.000000 0.390791 0.000000
0.000000 0.393150 0.000000
0.000000 0.395353 0.000000
0.000000 0.394979 0.000000
0.000000 0.397178 0.000000
0.000000 0.402003 0.000000
0.000000 0.396545 0.000000
0.000000 0.396220 0.000000
0.000000 0.400961 0.000000
0.000000 0.405182 0.000000
0.000000 0.406699 0.000000
0.000000 0.404282 0.000000
0.165538 0.403897 0.000000
0.329010 0.395698 0.000000
0.443628 0.383299 0.000000
0.515145 0.352206 0.000000
0.573994 0.323346 0.000000
0.633578 0.300871 0.000000
0.678852 0.280126 0.000000
0.736076 0.252642 0.000000
0.788160 0.215194 0.000000
0.844945 0.151537 0.000000
0.895274 0.000000 0.000000
0.944720 0.000000 0.009155
0.988482 0.000000 0.075270
1.000000 0.096495 0.112250
1.000000 0.180993 0.153151
1.000000 0.261012 0.190229
1.000000 0.330664 0.230982
1.000000 0.400668 0.277387
1.000000 0.464767 0.331634
1.000000 0.534553 0.392109
1.000000 0.603352 0.447282
0.000000 0.456645 0.000000
0.000000 0.455817 0.000000
0.000000 0.458439 0.000000
0.000000 0.458407 0.000000
0.000000 0.461013 0.000000
0.000000 0.460769 0.000000
0.000000 0.463357 0.000000
0.000000 0.462849 0.000000
0.000000 0.461850 0.000000
0.000000 0.460946 0.000000
0.000000 0.465698 0.000000
0.000000 0.472225 0.000000
0.000000 0.469842 0.000000
0.217285 0.465183 0.000000
0.357394 0.459520 0.000000
0.484436 0.447367 0.000000
0.577018 0.408447 0.000000
0.645772 0.376291 0.000000
0.691166 0.362685 0.000000
0.746573 0.338200 0.000000
0.801317 0.305007 0.000000
0.853412 0.270483 0.000000
0.901395 0.227006 0.000000
0.948315 0.174342 0.000000
0.988831 0.162315 0.071382
1.000000 0.184485 0.109166
1.000000 0.238491 0.152051
1.000000 0.295684 0.190766
1.000000 0.361207 0.229099
1.000000 0.414935 0.280622
1.000000 0.474640 0.333426
1.000000 0.546535 0.391386
1.000000 0.607161 0.450325
0.000000 0.521274 0.000000
0.000000 0.523984 0.000000
0.000000 0.523495 0.000000
0.000000 0.528940 0.000000
0.000000 0.528674 0.000000
0.000000 0.528395 0.000000
0.000000 0.530852 0.000000
0.000000 0.530557 0.000000
0.000000 0.532957 0.000000
0.000000 0.532297 0.000000
0.000000 0.530546 0.000000
0.000000 0.534436 0.000000
0.000000 0.534583 0.000000
0.000000 0.533887 0.000000
0.269745 0.525674 0.000000
0.423662 0.518508 0.000000
0.542880 0.508059 0.000000
0.641556 0.465996 0.000000
0.700714 0.437880 0.000000
0.753630 0.422515 0.000000
0.810209 0.402646 0.000000
0.869452 0.375951 0.000000
0.916224 0.346498 0.000000
0.952507 0.307229 0.000000
0.989200 0.264312 0.056200
1.000000 0.266866 0.106259
1.000000 0.293070 0.154880
1.000000 0.336654 0.192633
1.000000 0.387795 0.234446
1.000000 0.432653 0.281801
1.000000 0.492229 0.338071
1.000000 0.555846 0.393494
1.000000 0.615676 0.449847
0.000000 0.590046 0.000000
0.000000 0.590023 0.000000
0.000000 0.589982 0.000000
0.000000 0.592729 0.000000
0.000000 0.592690 0.000000
0.000000 0.592400 0.000000
0.000000 0.595385 0.000000
0.000000 0.594785 0.000000
0.000000 0.596721 0.000000
0.000000 0.598589 0.000000
0.000000 0.597526 0.000000
0.000000 0.596201 0.000000
0.000000 0.596767 0.000000
0.000000 0.595951 0.000000
0.000000 0.595632 0.000000
0.335615 0.589205 0.000000
0.485033 0.581356 0.000000
0.612423 0.565731 0.000000
0.692231 0.533685 0.000000
0.754349 0.501622 0.000000
0.820408 0.478123 0.000000
0.873500 0.459163 0.000000
0.916783 0.439077 0.000000
0.955116 0.414959 0.000000
0.986413 0.387553 0.000000
1.000000 0.349264 0.096727
1.000000 0.353897 0.153684
1.000000 0.379581 0.195722
1.000000 0.413912 0.238280
1.000000 0.457531 0.286854
1.000000 0.511592 0.339244
1.000000 0.566033 0.398734
1.000000 0.627373 0.451940
0.000000 0.651503 0.000000
0.000000 0.654518 0.000000
0.000000 0.654466 0.000000
0.000000 0.653892 0.000000
0.000000 0.653848 0.000000
0.000000 0.656866 0.000000
0.000000 0.656784 0.000000
0.000000 0.656164 0.000000
0.000000 0.658561 0.000000
0.000000 0.657591 0.000000
0.000000 0.659551 0.000000
0.000000 0.663661 0.000000
0.000000 0.662274 0.000000
0.000000 0.659783 0.000000
0.000000 0.660966 0.000000
0.226397 0.657103 0.000000
0.401983 0.649967 0.000000
0.550102 0.640844 0.000000
0.670774 0.627100 0.000000
0.756437 0.591297 0.000000
0.816991 0.562149 0.000000
0.873243 0.537576 0.000000
0.917646 0.522955 0.000000
0.951117 0.503583 0.000000
0.988573 0.480837 0.000000
1.000000 0.455219 0.081198
1.000000 0.422026 0.149911
1.000000 0.427900 0.195504
1.000000 0.457327 0.240641
1.000000 0.492254 0.289223
1.000000 0.537768 0.340346
1.000000 0.584409 0.400308
1.000000 0.637347 0.455168
0.000000 0.722842 0.000000
0.000000 0.722261 0.000000
0.000000 0.722203 0.000000
0.000000 0.721641 0.000000
0.000000 0.724494 0.000000
0.000000 0.724203 0.000000
0.000000 0.724136 0.000000
0.000000 0.723748 0.000000
0.000000 0.725979 0.000000
0.000000 0.725273 0.000000
0.000000 0.727364 0.000000
0.000000 0.725581 0.000000
0.000000 0.727029 0.000000
0.000000 0.725029 0.000000
0.000000 0.722297 0.000000
0.000000 0.721814 0.000000
0.327155 0.716312 0.000000
0.491273 0.711464 0.000000
0.608897 0.702847 0.000000
0.726925 0.687522 0.000000
0.811269 0.658886 0.000000
0.863811 0.629257 0.000000
0.912892 0.608327 0.000000
0.946088 0.594798 0.000000
0.979853 0.577346 0.000000
1.000000 0.551562 0.000000
1.000000 0.519881 0.137832
1.000000 0.493608 0.198553
1.000000 0.500006 0.242920
1.000000 0.529669 0.290889
1.000000 0.568004 0.346830
1.000000 0.610135 0.405098
1.000000 0.652116 0.462689
0.000000 0.773558 0.000000
0.000000 0.773472 0.000000
0.000000 0.775991 0.000000
0.000000 0.775713 0.000000
0.000000 0.775650 0.000000
0.000000 0.775552 0.000000
0.000000 0.775271 0.000000
0.000000 0.775130 0.000000
0.000000 0.777335 0.000000
0.000000 0.776604 0.000000
0.000000 0.776288 0.000000
0.000000 0.777889 0.000000
0.000000 0.779405 0.000000
0.000000 0.782862 0.000000
0.000000 0.780482 0.000000
0.000000 0.776907 0.000000
0.237193 0.777929 0.000000
0.432573 0.772232 0.000000
0.561623 0.765740 0.000000
0.679251 0.759988 0.000000
0.788339 0.746400 0.000000
0.854047 0.714797 0.000000
0.898321 0.692776 0.000000
0.939110 0.669372 0.000000
0.968278 0.663012 0.000000
0.999877 0.646051 0.000000
1.000000 0.625482 0.119256
1.000000 0.595309 0.190389
1.000000 0.573311 0.245800
1.000000 0.580368 0.293651
1.000000 0.610730 0.354862
1.000000 0.635593 0.412236
1.000000 0.674597 0.464804
0.000000 0.819417 0.029085
0.000000 0.823640 0.000000
0.000000 0.823172 0.000000
0.000000 0.823077 0.000000
0.000000 0.823028 0.000000
0.000000 0.822927 0.000000
0.000000 0.822666 0.000000
0.000000 0.822613 0.000000
0.000000 0.822031 0.000000
0.000000 0.823854 0.000000
0.000000 0.823190 0.000000
0.000000 0.824814 0.000000
0.000000 0.823896 0.000000
0.000000 0.825226 0.000000
0.000000 0.825936 0.000000
0.000000 0.823153 0.000000
0.122981 0.819612 0.000000
0.368749 0.819622 0.000000
0.512184 0.814337 0.000000
0.638004 0.807571 0.000000
0.742343 0.802350 0.000000
0.832966 0.790580 0.000000
0.885346 0.768538 0.000000
0.922053 0.746149 0.000000
0.959072 0.730677 0.000000
0.986451 0.716329 0.000000
1.000000 0.701949 0.113776
1.000000 0.683741 0.194747
1.000000 0.661380 0.244994
1.000000 0.641692 0.304547
1.000000 0.650329 0.364264
1.000000 0.674652 0.416389
1.000000 0.696871 0.470334
0.000000 0.859716 0.178868
0.000000 0.859716 0.178868
0.000000 0.859468 0.174657
0.000000 0.859468 0.174657
0.000000 0.859400 0.174697
0.000000 0.859262 0.174779
0.000000 0.859191 0.174820
0.000000 0.858684 0.166201
0.000000 0.858610 0.166245
0.000000 0.860130 0.161472
0.000000 0.859895 0.161616
0.000000 0.859207 0.152555
0.000000 0.860268 0.147721
0.000000 0.859697 0.148089
0.000000 0.860560 0.143264
0.000000 0.861782 0.127951
0.000000 0.858879 0.098034
0.329054 0.855134 0.050716
0.479288 0.854557 0.000000
0.591685 0.849521 0.000000
0.711332 0.842780 0.000000
0.797404 0.838460 0.000000
0.868494 0.828676 0.000000
0.915052 0.809991 0.000000
0.943709 0.792010 0.000000
0.973345 0.777483 0.000000
0.998847 0.764766 0.088192
1.000000 0.753015 0.202216
1.000000 0.739066 0.256472
1.000000 0.714787 0.307929
1.000000 0.696015 0.373745
1.000000 0.703084 0.421416
1.000000 0.727379 0.475208
0.000000 0.891434 0.270241
0.000000 0.891434 0.270241
0.000000 0.891343 0.270274
0.000000 0.891343 0.270274
0.000000 0.891190 0.266602
0.000000 0.891099 0.266636
0.000000 0.891099 0.266636
0.000000 0.891007 0.266670
0.000000 0.892399 0.266765
0.000000 0.892209 0.266835
0.000000 0.891809 0.259517
0.000000 0.891411 0.259667
0.000000 0.892428 0.256177
0.000000 0.891246 0.249131
0.000000 0.891879 0.249552
0.000000 0.890420 0.246379
0.000000 0.889850 0.236011
0.319268 0.888318 0.218331
0.466669 0.884737 0.208451
0.564881 0.882664 0.198764
0.687013 0.879209 0.166496
0.773746 0.873685 0.136287
0.836665 0.870383 0.103271
0.892948 0.862760 0.000000
0.933540 0.845789 0.000000
0.963098 0.829494 0.000000
0.987901 0.817005 0.088989
1.000000 0.804916 0.205220
1.000000 0.796170 0.273840
1.000000 0.780302 0.321180
1.000000 0.761338 0.384206
1.000000 0.749061 0.426703
1.000000 0.756172 0.484383
0.000000 0.920145 0.357153
0.000000 0.920145 0.357153
0.000000 0.920145 0.357153
0.000000 0.920032 0.357184
0.000000 0.921182 0.357417
0.000000 0.920836 0.350435
0.000000 0.920836 0.350435
