Assets/Lutify-Free-LUTs-Pack/Lutify Free LUTs Pack/Colour Film Boost Pro - Film Boost 10/Lutify.me-FilmBoost10-Cineon-to-Rec709.cube
# Created with: fylm.ai - Colour Grading and Collaboration Software in Cloud 
# Website: https://fylm.ai 
# META
# Option: Gamut compress
# Block 1: IDT | ADX10
# Block 2: colourMatch | Blending Mode: Normal | {"ColorSpace":0,"CrossCovarianceLimit":50,"ReshapingIterations":1,"PercentSaturationShift":100,"PercentShadingShift":100,"ExtraShading":true,"PercentTint":100,"PercentModified":100}
# Block 3: subtractiveColour | Blending Mode: Normal | {"sliders":{"gainY":0.55,"C":0.3,"M":0.3,"Y":0.3}}
# Block 4: LUT | Filmic Curve Response: Low Contrast 2 (100%)
# Block 5: logPrimaries | Blending Mode: Normal | {"wheels":{"shadows":{"Y":"0","R":"1","G":"1","B":"1"},"midtones":{"Y":"0","R":"1","G":"1","B":"1"},"highlights":{"Y":"0","R":"1","G":"1","B":"1"},"offset":{"Y":"0","R":"1","G":"1","B":"1"}},"sliders":{"shadows":{"Y":0,"R":-0.085,"G":0.024,"B":0.134},"midtones":{"Y":0,"R":0,"G":-0.023,"B":0},"highlights":{"Y":0,"R":0,"G":0,"B":0},"offset":{"Y":0,"R":0.012,"G":-0.012,"B":0}}}
# Block 6: HSL | Blending Mode: Normal | {"hue":{"Reds":0,"Yellows":0,"Greens":0,"Cyans":0,"Blues":0,"Magentas":0},"saturation":{"Reds":1,"Yellows":1,"Greens":1,"Cyans":1,"Blues":1,"Magentas":1},"luminance":{"Reds":0.9,"Yellows":0.9,"Greens":0.9,"Cyans":0.9,"Blues":0.9,"Magentas":0.9},"lum_sat":{"Blacks":1,"Shadows":1,"Midtones":1,"Highlights":1,"Whites":1},"sat_sat":{"10":1,"20":1,"30":1,"40":1,"50":1}}
# Block 7: ODT | Rec709
TITLE "Lutify.me-FilmBoost10-Cineon-to-Rec709" 
LUT_3D_SIZE 5
0.000000 0.000000 0.000000
0.066045 0.000000 0.000000
0.235459 0.000000 0.000000
0.554259 0.000000 0.037432
0.955244 0.082182 0.156983
0.000000 0.072885 0.000000
0.109268 0.095087 0.000000
0.345405 0.000000 0.000000
0.686879 0.000000 0.063737
1.000000 0.289059 0.230816
0.000000 0.307359 0.015587
0.000000 0.380666 0.000000
0.469832 0.415421 0.000000
0.847517 0.359543 0.117397
1.000000 0.490834 0.320132
0.000000 0.739406 0.334812
0.000000 0.776860 0.368235
0.000000 0.829226 0.389288
0.867631 0.834695 0.405641
1.000000 0.815919 0.522202
0.000000 0.974232 0.768632
0.000000 0.980540 0.788796
0.303149 0.985456 0.804655
0.763221 0.986110 0.821464
0.976877 0.982857 0.834359
0.000000 0.000000 0.048619
0.057368 0.000000 0.059885
0.249917 0.000000 0.064541
0.587408 0.000000 0.089594
0.965280 0.140230 0.203080
0.000000 0.071755 0.098106
0.092597 0.107993 0.125047
0.365186 0.000000 0.104838
0.710785 0.000000 0.120687
1.000000 0.309611 0.263389
0.000000 0.306681 0.140398
0.000000 0.381696 0.165771
0.476981 0.436543 0.186073
0.867301 0.357388 0.184136
1.000000 0.501588 0.356692
0.000000 0.729287 0.351361
0.000000 0.769043 0.386138
0.000000 0.823716 0.419580
0.877587 0.831786 0.447301
1.000000 0.810596 0.542052
0.000000 0.970921 0.760487
0.000000 0.977631 0.784211
0.273191 0.982949 0.800515
0.783365 0.982901 0.819490
0.983560 0.981705 0.833422
0.000000 0.000000 0.166055
0.000000 0.000000 0.207883
0.271649 0.000000 0.266381
0.624510 0.000000 0.291675
0.977810 0.204509 0.350830
0.000000 0.053486 0.236054
0.000000 0.083931 0.285684
0.386488 0.082364 0.351588
0.744901 0.000000 0.336792
1.000000 0.355874 0.406248
0.000000 0.296234 0.357419
0.000000 0.381181 0.428417
0.473415 0.478582 0.502527
0.888498 0.402704 0.436738
1.000000 0.526173 0.465261
0.000000 0.721659 0.465546
0.000000 0.767266 0.518846
0.000000 0.826839 0.579657
0.883568 0.842014 0.627967
1.000000 0.812458 0.613460
0.000000 0.967281 0.764450
0.000000 0.974482 0.792258
0.236576 0.981401 0.807953
0.795292 0.981239 0.830994
0.987139 0.980756 0.848394
0.000000 0.065868 0.420901
0.000000 0.101596 0.494252
0.000000 0.152271 0.595141
0.639458 0.146181 0.673962
0.991261 0.300893 0.698623
0.000000 0.094118 0.468707
0.000000 0.138586 0.544000
0.176198 0.193354 0.637731
0.785221 0.219559 0.724263
1.000000 0.429522 0.734288
0.000000 0.271996 0.576847
0.000000 0.324115 0.654063
0.225972 0.409401 0.741632
0.903489 0.475467 0.791332
1.000000 0.590877 0.760410
0.000000 0.714718 0.723306
0.000000 0.760182 0.779929
0.000000 0.825480 0.824726
0.874610 0.861493 0.867492
1.000000 0.833336 0.823851
0.000000 0.963897 0.822764
0.000000 0.972277 0.847810
0.160570 0.978284 0.871529
0.805222 0.980864 0.891603
0.986006 0.982762 0.910568
0.000000 0.251721 0.764791
0.000000 0.314301 0.819384
0.000000 0.395239 0.864250
0.366374 0.502341 0.907841
0.911932 0.595552 0.927428
0.000000 0.280684 0.793468
0.000000 0.350625 0.844652
0.000000 0.445141 0.885433
0.514223 0.544136 0.920594
0.984727 0.646441 0.938391
0.000000 0.358795 0.826873
0.000000 0.436096 0.869690
0.000000 0.523580 0.904181
0.698952 0.619586 0.930784
1.000000 0.734118 0.948802
0.000000 0.691176 0.880159
0.000000 0.726463 0.907754
0.000000 0.777332 0.930169
0.769137 0.825512 0.949904
1.000000 0.867884 0.963871
0.000000 0.963982 0.926819
0.000000 0.972226 0.946294
0.000000 0.979099 0.959180
0.790128 0.982876 0.971163
0.981750 0.988967 0.983712
