Assets/Lutify-Free-LUTs-Pack/Lutify Free LUTs Pack/Colour Film Boost Pro - Film Boost 10/Lutify.me-FilmBoost10-SLog3-to-Rec709.cube
# Created with: fylm.ai - Colour Grading and Collaboration Software in Cloud 
# Website: https://fylm.ai 
# META
# Option: Gamut compress
# Block 1: IDT | Sony S-Log3 S-Gamut3
# Block 2: colourMatch | Blending Mode: Normal | {"ColorSpace":0,"CrossCovarianceLimit":50,"ReshapingIterations":1,"PercentSaturationShift":100,"PercentShadingShift":100,"ExtraShading":true,"PercentTint":100,"PercentModified":100}
# Block 3: subtractiveColour | Blending Mode: Normal | {"sliders":{"gainY":0.55,"C":0.3,"M":0.3,"Y":0.3}}
# Block 4: LUT | Filmic Curve Response: Low Contrast 2 (100%)
# Block 5: logPrimaries | Blending Mode: Normal | {"wheels":{"shadows":{"Y":"0","R":"1","G":"1","B":"1"},"midtones":{"Y":"0","R":"1","G":"1","B":"1"},"highlights":{"Y":"0","R":"1","G":"1","B":"1"},"offset":{"Y":"0","R":"1","G":"1","B":"1"}},"sliders":{"shadows":{"Y":0,"R":-0.085,"G":0.024,"B":0.134},"midtones":{"Y":0,"R":0,"G":-0.023,"B":0},"highlights":{"Y":0,"R":0,"G":0,"B":0},"offset":{"Y":0,"R":0.012,"G":-0.012,"B":0}}}
# Block 6: HSL | Blending Mode: Normal | {"hue":{"Reds":0,"Yellows":0,"Greens":0,"Cyans":0,"Blues":0,"Magentas":0},"saturation":{"Reds":1,"Yellows":1,"Greens":1,"Cyans":1,"Blues":1,"Magentas":1},"luminance":{"Reds":0.9,"Yellows":0.9,"Greens":0.9,"Cyans":0.9,"Blues":0.9,"Magentas":0.9},"lum_sat":{"Blacks":1,"Shadows":1,"Midtones":1,"Highlights":1,"Whites":1},"sat_sat":{"10":1,"20":1,"30":1,"40":1,"50":1}}
# Block 7: ODT | Rec709
TITLE "Lutify.me-FilmBoost10-SLog3-to-Rec709" 
LUT_3D_SIZE 5
0.000000 0.000000 0.000000
0.118823 0.000000 0.000000
0.457105 0.000000 0.000000
1.000000 0.000000 0.153100
1.000000 0.678943 0.566508
0.000000 0.096961 0.000000
0.143402 0.096754 0.000000
0.481998 0.000000 0.000000
1.000000 0.000000 0.157400
1.000000 0.678943 0.566508
0.000000 0.403733 0.000000
0.000000 0.448891 0.000000
0.567903 0.419121 0.000000
1.000000 0.237111 0.169992
1.000000 0.692928 0.569612
0.000000 0.868001 0.333044
0.000000 0.872556 0.327544
0.000000 0.885184 0.310625
0.937096 0.850218 0.234531
1.000000 0.784259 0.608587
0.497587 1.000000 0.814381
0.503260 1.000000 0.814567
0.561225 1.000000 0.813419
0.765982 1.000000 0.810389
1.000000 0.990884 0.799789
0.000000 0.000000 0.063961
0.097968 0.000000 0.040270
0.448883 0.000000 0.042103
1.000000 0.000000 0.174068
1.000000 0.676635 0.569648
0.000000 0.076005 0.145728
0.096417 0.112429 0.130154
0.494204 0.000000 0.051509
1.000000 0.000000 0.177610
1.000000 0.679219 0.569535
0.000000 0.401090 0.111720
0.000000 0.458565 0.000000
0.569048 0.464270 0.000000
1.000000 0.240622 0.192233
1.000000 0.693196 0.572636
0.000000 0.867640 0.362688
0.000000 0.872351 0.360852
0.000000 0.889754 0.343346
0.937118 0.853675 0.271339
1.000000 0.784450 0.611659
0.491627 1.000000 0.815809
0.504467 1.000000 0.816368
0.561054 1.000000 0.815031
0.766135 1.000000 0.812146
1.000000 0.990911 0.801297
0.000000 0.000000 0.231989
0.000000 0.000000 0.202343
0.392844 0.000000 0.099953
1.000000 0.000000 0.285555
1.000000 0.678578 0.591022
0.000000 0.000000 0.346852
0.000000 0.010726 0.332579
0.458505 0.000000 0.245070
1.000000 0.000000 0.290554
1.000000 0.678578 0.591022
0.000000 0.306910 0.545543
0.000000 0.396860 0.521428
0.541670 0.536056 0.561282
1.000000 0.255033 0.325805
1.000000 0.691610 0.593561
0.000000 0.867081 0.529740
0.000000 0.873197 0.534008
0.000000 0.891598 0.524461
0.931742 0.871592 0.472470
1.000000 0.785405 0.627098
0.490228 1.000000 0.826900
0.496009 1.000000 0.827076
0.551205 1.000000 0.824348
0.767062 1.000000 0.822516
1.000000 0.991098 0.811769
0.000000 0.000000 0.696517
0.000000 0.000000 0.703863
0.247843 0.000000 0.683758
0.910300 0.000000 0.460800
1.000000 0.672195 0.722811
0.000000 0.059449 0.714630
0.000000 0.059747 0.721881
0.241494 0.000000 0.714430
0.938729 0.000000 0.532147
1.000000 0.675654 0.722971
0.000000 0.211454 0.787781
0.000000 0.224025 0.791793
0.041651 0.257780 0.817792
1.000000 0.000000 0.715960
1.000000 0.692825 0.729095
0.000000 0.738867 0.872080
0.000000 0.779920 0.874287
0.000000 0.865352 0.888319
0.904518 0.898857 0.900592
1.000000 0.792084 0.764520
0.420649 1.000000 0.886118
0.434575 1.000000 0.886343
0.500260 1.000000 0.885246
0.755145 1.000000 0.886575
1.000000 0.993325 0.874804
0.000000 0.368364 0.979617
0.106615 0.371502 0.978188
0.305074 0.375734 0.977944
0.831508 0.314696 0.970288
1.000000 0.000000 0.886209
0.000000 0.380127 0.979161
0.074111 0.380177 0.979325
0.303075 0.378893 0.978645
0.830732 0.322915 0.971031
1.000000 0.000000 0.891424
0.000000 0.428020 0.982144
0.000000 0.428324 0.981604
0.247384 0.438426 0.981518
0.815104 0.399913 0.975740
1.000000 0.239754 0.913116
0.000000 0.671108 0.988230
0.000000 0.671631 0.988343
0.000000 0.678903 0.988451
0.716546 0.717312 0.986497
1.000000 0.671160 0.957152
0.000000 0.995272 0.995418
0.000000 0.996139 0.995593
0.000000 1.000000 0.994936
0.581625 1.000000 0.995103
0.994443 0.999594 0.995848
