Assets/Lutify-Free-LUTs-Pack/Lutify Free LUTs Pack/Colour Film Boost Pro - Film Boost 10/Lutify.me-FilmBoost10-ZLog2-to-Rec709.cube
# Created with: fylm.ai - Colour Grading and Collaboration Software in Cloud 
# Website: https://fylm.ai 
# META
# Option: Gamut compress
# Block 1: IDT | Z-Cam Z-Log2 - BETA
# Block 2: colourMatch | Blending Mode: Normal | {"ColorSpace":0,"CrossCovarianceLimit":50,"ReshapingIterations":1,"PercentSaturationShift":100,"PercentShadingShift":100,"ExtraShading":true,"PercentTint":100,"PercentModified":100}
# Block 3: subtractiveColour | Blending Mode: Normal | {"sliders":{"gainY":0.55,"C":0.3,"M":0.3,"Y":0.3}}
# Block 4: LUT | Filmic Curve Response: Low Contrast 2 (100%)
# Block 5: logPrimaries | Blending Mode: Normal | {"wheels":{"shadows":{"Y":"0","R":"1","G":"1","B":"1"},"midtones":{"Y":"0","R":"1","G":"1","B":"1"},"highlights":{"Y":"0","R":"1","G":"1","B":"1"},"offset":{"Y":"0","R":"1","G":"1","B":"1"}},"sliders":{"shadows":{"Y":0,"R":-0.085,"G":0.024,"B":0.134},"midtones":{"Y":0,"R":0,"G":-0.023,"B":0},"highlights":{"Y":0,"R":0,"G":0,"B":0},"offset":{"Y":0,"R":0.012,"G":-0.012,"B":0}}}
# Block 6: HSL | Blending Mode: Normal | {"hue":{"Reds":0,"Yellows":0,"Greens":0,"Cyans":0,"Blues":0,"Magentas":0},"saturation":{"Reds":1,"Yellows":1,"Greens":1,"Cyans":1,"Blues":1,"Magentas":1},"luminance":{"Reds":0.9,"Yellows":0.9,"Greens":0.9,"Cyans":0.9,"Blues":0.9,"Magentas":0.9},"lum_sat":{"Blacks":1,"Shadows":1,"Midtones":1,"Highlights":1,"Whites":1},"sat_sat":{"10":1,"20":1,"30":1,"40":1,"50":1}}
# Block 7: ODT | Rec709
TITLE "Lutify.me-FilmBoost10-ZLog2-to-Rec709" 
LUT_3D_SIZE 9
0.000000 0.000000 0.000000
0.000000 0.000000 0.000000
0.064251 0.000000 0.000000
0.116976 0.000000 0.000000
0.175494 0.000000 0.000000
0.250142 0.000000 0.000000
0.348950 0.000000 0.029014
0.471274 0.000000 0.047841
0.621911 0.000000 0.076160
0.000000 0.017543 0.000000
0.000000 0.021517 0.000000
0.081641 0.000000 0.000000
0.127771 0.000000 0.000000
0.185015 0.000000 0.000000
0.259580 0.000000 0.000000
0.357455 0.000000 0.028517
0.476853 0.000000 0.047110
0.627883 0.000000 0.076122
0.000000 0.069328 0.000000
0.000000 0.071633 0.000000
0.076024 0.067406 0.000000
0.142692 0.039221 0.000000
0.210824 0.000000 0.000000
0.274931 0.000000 0.000000
0.372379 0.000000 0.028376
0.490306 0.000000 0.046474
0.639757 0.000000 0.077366
0.000000 0.125513 0.000000
0.000000 0.128164 0.000000
0.016228 0.130814 0.000000
0.155899 0.117689 0.000000
0.236559 0.079915 0.000000
0.305162 0.000000 0.000000
0.388023 0.000000 0.017856
0.506852 0.000000 0.044150
0.650959 0.000000 0.078098
0.000000 0.196346 0.000000
0.000000 0.198971 0.000000
0.000000 0.198133 0.000000
0.148337 0.195512 0.000000
0.264030 0.171205 0.000000
0.340377 0.133957 0.000000
0.423146 0.089739 0.000000
0.532143 0.000000 0.028429
0.665581 0.000000 0.078524
0.000000 0.271909 0.000000
0.000000 0.275042 0.000000
0.000000 0.273699 0.000000
0.155975 0.270000 0.000000
0.290161 0.263645 0.000000
0.390400 0.225716 0.000000
0.470118 0.199675 0.000000
0.566757 0.165620 0.000000
0.694113 0.000000 0.057324
0.000000 0.365525 0.000000
0.000000 0.365056 0.000000
0.000000 0.363981 0.000000
0.116456 0.359184 0.000000
0.286370 0.353945 0.000000
0.428550 0.334008 0.000000
0.549907 0.292416 0.000000
0.606347 0.285626 0.000000
0.718438 0.265854 0.000000
0.000000 0.468168 0.000000
0.000000 0.467831 0.000000
0.000000 0.467209 0.000000
0.000000 0.465801 0.000000
0.273566 0.462328 0.000000
0.441718 0.460979 0.000000
0.572011 0.431737 0.000000
0.682882 0.383549 0.000000
0.743139 0.393378 0.000000
0.000000 0.568332 0.000000
0.000000 0.568045 0.000000
0.000000 0.567201 0.000000
0.194099 0.566093 0.000000
0.330680 0.566220 0.000000
0.446836 0.568058 0.000000
0.601192 0.555271 0.000000
0.722553 0.517202 0.000000
0.817037 0.473164 0.000000
0.000000 0.000000 0.031305
0.000000 0.000000 0.031541
0.050461 0.000000 0.019197
0.111874 0.000000 0.010452
0.173220 0.000000 0.008193
0.247010 0.000000 0.023766
0.349024 0.000000 0.036728
0.471042 0.000000 0.052851
0.621543 0.000000 0.080340
0.000000 0.007965 0.037471
0.000000 0.012659 0.036205
0.070295 0.000000 0.021981
0.122433 0.000000 0.013420
0.182452 0.000000 0.007835
0.256492 0.000000 0.025606
0.357507 0.000000 0.036904
0.477036 0.000000 0.053210
0.627546 0.000000 0.081781
0.000000 0.064975 0.000000
0.000000 0.070309 0.000000
0.068037 0.068655 0.000000
0.140492 0.037656 0.000000
0.202966 0.000000 0.000000
0.275486 0.000000 0.025843
0.371730 0.000000 0.037491
0.490461 0.000000 0.052773
0.639386 0.000000 0.083200
0.000000 0.121819 0.000000
0.000000 0.126956 0.000000
0.000000 0.129759 0.000000
0.146684 0.119468 0.000000
0.230073 0.085069 0.000000
0.305421 0.000000 0.000000
0.390716 0.000000 0.032974
0.506856 0.000000 0.051800
0.653975 0.000000 0.085953
0.000000 0.193587 0.000000
0.000000 0.197619 0.000000
0.000000 0.199840 0.000000
0.134961 0.196191 0.000000
0.254751 0.177218 0.000000
0.335925 0.142835 0.000000
0.426799 0.087983 0.000000
0.535609 0.000000 0.042021
0.667667 0.000000 0.084525
0.000000 0.275536 0.000000
0.000000 0.275206 0.000000
0.000000 0.274226 0.000000
0.116906 0.271084 0.000000
0.261180 0.268357 0.000000
0.375669 0.234076 0.000000
0.467236 0.204349 0.000000
0.571334 0.166991 0.000000
0.693998 0.000000 0.070260
0.000000 0.363185 0.000000
0.000000 0.362728 0.000000
0.000000 0.361678 0.000000
0.116456 0.359184 0.000000
0.286370 0.353945 0.000000
0.428550 0.334008 0.000000
0.540049 0.294148 0.000000
0.603323 0.291619 0.000000
0.721641 0.267567 0.000000
0.000000 0.468168 0.000000
0.000000 0.467882 0.000000
0.000000 0.467209 0.000000
0.000000 0.465888 0.000000
0.268322 0.462477 0.000000
0.441718 0.460979 0.000000
0.572011 0.431737 0.000000
0.682882 0.383549 0.000000
0.739321 0.396669 0.000000
0.000000 0.568332 0.000000
0.000000 0.568045 0.000000
0.000000 0.567201 0.000000
0.194099 0.566093 0.000000
0.330680 0.566220 0.000000
0.449091 0.564935 0.000000
0.601192 0.555271 0.000000
0.722553 0.517202 0.000000
0.817037 0.473164 0.000000
0.000000 0.000000 0.056050
0.000000 0.000000 0.055834
0.045887 0.000000 0.053023
0.099329 0.000000 0.041376
0.168184 0.000000 0.039124
0.240326 0.000000 0.041092
0.346228 0.000000 0.049566
0.468336 0.000000 0.062583
0.621890 0.000000 0.089105
0.000000 0.000000 0.065134
0.000000 0.000000 0.062012
0.053883 0.000000 0.059484
0.106569 0.000000 0.048799
0.176004 0.000000 0.045486
0.252668 0.000000 0.046271
0.353309 0.000000 0.051324
0.474275 0.000000 0.063715
0.624450 0.000000 0.089234
0.000000 0.057491 0.083945
0.000000 0.063667 0.082817
0.050976 0.066849 0.080978
0.131590 0.037161 0.066584
0.201302 0.000000 0.056031
0.274008 0.000000 0.051428
0.371573 0.000000 0.053182
0.490886 0.000000 0.065830
0.638634 0.000000 0.092344
0.000000 0.119440 0.047395
0.000000 0.125030 0.045246
0.000000 0.136555 0.041600
0.130478 0.135267 0.046925
0.226179 0.092214 0.048341
0.300747 0.000000 0.049924
0.392563 0.000000 0.053369
0.512743 0.000000 0.066516
0.653595 0.000000 0.093998
0.000000 0.196073 0.000000
0.000000 0.201632 0.000000
0.000000 0.202707 0.000000
0.077223 0.204868 0.000000
0.237729 0.190922 0.000000
0.331195 0.156180 0.000000
0.431202 0.085645 0.028278
0.538685 0.000000 0.061822
0.671607 0.000000 0.095881
0.000000 0.275796 0.000000
0.000000 0.277457 0.000000
0.000000 0.282313 0.000000
0.000000 0.280462 0.000000
0.223807 0.277213 0.000000
0.354734 0.254877 0.000000
0.460102 0.223129 0.000000
0.574563 0.167583 0.000000
0.695050 0.000000 0.087421
0.000000 0.363257 0.000000
0.000000 0.362761 0.000000
0.000000 0.361927 0.000000
0.039015 0.359808 0.000000
0.240837 0.360769 0.000000
0.401976 0.350337 0.000000
0.510718 0.319926 0.000000
0.607326 0.307686 0.000000
0.724339 0.271720 0.000000
0.000000 0.468213 0.000000
0.000000 0.467931 0.000000
0.000000 0.464380 0.000000
0.000000 0.462984 0.000000
0.271437 0.459540 0.000000
0.443433 0.457960 0.000000
0.572011 0.431737 0.000000
0.682882 0.383549 0.000000
0.743729 0.406512 0.000000
0.000000 0.568515 0.000000
0.000000 0.568142 0.000000
0.000000 0.567424 0.000000
0.194099 0.566093 0.000000
0.318307 0.566566 0.000000
0.449091 0.564935 0.000000
0.596836 0.555760 0.000000
0.722553 0.517202 0.000000
0.817037 0.473164 0.000000
0.000000 0.000000 0.082836
0.000000 0.000000 0.080634
0.000000 0.000000 0.076756
0.089866 0.000000 0.068275
0.161117 0.000000 0.057692
0.235837 0.000000 0.058680
0.337065 0.000000 0.069214
0.463717 0.000000 0.082010
0.618584 0.000000 0.105113
0.000000 0.000000 0.093597
0.000000 0.000000 0.089845
0.007032 0.000000 0.086426
0.096042 0.000000 0.077934
0.166587 0.000000 0.065712
0.246242 0.000000 0.066877
0.347990 0.000000 0.074069
0.473363 0.000000 0.086257
0.624291 0.000000 0.107005
0.000000 0.030742 0.129013
0.000000 0.033244 0.126055
0.000000 0.038254 0.124849
0.114983 0.012605 0.122875
0.191051 0.000000 0.093076
0.268340 0.000000 0.083178
0.361481 0.000000 0.083145
0.487665 0.000000 0.092241
0.632607 0.000000 0.109162
0.000000 0.101746 0.149231
0.000000 0.114346 0.147704
0.000000 0.125507 0.151907
0.105982 0.127883 0.151575
0.220048 0.089201 0.124743
0.305383 0.000000 0.105026
0.393432 0.000000 0.092159
0.506037 0.000000 0.095817
0.649709 0.000000 0.111345
0.000000 0.192038 0.108165
0.000000 0.202437 0.105498
0.000000 0.210622 0.103026
0.000000 0.222048 0.099155
0.213543 0.218729 0.102962
0.330898 0.170201 0.094853
0.433982 0.094077 0.094079
0.544015 0.000000 0.097867
0.673901 0.000000 0.113305
0.000000 0.286488 0.000000
0.000000 0.290136 0.000000
0.000000 0.295503 0.000000
0.000000 0.296788 0.000000
0.145450 0.299698 0.000000
0.334399 0.290723 0.000000
0.464817 0.237735 0.000000
0.586430 0.166514 0.071093
0.698254 0.000000 0.112140
0.000000 0.370568 0.000000
0.000000 0.375266 0.000000
0.000000 0.377398 0.000000
0.000000 0.376744 0.000000
0.043258 0.382546 0.000000
0.306200 0.378547 0.000000
0.477183 0.358881 0.000000
0.609113 0.322353 0.000000
0.733303 0.273967 0.055223
0.000000 0.465420 0.000000
0.000000 0.465146 0.000000
0.000000 0.464501 0.000000
0.000000 0.463237 0.000000
0.266219 0.459687 0.000000
0.420848 0.459213 0.000000
0.538186 0.454701 0.000000
0.639610 0.429370 0.000000
0.751518 0.429700 0.000000
0.000000 0.568515 0.000000
0.000000 0.568238 0.000000
0.000000 0.567532 0.000000
0.183987 0.566225 0.000000
0.321718 0.563484 0.000000
0.449091 0.564935 0.000000
0.596836 0.555760 0.000000
0.719509 0.514335 0.000000
0.814254 0.470257 0.000000
0.000000 0.000000 0.117018
0.000000 0.000000 0.112316
0.000000 0.000000 0.107915
0.072073 0.000000 0.104375
0.150874 0.000000 0.083083
0.228684 0.000000 0.071788
0.324285 0.000000 0.086476
0.449967 0.000000 0.109600
0.612255 0.000000 0.134855
0.000000 0.000000 0.130722
0.000000 0.000000 0.125575
0.000000 0.000000 0.121951
0.073010 0.000000 0.118091
0.158554 0.000000 0.098017
0.233135 0.000000 0.086250
0.338341 0.000000 0.097821
0.464470 0.000000 0.115031
0.618526 0.000000 0.137390
0.000000 0.000000 0.158394
0.000000 0.000000 0.156797
0.000000 0.000000 0.151594
0.073235 0.000000 0.147133
0.170204 0.000000 0.132928
0.256508 0.000000 0.112903
0.348148 0.000000 0.116946
0.476301 0.000000 0.124148
0.627058 0.000000 0.140334
0.000000 0.067374 0.213199
0.000000 0.071526 0.210220
0.000000 0.079873 0.210689
0.035243 0.084213 0.215135
0.204414 0.063581 0.210544
0.297838 0.000000 0.166585
0.382716 0.000000 0.140357
0.500778 0.000000 0.139675
0.646644 0.000000 0.149630
0.000000 0.167938 0.230496
0.000000 0.176603 0.236739
0.000000 0.195297 0.235337
0.000000 0.209214 0.236408
0.183050 0.215299 0.247397
0.323307 0.171888 0.209378
0.439492 0.077119 0.175910
0.539641 0.000000 0.153128
0.675270 0.000000 0.158470
0.000000 0.279352 0.190218
0.000000 0.288325 0.186471
0.000000 0.302296 0.183817
0.000000 0.315823 0.178655
0.000000 0.324671 0.182982
0.324447 0.321230 0.191586
0.474306 0.253310 0.169749
0.589040 0.177435 0.156668
0.706638 0.000000 0.160395
0.000000 0.402629 0.000000
0.000000 0.406789 0.000000
0.000000 0.409329 0.000000
0.000000 0.416278 0.000000
0.000000 0.418135 0.000000
0.244762 0.424117 0.000000
0.485042 0.403818 0.000000
0.620308 0.352230 0.079452
0.737726 0.286258 0.133577
0.000000 0.493092 0.000000
0.000000 0.496092 0.000000
0.000000 0.498880 0.000000
0.000000 0.501565 0.000000
0.000000 0.507169 0.000000
0.188188 0.506501 0.000000
0.425065 0.504705 0.000000
0.619932 0.486312 0.000000
0.756885 0.451182 0.000000
0.000000 0.568691 0.000000
0.000000 0.568332 0.000000
0.000000 0.567638 0.000000
0.169894 0.563426 0.000000
0.315481 0.563655 0.000000
0.443979 0.565158 0.000000
0.593856 0.552877 0.000000
0.671812 0.550117 0.000000
0.756731 0.545102 0.000000
0.000000 0.000000 0.158160
0.000000 0.000000 0.152910
0.000000 0.000000 0.148284
0.023639 0.000000 0.140865
0.136472 0.000000 0.132952
0.225209 0.000000 0.103026
0.311737 0.000000 0.089881
0.430818 0.000000 0.136010
0.602902 0.000000 0.175716
0.000000 0.000000 0.176495
0.000000 0.000000 0.170780
0.000000 0.000000 0.167244
0.000000 0.000000 0.157693
0.140220 0.000000 0.153509
0.228468 0.000000 0.120505
0.316101 0.000000 0.107367
0.442893 0.000000 0.148457
0.609055 0.000000 0.183090
0.000000 0.000000 0.206195
0.000000 0.000000 0.204256
0.000000 0.000000 0.199614
0.000000 0.000000 0.195222
0.140764 0.000000 0.186251
0.243748 0.000000 0.156883
0.337725 0.000000 0.139219
0.466829 0.000000 0.170082
0.620836 0.000000 0.191311
0.000000 0.025960 0.251599
0.000000 0.030249 0.251106
0.000000 0.036411 0.246067
0.000000 0.037746 0.247241
0.139371 0.000000 0.238594
0.274104 0.000000 0.220506
0.373531 0.000000 0.193832
0.490690 0.000000 0.193481
0.636603 0.000000 0.199536
0.000000 0.118671 0.301921
0.000000 0.123314 0.302137
0.000000 0.134547 0.301233
0.000000 0.147646 0.307024
0.110179 0.158481 0.319313
0.312092 0.134043 0.315464
0.440285 0.000000 0.261023
0.535403 0.000000 0.227710
0.663597 0.000000 0.220273
0.000000 0.248786 0.321785
0.000000 0.252062 0.329044
0.000000 0.271384 0.326779
0.000000 0.295049 0.338280
0.000000 0.310946 0.340936
0.292331 0.317187 0.347996
0.466203 0.258749 0.310863
0.588931 0.167300 0.265661
0.709072 0.000000 0.243844
0.000000 0.396979 0.276320
0.000000 0.402690 0.277869
0.000000 0.408899 0.274965
0.000000 0.428198 0.273855
0.000000 0.438232 0.273755
0.172365 0.457283 0.278812
0.472744 0.448503 0.283951
0.622695 0.378047 0.258632
0.741814 0.300705 0.249674
0.000000 0.541478 0.080416
0.000000 0.543708 0.072287
0.000000 0.548618 0.059095
0.000000 0.551063 0.055992
0.000000 0.559108 0.042316
0.000000 0.562451 0.031864
0.389234 0.557590 0.081825
0.624480 0.548585 0.130185
0.761552 0.482274 0.164860
0.000000 0.619811 0.000000
0.000000 0.619664 0.000000
0.000000 0.622951 0.000000
0.000000 0.625398 0.000000
0.000000 0.628225 0.000000
0.000000 0.634101 0.000000
0.344094 0.632682 0.000000
0.570464 0.635063 0.000000
0.756987 0.617558 0.000000
0.000000 0.000000 0.208873
0.000000 0.000000 0.204058
0.000000 0.000000 0.194182
0.000000 0.000000 0.187424
0.081947 0.000000 0.180466
0.213816 0.000000 0.159330
0.306041 0.000000 0.116947
0.398169 0.000000 0.107785
0.575836 0.000000 0.198344
0.000000 0.000000 0.228974
0.000000 0.000000 0.222364
0.000000 0.000000 0.215395
0.000000 0.000000 0.208456
0.077024 0.000000 0.202513
0.213617 0.000000 0.185434
0.309532 0.000000 0.137274
0.408164 0.000000 0.126460
0.583412 0.000000 0.209843
0.000000 0.000000 0.257615
0.000000 0.000000 0.253638
0.000000 0.000000 0.252551
0.000000 0.000000 0.245894
0.067837 0.000000 0.239191
0.221922 0.000000 0.227690
0.328036 0.000000 0.179160
0.424105 0.000000 0.165556
0.594986 0.000000 0.229574
0.000000 0.000000 0.305560
0.000000 0.000000 0.297234
0.000000 0.000000 0.298221
0.000000 0.000000 0.299350
0.040138 0.000000 0.292135
0.215143 0.000000 0.287025
0.356669 0.000000 0.251096
0.462613 0.000000 0.226325
0.621913 0.000000 0.253328
0.000000 0.056769 0.351559
0.000000 0.060030 0.346729
0.000000 0.066599 0.348862
0.000000 0.069977 0.350951
0.000000 0.074965 0.359992
0.223737 0.027194 0.353808
0.409648 0.000000 0.325393
0.525613 0.000000 0.286020
0.658821 0.000000 0.280686
0.000000 0.187094 0.412113
0.000000 0.188249 0.415312
0.000000 0.198330 0.412996
0.000000 0.214116 0.421641
0.000000 0.234362 0.430405
0.205323 0.244544 0.448978
0.463640 0.211940 0.443211
0.601356 0.085779 0.379606
0.698429 0.000000 0.324285
0.000000 0.354858 0.446776
0.000000 0.362791 0.449997
0.000000 0.376730 0.450531
0.000000 0.396733 0.460619
0.000000 0.430545 0.468094
0.000000 0.444054 0.479205
0.441631 0.452639 0.485907
0.613870 0.382379 0.437675
0.747490 0.283633 0.378174
0.000000 0.531587 0.399234
0.000000 0.533544 0.400932
0.000000 0.540511 0.400789
0.000000 0.549513 0.396161
0.000000 0.569863 0.401765
0.000000 0.585861 0.398229
0.336905 0.594069 0.410368
0.605365 0.584255 0.406997
0.766184 0.519537 0.374949
0.000000 0.672813 0.196764
0.000000 0.673600 0.197150
0.000000 0.675167 0.195005
0.000000 0.679585 0.188910
0.000000 0.681310 0.185185
0.000000 0.686216 0.193184
0.234138 0.691044 0.184786
0.548973 0.684214 0.209212
0.759598 0.674548 0.246967
0.000000 0.000000 0.268005
0.000000 0.000000 0.262001
0.000000 0.000000 0.253056
0.000000 0.000000 0.246660
0.000000 0.000000 0.238614
0.151035 0.000000 0.228174
0.299018 0.000000 0.188989
0.396422 0.000000 0.133458
0.511385 0.000000 0.128553
0.000000 0.000000 0.287862
0.000000 0.000000 0.281525
0.000000 0.000000 0.276220
0.000000 0.000000 0.270827
0.000000 0.000000 0.263829
0.146658 0.000000 0.251008
0.300834 0.000000 0.217598
0.402546 0.000000 0.156328
0.517149 0.000000 0.153073
0.000000 0.000000 0.325938
0.000000 0.000000 0.320849
0.000000 0.000000 0.315133
0.000000 0.000000 0.310731
0.000000 0.000000 0.300682
0.138184 0.000000 0.292082
0.314236 0.000000 0.268570
0.414240 0.000000 0.204081
0.538388 0.000000 0.195559
0.000000 0.000000 0.371945
0.000000 0.000000 0.366451
0.000000 0.000000 0.365306
0.000000 0.000000 0.362338
0.000000 0.000000 0.356407
0.123670 0.000000 0.351560
0.315268 0.000000 0.339810
0.455901 0.000000 0.283418
0.580918 0.000000 0.261315
0.000000 0.026335 0.415194
0.000000 0.030689 0.414284
0.000000 0.037863 0.411049
0.000000 0.038878 0.415975
0.000000 0.046339 0.424441
0.111937 0.000000 0.413376
0.329749 0.000000 0.409404
0.510273 0.000000 0.373774
0.628554 0.000000 0.336364
0.000000 0.107260 0.469610
0.000000 0.107690 0.472414
0.000000 0.116654 0.471294
0.000000 0.123283 0.476990
0.000000 0.130241 0.480076
0.054836 0.138394 0.499100
0.358864 0.095004 0.488588
0.571445 0.000000 0.465282
0.695807 0.000000 0.410720
0.000000 0.278993 0.534123
0.000000 0.280472 0.537072
0.000000 0.285266 0.535719
0.000000 0.299382 0.542565
0.000000 0.321527 0.557412
0.000000 0.343767 0.572658
0.315426 0.360324 0.586430
0.593732 0.330739 0.583661
0.760599 0.206249 0.509609
0.000000 0.487810 0.571879
0.000000 0.493602 0.574613
0.000000 0.500561 0.581987
0.000000 0.512102 0.584289
0.000000 0.536786 0.589950
0.000000 0.565396 0.593189
0.236974 0.573900 0.607427
0.589892 0.584665 0.617197
0.748233 0.518377 0.568346
0.000000 0.668297 0.518008
0.000000 0.669376 0.515650
0.000000 0.674327 0.516967
0.000000 0.678323 0.514086
0.000000 0.684757 0.524149
0.000000 0.697681 0.520600
0.000000 0.715881 0.520560
0.502978 0.717621 0.534038
0.737528 0.707388 0.533580
0.000000 0.000000 0.329045
0.000000 0.000000 0.324168
0.000000 0.000000 0.322024
0.000000 0.000000 0.313916
0.000000 0.000000 0.303800
0.093964 0.000000 0.293594
0.238664 0.000000 0.276699
0.395257 0.000000 0.210103
0.505750 0.000000 0.133638
0.000000 0.000000 0.353554
0.000000 0.000000 0.350465
0.000000 0.000000 0.344988
0.000000 0.000000 0.340693
0.000000 0.000000 0.331748
0.079879 0.000000 0.318630
0.232474 0.000000 0.306570
0.404436 0.000000 0.241224
0.508144 0.000000 0.157808
0.000000 0.000000 0.395492
0.000000 0.000000 0.391981
0.000000 0.000000 0.387756
0.000000 0.000000 0.383501
0.000000 0.000000 0.375877
0.014784 0.000000 0.365900
0.228796 0.000000 0.347636
0.413170 0.000000 0.302207
0.519552 0.000000 0.205147
0.000000 0.000000 0.440319
0.000000 0.000000 0.439413
0.000000 0.000000 0.440508
0.000000 0.000000 0.438200
0.000000 0.000000 0.431594
0.000000 0.000000 0.426180
0.218626 0.000000 0.413229
0.440849 0.000000 0.388500
0.567094 0.000000 0.296638
0.000000 0.000000 0.487971
0.000000 0.000000 0.490554
0.000000 0.000000 0.488341
0.000000 0.000000 0.488619
0.000000 0.015606 0.492446
0.000000 0.000000 0.493541
0.219484 0.000000 0.481170
0.463849 0.000000 0.470238
0.617486 0.000000 0.404873
0.000000 0.075173 0.536574
0.000000 0.079284 0.535536
0.000000 0.083001 0.530602
0.000000 0.087029 0.537948
0.000000 0.090508 0.546635
0.000000 0.097568 0.560604
0.224056 0.068276 0.554183
0.479664 0.000000 0.549940
0.678843 0.000000 0.499041
0.000000 0.174838 0.590765
0.000000 0.175440 0.593138
0.000000 0.178127 0.594236
0.000000 0.186290 0.595045
0.000000 0.198708 0.606137
0.000000 0.206105 0.613105
0.209964 0.217510 0.631465
0.492180 0.169721 0.619504
0.732330 0.000000 0.591220
0.000000 0.387443 0.657872
0.000000 0.391812 0.659897
0.000000 0.397854 0.664152
0.000000 0.411755 0.663825
0.000000 0.418314 0.669304
0.000000 0.443829 0.682822
0.000000 0.473099 0.693383
0.464397 0.487079 0.707441
0.750999 0.455702 0.706662
0.000000 0.620798 0.696696
0.000000 0.625392 0.697813
0.000000 0.635695 0.694543
0.000000 0.642934 0.695070
0.000000 0.649831 0.705675
0.000000 0.669736 0.715810
0.000000 0.697447 0.715250
0.423045 0.707496 0.725094
0.728800 0.708728 0.735695
