Assets/Lutify-Free-LUTs-Pack/Lutify Free LUTs Pack/Colour Film Boost Pro - Film Boost 10/Lutify.me-FilmBoost10-LLog-to-Rec709.cube
# Created with: fylm.ai - Colour Grading and Collaboration Software in Cloud 
# Website: https://fylm.ai 
# META
# Option: Gamut compress
# Block 1: IDT | Leica BT2020 L-Log
# Block 2: colourMatch | Blending Mode: Normal | {"ColorSpace":0,"CrossCovarianceLimit":50,"ReshapingIterations":1,"PercentSaturationShift":100,"PercentShadingShift":100,"ExtraShading":true,"PercentTint":100,"PercentModified":100}
# Block 3: subtractiveColour | Blending Mode: Normal | {"sliders":{"gainY":0.55,"C":0.3,"M":0.3,"Y":0.3}}
# Block 4: LUT | Filmic Curve Response: Low Contrast 2 (100%)
# Block 5: logPrimaries | Blending Mode: Normal | {"wheels":{"shadows":{"Y":"0","R":"1","G":"1","B":"1"},"midtones":{"Y":"0","R":"1","G":"1","B":"1"},"highlights":{"Y":"0","R":"1","G":"1","B":"1"},"offset":{"Y":"0","R":"1","G":"1","B":"1"}},"sliders":{"shadows":{"Y":0,"R":-0.085,"G":0.024,"B":0.134},"midtones":{"Y":0,"R":0,"G":-0.023,"B":0},"highlights":{"Y":0,"R":0,"G":0,"B":0},"offset":{"Y":0,"R":0.012,"G":-0.012,"B":0}}}
# Block 6: HSL | Blending Mode: Normal | {"hue":{"Reds":0,"Yellows":0,"Greens":0,"Cyans":0,"Blues":0,"Magentas":0},"saturation":{"Reds":1,"Yellows":1,"Greens":1,"Cyans":1,"Blues":1,"Magentas":1},"luminance":{"Reds":0.9,"Yellows":0.9,"Greens":0.9,"Cyans":0.9,"Blues":0.9,"Magentas":0.9},"lum_sat":{"Blacks":1,"Shadows":1,"Midtones":1,"Highlights":1,"Whites":1},"sat_sat":{"10":1,"20":1,"30":1,"40":1,"50":1}}
# Block 7: ODT | Rec709
TITLE "Lutify.me-FilmBoost10-LLog-to-Rec709" 
LUT_3D_SIZE 5
0.000000 0.000000 0.000000
0.097636 0.000000 0.000000
0.388377 0.000000 0.000000
0.920876 0.000000 0.109196
1.000000 0.571835 0.464109
0.000000 0.075782 0.000000
0.114212 0.076396 0.000000
0.411918 0.000000 0.000000
0.926888 0.000000 0.112179
1.000000 0.574975 0.463946
0.000000 0.346481 0.000000
0.000000 0.374511 0.000000
0.496369 0.343117 0.000000
0.946651 0.162770 0.123464
1.000000 0.594809 0.469212
0.000000 0.811160 0.249635
0.000000 0.816331 0.245636
0.000000 0.827424 0.224982
0.904937 0.795144 0.169529
1.000000 0.721369 0.507761
0.438061 0.989540 0.753970
0.445972 0.989431 0.754220
0.504188 0.989037 0.754123
0.744346 0.984539 0.744785
1.000000 0.971784 0.733900
0.000000 0.000000 0.061502
0.081505 0.000000 0.043868
0.392879 0.000000 0.040865
0.924950 0.000000 0.127598
1.000000 0.572135 0.467110
0.000000 0.070612 0.125673
0.084609 0.098816 0.115442
0.421789 0.000000 0.050151
0.931100 0.000000 0.132520
1.000000 0.575576 0.469960
0.000000 0.350765 0.100405
0.000000 0.388303 0.068489
0.505864 0.382028 0.000000
0.949951 0.172055 0.147404
1.000000 0.595410 0.475263
0.000000 0.811105 0.292499
0.000000 0.816267 0.295421
0.000000 0.830284 0.275506
0.906694 0.798253 0.226776
1.000000 0.721618 0.510897
0.437448 0.989519 0.758453
0.445374 0.989409 0.758698
0.503683 0.989015 0.758583
0.744605 0.984615 0.749768
1.000000 0.971830 0.736162
0.000000 0.000000 0.288501
0.000000 0.011516 0.290958
0.414882 0.000000 0.226730
0.936118 0.000000 0.255142
1.000000 0.575450 0.500689
0.000000 0.051126 0.339324
0.000000 0.065912 0.340326
0.458575 0.000000 0.290647
0.940753 0.000000 0.259734
1.000000 0.578590 0.500538
0.000000 0.338608 0.465921
0.000000 0.385834 0.485547
0.476574 0.481750 0.505739
0.954239 0.220409 0.295626
1.000000 0.598724 0.509134
0.000000 0.814539 0.488897
0.000000 0.817851 0.483132
0.000000 0.840779 0.480493
0.901246 0.824516 0.449525
1.000000 0.723861 0.539424
0.435339 0.989444 0.773600
0.443318 0.989335 0.773828
0.501703 0.988931 0.775739
0.745574 0.985415 0.771374
1.000000 0.972203 0.753844
0.000000 0.208452 0.748085
0.000000 0.218816 0.744159
0.240634 0.226125 0.760515
0.963830 0.000000 0.681007
1.000000 0.602814 0.671785
0.000000 0.226127 0.753163
0.000000 0.233214 0.755706
0.239443 0.245553 0.770463
0.965118 0.000000 0.693293
1.000000 0.602814 0.671785
0.000000 0.332163 0.782919
0.000000 0.342369 0.786910
0.155428 0.372401 0.800483
0.973695 0.270437 0.745200
1.000000 0.627943 0.684989
0.000000 0.797230 0.853335
0.000000 0.805859 0.855708
0.000000 0.838961 0.859159
0.877471 0.864652 0.870516
1.000000 0.752121 0.721957
0.398575 0.991178 0.861256
0.407414 0.991071 0.861401
0.471381 0.990671 0.861065
0.746642 0.986663 0.859836
0.994341 0.978137 0.848520
0.275486 0.646790 0.969248
0.305925 0.647027 0.969389
0.398537 0.647746 0.969891
0.775763 0.661917 0.967575
1.000000 0.637755 0.941585
0.270411 0.650196 0.969056
0.301543 0.650439 0.969198
0.395488 0.651179 0.969700
0.774667 0.665757 0.967457
1.000000 0.641111 0.942487
0.247703 0.670224 0.969335
0.271499 0.670404 0.969427
0.383346 0.671329 0.969960
0.767144 0.687518 0.968762
1.000000 0.665498 0.943904
0.000000 0.783854 0.972059
0.000000 0.783919 0.972102
0.245415 0.784564 0.972603
0.728841 0.797256 0.972028
1.000000 0.782265 0.954535
0.281617 0.989770 0.983050
0.307695 0.989572 0.983108
0.405143 0.990248 0.982879
0.703973 0.988192 0.983611
0.982468 0.989523 0.984003
