Assets/Lutify-Free-LUTs-Pack/Lutify Free LUTs Pack/Colour Film Boost Pro - Film Boost 10/Lutify.me-FilmBoost10-SLog3Cine-to-Rec709.cube
# Created with: fylm.ai - Colour Grading and Collaboration Software in Cloud 
# Website: https://fylm.ai 
# META
# Option: Gamut compress
# Block 1: IDT | Sony S-Log3 S-Gamut3.Cine
# Block 2: colourMatch | Blending Mode: Normal | {"ColorSpace":0,"CrossCovarianceLimit":50,"ReshapingIterations":1,"PercentSaturationShift":100,"PercentShadingShift":100,"ExtraShading":true,"PercentTint":100,"PercentModified":100}
# Block 3: subtractiveColour | Blending Mode: Normal | {"sliders":{"gainY":0.55,"C":0.3,"M":0.3,"Y":0.3}}
# Block 4: LUT | Filmic Curve Response: Low Contrast 2 (100%)
# Block 5: logPrimaries | Blending Mode: Normal | {"wheels":{"shadows":{"Y":"0","R":"1","G":"1","B":"1"},"midtones":{"Y":"0","R":"1","G":"1","B":"1"},"highlights":{"Y":"0","R":"1","G":"1","B":"1"},"offset":{"Y":"0","R":"1","G":"1","B":"1"}},"sliders":{"shadows":{"Y":0,"R":-0.085,"G":0.024,"B":0.134},"midtones":{"Y":0,"R":0,"G":-0.023,"B":0},"highlights":{"Y":0,"R":0,"G":0,"B":0},"offset":{"Y":0,"R":0.012,"G":-0.012,"B":0}}}
# Block 6: HSL | Blending Mode: Normal | {"hue":{"Reds":0,"Yellows":0,"Greens":0,"Cyans":0,"Blues":0,"Magentas":0},"saturation":{"Reds":1,"Yellows":1,"Greens":1,"Cyans":1,"Blues":1,"Magentas":1},"luminance":{"Reds":0.9,"Yellows":0.9,"Greens":0.9,"Cyans":0.9,"Blues":0.9,"Magentas":0.9},"lum_sat":{"Blacks":1,"Shadows":1,"Midtones":1,"Highlights":1,"Whites":1},"sat_sat":{"10":1,"20":1,"30":1,"40":1,"50":1}}
# Block 7: ODT | Rec709
TITLE "Lutify.me-FilmBoost10-SLog3Cine-to-Rec709" 
LUT_3D_SIZE 9
0.000000 0.000000 0.000000
0.000000 0.000000 0.000000
0.103865 0.000000 0.000000
0.222744 0.000000 0.000000
0.410248 0.000000 0.000000
0.690291 0.000000 0.000000
0.966523 0.000000 0.091061
1.000000 0.237141 0.238404
1.000000 0.581568 0.454792
0.000000 0.019268 0.000000
0.000000 0.024235 0.000000
0.125468 0.000000 0.000000
0.250349 0.000000 0.000000
0.434021 0.000000 0.000000
0.694275 0.000000 0.000000
0.968812 0.000000 0.091135
1.000000 0.241777 0.238184
1.000000 0.581568 0.454792
0.000000 0.108150 0.000000
0.000000 0.117366 0.000000
0.147677 0.104243 0.000000
0.292498 0.000000 0.000000
0.456726 0.000000 0.000000
0.705173 0.000000 0.000000
0.971185 0.000000 0.091993
1.000000 0.255993 0.241210
1.000000 0.587278 0.454485
0.000000 0.250599 0.000000
0.000000 0.256752 0.000000
0.000000 0.257332 0.000000
0.345851 0.212800 0.000000
0.519711 0.116641 0.000000
0.738381 0.000000 0.000000
0.977398 0.000000 0.092767
1.000000 0.286945 0.241942
1.000000 0.593602 0.459734
0.000000 0.455377 0.000000
0.000000 0.454466 0.000000
0.000000 0.460859 0.000000
0.142672 0.462744 0.000000
0.581254 0.404546 0.000000
0.796702 0.311078 0.000000
0.985515 0.171753 0.080453
1.000000 0.362022 0.241409
1.000000 0.608897 0.462176
0.000000 0.722437 0.000000
0.000000 0.721861 0.000000
0.000000 0.720704 0.000000
0.000000 0.720099 0.000000
0.446945 0.705668 0.000000
0.814350 0.653363 0.000000
0.976646 0.583417 0.000000
1.000000 0.511939 0.256387
1.000000 0.654472 0.472409
0.000000 0.889104 0.212370
0.000000 0.888827 0.212501
0.000000 0.888400 0.212702
0.144370 0.888236 0.205669
0.458357 0.882463 0.179983
0.754116 0.869596 0.103277
0.938471 0.842331 0.000000
1.000000 0.797492 0.290619
1.000000 0.760742 0.494328
0.635078 0.965984 0.538011
0.635078 0.965984 0.538011
0.639686 0.965811 0.538066
0.648040 0.966068 0.535509
0.689274 0.964217 0.526712
0.770873 0.960445 0.525616
0.887913 0.955245 0.498600
0.992356 0.941240 0.419970
1.000000 0.912632 0.578957
0.830148 1.000000 0.784414
0.830148 1.000000 0.784414
0.830148 1.000000 0.784414
0.831885 1.000000 0.782627
0.840714 1.000000 0.782792
0.857305 1.000000 0.779945
0.892761 0.998783 0.771546
0.956919 0.995239 0.763577
1.000000 0.989407 0.728815
0.000000 0.000000 0.014778
0.000000 0.000000 0.012947
0.093651 0.000000 0.000000
0.212053 0.000000 0.000000
0.408219 0.000000 0.000000
0.689176 0.000000 0.022769
0.968585 0.000000 0.100750
1.000000 0.238209 0.243945
1.000000 0.582170 0.460344
0.000000 0.000000 0.033557
0.000000 0.000000 0.026440
0.115095 0.000000 0.000000
0.233734 0.000000 0.000000
0.428628 0.000000 0.000000
0.700605 0.000000 0.022675
0.968269 0.000000 0.099840
1.000000 0.242832 0.243733
1.000000 0.582170 0.460344
0.000000 0.101095 0.000000
0.000000 0.113092 0.000000
0.125143 0.111593 0.000000
0.282184 0.000000 0.000000
0.445761 0.000000 0.000000
0.708854 0.000000 0.022456
0.972875 0.000000 0.100677
1.000000 0.256331 0.243080
1.000000 0.587879 0.460041
0.000000 0.250126 0.000000
0.000000 0.264995 0.000000
0.000000 0.267479 0.000000
0.324749 0.235249 0.000000
0.518603 0.125589 0.000000
0.745254 0.000000 0.000000
0.979181 0.000000 0.102843
1.000000 0.283465 0.245981
1.000000 0.593602 0.459734
0.000000 0.472452 0.000000
0.000000 0.476913 0.000000
0.000000 0.477617 0.000000
0.000000 0.478892 0.000000
0.573319 0.427946 0.000000
0.794486 0.318162 0.000000
0.987480 0.174684 0.098216
1.000000 0.362895 0.247362
1.000000 0.609196 0.464978
0.000000 0.726155 0.000000
0.000000 0.728165 0.000000
0.000000 0.729942 0.000000
0.000000 0.725494 0.000000
0.437666 0.716013 0.000000
0.814860 0.663130 0.000000
0.975929 0.586285 0.000000
1.000000 0.512222 0.258675
1.000000 0.654472 0.472409
0.000000 0.889982 0.235214
0.000000 0.889557 0.231582
0.000000 0.889273 0.231705
0.149278 0.888810 0.221142
0.460332 0.883168 0.200365
0.755896 0.870725 0.147999
0.939185 0.843682 0.000000
1.000000 0.798040 0.299497
1.000000 0.760742 0.494328
0.626174 0.966443 0.544260
0.635558 0.966097 0.544366
0.640159 0.965923 0.544420
0.648502 0.966180 0.541834
0.689859 0.964388 0.536138
0.771007 0.960504 0.528726
0.886250 0.955475 0.504287
0.990796 0.941634 0.424250
1.000000 0.912723 0.581688
0.830148 1.000000 0.784414
0.830148 1.000000 0.784414
0.830148 1.000000 0.784414
0.831966 1.000000 0.784445
0.840787 1.000000 0.784607
0.857305 1.000000 0.779945
0.892799 0.998802 0.773386
0.956911 0.995261 0.765381
1.000000 0.989407 0.728815
0.000000 0.000000 0.066004
0.000000 0.000000 0.056948
0.076889 0.000000 0.041062
0.212211 0.000000 0.026709
0.400241 0.000000 0.028172
0.697716 0.000000 0.049031
0.966103 0.000000 0.111480
1.000000 0.234069 0.249567
1.000000 0.579322 0.460495
0.000000 0.000000 0.082843
0.000000 0.000000 0.074590
0.087237 0.000000 0.058589
0.227394 0.000000 0.043520
0.422319 0.000000 0.037252
0.706874 0.000000 0.053409
0.970727 0.000000 0.111893
1.000000 0.243886 0.249392
1.000000 0.582472 0.463134
0.000000 0.083084 0.145488
0.000000 0.096582 0.136419
0.096417 0.112429 0.130154
0.278204 0.000000 0.070291
0.454023 0.000000 0.042069
0.714585 0.000000 0.053603
0.975275 0.000000 0.113059
1.000000 0.258024 0.252608
1.000000 0.588180 0.462833
0.000000 0.247898 0.113404
0.000000 0.264914 0.098527
0.000000 0.286664 0.083173
0.306820 0.275553 0.043169
0.524787 0.132997 0.000000
0.739043 0.000000 0.054454
0.981393 0.000000 0.116070
1.000000 0.284331 0.253486
1.000000 0.593902 0.462528
0.000000 0.484616 0.000000
0.000000 0.491812 0.000000
0.000000 0.495097 0.000000
0.000000 0.499928 0.000000
0.571665 0.462776 0.000000
0.805467 0.339686 0.000000
0.989813 0.178190 0.118165
1.000000 0.364064 0.255465
1.000000 0.609196 0.464978
0.000000 0.733968 0.000000
0.000000 0.736505 0.000000
0.000000 0.735099 0.000000
0.000000 0.735979 0.000000
0.428470 0.731961 0.000000
0.821068 0.680692 0.000000
0.976468 0.592965 0.000000
1.000000 0.513358 0.267938
1.000000 0.654756 0.475245
0.000000 0.889825 0.268331
0.000000 0.891014 0.268524
0.000000 0.890728 0.268632
0.160434 0.890242 0.258360
0.463839 0.884434 0.234733
0.749426 0.874037 0.190543
0.940187 0.845645 0.000000
1.000000 0.798223 0.302474
1.000000 0.761162 0.500108
0.626665 0.966555 0.550639
0.636033 0.966208 0.550742
0.636033 0.966208 0.550742
0.648956 0.966291 0.548180
0.678293 0.964997 0.542255
0.771405 0.960681 0.538091
0.886351 0.955601 0.510208
0.990811 0.941922 0.434168
1.000000 0.912814 0.584426
0.830231 1.000000 0.786222
0.830231 1.000000 0.786222
0.830231 1.000000 0.786222
0.832046 1.000000 0.786252
0.840787 1.000000 0.784607
0.857367 1.000000 0.781769
0.892799 0.998802 0.773386
0.956895 0.995304 0.768962
1.000000 0.989434 0.730476
0.000000 0.000000 0.130719
0.000000 0.000000 0.102481
0.048034 0.000000 0.088247
0.205869 0.000000 0.053055
0.375992 0.000000 0.065600
0.689032 0.000000 0.096706
0.973415 0.000000 0.149356
1.000000 0.238392 0.273343
1.000000 0.583076 0.468742
0.000000 0.000000 0.160490
0.000000 0.000000 0.139060
0.041978 0.000000 0.124314
0.212368 0.000000 0.081795
0.402957 0.000000 0.096274
0.703030 0.000000 0.101256
0.973304 0.000000 0.150189
1.000000 0.243022 0.273166
1.000000 0.583076 0.468742
0.000000 0.000000 0.235074
0.000000 0.027807 0.221463
0.000000 0.035445 0.212850
0.252970 0.000000 0.166899
0.443922 0.000000 0.132170
0.723104 0.000000 0.109607
0.978155 0.000000 0.154788
1.000000 0.252587 0.273012
1.000000 0.588782 0.468444
0.000000 0.196437 0.311468
0.000000 0.225442 0.307882
0.000000 0.262835 0.315303
0.265068 0.287631 0.315593
0.540221 0.138665 0.201163
0.757981 0.000000 0.126390
0.983580 0.000000 0.157707
1.000000 0.287860 0.275877
1.000000 0.594805 0.470965
0.000000 0.477147 0.286232
0.000000 0.491531 0.280525
0.000000 0.506236 0.274850
0.000000 0.536692 0.262030
0.573217 0.514477 0.219388
0.822291 0.342697 0.137964
0.996161 0.182099 0.171323
1.000000 0.359912 0.279286
1.000000 0.610095 0.473439
0.000000 0.742750 0.218053
0.000000 0.747463 0.212206
0.000000 0.751036 0.209120
0.000000 0.749596 0.184953
0.408613 0.743343 0.140567
0.820640 0.708561 0.000000
0.979558 0.602571 0.162357
1.000000 0.508460 0.285270
1.000000 0.655892 0.486676
0.000000 0.893173 0.344503
0.000000 0.892751 0.344622
0.000000 0.893756 0.344788
0.161818 0.891948 0.334438
0.445693 0.890965 0.314650
0.739823 0.882284 0.278483
0.937365 0.853152 0.194831
1.000000 0.802284 0.335733
1.000000 0.761792 0.508837
0.623589 0.967116 0.573077
0.623589 0.967116 0.573077
0.628337 0.966943 0.573124
0.646720 0.966253 0.573318
0.675803 0.965612 0.567672
0.764989 0.962587 0.554558
0.886201 0.956699 0.531674
0.990020 0.942765 0.459266
1.000000 0.912996 0.589924
0.830397 1.000000 0.789820
0.830397 1.000000 0.789820
0.830397 1.000000 0.789820
0.832208 1.000000 0.789850
0.841006 1.000000 0.790003
0.857494 1.000000 0.785376
0.892877 0.998839 0.777034
0.956022 0.995402 0.772381
1.000000 0.989515 0.735451
0.000000 0.000000 0.204784
0.000000 0.000000 0.168421
0.000000 0.000000 0.149034
0.182451 0.000000 0.115966
0.364288 0.000000 0.071398
0.650460 0.000000 0.190046
0.970326 0.000000 0.238212
1.000000 0.232408 0.327611
1.000000 0.585802 0.494431
0.000000 0.000000 0.250848
0.000000 0.000000 0.222521
0.000000 0.000000 0.207889
0.179619 0.000000 0.188301
0.364956 0.000000 0.087644
0.670696 0.000000 0.214780
0.973721 0.000000 0.242148
1.000000 0.238074 0.330091
1.000000 0.585802 0.494431
0.000000 0.000000 0.325003
0.000000 0.000000 0.309007
0.000000 0.000000 0.302414
0.157769 0.000000 0.281885
0.396181 0.000000 0.178380
0.696420 0.000000 0.236183
0.975240 0.000000 0.248138
1.000000 0.251807 0.329694
1.000000 0.591504 0.494147
0.000000 0.100544 0.432005
0.000000 0.111575 0.424730
0.000000 0.123144 0.429602
0.123024 0.139206 0.440149
0.520913 0.000000 0.380061
0.748916 0.000000 0.291460
0.985704 0.000000 0.263121
1.000000 0.283132 0.333862
1.000000 0.597220 0.493862
0.000000 0.412215 0.525652
0.000000 0.431104 0.533159
0.000000 0.460718 0.545371
0.000000 0.515624 0.554281
0.541670 0.536056 0.561282
0.829768 0.369608 0.415357
0.998450 0.187439 0.293103
1.000000 0.360247 0.344388
1.000000 0.615978 0.502080
0.000000 0.743348 0.519867
0.000000 0.745559 0.518824
0.000000 0.749141 0.519411
0.000000 0.759633 0.518600
0.353101 0.772225 0.510022
0.813591 0.750915 0.465365
0.982349 0.617546 0.335144
1.000000 0.516765 0.361776
1.000000 0.663187 0.509328
0.000000 0.901608 0.497293
0.000000 0.901617 0.497611
0.000000 0.901637 0.498891
0.084709 0.899964 0.492102
0.422523 0.896461 0.471053
0.746379 0.887424 0.446188
0.932926 0.871104 0.399083
1.000000 0.810981 0.412609
1.000000 0.761577 0.538090
0.617215 0.968972 0.625543
0.617215 0.968972 0.625543
0.622022 0.968799 0.625579
0.631448 0.968455 0.625654
0.670558 0.966825 0.619462
0.754326 0.964840 0.612043
0.884583 0.958491 0.583886
0.989337 0.945511 0.535257
1.000000 0.914961 0.617662
0.830897 1.000000 0.800478
0.830897 1.000000 0.800478
0.830897 1.000000 0.800478
0.832694 1.000000 0.800504
0.841376 1.000000 0.798884
0.854544 1.000000 0.794204
0.893162 0.998972 0.789450
0.954059 0.995854 0.779606
1.000000 0.989159 0.750228
0.000000 0.000000 0.258815
0.000000 0.000000 0.241159
0.000000 0.000000 0.228829
0.134502 0.000000 0.206011
0.347176 0.000000 0.153995
0.574223 0.000000 0.104674
0.943562 0.000000 0.395470
1.000000 0.179420 0.445778
1.000000 0.584698 0.559691
0.000000 0.000000 0.330940
0.000000 0.000000 0.315093
0.000000 0.000000 0.307151
0.086070 0.000000 0.279751
0.348960 0.000000 0.190301
0.577509 0.000000 0.104640
0.949002 0.000000 0.406169
1.000000 0.197921 0.446209
1.000000 0.585006 0.562780
0.000000 0.000000 0.436426
0.000000 0.000000 0.428184
0.000000 0.000000 0.420094
0.000000 0.000000 0.397433
0.360431 0.000000 0.342526
0.577488 0.000000 0.103020
0.955443 0.000000 0.423771
1.000000 0.209387 0.449363
1.000000 0.587872 0.562653
0.000000 0.039184 0.542097
0.000000 0.044383 0.545386
0.000000 0.052026 0.548326
0.000000 0.057785 0.554972
0.357585 0.000000 0.539047
0.697722 0.000000 0.394311
0.969996 0.000000 0.451863
1.000000 0.256932 0.453485
1.000000 0.597161 0.562488
0.000000 0.258651 0.656877
0.000000 0.263586 0.660575
0.000000 0.275647 0.669649
0.000000 0.297755 0.679863
0.345359 0.322913 0.698498
0.827967 0.120031 0.639789
0.992448 0.000000 0.527611
1.000000 0.350579 0.476697
1.000000 0.615992 0.565247
0.000000 0.679745 0.762323
0.000000 0.686423 0.765009
0.000000 0.697544 0.765666
0.000000 0.727641 0.768898
0.000000 0.761648 0.779365
0.778768 0.765980 0.785541
0.971244 0.638158 0.654304
1.000000 0.520239 0.511561
1.000000 0.663955 0.576270
0.000000 0.900208 0.751284
0.000000 0.900338 0.752288
0.000000 0.900418 0.753041
0.000000 0.901946 0.752631
0.332413 0.901483 0.746663
0.709850 0.904582 0.737955
0.917506 0.892026 0.710947
1.000000 0.819479 0.589876
1.000000 0.761778 0.602604
0.609556 0.972548 0.734186
0.609556 0.972548 0.734186
0.614407 0.972377 0.734199
0.623696 0.971986 0.731433
0.663485 0.970485 0.731587
0.755239 0.967054 0.729534
0.871286 0.963358 0.704356
0.982620 0.952853 0.678094
1.000000 0.920657 0.681450
0.828527 1.000000 0.826248
0.828527 1.000000 0.826248
0.830326 1.000000 0.826267
0.832105 1.000000 0.826286
0.840726 1.000000 0.824744
0.855775 1.000000 0.824950
0.892476 0.999354 0.816661
0.951384 0.996357 0.806065
1.000000 0.991770 0.791748
0.000000 0.000000 0.335724
0.000000 0.000000 0.327079
0.000000 0.000000 0.320664
0.131013 0.000000 0.293966
0.319692 0.000000 0.283762
0.545611 0.000000 0.205850
0.814955 0.000000 0.148318
1.000000 0.000000 0.641117
1.000000 0.557762 0.677961
0.000000 0.000000 0.428353
0.000000 0.000000 0.422795
0.000000 0.000000 0.411588
0.000000 0.000000 0.384526
0.300068 0.000000 0.319963
0.548580 0.000000 0.205784
0.814955 0.000000 0.148318
1.000000 0.000000 0.645002
1.000000 0.560988 0.678112
0.000000 0.000000 0.558116
0.000000 0.000000 0.552097
0.000000 0.000000 0.545487
0.000000 0.000000 0.532252
0.233918 0.000000 0.466971
0.548580 0.000000 0.205784
0.814955 0.000000 0.148318
1.000000 0.000000 0.649191
1.000000 0.560988 0.678112
0.000000 0.000000 0.685642
0.000000 0.000000 0.687376
0.000000 0.000000 0.690469
0.000000 0.000000 0.686264
0.168582 0.000000 0.664601
0.623436 0.000000 0.612526
0.814955 0.000000 0.148318
1.000000 0.000000 0.661452
1.000000 0.573923 0.678710
0.000000 0.162989 0.772241
0.000000 0.163790 0.775608
0.000000 0.168100 0.777646
0.000000 0.176825 0.786213
0.000000 0.183758 0.795260
0.665629 0.000000 0.774861
0.971310 0.000000 0.655357
1.000000 0.173096 0.693540
1.000000 0.598537 0.685745
0.000000 0.484900 0.852175
0.000000 0.490081 0.851607
0.000000 0.495285 0.853030
0.000000 0.512510 0.858442
0.000000 0.545740 0.862687
0.632849 0.563081 0.867349
0.997426 0.455359 0.832499
1.000000 0.458282 0.754056
1.000000 0.661308 0.700071
0.000000 0.873357 0.890781
0.000000 0.873573 0.891020
0.000000 0.875966 0.890139
0.000000 0.879182 0.891933
0.000000 0.891205 0.896015
0.639373 0.897816 0.897659
0.904518 0.898857 0.900592
1.000000 0.831158 0.825467
1.000000 0.765806 0.729811
0.530671 0.971801 0.880543
0.537204 0.971691 0.880672
0.543032 0.972810 0.880564
0.573628 0.972273 0.879908
0.612259 0.972149 0.878087
0.732151 0.969584 0.880638
0.864896 0.969093 0.876295
0.971291 0.962492 0.864110
1.000000 0.923062 0.789418
0.824821 1.000000 0.876175
0.824821 1.000000 0.876175
0.824821 1.000000 0.876175
0.826574 1.000000 0.876341
0.831834 1.000000 0.876358
0.850206 1.000000 0.875257
0.888663 1.000000 0.870625
0.948523 0.997795 0.863323
1.000000 0.993000 0.854014
0.069164 0.000000 0.438607
0.101808 0.000000 0.432904
0.130604 0.000000 0.424416
0.218794 0.000000 0.401809
0.337404 0.000000 0.400729
0.547216 0.000000 0.360581
0.777322 0.000000 0.266989
1.000000 0.000000 0.208367
1.000000 0.407609 0.832014
0.000000 0.000000 0.546823
0.000000 0.000000 0.543774
0.000000 0.000000 0.531376
0.130376 0.000000 0.507346
0.311352 0.000000 0.436833
0.547216 0.000000 0.360581
0.777322 0.000000 0.266989
1.000000 0.000000 0.208367
1.000000 0.410785 0.834057
0.000000 0.000000 0.675129
0.000000 0.000000 0.671835
0.000000 0.000000 0.671779
0.000000 0.000000 0.652572
0.213436 0.000000 0.596632
0.547216 0.000000 0.360581
0.777322 0.000000 0.266989
1.000000 0.000000 0.208367
1.000000 0.414056 0.834143
0.000000 0.000000 0.808456
0.000000 0.000000 0.808431
0.000000 0.000000 0.805652
0.000000 0.000000 0.799878
0.069410 0.000000 0.784519
0.449839 0.000000 0.736788
0.777322 0.000000 0.266989
1.000000 0.000000 0.208367
1.000000 0.427049 0.836415
0.000000 0.133988 0.879824
0.000000 0.137135 0.880682
0.000000 0.138852 0.880493
0.000000 0.141759 0.882453
0.000000 0.134631 0.882380
0.453411 0.000000 0.868592
0.909852 0.000000 0.835718
1.000000 0.000000 0.208367
1.000000 0.465941 0.840688
0.000000 0.353905 0.921370
0.000000 0.354305 0.921704
0.000000 0.355237 0.921133
0.000000 0.357414 0.923028
0.000000 0.376461 0.924527
0.392502 0.383455 0.928316
0.923373 0.298443 0.914034
1.000000 0.000000 0.850846
1.000000 0.553541 0.854391
0.000000 0.745060 0.946710
0.000000 0.745649 0.946929
0.000000 0.743232 0.947345
0.000000 0.745130 0.948068
0.000000 0.752180 0.949563
0.211495 0.776012 0.947789
0.833011 0.784563 0.947964
1.000000 0.720805 0.932200
1.000000 0.728550 0.884112
0.000000 0.965827 0.960499
0.000000 0.966611 0.960442
0.000000 0.966539 0.960497
0.042159 0.966157 0.960768
0.335469 0.966611 0.961300
0.600575 0.966804 0.961744
0.830926 0.965633 0.963708
0.964451 0.968263 0.961666
1.000000 0.929237 0.923503
0.789505 1.000000 0.952001
0.789505 1.000000 0.952001
0.791832 1.000000 0.952071
0.796415 1.000000 0.952212
0.803108 1.000000 0.952424
0.823862 1.000000 0.952458
0.875025 1.000000 0.952504
0.942272 1.000000 0.951514
0.999310 0.997299 0.942701
0.323444 0.000000 0.553301
0.333178 0.000000 0.547200
0.346946 0.000000 0.535100
0.389599 0.000000 0.513893
0.466289 0.000000 0.513133
0.612612 0.000000 0.504853
0.772312 0.000000 0.436489
0.983387 0.000000 0.349717
1.000000 0.000000 0.288080
0.240633 0.000000 0.657388
0.251467 0.000000 0.651184
0.265063 0.000000 0.644952
0.308879 0.000000 0.623153
0.436921 0.000000 0.546102
0.612612 0.000000 0.504853
0.772312 0.000000 0.436489
0.983387 0.000000 0.349717
1.000000 0.000000 0.288080
0.148647 0.000000 0.785562
0.159995 0.000000 0.782796
0.179181 0.000000 0.779961
0.214422 0.000000 0.771225
0.326670 0.000000 0.713755
0.612612 0.000000 0.504853
0.772312 0.000000 0.436489
0.983387 0.000000 0.349717
1.000000 0.000000 0.288080
0.000000 0.000000 0.885060
0.000000 0.000000 0.885001
0.000000 0.000000 0.884662
0.127306 0.000000 0.880860
0.261687 0.000000 0.870712
0.450410 0.000000 0.837002
0.772312 0.000000 0.436489
0.983387 0.000000 0.349717
1.000000 0.000000 0.288080
0.000000 0.108197 0.945657
0.000000 0.107792 0.945641
0.000000 0.106521 0.945589
0.000000 0.102141 0.945423
0.190870 0.072276 0.943492
0.435332 0.000000 0.935168
0.741933 0.000000 0.909616
0.985581 0.000000 0.347348
1.000000 0.000000 0.288080
0.000000 0.323997 0.979161
0.000000 0.324039 0.979224
0.000000 0.324153 0.979413
0.000000 0.324506 0.978391
0.081033 0.327050 0.978677
0.385507 0.322389 0.975658
0.750104 0.250324 0.969669
1.000000 0.000000 0.950756
1.000000 0.000000 0.286321
0.000000 0.597281 0.988725
0.000000 0.597610 0.988186
0.000000 0.597907 0.988267
0.000000 0.601918 0.988287
0.000000 0.607023 0.988639
0.301814 0.620436 0.988073
0.688759 0.626860 0.986541
1.000000 0.585490 0.981418
1.000000 0.467029 0.948148
0.000000 0.899289 0.991732
0.000000 0.899287 0.991755
0.000000 0.899283 0.991778
0.000000 0.899272 0.991822
0.000000 0.900774 0.991212
0.348485 0.902471 0.991488
0.663054 0.904450 0.990512
0.929804 0.904864 0.990124
1.000000 0.871935 0.979932
0.686415 1.000000 0.995841
0.686415 1.000000 0.995841
0.686415 1.000000 0.995841
0.690961 1.000000 0.995810
0.703716 1.000000 0.995883
0.737492 1.000000 0.995421
0.827296 1.000000 0.995632
0.922907 0.999773 0.995587
0.994443 0.999594 0.995848
