Assets/Lutify-Free-LUTs-Pack/Lutify Free LUTs Pack/Colour Film Boost Pro - Film Boost 10/Lutify.me-FilmBoost10-DJIDLog-to-Rec709.cube
# Created with: fylm.ai - Colour Grading and Collaboration Software in Cloud 
# Website: https://fylm.ai 
# META
# Option: Gamut compress
# Block 1: IDT | DJI D-Gamut D-Log
# Block 2: colourMatch | Blending Mode: Normal | {"ColorSpace":0,"CrossCovarianceLimit":50,"ReshapingIterations":1,"PercentSaturationShift":100,"PercentShadingShift":100,"ExtraShading":true,"PercentTint":100,"PercentModified":100}
# Block 3: subtractiveColour | Blending Mode: Normal | {"sliders":{"gainY":0.55,"C":0.3,"M":0.3,"Y":0.3}}
# Block 4: LUT | Filmic Curve Response: Low Contrast 2 (100%)
# Block 5: logPrimaries | Blending Mode: Normal | {"wheels":{"shadows":{"Y":"0","R":"1","G":"1","B":"1"},"midtones":{"Y":"0","R":"1","G":"1","B":"1"},"highlights":{"Y":"0","R":"1","G":"1","B":"1"},"offset":{"Y":"0","R":"1","G":"1","B":"1"}},"sliders":{"shadows":{"Y":0,"R":-0.085,"G":0.024,"B":0.134},"midtones":{"Y":0,"R":0,"G":-0.023,"B":0},"highlights":{"Y":0,"R":0,"G":0,"B":0},"offset":{"Y":0,"R":0.012,"G":-0.012,"B":0}}}
# Block 6: HSL | Blending Mode: Normal | {"hue":{"Reds":0,"Yellows":0,"Greens":0,"Cyans":0,"Blues":0,"Magentas":0},"saturation":{"Reds":1,"Yellows":1,"Greens":1,"Cyans":1,"Blues":1,"Magentas":1},"luminance":{"Reds":0.9,"Yellows":0.9,"Greens":0.9,"Cyans":0.9,"Blues":0.9,"Magentas":0.9},"lum_sat":{"Blacks":1,"Shadows":1,"Midtones":1,"Highlights":1,"Whites":1},"sat_sat":{"10":1,"20":1,"30":1,"40":1,"50":1}}
# Block 7: ODT | Rec709
TITLE "Lutify.me-FilmBoost10-DJIDLog-to-Rec709" 
LUT_3D_SIZE 9
0.000000 0.000000 0.000000
0.000000 0.000000 0.000000
0.136413 0.000000 0.000000
0.263232 0.000000 0.000000
0.473381 0.000000 0.000000
0.758260 0.000000 0.025837
1.000000 0.000000 0.140449
1.000000 0.457525 0.320604
1.000000 0.728542 0.559166
0.000000 0.014989 0.000000
0.000000 0.030107 0.000000
0.163078 0.000000 0.000000
0.290447 0.000000 0.000000
0.488427 0.000000 0.000000
0.765138 0.000000 0.016540
1.000000 0.000000 0.141315
1.000000 0.460402 0.315334
1.000000 0.728542 0.559166
0.000000 0.126321 0.000000
0.000000 0.143366 0.000000
0.198135 0.124895 0.000000
0.340524 0.047603 0.000000
0.510310 0.000000 0.000000
0.775378 0.000000 0.000000
1.000000 0.095324 0.139640
1.000000 0.467313 0.314835
1.000000 0.728542 0.559166
0.000000 0.255550 0.000000
0.000000 0.265297 0.000000
0.125479 0.265603 0.000000
0.390400 0.225716 0.000000
0.566703 0.171676 0.000000
0.793461 0.000000 0.000000
1.000000 0.192527 0.134546
1.000000 0.481684 0.318879
1.000000 0.733420 0.562020
0.000000 0.442043 0.000000
0.000000 0.447426 0.000000
0.000000 0.449025 0.000000
0.290764 0.444762 0.000000
0.630662 0.392029 0.000000
0.832159 0.373866 0.000000
1.000000 0.374477 0.113061
1.000000 0.523289 0.316443
1.000000 0.740564 0.562149
0.000000 0.680941 0.000000
0.000000 0.680227 0.000000
0.000000 0.684420 0.000000
0.000000 0.683565 0.000000
0.475920 0.676251 0.000000
0.831459 0.630679 0.000000
0.981523 0.638853 0.000000
1.000000 0.652759 0.320164
1.000000 0.767138 0.565253
0.000000 0.873120 0.000000
0.000000 0.872915 0.000000
0.000000 0.871859 0.000000
0.000000 0.869563 0.000000
0.352740 0.868606 0.000000
0.740029 0.855950 0.000000
0.943747 0.824308 0.000000
1.000000 0.826789 0.314660
1.000000 0.834973 0.574515
0.483154 0.963094 0.322125
0.490022 0.962915 0.322209
0.496769 0.962737 0.322294
0.522660 0.962020 0.322646
0.596200 0.959547 0.318132
0.718751 0.957016 0.307156
0.885641 0.950097 0.293335
0.997955 0.934780 0.263398
1.000000 0.930605 0.606054
0.784769 1.000000 0.650026
0.789435 1.000000 0.650162
0.789435 1.000000 0.650162
0.791739 1.000000 0.650231
0.798423 1.000000 0.648142
0.821733 0.999038 0.646715
0.881046 0.997122 0.645344
0.959783 0.992945 0.642169
1.000000 0.986200 0.633695
0.000000 0.000000 0.021813
0.000000 0.000000 0.017236
0.128823 0.000000 0.000000
0.250658 0.000000 0.000000
0.472502 0.000000 0.015862
0.761311 0.000000 0.051957
1.000000 0.000000 0.153912
1.000000 0.457525 0.320604
1.000000 0.728782 0.562174
0.000000 0.000000 0.033349
0.000000 0.000000 0.028953
0.146561 0.000000 0.000000
0.277711 0.000000 0.000000
0.484692 0.000000 0.007143
0.765245 0.000000 0.050898
1.000000 0.000000 0.153184
1.000000 0.460984 0.320364
1.000000 0.728782 0.562174
0.000000 0.119791 0.000000
0.000000 0.140083 0.000000
0.172329 0.137349 0.000000
0.319470 0.078404 0.000000
0.516444 0.000000 0.000000
0.776296 0.000000 0.047393
1.000000 0.099374 0.151440
1.000000 0.467895 0.319878
1.000000 0.731108 0.562096
0.000000 0.254254 0.000000
0.000000 0.269900 0.000000
0.000000 0.277141 0.000000
0.354590 0.254781 0.000000
0.561876 0.189747 0.000000
0.800550 0.000000 0.000000
1.000000 0.194746 0.146918
1.000000 0.478240 0.319131
1.000000 0.733420 0.562020
0.000000 0.458282 0.000000
0.000000 0.460533 0.000000
0.000000 0.469916 0.000000
0.157084 0.472059 0.000000
0.598944 0.423708 0.000000
0.833617 0.384718 0.000000
1.000000 0.372686 0.130258
1.000000 0.523579 0.319034
1.000000 0.740795 0.565159
0.000000 0.693169 0.000000
0.000000 0.692363 0.000000
0.000000 0.696871 0.000000
0.000000 0.702053 0.000000
0.438140 0.694548 0.000000
0.830445 0.647257 0.000000
0.980735 0.641756 0.000000
1.000000 0.653326 0.325807
1.000000 0.767344 0.568258
0.000000 0.877406 0.000000
0.000000 0.877098 0.000000
0.000000 0.876035 0.000000
0.000000 0.873725 0.000000
0.361427 0.871300 0.000000
0.735036 0.860472 0.000000
0.944737 0.829339 0.000000
1.000000 0.827117 0.320546
1.000000 0.835284 0.580433
0.483577 0.964723 0.333130
0.483577 0.964723 0.333130
0.497132 0.964368 0.333291
0.522917 0.963655 0.333628
0.596180 0.961197 0.329112
0.719645 0.957270 0.318363
0.886203 0.950496 0.308657
0.998107 0.935214 0.275328
1.000000 0.930605 0.606054
0.785008 1.000000 0.654636
0.789667 1.000000 0.654768
0.789667 1.000000 0.654768
0.791966 1.000000 0.654836
0.798531 1.000000 0.650443
0.821820 0.999058 0.649006
0.881140 0.997164 0.649698
0.958903 0.993025 0.643866
1.000000 0.986229 0.635207
0.000000 0.000000 0.084751
0.000000 0.000000 0.067764
0.112946 0.000000 0.049591
0.239500 0.000000 0.048998
0.471342 0.000000 0.058721
0.773263 0.000000 0.086509
1.000000 0.000000 0.173392
1.000000 0.458985 0.333460
1.000000 0.729023 0.565189
0.000000 0.000000 0.102337
0.000000 0.000000 0.092492
0.120222 0.000000 0.073457
0.267575 0.000000 0.069340
0.490969 0.000000 0.061145
0.776528 0.000000 0.085086
1.000000 0.000000 0.174332
1.000000 0.458985 0.333460
1.000000 0.729023 0.565189
0.000000 0.094408 0.186826
0.000000 0.111986 0.176295
0.123272 0.152745 0.173486
0.324103 0.082468 0.113192
0.521085 0.000000 0.069125
0.783700 0.000000 0.083942
1.000000 0.106616 0.174464
1.000000 0.469352 0.332777
1.000000 0.731347 0.565111
0.000000 0.246645 0.157589
0.000000 0.268391 0.140110
0.000000 0.309141 0.115111
0.337495 0.303271 0.085891
0.578006 0.200019 0.038448
0.812486 0.000000 0.077805
1.000000 0.199228 0.172416
1.000000 0.479404 0.329454
1.000000 0.733657 0.565035
0.000000 0.477603 0.000000
0.000000 0.486854 0.000000
0.000000 0.502660 0.000000
0.000000 0.507148 0.000000
0.598658 0.479144 0.000000
0.837401 0.408547 0.000000
1.000000 0.373205 0.163839
1.000000 0.521336 0.329818
1.000000 0.741027 0.568175
0.000000 0.720049 0.000000
0.000000 0.718965 0.000000
0.000000 0.722639 0.000000
0.000000 0.722315 0.000000
0.437290 0.714812 0.000000
0.830516 0.674957 0.000000
0.979141 0.654028 0.056688
1.000000 0.651511 0.340431
1.000000 0.767344 0.568258
0.000000 0.881333 0.000000
0.000000 0.880822 0.000000
0.000000 0.880167 0.000000
0.000000 0.880273 0.000000
0.335797 0.875868 0.000000
0.735864 0.867953 0.000000
0.945440 0.836910 0.000000
1.000000 0.828103 0.338246
1.000000 0.835440 0.583402
0.487126 0.965218 0.356352
0.487126 0.965218 0.356352
0.500560 0.964863 0.356500
0.519888 0.964329 0.356730
0.593978 0.961938 0.354957
0.721400 0.957778 0.340817
0.886436 0.951733 0.330431
0.996908 0.936393 0.300313
1.000000 0.930834 0.613973
0.785245 1.000000 0.659243
0.785245 1.000000 0.659243
0.789896 1.000000 0.659372
0.792192 1.000000 0.659438
0.798854 1.000000 0.657342
0.821907 0.999077 0.651297
0.879713 0.997290 0.653929
0.958658 0.993380 0.651093
1.000000 0.986344 0.641300
0.000000 0.000000 0.147000
0.000000 0.000000 0.115588
0.087927 0.000000 0.103894
0.232739 0.000000 0.071080
0.449173 0.000000 0.126125
0.780042 0.000000 0.146359
1.000000 0.000000 0.210874
1.000000 0.458208 0.360526
1.000000 0.729264 0.568211
0.000000 0.000000 0.181702
0.000000 0.000000 0.156417
0.078690 0.000000 0.147479
0.245653 0.000000 0.115754
0.477116 0.000000 0.151050
0.787334 0.000000 0.150248
1.000000 0.000000 0.210485
1.000000 0.461916 0.360518
1.000000 0.729264 0.568211
0.000000 0.036121 0.269244
0.000000 0.048484 0.257246
0.000000 0.067394 0.262969
0.311725 0.000000 0.238682
0.518562 0.000000 0.182422
0.800999 0.000000 0.158111
1.000000 0.117932 0.211137
1.000000 0.465373 0.360320
1.000000 0.731586 0.568133
0.000000 0.191221 0.336057
0.000000 0.225132 0.328134
0.000000 0.286343 0.341305
0.297456 0.317758 0.340679
0.587285 0.212482 0.237871
0.815717 0.000000 0.166378
1.000000 0.211384 0.215463
1.000000 0.482327 0.356493
1.000000 0.733894 0.568057
0.000000 0.468425 0.293483
0.000000 0.481825 0.294543
0.000000 0.513744 0.282441
0.000000 0.546748 0.276320
0.600773 0.536206 0.232402
0.850773 0.419047 0.160692
1.000000 0.380529 0.219122
1.000000 0.524258 0.357311
1.000000 0.741257 0.571199
0.000000 0.734833 0.156716
0.000000 0.737620 0.147161
0.000000 0.744530 0.148392
0.000000 0.746021 0.116221
0.393837 0.747044 0.000000
0.830706 0.721934 0.000000
0.982169 0.660915 0.198699
1.000000 0.654086 0.366941
1.000000 0.765914 0.577346
0.000000 0.886749 0.173489
0.000000 0.886449 0.173660
0.000000 0.887341 0.174070
0.000000 0.886779 0.166322
0.337499 0.882562 0.146221
0.746511 0.874082 0.088508
0.943346 0.851334 0.000000
1.000000 0.831720 0.371224
1.000000 0.835905 0.592345
0.486785 0.966314 0.400337
0.493565 0.966137 0.400399
0.506782 0.965782 0.400525
0.525812 0.965248 0.400722
0.597928 0.964255 0.400489
0.724558 0.958722 0.383371
0.886357 0.953138 0.382255
0.996254 0.939014 0.349856
1.000000 0.931064 0.621958
0.783487 1.000000 0.670678
0.785831 1.000000 0.670737
0.785831 1.000000 0.670737
0.790413 1.000000 0.672915
0.796960 1.000000 0.668572
0.818089 0.999955 0.664743
0.878806 0.996905 0.662486
0.957767 0.993551 0.660772
1.000000 0.986545 0.652133
0.000000 0.000000 0.224524
0.000000 0.000000 0.192361
0.000000 0.000000 0.180183
0.212473 0.000000 0.171554
0.395733 0.000000 0.128506
0.757636 0.000000 0.297282
1.000000 0.000000 0.323286
1.000000 0.456575 0.413255
1.000000 0.730947 0.589547
0.000000 0.000000 0.274631
0.000000 0.000000 0.252361
0.000000 0.000000 0.244182
0.202792 0.000000 0.242941
0.422862 0.000000 0.194135
0.769087 0.000000 0.307773
1.000000 0.000000 0.323550
1.000000 0.460046 0.413091
1.000000 0.730947 0.589547
0.000000 0.000000 0.367727
0.000000 0.000000 0.352401
0.000000 0.000000 0.357972
0.186268 0.000000 0.347041
0.493954 0.000000 0.307102
0.788093 0.000000 0.325375
1.000000 0.100593 0.324101
1.000000 0.463514 0.412925
1.000000 0.730947 0.589547
0.000000 0.099887 0.455894
0.000000 0.118664 0.453603
0.000000 0.143145 0.456543
0.144137 0.169747 0.483026
0.583413 0.056963 0.455414
0.818966 0.000000 0.365157
1.000000 0.202461 0.332300
1.000000 0.481328 0.415209
1.000000 0.735551 0.589395
0.000000 0.387975 0.536736
0.000000 0.409559 0.542144
0.000000 0.458724 0.559503
0.000000 0.523775 0.575930
0.567910 0.562247 0.587659
0.857368 0.446466 0.450506
1.000000 0.376833 0.348242
1.000000 0.520056 0.419568
1.000000 0.742872 0.592543
0.000000 0.731929 0.515045
0.000000 0.737086 0.516848
0.000000 0.742360 0.518825
0.000000 0.756611 0.514417
0.340797 0.779872 0.508743
0.829674 0.761934 0.463449
0.980156 0.681223 0.368920
1.000000 0.656918 0.431056
1.000000 0.767371 0.598693
0.000000 0.897940 0.428272
0.000000 0.898109 0.429169
0.000000 0.899820 0.427630
0.000000 0.899241 0.430203
0.335794 0.894729 0.416985
0.728501 0.890000 0.390085
0.939900 0.875428 0.361860
1.000000 0.841325 0.451326
1.000000 0.835720 0.619425
0.496002 0.967392 0.515786
0.501866 0.968558 0.516845
0.514802 0.968205 0.516927
0.532767 0.967558 0.510733
0.603820 0.965804 0.505647
0.728214 0.961209 0.495990
0.883542 0.955744 0.481328
0.992980 0.945494 0.450806
1.000000 0.932812 0.651615
0.780186 1.000000 0.697903
0.780186 1.000000 0.697903
0.782546 1.000000 0.697952
0.784886 1.000000 0.698001
0.793894 1.000000 0.697706
0.817119 1.000000 0.694790
0.874748 0.997431 0.690793
0.955038 0.994039 0.688099
1.000000 0.987133 0.678443
0.000000 0.000000 0.314627
0.000000 0.000000 0.306569
0.000000 0.000000 0.302804
0.109637 0.000000 0.302609
0.389130 0.000000 0.308647
0.658681 0.000000 0.303455
0.999682 0.000000 0.534001
1.000000 0.459823 0.540512
1.000000 0.728600 0.649137
0.000000 0.000000 0.390560
0.000000 0.000000 0.388192
0.000000 0.000000 0.383792
0.048801 0.000000 0.386876
0.396976 0.000000 0.401089
0.690048 0.000000 0.359471
1.000000 0.000000 0.541067
1.000000 0.463617 0.543732
1.000000 0.728600 0.649137
0.000000 0.000000 0.495320
0.000000 0.000000 0.498928
0.000000 0.000000 0.504249
0.000000 0.000000 0.500467
0.397695 0.000000 0.495416
0.733549 0.000000 0.434468
1.000000 0.000000 0.549447
1.000000 0.467449 0.543859
1.000000 0.730914 0.649055
0.000000 0.056130 0.571868
0.000000 0.060853 0.576020
0.000000 0.072051 0.586771
0.000000 0.081647 0.601227
0.401334 0.000000 0.595944
0.799323 0.000000 0.541139
1.000000 0.000000 0.558758
1.000000 0.486688 0.550658
1.000000 0.735740 0.652070
0.000000 0.249196 0.671841
0.000000 0.260132 0.676385
0.000000 0.274268 0.690727
0.000000 0.306388 0.699446
0.366678 0.348972 0.727624
0.862988 0.305858 0.693881
1.000000 0.322738 0.606102
1.000000 0.528694 0.558163
1.000000 0.742512 0.651845
0.000000 0.652836 0.762219
0.000000 0.658167 0.764036
0.000000 0.673524 0.771059
0.000000 0.713820 0.776046
0.000000 0.762930 0.790217
0.795552 0.783614 0.799280
0.967352 0.707297 0.696147
1.000000 0.660169 0.576104
1.000000 0.767259 0.658087
0.000000 0.895903 0.742276
0.000000 0.896121 0.743033
0.000000 0.896585 0.744802
0.000000 0.900040 0.744571
0.000000 0.903263 0.742414
0.704537 0.905825 0.734661
0.920969 0.897539 0.710657
1.000000 0.846668 0.618068
1.000000 0.833465 0.668371
0.467011 0.972852 0.689942
0.467011 0.972852 0.689942
0.482378 0.972632 0.690569
0.511329 0.972828 0.689173
0.575383 0.971477 0.683558
0.710784 0.967517 0.681686
0.874741 0.962356 0.662663
0.985150 0.955717 0.649573
1.000000 0.936815 0.710531
0.779116 1.000000 0.762342
0.779116 1.000000 0.762342
0.781454 1.000000 0.762369
0.783772 1.000000 0.762397
0.790493 1.000000 0.760471
0.811785 1.000000 0.760342
0.872117 0.999528 0.754935
0.954360 0.995276 0.752145
1.000000 0.990203 0.744327
0.000000 0.000000 0.543734
0.000000 0.000000 0.543923
0.000000 0.000000 0.541091
0.000000 0.000000 0.545076
0.247839 0.000000 0.562344
0.674182 0.000000 0.598039
0.935786 0.000000 0.569388
1.000000 0.379583 0.755873
1.000000 0.730712 0.751476
0.000000 0.000000 0.601824
0.000000 0.000000 0.601818
0.000000 0.000000 0.602424
0.000000 0.000000 0.603526
0.223177 0.000000 0.605710
0.668714 0.000000 0.631350
0.952959 0.000000 0.589281
1.000000 0.383642 0.756022
1.000000 0.730712 0.751476
0.000000 0.000000 0.660642
0.000000 0.000000 0.666166
0.000000 0.000000 0.664006
0.000000 0.000000 0.662427
0.215108 0.000000 0.665877
0.672700 0.000000 0.673956
0.968663 0.000000 0.628571
1.000000 0.391594 0.759075
1.000000 0.730712 0.751476
0.000000 0.037291 0.725704
0.000000 0.043471 0.727505
0.000000 0.043262 0.735950
0.000000 0.051237 0.745951
0.172515 0.000000 0.741792
0.682684 0.000000 0.736438
0.988068 0.000000 0.679634
1.000000 0.411841 0.762331
1.000000 0.733282 0.754082
0.000000 0.175408 0.792034
0.000000 0.181182 0.795468
0.000000 0.188122 0.799567
0.000000 0.201391 0.805375
0.051219 0.220668 0.817646
0.710156 0.134110 0.810430
1.000000 0.000000 0.765717
1.000000 0.463321 0.769014
1.000000 0.745977 0.754745
0.000000 0.471352 0.858586
0.000000 0.474064 0.856801
0.000000 0.481528 0.858042
0.000000 0.499933 0.862455
0.000000 0.551378 0.869108
0.651523 0.590494 0.876795
0.991769 0.581285 0.859523
1.000000 0.608862 0.796290
1.000000 0.769731 0.762731
0.000000 0.859082 0.893537
0.000000 0.861585 0.893858
0.000000 0.864470 0.894519
0.000000 0.869184 0.894148
0.000000 0.881514 0.897205
0.601943 0.897554 0.902471
0.912397 0.904174 0.905973
1.000000 0.860568 0.843412
1.000000 0.834874 0.778025
0.246047 0.973599 0.877038
0.278297 0.973413 0.877298
0.306468 0.973221 0.877557
0.355082 0.972819 0.878075
0.474124 0.972695 0.876833
0.674211 0.970884 0.875873
0.856932 0.969941 0.873183
0.973801 0.964906 0.862370
1.000000 0.939660 0.809744
0.776572 1.000000 0.855762
0.776572 1.000000 0.855762
0.779110 1.000000 0.855933
0.781624 1.000000 0.856105
0.788681 1.000000 0.853646
0.811475 1.000000 0.852681
0.872310 1.000000 0.850556
0.947862 0.997061 0.841796
1.000000 0.993722 0.841363
0.000000 0.000000 0.805566
0.000000 0.000000 0.805898
0.000000 0.000000 0.806174
0.000000 0.000000 0.806347
0.155437 0.000000 0.804408
0.490842 0.000000 0.811137
0.930085 0.000000 0.834162
1.000000 0.000000 0.803406
1.000000 0.681756 0.885156
0.000000 0.000000 0.823194
0.000000 0.000000 0.823166
0.000000 0.000000 0.823427
0.000000 0.000000 0.819285
0.147504 0.000000 0.819495
0.496376 0.000000 0.820579
0.931427 0.000000 0.839698
1.000000 0.000000 0.808880
1.000000 0.681756 0.885156
0.000000 0.000000 0.841418
0.000000 0.000000 0.841721
0.000000 0.000000 0.841649
0.000000 0.000000 0.841624
0.128924 0.000000 0.840054
0.497649 0.000000 0.839411
0.936494 0.000000 0.850119
1.000000 0.000000 0.817698
1.000000 0.684663 0.886561
0.000000 0.068509 0.869057
0.000000 0.067324 0.869300
0.000000 0.064488 0.869228
0.000000 0.067606 0.868013
0.000000 0.045116 0.866509
0.504816 0.000000 0.862629
0.942586 0.000000 0.865470
1.000000 0.000000 0.833534
1.000000 0.688032 0.886444
0.000000 0.183062 0.900073
0.000000 0.184947 0.900716
0.000000 0.188893 0.900913
0.000000 0.196427 0.902415
0.000000 0.206579 0.907028
0.477420 0.186179 0.902363
0.946723 0.000000 0.896792
1.000000 0.000000 0.861956
1.000000 0.699529 0.887806
0.000000 0.374628 0.929922
0.000000 0.375207 0.929090
0.000000 0.376367 0.929896
0.000000 0.381921 0.930459
0.000000 0.408841 0.932914
0.425107 0.430963 0.936546
0.937848 0.410155 0.927827
1.000000 0.406619 0.903209
1.000000 0.733244 0.892768
0.000000 0.718240 0.949120
0.000000 0.718886 0.949335
0.000000 0.726441 0.949357
0.000000 0.732015 0.950007
0.000000 0.740904 0.951959
0.135659 0.774689 0.951665
0.837912 0.798096 0.952880
1.000000 0.799327 0.943176
1.000000 0.816822 0.904416
0.000000 0.960149 0.962866
0.000000 0.960110 0.963027
0.000000 0.960079 0.963134
0.000000 0.961703 0.963320
0.000000 0.964493 0.962924
0.451283 0.965147 0.963621
0.820032 0.966189 0.965527
0.967192 0.970816 0.964537
1.000000 0.945032 0.933040
0.737132 1.000000 0.951418
0.737132 1.000000 0.951418
0.737132 1.000000 0.951418
0.739966 1.000000 0.951486
0.748367 1.000000 0.951044
0.777245 1.000000 0.950512
0.848369 1.000000 0.950140
0.940325 1.000000 0.949365
0.999988 0.998113 0.941226
0.000000 0.083948 0.947942
0.000000 0.083196 0.947921
0.000000 0.079066 0.947813
0.131239 0.069568 0.947598
0.266494 0.008116 0.947078
0.481753 0.000000 0.944607
0.798847 0.000000 0.943641
1.000000 0.000000 0.949822
1.000000 0.253185 0.928268
0.000000 0.094157 0.950351
0.000000 0.095206 0.950389
0.000000 0.091815 0.950282
0.119460 0.085263 0.949065
0.265990 0.056692 0.948520
0.481934 0.000000 0.945974
0.799529 0.000000 0.945055
1.000000 0.000000 0.950934
1.000000 0.261497 0.928353
0.000000 0.111190 0.952980
0.000000 0.110681 0.952959
0.000000 0.107949 0.952853
0.111495 0.107468 0.952818
0.259243 0.088432 0.952230
0.477733 0.000000 0.949871
0.799261 0.000000 0.949478
1.000000 0.000000 0.952090
1.000000 0.271408 0.929440
0.000000 0.155498 0.960365
0.000000 0.154515 0.960306
0.000000 0.153469 0.960243
0.085074 0.150336 0.960064
0.248681 0.140537 0.959521
0.463982 0.110905 0.957231
0.801237 0.000000 0.954626
1.000000 0.000000 0.956211
1.000000 0.299238 0.934191
0.000000 0.234336 0.974543
0.000000 0.234142 0.974525
0.000000 0.233379 0.972794
0.000000 0.235763 0.972672
0.231466 0.234460 0.971395
0.454007 0.223608 0.969070
0.792852 0.138399 0.966091
1.000000 0.168032 0.963876
1.000000 0.369964 0.941692
0.000000 0.386521 0.986008
0.000000 0.386682 0.986112
0.000000 0.386836 0.986216
0.000000 0.390447 0.985833
0.102233 0.403420 0.985588
0.417327 0.407485 0.985699
0.764759 0.394128 0.982418
1.000000 0.406654 0.977056
1.000000 0.489564 0.953362
0.000000 0.618341 0.992410
0.000000 0.622296 0.991210
0.000000 0.622765 0.991321
0.000000 0.623520 0.991503
0.000000 0.629158 0.991325
0.303239 0.645897 0.991622
0.709856 0.667946 0.989538
1.000000 0.679538 0.984526
1.000000 0.698985 0.968504
0.000000 0.884830 0.993089
0.000000 0.884863 0.993112
0.000000 0.888115 0.992894
0.000000 0.888223 0.992985
0.000000 0.891529 0.992992
0.180918 0.898422 0.993028
0.652052 0.902705 0.992647
0.933497 0.911261 0.992142
1.000000 0.913530 0.987631
0.526121 1.000000 0.996657
0.526121 1.000000 0.996657
0.531389 1.000000 0.996672
0.538003 1.000000 0.996655
0.575320 1.000000 0.996250
0.640740 1.000000 0.996406
0.772319 1.000000 0.995898
0.917476 1.000000 0.996661
0.995267 1.000000 0.996666
