Assets/Lutify-Free-LUTs-Pack/Lutify Free LUTs Pack/Colour Film Boost Pro - Film Boost 10/Lutify.me-FilmBoost10-FLog-to-Rec709.cube
# Created with: fylm.ai - Colour Grading and Collaboration Software in Cloud 
# Website: https://fylm.ai 
# META
# Option: Gamut compress
# Block 1: IDT | Fujifilm F-Gamut F-Log
# Block 2: colourMatch | Blending Mode: Normal | {"ColorSpace":0,"CrossCovarianceLimit":50,"ReshapingIterations":1,"PercentSaturationShift":100,"PercentShadingShift":100,"ExtraShading":true,"PercentTint":100,"PercentModified":100}
# Block 3: subtractiveColour | Blending Mode: Normal | {"sliders":{"gainY":0.55,"C":0.3,"M":0.3,"Y":0.3}}
# Block 4: LUT | Filmic Curve Response: Low Contrast 2 (100%)
# Block 5: logPrimaries | Blending Mode: Normal | {"wheels":{"shadows":{"Y":"0","R":"1","G":"1","B":"1"},"midtones":{"Y":"0","R":"1","G":"1","B":"1"},"highlights":{"Y":"0","R":"1","G":"1","B":"1"},"offset":{"Y":"0","R":"1","G":"1","B":"1"}},"sliders":{"shadows":{"Y":0,"R":-0.085,"G":0.024,"B":0.134},"midtones":{"Y":0,"R":0,"G":-0.023,"B":0},"highlights":{"Y":0,"R":0,"G":0,"B":0},"offset":{"Y":0,"R":0.012,"G":-0.012,"B":0}}}
# Block 6: HSL | Blending Mode: Normal | {"hue":{"Reds":0,"Yellows":0,"Greens":0,"Cyans":0,"Blues":0,"Magentas":0},"saturation":{"Reds":1,"Yellows":1,"Greens":1,"Cyans":1,"Blues":1,"Magentas":1},"luminance":{"Reds":0.9,"Yellows":0.9,"Greens":0.9,"Cyans":0.9,"Blues":0.9,"Magentas":0.9},"lum_sat":{"Blacks":1,"Shadows":1,"Midtones":1,"Highlights":1,"Whites":1},"sat_sat":{"10":1,"20":1,"30":1,"40":1,"50":1}}
# Block 7: ODT | Rec709
TITLE "Lutify.me-FilmBoost10-FLog-to-Rec709" 
LUT_3D_SIZE 33
0.000000 0.000000 0.000000
0.000000 0.000000 0.000000
0.000000 0.000000 0.000000
0.000000 0.000000 0.000000
0.000000 0.000000 0.000000
0.000000 0.000000 0.000000
0.048066 0.000000 0.000000
0.074650 0.000000 0.000000
0.100733 0.000000 0.000000
0.122781 0.000000 0.000000
0.145992 0.000000 0.000000
0.172114 0.000000 0.000000
0.199558 0.000000 0.000000
0.230724 0.000000 0.000000
0.261777 0.000000 0.000000
0.296534 0.000000 0.000000
0.336978 0.000000 0.000000
0.374380 0.000000 0.000000
0.417042 0.000000 0.000000
0.465480 0.000000 0.000000
0.519829 0.000000 0.000000
0.575360 0.000000 0.000000
0.631034 0.000000 0.026722
0.685315 0.000000 0.040662
0.742879 0.000000 0.052098
0.801735 0.000000 0.067175
0.858863 0.000000 0.082863
0.905230 0.000000 0.103625
0.952474 0.000000 0.121758
0.986142 0.000000 0.150908
1.000000 0.000000 0.185383
1.000000 0.125504 0.212394
1.000000 0.216375 0.244855
0.000000 0.000000 0.000000
0.000000 0.000000 0.000000
0.000000 0.000000 0.000000
0.000000 0.000000 0.000000
0.000000 0.000000 0.000000
0.000000 0.000000 0.000000
0.050179 0.000000 0.000000
0.076699 0.000000 0.000000
0.103553 0.000000 0.000000
0.124402 0.000000 0.000000
0.147976 0.000000 0.000000
0.174483 0.000000 0.000000
0.201241 0.000000 0.000000
0.232450 0.000000 0.000000
0.264055 0.000000 0.000000
0.300531 0.000000 0.000000
0.339036 0.000000 0.000000
0.376810 0.000000 0.000000
0.419797 0.000000 0.000000
0.468593 0.000000 0.000000
0.523237 0.000000 0.000000
0.578906 0.000000 0.000000
0.631560 0.000000 0.028035
0.685312 0.000000 0.040407
0.742861 0.000000 0.051690
0.805223 0.000000 0.067108
0.858863 0.000000 0.082863
0.905230 0.000000 0.103625
0.952945 0.000000 0.124197
0.986549 0.000000 0.153712
1.000000 0.000000 0.185383
1.000000 0.125504 0.212394
1.000000 0.226414 0.244451
0.000000 0.000000 0.000000
0.000000 0.000000 0.000000
0.000000 0.000000 0.000000
0.000000 0.000000 0.000000
0.000000 0.000000 0.000000
0.000000 0.000000 0.000000
0.052596 0.000000 0.000000
0.078677 0.000000 0.000000
0.105016 0.000000 0.000000
0.126950 0.000000 0.000000
0.150930 0.000000 0.000000
0.176029 0.000000 0.000000
0.206654 0.000000 0.000000
0.235812 0.000000 0.000000
0.269622 0.000000 0.000000
0.302468 0.000000 0.000000
0.341082 0.000000 0.000000
0.381404 0.000000 0.000000
0.419823 0.000000 0.000000
0.468810 0.000000 0.000000
0.523716 0.000000 0.000000
0.578920 0.000000 0.000000
0.631568 0.000000 0.027409
0.685310 0.000000 0.040141
0.742849 0.000000 0.051404
0.805193 0.000000 0.066821
0.859447 0.000000 0.084807
0.905133 0.000000 0.103318
0.952791 0.000000 0.123863
0.986434 0.000000 0.153542
1.000000 0.000000 0.185383
1.000000 0.125504 0.212394
1.000000 0.226414 0.244451
0.000000 0.000000 0.000000
0.000000 0.000000 0.000000
0.000000 0.000000 0.000000
0.000000 0.000000 0.000000
0.000000 0.000000 0.000000
0.000000 0.000000 0.000000
0.055687 0.000000 0.000000
0.081290 0.000000 0.000000
0.109151 0.000000 0.000000
0.130288 0.000000 0.000000
0.157603 0.000000 0.000000
0.181971 0.000000 0.000000
0.209653 0.000000 0.000000
0.240820 0.000000 0.000000
0.271835 0.000000 0.000000
0.304312 0.000000 0.000000
0.345315 0.000000 0.000000
0.381429 0.000000 0.000000
0.425033 0.000000 0.000000
0.474886 0.000000 0.000000
0.523736 0.000000 0.000000
0.579186 0.000000 0.000000
0.632094 0.000000 0.028787
0.685582 0.000000 0.040565
0.743411 0.000000 0.052802
0.805162 0.000000 0.066520
0.859388 0.000000 0.084508
0.908029 0.000000 0.103192
0.952791 0.000000 0.123863
0.986434 0.000000 0.153542
1.000000 0.000000 0.185040
1.000000 0.125504 0.212394
1.000000 0.226414 0.244451
0.000000 0.000000 0.000000
0.000000 0.000000 0.000000
0.000000 0.000000 0.000000
0.000000 0.000000 0.000000
0.000000 0.000000 0.000000
0.030933 0.000000 0.000000
0.066957 0.000000 0.000000
0.092178 0.000000 0.000000
0.113225 0.000000 0.000000
0.133356 0.000000 0.000000
0.160201 0.000000 0.000000
0.185690 0.000000 0.000000
0.214113 0.000000 0.000000
0.245983 0.000000 0.000000
0.275371 0.000000 0.000000
0.308046 0.000000 0.000000
0.347529 0.000000 0.000000
0.386260 0.000000 0.000000
0.425241 0.000000 0.000000
0.474905 0.000000 0.000000
0.527169 0.000000 0.000000
0.582745 0.000000 0.000000
0.638879 0.000000 0.027827
0.689027 0.000000 0.040092
0.743398 0.000000 0.052502
0.805147 0.000000 0.066365
0.859327 0.000000 0.084197
0.908298 0.000000 0.104283
0.952712 0.000000 0.123691
0.986317 0.000000 0.153369
1.000000 0.000000 0.185040
1.000000 0.133707 0.212204
1.000000 0.226414 0.244451
0.000000 0.015145 0.000000
0.000000 0.016469 0.000000
0.000000 0.017752 0.000000
0.000000 0.019227 0.000000
0.000000 0.023762 0.000000
0.028123 0.020194 0.000000
0.065631 0.000000 0.000000
0.096717 0.000000 0.000000
0.120402 0.000000 0.000000
0.142224 0.000000 0.000000
0.167114 0.000000 0.000000
0.191844 0.000000 0.000000
0.218536 0.000000 0.000000
0.250778 0.000000 0.000000
0.280500 0.000000 0.000000
0.313630 0.000000 0.000000
0.349776 0.000000 0.000000
0.388811 0.000000 0.000000
0.428064 0.000000 0.000000
0.475147 0.000000 0.000000
0.527437 0.000000 0.000000
0.583012 0.000000 0.000000
0.638891 0.000000 0.026671
0.689022 0.000000 0.039464
0.743969 0.000000 0.054047
0.805414 0.000000 0.066949
0.859297 0.000000 0.084037
0.908196 0.000000 0.103963
0.955524 0.000000 0.125902
0.988468 0.000000 0.153470
1.000000 0.000000 0.185040
1.000000 0.133707 0.212204
1.000000 0.231321 0.244243
0.000000 0.044549 0.000000
0.000000 0.044702 0.000000
0.000000 0.045268 0.000000
0.000000 0.046428 0.000000
0.000000 0.048381 0.000000
0.000000 0.050213 0.000000
0.057928 0.045985 0.000000
0.093407 0.032661 0.000000
0.121090 0.000000 0.000000
0.146999 0.000000 0.000000
0.175347 0.000000 0.000000
0.201294 0.000000 0.000000
0.225491 0.000000 0.000000
0.255578 0.000000 0.000000
0.285397 0.000000 0.000000
0.321242 0.000000 0.000000
0.356314 0.000000 0.000000
0.391542 0.000000 0.000000
0.430917 0.000000 0.000000
0.478352 0.000000 0.000000
0.530892 0.000000 0.000000
0.583042 0.000000 0.000000
0.639159 0.000000 0.027044
0.689294 0.000000 0.039839
0.747421 0.000000 0.053306
0.805347 0.000000 0.066276
0.863077 0.000000 0.085683
0.908092 0.000000 0.103631
0.955356 0.000000 0.125547
0.988228 0.000000 0.153114
1.000000 0.000000 0.184973
1.000000 0.141380 0.212010
1.000000 0.231321 0.244243
0.000000 0.061056 0.000000
0.000000 0.061208 0.000000
0.000000 0.061349 0.000000
0.000000 0.062598 0.000000
0.000000 0.067258 0.000000
0.000000 0.069724 0.000000
0.044671 0.068945 0.000000
0.089709 0.060399 0.000000
0.121532 0.050059 0.000000
0.153166 0.030318 0.000000
0.182920 0.000000 0.000000
0.209828 0.000000 0.000000
0.236946 0.000000 0.000000
0.265436 0.000000 0.000000
0.292160 0.000000 0.000000
0.325265 0.000000 0.000000
0.363018 0.000000 0.000000
0.396552 0.000000 0.000000
0.433818 0.000000 0.000000
0.481803 0.000000 0.000000
0.531187 0.000000 0.000000
0.586630 0.000000 0.000000
0.642571 0.000000 0.025253
0.689838 0.000000 0.040536
0.747968 0.000000 0.054368
0.805892 0.000000 0.067583
0.862978 0.000000 0.085180
0.911434 0.000000 0.105546
0.955271 0.000000 0.125365
0.988228 0.000000 0.153114
1.000000 0.000000 0.186388
1.000000 0.142214 0.215535
1.000000 0.236165 0.244030
0.000000 0.078859 0.000000
0.000000 0.079108 0.000000
0.000000 0.079263 0.000000
0.000000 0.082154 0.000000
0.000000 0.085068 0.000000
0.000000 0.088175 0.000000
0.000000 0.089484 0.000000
0.081460 0.088870 0.000000
0.119378 0.080021 0.000000
0.156275 0.065298 0.000000
0.191327 0.044952 0.000000
0.217660 0.012587 0.000000
0.247775 0.000000 0.000000
0.275649 0.000000 0.000000
0.301034 0.000000 0.000000
0.337359 0.000000 0.000000
0.372153 0.000000 0.000000
0.404126 0.000000 0.000000
0.439658 0.000000 0.000000
0.491316 0.000000 0.000000
0.544324 0.000000 0.000000
0.587183 0.000000 0.000000
0.643115 0.000000 0.025529
0.693832 0.000000 0.041183
0.748216 0.000000 0.054344
0.809899 0.000000 0.068640
0.863522 0.000000 0.087024
0.911379 0.000000 0.105373
0.955328 0.000000 0.126254
0.988508 0.000000 0.155781
1.000000 0.000000 0.186023
1.000000 0.155798 0.215268
1.000000 0.236165 0.244030
0.000000 0.097975 0.000000
0.000000 0.099658 0.000000
0.000000 0.099818 0.000000
0.000000 0.101618 0.000000
0.000000 0.106022 0.000000
0.000000 0.108140 0.000000
0.000000 0.113535 0.000000
0.054022 0.112289 0.000000
0.115704 0.109643 0.000000
0.154822 0.096926 0.000000
0.192708 0.081926 0.000000
0.224214 0.070464 0.000000
0.256075 0.051846 0.000000
0.285822 0.000000 0.000000
0.310671 0.000000 0.000000
0.342128 0.000000 0.000000
0.377205 0.000000 0.000000
0.414729 0.000000 0.000000
0.448284 0.000000 0.000000
0.498141 0.000000 0.000000
0.551382 0.000000 0.000000
0.597686 0.000000 0.000000
0.647061 0.000000 0.025270
0.694100 0.000000 0.040594
0.755709 0.000000 0.054933
0.809839 0.000000 0.068054
0.863382 0.000000 0.086315
0.911738 0.000000 0.107098
0.955057 0.000000 0.125671
0.988382 0.000000 0.155599
1.000000 0.000000 0.185835
1.000000 0.162383 0.215068
1.000000 0.240963 0.243955
0.000000 0.121723 0.000000
0.000000 0.123740 0.000000
0.000000 0.123988 0.000000
0.000000 0.125331 0.000000
0.000000 0.131646 0.000000
0.000000 0.134270 0.000000
0.000000 0.141023 0.000000
0.000000 0.143544 0.000000
0.082975 0.142017 0.000000
0.145606 0.137987 0.000000
0.192748 0.120121 0.000000
0.231924 0.106670 0.000000
0.264146 0.095161 0.000000
0.291493 0.078647 0.000000
0.319209 0.057149 0.000000
0.357989 0.000000 0.000000
0.387663 0.000000 0.000000
0.421030 0.000000 0.000000
0.463201 0.000000 0.000000
0.504914 0.000000 0.000000
0.558985 0.000000 0.000000
0.602350 0.000000 0.000000
0.650773 0.000000 0.021604
0.698643 0.000000 0.041985
0.755927 0.000000 0.054314
0.810934 0.000000 0.070863
0.867039 0.000000 0.087615
0.914319 0.000000 0.106199
0.957890 0.000000 0.128120
0.987996 0.000000 0.155032
1.000000 0.000000 0.185643
1.000000 0.174826 0.214656
1.000000 0.251006 0.247469
0.000000 0.146392 0.000000
0.000000 0.148815 0.000000
0.000000 0.150335 0.000000
0.000000 0.150930 0.000000
0.000000 0.158604 0.000000
0.000000 0.162769 0.000000
0.000000 0.164916 0.000000
0.000000 0.168151 0.000000
0.000000 0.167175 0.000000
0.124532 0.167452 0.000000
0.187928 0.160491 0.000000
0.233420 0.143691 0.000000
0.267021 0.131852 0.000000
0.297081 0.120753 0.000000
0.328144 0.102966 0.000000
0.366170 0.082154 0.000000
0.401347 0.034755 0.000000
0.430547 0.000000 0.000000
0.470947 0.000000 0.000000
0.515588 0.000000 0.000000
0.563281 0.000000 0.000000
0.613278 0.000000 0.000000
0.662098 0.000000 0.020225
0.705807 0.000000 0.039977
0.760458 0.000000 0.055744
0.814901 0.000000 0.071685
0.867042 0.000000 0.087228
0.914255 0.000000 0.106334
0.958053 0.000000 0.130120
0.989859 0.000000 0.154737
1.000000 0.042346 0.188490
1.000000 0.181431 0.218031
1.000000 0.255620 0.247247
0.000000 0.169672 0.000000
0.000000 0.173760 0.000000
0.000000 0.176972 0.000000
0.000000 0.177705 0.000000
0.000000 0.182958 0.000000
0.000000 0.190074 0.000000
0.000000 0.189779 0.000000
0.000000 0.196507 0.000000
0.000000 0.197214 0.000000
0.077482 0.195681 0.000000
0.171445 0.193050 0.000000
0.222362 0.186411 0.000000
0.271154 0.165592 0.000000
0.302890 0.155362 0.000000
0.337086 0.141841 0.000000
0.377163 0.126139 0.000000
0.411315 0.108832 0.000000
0.443397 0.081517 0.000000
0.482087 0.027653 0.000000
0.524317 0.000000 0.000000
0.574287 0.000000 0.000000
0.617930 0.000000 0.000000
0.669813 0.000000 0.003764
0.713515 0.000000 0.038314
0.765002 0.000000 0.057626
0.818781 0.000000 0.071740
0.870307 0.000000 0.087160
0.917274 0.000000 0.107637
0.957644 0.000000 0.129274
0.989835 0.000000 0.157031
1.000000 0.090373 0.189855
1.000000 0.187165 0.217821
1.000000 0.260177 0.247021
0.000000 0.196329 0.000000
0.000000 0.201245 0.000000
0.000000 0.206356 0.000000
0.000000 0.207307 0.000000
0.000000 0.211999 0.000000
0.000000 0.218037 0.000000
0.000000 0.220780 0.000000
0.000000 0.221841 0.000000
0.000000 0.227052 0.000000
0.000000 0.225693 0.000000
0.129049 0.224314 0.000000
0.196153 0.225701 0.000000
0.263405 0.212396 0.000000
0.306070 0.192569 0.000000
0.341938 0.183184 0.000000
0.383251 0.166220 0.000000
0.421534 0.151631 0.000000
0.454613 0.138082 0.000000
0.490804 0.113466 0.000000
0.533581 0.087394 0.000000
0.583541 0.000000 0.000000
0.629378 0.000000 0.000000
0.678107 0.000000 0.000000
0.721772 0.000000 0.038138
0.772951 0.000000 0.058070
0.822897 0.000000 0.072378
0.877359 0.000000 0.089593
0.920146 0.000000 0.108673
0.960083 0.000000 0.131126
0.989787 0.000000 0.159345
1.000000 0.111919 0.189437
1.000000 0.203862 0.218980
1.000000 0.269462 0.248710
0.000000 0.229322 0.000000
0.000000 0.231615 0.000000
0.000000 0.236996 0.000000
0.000000 0.238544 0.000000
0.000000 0.241497 0.000000
0.000000 0.246068 0.000000
0.000000 0.250604 0.000000
0.000000 0.252014 0.000000
0.000000 0.254717 0.000000
0.000000 0.255348 0.000000
0.000000 0.255301 0.000000
0.148033 0.257922 0.000000
0.232649 0.253759 0.000000
0.298639 0.241525 0.000000
0.343386 0.223719 0.000000
0.392641 0.206239 0.000000
0.426391 0.196489 0.000000
0.469470 0.183188 0.000000
0.506518 0.165913 0.000000
0.549213 0.148786 0.000000
0.593194 0.116095 0.000000
0.642504 0.061661 0.000000
0.683073 0.000000 0.000000
0.730304 0.000000 0.034069
0.780259 0.000000 0.054917
0.830256 0.000000 0.071707
0.880407 0.000000 0.088733
0.922846 0.000000 0.109372
0.959936 0.000000 0.132654
0.991660 0.000000 0.161554
1.000000 0.145129 0.191878
1.000000 0.213933 0.218647
1.000000 0.282539 0.248004
0.000000 0.261897 0.000000
0.000000 0.264544 0.000000
0.000000 0.266115 0.000000
0.000000 0.269455 0.000000
0.000000 0.276073 0.000000
0.000000 0.279387 0.000000
0.000000 0.282836 0.000000
0.000000 0.288031 0.000000
0.000000 0.287609 0.000000
0.000000 0.292685 0.000000
0.000000 0.293525 0.000000
0.000000 0.291621 0.000000
0.184687 0.288792 0.000000
0.264940 0.288747 0.000000
0.335685 0.277319 0.000000
0.392605 0.254026 0.000000
0.436643 0.243552 0.000000
0.481319 0.229910 0.000000
0.517409 0.219805 0.000000
0.560128 0.206979 0.000000
0.606703 0.185487 0.000000
0.652433 0.165732 0.000000
0.693084 0.139626 0.000000
0.738412 0.077830 0.000000
0.788553 0.000000 0.051070
0.837629 0.000000 0.070680
0.883919 0.000000 0.090189
0.922832 0.000000 0.110867
0.962120 0.000000 0.134239
0.991015 0.085563 0.161887
1.000000 0.176607 0.192502
1.000000 0.234066 0.221499
1.000000 0.291679 0.251739
0.000000 0.299737 0.000000
0.000000 0.301477 0.000000
0.000000 0.302895 0.000000
0.000000 0.308190 0.000000
0.000000 0.312478 0.000000
0.000000 0.314848 0.000000
0.000000 0.320862 0.000000
0.000000 0.326535 0.000000
0.000000 0.326209 0.000000
0.000000 0.327771 0.000000
0.000000 0.333033 0.000000
0.000000 0.336238 0.000000
0.070626 0.334342 0.000000
0.205282 0.331476 0.000000
0.296399 0.326941 0.000000
0.379036 0.316488 0.000000
0.436472 0.293622 0.000000
0.486823 0.280515 0.000000
0.529446 0.268153 0.000000
0.571141 0.260137 0.000000
0.617915 0.241394 0.000000
0.665905 0.222853 0.000000
0.702768 0.205590 0.000000
0.748294 0.179217 0.000000
0.793350 0.134101 0.040855
0.841863 0.079540 0.069451
0.887180 0.000000 0.090933
0.925325 0.000000 0.111908
0.961413 0.073156 0.134811
0.992560 0.146684 0.166394
1.000000 0.199347 0.194910
1.000000 0.257740 0.222088
1.000000 0.304488 0.253070
0.000000 0.339258 0.000000
0.000000 0.342992 0.000000
0.000000 0.345123 0.000000
0.000000 0.347610 0.000000
0.000000 0.349715 0.000000
0.000000 0.355353 0.000000
0.000000 0.359497 0.000000
0.000000 0.361775 0.000000
0.000000 0.366070 0.000000
0.000000 0.372388 0.000000
0.000000 0.371697 0.000000
0.000000 0.373289 0.000000
0.000000 0.376195 0.000000
0.110442 0.374271 0.000000
0.230121 0.371592 0.000000
0.347993 0.365863 0.000000
0.425445 0.355319 0.000000
0.480255 0.333966 0.000000
0.529792 0.323454 0.000000
0.578935 0.307560 0.000000
0.627894 0.295231 0.000000
0.675936 0.278800 0.000000
0.715547 0.266477 0.000000
0.760451 0.249204 0.000000
0.805329 0.225148 0.000000
0.854704 0.180434 0.060178
0.893012 0.149288 0.090414
0.927799 0.143239 0.114710
0.962736 0.156395 0.136015
0.991662 0.188927 0.169206
1.000000 0.229469 0.196877
1.000000 0.280064 0.222728
1.000000 0.320790 0.252199
0.000000 0.380483 0.000000
0.000000 0.385287 0.000000
0.000000 0.387664 0.000000
0.000000 0.389400 0.000000
0.000000 0.391523 0.000000
0.000000 0.393873 0.000000
0.000000 0.397694 0.000000
0.000000 0.402303 0.000000
0.000000 0.404450 0.000000
0.000000 0.409584 0.000000
0.000000 0.416143 0.000000
0.000000 0.415308 0.000000
0.000000 0.417160 0.000000
0.000000 0.417646 0.000000
0.147564 0.418296 0.000000
0.289697 0.414886 0.000000
0.399304 0.409799 0.000000
0.477729 0.397820 0.000000
0.530331 0.374147 0.000000
0.585938 0.362998 0.000000
0.638714 0.344765 0.000000
0.685259 0.329747 0.000000
0.725299 0.318973 0.000000
0.769373 0.303678 0.000000
0.813477 0.290020 0.000000
0.861734 0.265816 0.053741
0.900569 0.237096 0.085954
0.931843 0.221979 0.116262
0.963859 0.218734 0.140709
0.993983 0.232315 0.169790
1.000000 0.262561 0.200130
1.000000 0.301963 0.227196
1.000000 0.341499 0.257357
0.000000 0.427814 0.000000
0.000000 0.429738 0.000000
0.000000 0.431521 0.000000
0.000000 0.433530 0.000000
0.000000 0.435772 0.000000
0.000000 0.437840 0.000000
0.000000 0.443611 0.000000
0.000000 0.447012 0.000000
0.000000 0.452187 0.000000
0.000000 0.454483 0.000000
0.000000 0.459536 0.000000
0.000000 0.461091 0.000000
0.000000 0.460126 0.000000
0.000000 0.464224 0.000000
0.000000 0.465080 0.000000
0.206324 0.465034 0.000000
0.336736 0.461126 0.000000
0.439358 0.459185 0.000000
0.526434 0.446958 0.000000
0.583295 0.424151 0.000000
0.641079 0.409387 0.000000
0.691877 0.388040 0.000000
0.733780 0.375127 0.000000
0.778020 0.364520 0.000000
0.819659 0.351864 0.000000
0.866300 0.334758 0.000000
0.901744 0.311627 0.081330
0.938835 0.293939 0.111487
0.967592 0.287219 0.143193
0.993473 0.285842 0.173878
1.000000 0.301748 0.202762
1.000000 0.327129 0.231466
1.000000 0.364985 0.257858
0.000000 0.475837 0.000000
0.000000 0.483122 0.000000
0.000000 0.485066 0.000000
0.000000 0.487035 0.000000
0.000000 0.488804 0.000000
0.000000 0.490591 0.000000
0.000000 0.493305 0.000000
0.000000 0.496517 0.000000
0.000000 0.500060 0.000000
0.000000 0.502416 0.000000
0.000000 0.507166 0.000000
0.000000 0.508843 0.000000
0.000000 0.507804 0.000000
0.000000 0.509630 0.000000
0.000000 0.516702 0.000000
0.000000 0.520229 0.000000
0.257682 0.517058 0.000000
0.378747 0.512388 0.000000
0.487090 0.506722 0.000000
0.574749 0.501208 0.000000
0.642864 0.469448 0.000000
0.690299 0.456259 0.000000
0.738767 0.442740 0.000000
0.785019 0.429787 0.000000
0.826244 0.418886 0.000000
0.869725 0.402581 0.000000
0.903842 0.385975 0.066516
0.937236 0.372189 0.111127
0.966668 0.362294 0.140573
0.992965 0.350880 0.177828
1.000000 0.350903 0.208046
1.000000 0.366858 0.232319
1.000000 0.388540 0.263022
0.000000 0.525768 0.000000
0.000000 0.527601 0.000000
0.000000 0.528988 0.000000
0.000000 0.530386 0.000000
0.000000 0.532265 0.000000
0.000000 0.534162 0.000000
0.000000 0.536315 0.000000
0.000000 0.544989 0.000000
0.000000 0.547935 0.000000
0.000000 0.550533 0.000000
0.000000 0.553399 0.000000
0.000000 0.558130 0.000000
0.000000 0.559713 0.000000
0.000000 0.558943 0.000000
0.000000 0.560376 0.000000
0.000000 0.566225 0.000000
0.119570 0.566908 0.000000
0.306873 0.563964 0.000000
0.434513 0.559635 0.000000
0.532770 0.557088 0.000000
0.631102 0.550254 0.000000
0.689024 0.520231 0.000000
0.744347 0.505422 0.000000
0.788487 0.492255 0.000000
0.830845 0.475195 0.000000
0.870620 0.464306 0.000000
0.904560 0.450523 0.000000
0.937005 0.434984 0.105689
0.963378 0.426853 0.141844
0.990564 0.415447 0.176818
1.000000 0.408540 0.210129
1.000000 0.405235 0.235372
1.000000 0.414827 0.263304
0.000000 0.574397 0.000000
0.000000 0.578645 0.000000
0.000000 0.580363 0.000000
0.000000 0.581350 0.000000
0.000000 0.582591 0.000000
0.000000 0.584338 0.000000
0.000000 0.586349 0.000000
0.000000 0.588120 0.000000
0.000000 0.591178 0.000000
0.000000 0.597061 0.000000
0.000000 0.603486 0.000000
0.000000 0.606335 0.000000
0.000000 0.607445 0.000000
0.000000 0.609329 0.000000
0.000000 0.611511 0.000000
0.000000 0.609680 0.000000
0.000000 0.612191 0.000000
0.226224 0.612564 0.000000
0.369750 0.609344 0.000000
0.492169 0.607274 0.000000
0.596080 0.604165 0.000000
0.682203 0.594701 0.000000
0.738903 0.567437 0.000000
0.785097 0.553512 0.000000
0.829663 0.532362 0.000000
0.872591 0.521889 0.000000
0.905292 0.512782 0.000000
0.934802 0.500159 0.092778
0.961371 0.486019 0.143825
0.985982 0.475866 0.184239
1.000000 0.468583 0.213450
1.000000 0.461313 0.238635
1.000000 0.452189 0.267150
0.000000 0.623473 0.000000
0.000000 0.624750 0.000000
0.000000 0.625519 0.000000
0.000000 0.626547 0.000000
0.000000 0.627837 0.000000
0.000000 0.628873 0.000000
0.000000 0.630955 0.000000
0.000000 0.632786 0.000000
0.000000 0.634625 0.000000
0.000000 0.637790 0.000000
0.000000 0.646592 0.000000
0.000000 0.649706 0.000000
0.000000 0.652442 0.000000
0.000000 0.653924 0.000000
0.000000 0.657985 0.000000
0.000000 0.659848 0.000000
0.000000 0.658230 0.000000
0.000000 0.657393 0.000000
0.293926 0.657287 0.000000
0.432681 0.653829 0.000000
0.547479 0.651378 0.000000
0.642320 0.654528 0.000000
0.724594 0.645812 0.000000
0.777251 0.616096 0.000000
0.824192 0.598328 0.000000
0.872017 0.575391 0.000000
0.904448 0.567111 0.000000
0.932465 0.558422 0.091207
0.956712 0.550785 0.135704
0.981752 0.534512 0.187783
1.000000 0.527529 0.219301
1.000000 0.520392 0.246209
1.000000 0.507436 0.274195
0.000000 0.675598 0.041931
0.000000 0.676919 0.042643
0.000000 0.677448 0.042933
0.000000 0.678244 0.043372
0.000000 0.679307 0.043964
0.000000 0.680373 0.044564
0.000000 0.681709 0.045330
0.000000 0.683317 0.030318
0.000000 0.685197 0.032118
0.000000 0.687353 0.000000
0.000000 0.689510 0.000000
0.000000 0.695280 0.000000
0.000000 0.698325 0.000000
0.000000 0.700646 0.000000
0.000000 0.702448 0.000000
0.000000 0.706546 0.000000
0.000000 0.704713 0.000000
0.000000 0.702838 0.000000
0.137014 0.705708 0.000000
0.354207 0.704136 0.000000
0.499072 0.700229 0.000000
0.606602 0.697899 0.000000
0.689707 0.695206 0.000000
0.762951 0.687087 0.000000
0.818784 0.667215 0.000000
0.865993 0.644403 0.000000
0.897878 0.629072 0.000000
0.930612 0.616232 0.096062
0.954035 0.608838 0.144118
0.978316 0.598926 0.190717
0.998946 0.589231 0.227981
1.000000 0.578453 0.251742
1.000000 0.569365 0.286369
0.000000 0.721095 0.121875
0.000000 0.724553 0.115810
0.000000 0.725589 0.116293
0.000000 0.726106 0.116537
0.000000 0.726882 0.116908
0.000000 0.727399 0.117159
0.000000 0.728691 0.117793
0.000000 0.729466 0.118180
