Assets/Lutify-Free-LUTs-Pack/Lutify Free LUTs Pack/Colour Film Boost Pro - Film Boost 10/Lutify.me-FilmBoost10-SLog3-to-Rec709.cube
# Created with: fylm.ai - Colour Grading and Collaboration Software in Cloud 
# Website: https://fylm.ai 
# META
# Option: Gamut compress
# Block 1: IDT | Sony S-Log3 S-Gamut3
# Block 2: colourMatch | Blending Mode: Normal | {"ColorSpace":0,"CrossCovarianceLimit":50,"ReshapingIterations":1,"PercentSaturationShift":100,"PercentShadingShift":100,"ExtraShading":true,"PercentTint":100,"PercentModified":100}
# Block 3: subtractiveColour | Blending Mode: Normal | {"sliders":{"gainY":0.55,"C":0.3,"M":0.3,"Y":0.3}}
# Block 4: LUT | Filmic Curve Response: Low Contrast 2 (100%)
# Block 5: logPrimaries | Blending Mode: Normal | {"wheels":{"shadows":{"Y":"0","R":"1","G":"1","B":"1"},"midtones":{"Y":"0","R":"1","G":"1","B":"1"},"highlights":{"Y":"0","R":"1","G":"1","B":"1"},"offset":{"Y":"0","R":"1","G":"1","B":"1"}},"sliders":{"shadows":{"Y":0,"R":-0.085,"G":0.024,"B":0.134},"midtones":{"Y":0,"R":0,"G":-0.023,"B":0},"highlights":{"Y":0,"R":0,"G":0,"B":0},"offset":{"Y":0,"R":0.012,"G":-0.012,"B":0}}}
# Block 6: HSL | Blending Mode: Normal | {"hue":{"Reds":0,"Yellows":0,"Greens":0,"Cyans":0,"Blues":0,"Magentas":0},"saturation":{"Reds":1,"Yellows":1,"Greens":1,"Cyans":1,"Blues":1,"Magentas":1},"luminance":{"Reds":0.9,"Yellows":0.9,"Greens":0.9,"Cyans":0.9,"Blues":0.9,"Magentas":0.9},"lum_sat":{"Blacks":1,"Shadows":1,"Midtones":1,"Highlights":1,"Whites":1},"sat_sat":{"10":1,"20":1,"30":1,"40":1,"50":1}}
# Block 7: ODT | Rec709
TITLE "Lutify.me-FilmBoost10-SLog3-to-Rec709" 
LUT_3D_SIZE 33
0.000000 0.000000 0.000000
0.000000 0.000000 0.000000
0.000000 0.000000 0.000000
0.000000 0.000000 0.000000
0.000000 0.000000 0.000000
0.023354 0.000000 0.000000
0.061977 0.000000 0.000000
0.093049 0.000000 0.000000
0.118823 0.000000 0.000000
0.145992 0.000000 0.000000
0.175034 0.000000 0.000000
0.207914 0.000000 0.000000
0.248090 0.000000 0.000000
0.293164 0.000000 0.000000
0.339219 0.000000 0.000000
0.394658 0.000000 0.000000
0.457105 0.000000 0.000000
0.526777 0.000000 0.000000
0.600594 0.000000 0.000000
0.672493 0.000000 0.025046
0.750279 0.000000 0.044945
0.824821 0.000000 0.064012
0.891850 0.000000 0.087175
0.954310 0.000000 0.115188
1.000000 0.000000 0.153100
1.000000 0.000000 0.193800
1.000000 0.141270 0.232281
1.000000 0.277506 0.281133
1.000000 0.377519 0.337685
1.000000 0.448150 0.391471
1.000000 0.526138 0.442990
1.000000 0.608134 0.507973
1.000000 0.678943 0.566508
0.000000 0.000000 0.000000
0.000000 0.000000 0.000000
0.000000 0.000000 0.000000
0.000000 0.000000 0.000000
0.000000 0.000000 0.000000
0.029557 0.000000 0.000000
0.064022 0.000000 0.000000
0.094572 0.000000 0.000000
0.120126 0.000000 0.000000
0.147670 0.000000 0.000000
0.178325 0.000000 0.000000
0.212304 0.000000 0.000000
0.253248 0.000000 0.000000
0.299202 0.000000 0.000000
0.346392 0.000000 0.000000
0.397252 0.000000 0.000000
0.460176 0.000000 0.000000
0.526808 0.000000 0.000000
0.601102 0.000000 0.000000
0.673027 0.000000 0.026268
0.753747 0.000000 0.044313
0.824794 0.000000 0.063769
0.898455 0.000000 0.089037
0.956707 0.000000 0.114993
1.000000 0.000000 0.155565
1.000000 0.000000 0.193495
1.000000 0.155611 0.231929
1.000000 0.285936 0.280749
1.000000 0.377519 0.337685
1.000000 0.448150 0.391471
1.000000 0.526138 0.442990
1.000000 0.608134 0.507973
1.000000 0.678943 0.566508
0.000000 0.000000 0.000000
0.000000 0.000000 0.000000
0.000000 0.000000 0.000000
0.000000 0.000000 0.000000
0.000000 0.000000 0.000000
0.032148 0.000000 0.000000
0.065449 0.000000 0.000000
0.097379 0.000000 0.000000
0.121999 0.000000 0.000000
0.150734 0.000000 0.000000
0.183309 0.000000 0.000000
0.216934 0.000000 0.000000
0.258714 0.000000 0.000000
0.303641 0.000000 0.000000
0.348559 0.000000 0.000000
0.399700 0.000000 0.000000
0.460413 0.000000 0.000000
0.536867 0.000000 0.000000
0.601363 0.000000 0.000000
0.676464 0.000000 0.025216
0.754304 0.000000 0.045658
0.828800 0.000000 0.064948
0.898388 0.000000 0.088767
0.956586 0.000000 0.114706
1.000000 0.000000 0.155565
1.000000 0.000000 0.193495
1.000000 0.156550 0.235763
1.000000 0.285936 0.280749
1.000000 0.377519 0.337685
1.000000 0.448150 0.391471
1.000000 0.526138 0.442990
1.000000 0.608134 0.507973
1.000000 0.678943 0.566508
0.000000 0.000000 0.000000
0.000000 0.000000 0.000000
0.000000 0.000000 0.000000
0.000000 0.000000 0.000000
0.000000 0.000000 0.000000
0.041937 0.000000 0.000000
0.070113 0.000000 0.000000
0.101973 0.000000 0.000000
0.125612 0.000000 0.000000
0.155892 0.000000 0.000000
0.187462 0.000000 0.000000
0.223130 0.000000 0.000000
0.264622 0.000000 0.000000
0.307808 0.000000 0.000000
0.354919 0.000000 0.000000
0.404629 0.000000 0.000000
0.463302 0.000000 0.000000
0.537121 0.000000 0.000000
0.604971 0.000000 0.000000
0.676731 0.000000 0.025583
0.754283 0.000000 0.045130
0.828770 0.000000 0.064682
0.898388 0.000000 0.088767
0.956989 0.000000 0.116853
1.000000 0.000000 0.155417
1.000000 0.000000 0.193776
1.000000 0.156550 0.235763
1.000000 0.285936 0.280749
1.000000 0.377519 0.337685
1.000000 0.448150 0.391471
1.000000 0.526138 0.442990
1.000000 0.611095 0.507826
1.000000 0.678943 0.566508
0.000000 0.008878 0.000000
0.000000 0.009177 0.000000
0.000000 0.009549 0.000000
0.000000 0.010416 0.000000
0.000000 0.016396 0.000000
0.048933 0.000000 0.000000
0.081833 0.000000 0.000000
0.111287 0.000000 0.000000
0.131578 0.000000 0.000000
0.161297 0.000000 0.000000
0.191552 0.000000 0.000000
0.228152 0.000000 0.000000
0.268499 0.000000 0.000000
0.313362 0.000000 0.000000
0.361382 0.000000 0.000000
0.412150 0.000000 0.000000
0.466212 0.000000 0.000000
0.540586 0.000000 0.000000
0.605238 0.000000 0.000000
0.676733 0.000000 0.024559
0.754273 0.000000 0.044849
0.828755 0.000000 0.064544
0.898864 0.000000 0.090479
0.956926 0.000000 0.116707
1.000000 0.000000 0.155386
1.000000 0.000000 0.193619
1.000000 0.163189 0.235586
1.000000 0.290401 0.280733
1.000000 0.377519 0.337685
1.000000 0.448150 0.391471
1.000000 0.526138 0.442990
1.000000 0.611095 0.507826
1.000000 0.678943 0.566508
0.000000 0.040896 0.000000
0.000000 0.040541 0.000000
0.000000 0.040756 0.000000
0.000000 0.042709 0.000000
0.000000 0.044550 0.000000
0.039030 0.043822 0.000000
0.074442 0.030013 0.000000
0.110224 0.000000 0.000000
0.139165 0.000000 0.000000
0.169854 0.000000 0.000000
0.201586 0.000000 0.000000
0.234123 0.000000 0.000000
0.272037 0.000000 0.000000
0.317089 0.000000 0.000000
0.367996 0.000000 0.000000
0.414897 0.000000 0.000000
0.466636 0.000000 0.000000
0.540847 0.000000 0.000000
0.605258 0.000000 0.000000
0.677267 0.000000 0.025962
0.754542 0.000000 0.045289
0.829286 0.000000 0.065763
0.898792 0.000000 0.090197
0.956862 0.000000 0.116558
1.000000 0.000000 0.155386
1.000000 0.000000 0.196827
1.000000 0.163189 0.235586
1.000000 0.290401 0.280733
1.000000 0.377519 0.337685
1.000000 0.448150 0.391471
1.000000 0.529551 0.445743
1.000000 0.611095 0.507826
1.000000 0.678943 0.566508
0.000000 0.056541 0.000000
0.000000 0.056721 0.000000
0.000000 0.056901 0.000000
0.000000 0.059097 0.000000
0.000000 0.062320 0.000000
0.000000 0.063932 0.000000
0.067555 0.058582 0.000000
0.106484 0.045894 0.000000
0.140072 0.024902 0.000000
0.178797 0.000000 0.000000
0.212816 0.000000 0.000000
0.247667 0.000000 0.000000
0.280449 0.000000 0.000000
0.320861 0.000000 0.000000
0.370451 0.000000 0.000000
0.417681 0.000000 0.000000
0.472502 0.000000 0.000000
0.544554 0.000000 0.000000
0.608876 0.000000 0.000000
0.681242 0.000000 0.026945
0.758004 0.000000 0.044507
0.829253 0.000000 0.065466
0.898756 0.000000 0.090052
0.959213 0.000000 0.116338
1.000000 0.000000 0.155076
1.000000 0.000000 0.196511
1.000000 0.163189 0.235586
1.000000 0.290401 0.280733
1.000000 0.381105 0.337504
1.000000 0.454780 0.391141
1.000000 0.529551 0.445743
1.000000 0.611095 0.507826
1.000000 0.678943 0.566508
0.000000 0.075622 0.000000
0.000000 0.076919 0.000000
0.000000 0.076033 0.000000
0.000000 0.078859 0.000000
0.000000 0.082666 0.000000
0.000000 0.086684 0.000000
0.039209 0.085588 0.000000
0.101779 0.077940 0.000000
0.143578 0.060582 0.000000
0.185407 0.035578 0.000000
0.223624 0.000000 0.000000
0.258909 0.000000 0.000000
0.290498 0.000000 0.000000
0.330627 0.000000 0.000000
0.375221 0.000000 0.000000
0.423089 0.000000 0.000000
0.475715 0.000000 0.000000
0.547849 0.000000 0.000000
0.609414 0.000000 0.000000
0.681243 0.000000 0.025744
0.757973 0.000000 0.043629
0.832935 0.000000 0.065848
0.898915 0.000000 0.090614
0.959605 0.000000 0.118517
1.000000 0.000000 0.157719
1.000000 0.000000 0.196349
1.000000 0.175724 0.235222
1.000000 0.294522 0.280535
1.000000 0.381105 0.337504
1.000000 0.454780 0.391141
1.000000 0.529551 0.445743
1.000000 0.611095 0.507826
1.000000 0.678943 0.566508
0.000000 0.096961 0.000000
0.000000 0.099387 0.000000
0.000000 0.101172 0.000000
0.000000 0.101526 0.000000
0.000000 0.106028 0.000000
0.000000 0.109741 0.000000
0.000000 0.113355 0.000000
0.087427 0.109536 0.000000
0.143402 0.096754 0.000000
0.190125 0.079713 0.000000
0.229047 0.056161 0.000000
0.265906 0.000000 0.000000
0.302972 0.000000 0.000000
0.345043 0.000000 0.000000
0.384799 0.000000 0.000000
0.428652 0.000000 0.000000
0.481998 0.000000 0.000000
0.554665 0.000000 0.000000
0.612820 0.000000 0.000000
0.684955 0.000000 0.023948
0.761980 0.000000 0.043977
0.832822 0.000000 0.064825
0.901797 0.000000 0.090165
0.959326 0.000000 0.117878
1.000000 0.000000 0.157400
1.000000 0.000000 0.196183
1.000000 0.181684 0.235035
1.000000 0.294522 0.280535
1.000000 0.381105 0.337504
1.000000 0.454780 0.391141
1.000000 0.529551 0.445743
1.000000 0.611095 0.507826
1.000000 0.678943 0.566508
0.000000 0.123307 0.000000
0.000000 0.126237 0.000000
0.000000 0.130324 0.000000
0.000000 0.130771 0.000000
0.000000 0.136543 0.000000
0.000000 0.141317 0.000000
0.000000 0.146328 0.000000
0.000000 0.143184 0.000000
0.119685 0.145024 0.000000
0.186495 0.126527 0.000000
0.238773 0.104088 0.000000
0.277668 0.078963 0.000000
0.314845 0.049153 0.000000
0.354414 0.000000 0.000000
0.400113 0.000000 0.000000
0.439850 0.000000 0.000000
0.494288 0.000000 0.000000
0.568103 0.000000 0.000000
0.623214 0.000000 0.000000
0.685232 0.000000 0.020946
0.762481 0.000000 0.043875
0.832971 0.000000 0.064409
0.901858 0.000000 0.090354
0.961479 0.000000 0.117279
1.000000 0.000000 0.157355
1.000000 0.000000 0.197471
1.000000 0.188224 0.238589
1.000000 0.298612 0.280334
1.000000 0.385067 0.337527
1.000000 0.459045 0.391462
1.000000 0.532665 0.445585
1.000000 0.614663 0.513699
1.000000 0.679219 0.569535
0.000000 0.151481 0.000000
0.000000 0.156261 0.000000
0.000000 0.160135 0.000000
0.000000 0.160836 0.000000
0.000000 0.166621 0.000000
0.000000 0.171136 0.000000
0.000000 0.174767 0.000000
0.000000 0.178186 0.000000
0.059148 0.176662 0.000000
0.172231 0.175503 0.000000
0.240438 0.151505 0.000000
0.285304 0.130341 0.000000
0.323702 0.109932 0.000000
0.364864 0.081478 0.000000
0.411701 0.000000 0.000000
0.455443 0.000000 0.000000
0.507696 0.000000 0.000000
0.572829 0.000000 0.000000
0.637088 0.000000 0.000000
0.692666 0.000000 0.013822
0.767004 0.000000 0.044802
0.837391 0.000000 0.066737
0.905091 0.000000 0.091383
0.963726 0.000000 0.117644
1.000000 0.000000 0.156667
1.000000 0.000000 0.197122
1.000000 0.199329 0.238205
1.000000 0.307322 0.284320
1.000000 0.389228 0.342515
1.000000 0.459045 0.391462
1.000000 0.532665 0.445585
1.000000 0.614663 0.513699
1.000000 0.681793 0.569423
0.000000 0.183226 0.000000
0.000000 0.186297 0.000000
0.000000 0.190905 0.000000
0.000000 0.192033 0.000000
0.000000 0.198681 0.000000
0.000000 0.205066 0.000000
0.000000 0.204966 0.000000
0.000000 0.215132 0.000000
0.000000 0.215356 0.000000
0.118226 0.212134 0.000000
0.227062 0.203585 0.000000
0.283625 0.183019 0.000000
0.333439 0.159364 0.000000
0.380496 0.135858 0.000000
0.422068 0.108651 0.000000
0.475375 0.066699 0.000000
0.519197 0.000000 0.000000
0.584106 0.000000 0.000000
0.645353 0.000000 0.000000
0.707266 0.000000 0.000000
0.771492 0.000000 0.044980
0.847822 0.000000 0.066446
0.908210 0.000000 0.092155
0.963431 0.000000 0.117650
1.000000 0.000000 0.159105
1.000000 0.000000 0.200015
1.000000 0.210030 0.237963
1.000000 0.311603 0.284295
1.000000 0.396329 0.342149
1.000000 0.462340 0.391294
1.000000 0.535780 0.445427
1.000000 0.614663 0.513699
1.000000 0.681793 0.569423
0.000000 0.215892 0.000000
0.000000 0.221205 0.000000
0.000000 0.229188 0.000000
0.000000 0.230384 0.000000
0.000000 0.236757 0.000000
0.000000 0.239874 0.000000
0.000000 0.244369 0.000000
0.000000 0.247219 0.000000
0.000000 0.252875 0.000000
0.000000 0.251079 0.000000
0.170456 0.247074 0.000000
0.272480 0.239637 0.000000
0.332398 0.218611 0.000000
0.390569 0.191707 0.000000
0.433341 0.173346 0.000000
0.487751 0.146413 0.000000
0.540844 0.104266 0.000000
0.596364 0.000000 0.000000
0.657330 0.000000 0.000000
0.715786 0.000000 0.000000
0.782573 0.000000 0.041536
0.851865 0.000000 0.066903
0.913891 0.000000 0.091891
0.966120 0.000000 0.121444
1.000000 0.000000 0.161250
1.000000 0.101330 0.199249
1.000000 0.230501 0.239026
1.000000 0.323453 0.283670
1.000000 0.399870 0.341963
1.000000 0.465633 0.391124
1.000000 0.538897 0.445267
1.000000 0.617629 0.513552
1.000000 0.681793 0.569423
0.000000 0.257955 0.000000
0.000000 0.261926 0.000000
0.000000 0.268150 0.000000
0.000000 0.271449 0.000000
0.000000 0.277434 0.000000
0.000000 0.280887 0.000000
0.000000 0.286187 0.000000
0.000000 0.285946 0.000000
0.000000 0.293124 0.000000
0.000000 0.299748 0.000000
0.000000 0.295443 0.000000
0.201551 0.293399 0.000000
0.311625 0.286137 0.000000
0.393990 0.257636 0.000000
0.447536 0.238697 0.000000
0.501190 0.214409 0.000000
0.555626 0.194082 0.000000
0.610404 0.164576 0.000000
0.671139 0.119234 0.000000
0.723972 0.000000 0.000000
0.790600 0.000000 0.033832
0.862411 0.000000 0.066717
0.916785 0.000000 0.092622
0.970354 0.000000 0.122307
1.000000 0.000000 0.162888
1.000000 0.138275 0.201798
1.000000 0.249626 0.238286
1.000000 0.331549 0.285472
1.000000 0.407230 0.344211
1.000000 0.468926 0.390954
1.000000 0.546228 0.451067
1.000000 0.623568 0.513258
1.000000 0.684357 0.569311
0.000000 0.299603 0.000000
0.000000 0.304711 0.000000
0.000000 0.312178 0.000000
0.000000 0.320878 0.000000
0.000000 0.323303 0.000000
0.000000 0.325877 0.000000
0.000000 0.332094 0.000000
0.000000 0.336230 0.000000
0.000000 0.335930 0.000000
0.000000 0.344004 0.000000
0.000000 0.349414 0.000000
0.000000 0.346758 0.000000
0.228409 0.342644 0.000000
0.363712 0.333988 0.000000
0.445486 0.305875 0.000000
0.506764 0.283047 0.000000
0.568999 0.267085 0.000000
0.627243 0.239647 0.000000
0.681313 0.215280 0.000000
0.741019 0.179982 0.000000
0.805505 0.093964 0.000000
0.869107 0.000000 0.062939
0.922162 0.000000 0.092726
0.969745 0.000000 0.123542
1.000000 0.090865 0.165463
1.000000 0.184111 0.203810
1.000000 0.268551 0.241541
1.000000 0.347440 0.287031
1.000000 0.414271 0.343831
1.000000 0.475808 0.393436
1.000000 0.549341 0.450907
1.000000 0.626542 0.513109
1.000000 0.686912 0.569202
0.000000 0.346947 0.000000
0.000000 0.353233 0.000000
0.000000 0.363037 0.000000
0.000000 0.367943 0.000000
0.000000 0.370726 0.000000
0.000000 0.376018 0.000000
0.000000 0.378280 0.000000
0.000000 0.385527 0.000000
0.000000 0.387428 0.000000
0.000000 0.391565 0.000000
0.000000 0.393045 0.000000
0.000000 0.401532 0.000000
0.000000 0.398992 0.000000
0.288360 0.393497 0.000000
0.418204 0.388370 0.000000
0.508147 0.352910 0.000000
0.576470 0.333588 0.000000
0.645794 0.317057 0.000000
0.694745 0.294866 0.000000
0.752816 0.270505 0.000000
0.814293 0.235966 0.000000
0.874405 0.167738 0.042732
0.924688 0.119625 0.094506
0.973143 0.118547 0.126135
1.000000 0.164761 0.169337
1.000000 0.226176 0.203681
1.000000 0.298837 0.241929
1.000000 0.359081 0.288629
1.000000 0.425695 0.348775
1.000000 0.485677 0.392912
1.000000 0.555572 0.450585
1.000000 0.630493 0.513519
1.000000 0.689456 0.569093
0.000000 0.403733 0.000000
0.000000 0.409207 0.000000
0.000000 0.419636 0.000000
0.000000 0.425546 0.000000
0.000000 0.428674 0.000000
0.000000 0.431545 0.000000
0.000000 0.437526 0.000000
0.000000 0.444321 0.000000
0.000000 0.448891 0.000000
0.000000 0.453398 0.000000
0.000000 0.457970 0.000000
0.000000 0.456677 0.000000
0.000000 0.460401 0.000000
0.144360 0.455805 0.000000
0.324395 0.457254 0.000000
0.467477 0.449050 0.000000
0.567903 0.419121 0.000000
0.648540 0.394927 0.000000
0.711352 0.374329 0.000000
0.764471 0.350662 0.000000
0.824160 0.328020 0.000000
0.881962 0.294390 0.000000
0.934524 0.245533 0.082507
0.973366 0.217689 0.129668
1.000000 0.237111 0.169992
1.000000 0.277309 0.206099
1.000000 0.328126 0.246266
1.000000 0.385771 0.289655
1.000000 0.436452 0.350886
1.000000 0.495942 0.392625
1.000000 0.565231 0.453039
1.000000 0.636362 0.513227
1.000000 0.692928 0.569612
0.000000 0.469607 0.000000
0.000000 0.475565 0.000000
0.000000 0.481624 0.000000
0.000000 0.487372 0.000000
0.000000 0.492991 0.000000
0.000000 0.495328 0.000000
0.000000 0.498576 0.000000
0.000000 0.503011 0.000000
0.000000 0.507913 0.000000
0.000000 0.515736 0.000000
0.000000 0.520063 0.000000
0.000000 0.525145 0.000000
0.000000 0.522999 0.000000
0.000000 0.532039 0.000000
0.202270 0.527550 0.000000
0.388743 0.521800 0.000000
0.527519 0.516890 0.000000
0.644369 0.479779 0.000000
0.711254 0.460577 0.000000
0.772745 0.437441 0.000000
0.828653 0.421833 0.000000
0.886012 0.399432 0.000000
0.933913 0.363830 0.061305
0.972556 0.334325 0.116780
1.000000 0.314884 0.171554
1.000000 0.336314 0.210854
1.000000 0.363954 0.250094
1.000000 0.408527 0.295218
1.000000 0.457803 0.350094
1.000000 0.509358 0.394741
1.000000 0.578029 0.455336
1.000000 0.642487 0.515956
1.000000 0.697923 0.569404
0.000000 0.533147 0.000000
0.000000 0.538690 0.000000
0.000000 0.546843 0.000000
0.000000 0.549511 0.000000
0.000000 0.554543 0.000000
0.000000 0.557527 0.000000
0.000000 0.560093 0.000000
0.000000 0.563890 0.000000
0.000000 0.571768 0.000000
0.000000 0.576405 0.000000
0.000000 0.579251 0.000000
0.000000 0.583991 0.000000
0.000000 0.590971 0.000000
0.000000 0.588531 0.000000
0.000000 0.593759 0.000000
0.255504 0.592779 0.000000
0.446988 0.588179 0.000000
0.605862 0.578559 0.000000
0.698061 0.546782 0.000000
0.767672 0.524317 0.000000
0.836674 0.501313 0.000000
0.888902 0.484678 0.000000
0.932516 0.461808 0.000000
0.968539 0.433321 0.112230
1.000000 0.407759 0.168544
1.000000 0.394328 0.211342
1.000000 0.405465 0.248951
1.000000 0.441886 0.300340
1.000000 0.482174 0.351354
1.000000 0.532934 0.396541
1.000000 0.591630 0.458159
1.000000 0.651442 0.518559
1.000000 0.703135 0.572227
0.000000 0.598670 0.000000
0.000000 0.600762 0.000000
0.000000 0.605919 0.000000
0.000000 0.608066 0.000000
0.000000 0.613283 0.000000
0.000000 0.614992 0.000000
0.000000 0.623311 0.000000
0.000000 0.630123 0.000000
0.000000 0.633946 0.000000
0.000000 0.638084 0.000000
0.000000 0.641382 0.000000
0.000000 0.646681 0.000000
0.000000 0.651256 0.000000
0.000000 0.651528 0.000000
0.000000 0.654982 0.000000
0.000000 0.652944 0.000000
0.346113 0.651418 0.000000
0.524872 0.649696 0.000000
0.669170 0.640200 0.000000
0.762755 0.605540 0.000000
0.831858 0.582073 0.000000
0.886426 0.558929 0.000000
0.927515 0.548396 0.000000
0.964871 0.526893 0.087313
0.999016 0.500632 0.168856
1.000000 0.480140 0.213666
1.000000 0.464494 0.250470
1.000000 0.481261 0.299981
1.000000 0.513743 0.355157
1.000000 0.559999 0.403668
1.000000 0.613779 0.459950
1.000000 0.663230 0.518292
1.000000 0.710983 0.578009
0.000000 0.668896 0.000000
0.000000 0.670885 0.000000
0.000000 0.675694 0.000000
0.000000 0.677975 0.000000
0.000000 0.682305 0.000000
0.000000 0.683333 0.000000
0.000000 0.687677 0.000000
0.000000 0.689757 0.000000
0.000000 0.693170 0.000000
0.000000 0.696618 0.000000
0.000000 0.701709 0.000000
0.000000 0.709043 0.000000
0.000000 0.713786 0.000000
0.000000 0.717909 0.000000
0.000000 0.721381 0.000000
0.000000 0.719893 0.000000
0.161818 0.719094 0.000000
0.428614 0.715234 0.000000
0.589144 0.711138 0.000000
0.726873 0.701886 0.000000
0.820515 0.669993 0.000000
0.876044 0.647398 0.000000
0.919069 0.634388 0.000000
0.954416 0.619868 0.043241
0.988364 0.597741 0.164323
1.000000 0.571129 0.222233
1.000000 0.548626 0.263050
1.000000 0.534683 0.303570
1.000000 0.558943 0.360974
1.000000 0.590257 0.407985
1.000000 0.633138 0.462175
1.000000 0.677445 0.520673
1.000000 0.718832 0.581086
0.000000 0.726186 0.081328
0.000000 0.733693 0.075671
0.000000 0.734433 0.076120
0.000000 0.735423 0.068873
0.000000 0.739253 0.065525
0.000000 0.739994 0.043040
0.000000 0.740983 0.000000
0.000000 0.745759 0.000000
0.000000 0.747972 0.000000
0.000000 0.750429 0.000000
0.000000 0.753618 0.000000
0.000000 0.757761 0.000000
0.000000 0.764052 0.000000
0.000000 0.768125 0.000000
0.000000 0.772007 0.000000
0.000000 0.774347 0.000000
0.000000 0.772393 0.000000
0.334746 0.769952 0.000000
0.516869 0.770666 0.000000
0.651837 0.764643 0.000000
0.776816 0.755636 0.000000
0.860857 0.724586 0.000000
0.908989 0.708207 0.000000
0.943567 0.695947 0.000000
0.976491 0.681067 0.160223
1.000000 0.662969 0.226517
1.000000 0.644068 0.270837
1.000000 0.629552 0.314710
1.000000 0.617934 0.372256
1.000000 0.630785 0.415182
1.000000 0.658343 0.464401
1.000000 0.694882 0.526605
1.000000 0.730800 0.583720
0.000000 0.784899 0.172316
0.000000 0.785343 0.168935
0.000000 0.786004 0.169411
0.000000 0.786885 0.170052
0.000000 0.790230 0.162181
0.000000 0.790885 0.162682
0.000000 0.791760 0.159471
0.000000 0.793066 0.160509
0.000000 0.796775 0.152580
0.000000 0.798278 0.149751
0.000000 0.803175 0.146840
0.000000 0.805462 0.149100
0.000000 0.808718 0.152520
0.000000 0.813977 0.142257
0.000000 0.814212 0.116211
0.000000 0.817181 0.108841
0.000000 0.820627 0.065927
0.000000 0.820073 0.000000
0.420315 0.814546 0.000000
0.589953 0.811784 0.000000
0.722005 0.805120 0.000000
0.831833 0.796759 0.000000
0.895104 0.771685 0.000000
0.932110 0.758353 0.000000
0.964327 0.748091 0.168247
0.990907 0.734348 0.228453
1.000000 0.717475 0.274964
1.000000 0.696149 0.333640
1.000000 0.687605 0.389257
1.000000 0.676144 0.427856
1.000000 0.688703 0.475295
1.000000 0.711343 0.532351
1.000000 0.745450 0.590010
0.000000 0.829837 0.246930
0.000000 0.830021 0.247132
0.000000 0.830757 0.247946
0.000000 0.830948 0.241427
0.000000 0.831496 0.242043
0.000000 0.833878 0.242084
0.000000 0.834421 0.239326
0.000000 0.835136 0.240169
0.000000 0.836031 0.234427
0.000000 0.838871 0.231724
0.000000 0.840077 0.229824
0.000000 0.845905 0.231891
0.000000 0.850031 0.227941
0.000000 0.854139 0.231359
0.000000 0.855227 0.223148
0.000000 0.853897 0.216020
0.000000 0.855460 0.208542
0.000000 0.855578 0.197577
0.317059 0.853715 0.178993
0.523590 0.848301 0.173561
0.660822 0.846839 0.145816
0.787483 0.840153 0.150306
0.869406 0.833188 0.133815
0.914402 0.815810 0.110585
0.951486 0.802525 0.183236
0.980330 0.790417 0.244035
1.000000 0.778592 0.290641
1.000000 0.765218 0.343374
1.000000 0.750147 0.405896
1.000000 0.734299 0.447437
1.000000 0.728107 0.489804
1.000000 0.739230 0.537817
1.000000 0.763483 0.599067
0.000000 0.868001 0.333044
0.000000 0.868153 0.333289
0.000000 0.868458 0.333779
0.000000 0.868918 0.331152
0.000000 0.869069 0.331399
0.000000 0.871072 0.331774
0.000000 0.871370 0.332273
0.000000 0.872118 0.326784
0.000000 0.872556 0.327544
0.000000 0.875234 0.325855
0.000000 0.875939 0.323769
0.000000 0.878673 0.319016
0.000000 0.879836 0.321428
0.000000 0.882304 0.319886
0.000000 0.885017 0.322622
0.000000 0.886504 0.320130
0.000000 0.885184 0.310625
0.000000 0.887205 0.307738
0.146591 0.886096 0.294364
0.449216 0.883607 0.274474
0.612274 0.878161 0.273327
0.744042 0.874155 0.256431
0.833436 0.869224 0.262727
0.899212 0.863131 0.245906
0.937096 0.850218 0.234531
0.967647 0.835907 0.259867
0.989756 0.827455 0.309668
1.000000 0.817497 0.364983
1.000000 0.808648 0.419673
1.000000 0.789393 0.469546
1.000000 0.780612 0.505062
1.000000 0.774182 0.553377
1.000000 0.784259 0.608587
0.000000 0.904520 0.402619
0.000000 0.904633 0.402886
0.000000 0.904871 0.396863
0.000000 0.904981 0.397132
0.000000 0.905202 0.397671
0.000000 0.906678 0.397968
0.000000 0.906892 0.398511
0.000000 0.907110 0.395779
