Assets/Lutify-Free-LUTs-Pack/Lutify Free LUTs Pack/Colour Film Boost Pro - Film Boost 10/Lutify.me-FilmBoost10-CanonLog3-to-Rec709.cube
# Created with: fylm.ai - Colour Grading and Collaboration Software in Cloud 
# Website: https://fylm.ai 
# META
# Option: Gamut compress
# Block 1: IDT | CanonLog3 Cinema Gamut Daylight
# Block 2: colourMatch | Blending Mode: Normal | {"ColorSpace":0,"CrossCovarianceLimit":50,"ReshapingIterations":1,"PercentSaturationShift":100,"PercentShadingShift":100,"ExtraShading":true,"PercentTint":100,"PercentModified":100}
# Block 3: subtractiveColour | Blending Mode: Normal | {"sliders":{"gainY":0.55,"C":0.3,"M":0.3,"Y":0.3}}
# Block 4: LUT | Filmic Curve Response: Low Contrast 2 (100%)
# Block 5: logPrimaries | Blending Mode: Normal | {"wheels":{"shadows":{"Y":"0","R":"1","G":"1","B":"1"},"midtones":{"Y":"0","R":"1","G":"1","B":"1"},"highlights":{"Y":"0","R":"1","G":"1","B":"1"},"offset":{"Y":"0","R":"1","G":"1","B":"1"}},"sliders":{"shadows":{"Y":0,"R":-0.085,"G":0.024,"B":0.134},"midtones":{"Y":0,"R":0,"G":-0.023,"B":0},"highlights":{"Y":0,"R":0,"G":0,"B":0},"offset":{"Y":0,"R":0.012,"G":-0.012,"B":0}}}
# Block 6: HSL | Blending Mode: Normal | {"hue":{"Reds":0,"Yellows":0,"Greens":0,"Cyans":0,"Blues":0,"Magentas":0},"saturation":{"Reds":1,"Yellows":1,"Greens":1,"Cyans":1,"Blues":1,"Magentas":1},"luminance":{"Reds":0.9,"Yellows":0.9,"Greens":0.9,"Cyans":0.9,"Blues":0.9,"Magentas":0.9},"lum_sat":{"Blacks":1,"Shadows":1,"Midtones":1,"Highlights":1,"Whites":1},"sat_sat":{"10":1,"20":1,"30":1,"40":1,"50":1}}
# Block 7: ODT | Rec709
TITLE "Lutify.me-FilmBoost10-CanonLog3-to-Rec709" 
LUT_3D_SIZE 5
0.000000 0.000000 0.000000
0.189416 0.000000 0.000000
0.511603 0.000000 0.000000
0.943063 0.000000 0.086498
1.000000 0.374449 0.356419
0.000000 0.183183 0.000000
0.285310 0.175032 0.000000
0.633495 0.000000 0.000000
0.952842 0.000000 0.072750
1.000000 0.403184 0.355583
0.000000 0.449578 0.000000
0.000000 0.503124 0.000000
0.727872 0.408261 0.000000
0.961728 0.311806 0.000000
1.000000 0.467535 0.344562
0.000000 0.776979 0.000000
0.000000 0.779073 0.000000
0.590227 0.763691 0.000000
0.972540 0.676923 0.000000
1.000000 0.718955 0.260646
0.397992 0.938337 0.000000
0.459728 0.936949 0.000000
0.615829 0.932121 0.000000
0.896469 0.918231 0.000000
1.000000 0.874427 0.000000
0.000000 0.000000 0.138631
0.163187 0.000000 0.049821
0.461374 0.000000 0.017088
0.952330 0.000000 0.155622
1.000000 0.373722 0.381085
0.000000 0.127597 0.246687
0.172955 0.206013 0.229342
0.603766 0.000000 0.097920
0.961883 0.000000 0.158748
1.000000 0.399052 0.380478
0.000000 0.430685 0.000000
0.000000 0.525758 0.000000
0.656609 0.483618 0.000000
0.970415 0.344237 0.099666
1.000000 0.467133 0.371964
0.000000 0.774595 0.000000
0.000000 0.776878 0.000000
0.573981 0.764390 0.000000
0.973241 0.673739 0.000000
1.000000 0.725714 0.306324
0.380954 0.938671 0.000000
0.452468 0.937127 0.000000
0.610789 0.932308 0.000000
0.894619 0.918344 0.000000
1.000000 0.874427 0.000000
0.000000 0.000000 0.337881
0.077678 0.000000 0.165941
0.453767 0.000000 0.084391
0.923384 0.000000 0.307210
1.000000 0.369581 0.449151
0.000000 0.000000 0.467281
0.000000 0.000000 0.412048
0.528416 0.000000 0.297165
0.957558 0.000000 0.357142
1.000000 0.396937 0.452810
0.000000 0.345199 0.623067
0.000000 0.487222 0.597144
0.631258 0.614496 0.640745
0.986129 0.332166 0.418110
1.000000 0.465017 0.454368
0.000000 0.832891 0.318483
0.000000 0.854824 0.307974
0.000000 0.865915 0.272307
0.916133 0.831585 0.211203
1.000000 0.733851 0.439775
0.353734 0.939163 0.000000
0.437596 0.937479 0.000000
0.601872 0.930718 0.000000
0.893877 0.916444 0.000000
1.000000 0.873136 0.000000
0.000000 0.000000 0.567479
0.000000 0.000000 0.289051
0.393712 0.000000 0.241236
0.783426 0.000000 0.143894
1.000000 0.236285 0.656479
0.000000 0.000000 0.655738
0.000000 0.000000 0.547304
0.345040 0.000000 0.446135
0.783426 0.000000 0.143894
1.000000 0.288815 0.667928
0.000000 0.121153 0.807365
0.000000 0.211289 0.770550
0.203082 0.262715 0.806971
0.974063 0.000000 0.720286
1.000000 0.414757 0.701666
0.000000 0.604237 0.872393
0.000000 0.731033 0.844359
0.000000 0.848593 0.867339
0.885627 0.873708 0.879163
1.000000 0.741617 0.751972
0.000000 0.981336 0.710167
0.000000 0.980887 0.707532
0.249737 0.981414 0.707344
0.748122 0.973965 0.688273
0.988720 0.960872 0.669438
0.000000 0.000000 0.455982
0.000000 0.000000 0.441612
0.348917 0.000000 0.433682
0.716527 0.000000 0.333836
1.000000 0.000000 0.235847
0.000000 0.000000 0.455982
0.000000 0.000000 0.441617
0.348917 0.000000 0.433682
0.716527 0.000000 0.333836
1.000000 0.000000 0.235847
0.000000 0.087163 0.888324
0.000000 0.115382 0.894608
0.000000 0.129849 0.901174
0.754754 0.000000 0.875673
1.000000 0.000000 0.235847
0.000000 0.394555 0.950528
0.000000 0.472183 0.947377
0.000000 0.547187 0.953198
0.663536 0.599699 0.954571
1.000000 0.493010 0.922846
0.000000 0.835225 0.978034
0.000000 0.892841 0.964735
0.000000 0.958872 0.965048
0.522821 0.971935 0.968312
0.970034 0.974220 0.968328
