Assets/Lutify-Free-LUTs-Pack/Lutify Free LUTs Pack/Colour Film Boost Pro - Film Boost 10/Lutify.me-FilmBoost10-CanonLog3-to-Rec709.cube
# Created with: fylm.ai - Colour Grading and Collaboration Software in Cloud 
# Website: https://fylm.ai 
# META
# Option: Gamut compress
# Block 1: IDT | CanonLog3 Cinema Gamut Daylight
# Block 2: colourMatch | Blending Mode: Normal | {"ColorSpace":0,"CrossCovarianceLimit":50,"ReshapingIterations":1,"PercentSaturationShift":100,"PercentShadingShift":100,"ExtraShading":true,"PercentTint":100,"PercentModified":100}
# Block 3: subtractiveColour | Blending Mode: Normal | {"sliders":{"gainY":0.55,"C":0.3,"M":0.3,"Y":0.3}}
# Block 4: LUT | Filmic Curve Response: Low Contrast 2 (100%)
# Block 5: logPrimaries | Blending Mode: Normal | {"wheels":{"shadows":{"Y":"0","R":"1","G":"1","B":"1"},"midtones":{"Y":"0","R":"1","G":"1","B":"1"},"highlights":{"Y":"0","R":"1","G":"1","B":"1"},"offset":{"Y":"0","R":"1","G":"1","B":"1"}},"sliders":{"shadows":{"Y":0,"R":-0.085,"G":0.024,"B":0.134},"midtones":{"Y":0,"R":0,"G":-0.023,"B":0},"highlights":{"Y":0,"R":0,"G":0,"B":0},"offset":{"Y":0,"R":0.012,"G":-0.012,"B":0}}}
# Block 6: HSL | Blending Mode: Normal | {"hue":{"Reds":0,"Yellows":0,"Greens":0,"Cyans":0,"Blues":0,"Magentas":0},"saturation":{"Reds":1,"Yellows":1,"Greens":1,"Cyans":1,"Blues":1,"Magentas":1},"luminance":{"Reds":0.9,"Yellows":0.9,"Greens":0.9,"Cyans":0.9,"Blues":0.9,"Magentas":0.9},"lum_sat":{"Blacks":1,"Shadows":1,"Midtones":1,"Highlights":1,"Whites":1},"sat_sat":{"10":1,"20":1,"30":1,"40":1,"50":1}}
# Block 7: ODT | Rec709
TITLE "Lutify.me-FilmBoost10-CanonLog3-to-Rec709" 
LUT_3D_SIZE 9
0.000000 0.000000 0.000000
0.000000 0.000000 0.000000
0.189416 0.000000 0.000000
0.328310 0.000000 0.000000
0.511603 0.000000 0.000000
0.732231 0.000000 0.000000
0.943063 0.000000 0.086498
1.000000 0.000000 0.205601
1.000000 0.374449 0.356419
0.000000 0.058406 0.000000
0.000000 0.058992 0.000000
0.234164 0.000000 0.000000
0.400496 0.000000 0.000000
0.595962 0.000000 0.000000
0.746827 0.000000 0.000000
0.947377 0.000000 0.082955
1.000000 0.000000 0.202610
1.000000 0.389438 0.356253
0.000000 0.183183 0.000000
0.000000 0.200712 0.000000
0.285310 0.175032 0.000000
0.459560 0.000000 0.000000
0.633495 0.000000 0.000000
0.760262 0.000000 0.000000
0.952842 0.000000 0.072750
1.000000 0.093494 0.201510
1.000000 0.403184 0.355583
0.000000 0.300262 0.000000
0.000000 0.343684 0.000000
0.181604 0.343985 0.000000
0.518310 0.280169 0.000000
0.688297 0.166209 0.000000
0.815578 0.000000 0.000000
0.958575 0.000000 0.000000
1.000000 0.206869 0.195064
1.000000 0.424131 0.354775
0.000000 0.449578 0.000000
0.000000 0.496305 0.000000
0.000000 0.503124 0.000000
0.474379 0.488593 0.000000
0.727872 0.408261 0.000000
0.877776 0.303952 0.000000
0.961728 0.311806 0.000000
1.000000 0.340861 0.172634
1.000000 0.467535 0.344562
0.000000 0.642850 0.000000
0.000000 0.648072 0.000000
0.000000 0.652812 0.000000
0.233314 0.649269 0.000000
0.709153 0.627255 0.000000
0.889859 0.549462 0.000000
0.989544 0.478200 0.000000
1.000000 0.541874 0.000000
1.000000 0.563804 0.325621
0.000000 0.776979 0.000000
0.000000 0.778083 0.000000
0.000000 0.779073 0.000000
0.000000 0.775597 0.000000
0.590227 0.763691 0.000000
0.860538 0.741025 0.000000
0.972540 0.676923 0.000000
1.000000 0.610918 0.000000
1.000000 0.718955 0.260646
0.000000 0.876609 0.000000
0.000000 0.875627 0.000000
0.000000 0.874162 0.000000
0.223401 0.876254 0.000000
0.512517 0.867370 0.000000
0.786764 0.855378 0.000000
0.940562 0.839046 0.000000
1.000000 0.791527 0.000000
1.000000 0.773980 0.000000
0.397992 0.938337 0.000000
0.437596 0.937479 0.000000
0.459728 0.936949 0.000000
0.520514 0.935302 0.000000
0.615829 0.932121 0.000000
0.758348 0.925919 0.000000
0.896469 0.918231 0.000000
0.988448 0.902859 0.000000
1.000000 0.874427 0.000000
0.000000 0.000000 0.045106
0.000000 0.000000 0.028214
0.174270 0.000000 0.000000
0.311693 0.000000 0.000000
0.469590 0.000000 0.000000
0.732942 0.000000 0.053832
0.948650 0.000000 0.120581
1.000000 0.000000 0.225923
1.000000 0.375677 0.367131
0.000000 0.000000 0.002729
0.000000 0.000000 0.000000
0.187413 0.000000 0.000000
0.350216 0.000000 0.000000
0.551912 0.000000 0.015606
0.765099 0.000000 0.056909
0.953317 0.000000 0.120955
1.000000 0.000000 0.228296
1.000000 0.390961 0.369701
0.000000 0.165395 0.000000
0.000000 0.177460 0.000000
0.257697 0.165049 0.000000
0.419530 0.045509 0.000000
0.589505 0.000000 0.000000
0.774019 0.000000 0.045890
0.961918 0.000000 0.118291
1.000000 0.092358 0.227391
1.000000 0.397838 0.369388
0.000000 0.292642 0.000000
0.000000 0.328536 0.000000
0.149548 0.333621 0.000000
0.506106 0.270073 0.000000
0.646950 0.204770 0.000000
0.804951 0.052935 0.000000
0.969582 0.000000 0.105322
1.000000 0.212666 0.224451
1.000000 0.422233 0.368477
0.000000 0.439003 0.000000
0.000000 0.490585 0.000000
0.000000 0.497597 0.000000
0.468704 0.482982 0.000000
0.725195 0.398951 0.000000
0.838183 0.365428 0.000000
0.964692 0.345593 0.000000
1.000000 0.345577 0.203356
1.000000 0.465948 0.360870
0.000000 0.639888 0.000000
0.000000 0.648206 0.000000
0.000000 0.649968 0.000000
0.219074 0.646470 0.000000
0.706169 0.624342 0.000000
0.887892 0.546388 0.000000
0.954347 0.532580 0.000000
1.000000 0.550581 0.124097
1.000000 0.565841 0.344382
0.000000 0.777078 0.000000
0.000000 0.775720 0.000000
0.000000 0.776800 0.000000
0.000000 0.775724 0.000000
0.584843 0.763926 0.000000
0.861530 0.738186 0.000000
0.972540 0.676923 0.000000
1.000000 0.684936 0.000000
1.000000 0.720859 0.281890
0.000000 0.876712 0.000000
0.000000 0.875741 0.000000
0.000000 0.874291 0.000000
0.216519 0.873220 0.000000
0.512517 0.867370 0.000000
0.786764 0.855378 0.000000
0.940562 0.839046 0.000000
1.000000 0.791597 0.000000
1.000000 0.817000 0.000000
0.380954 0.938671 0.000000
0.429971 0.937653 0.000000
0.459728 0.936949 0.000000
0.514167 0.935487 0.000000
0.615829 0.932121 0.000000
0.758348 0.925919 0.000000
0.894619 0.918344 0.000000
0.988448 0.902859 0.000000
1.000000 0.874427 0.000000
0.000000 0.000000 0.138631
0.000000 0.000000 0.081564
0.163187 0.000000 0.049821
0.311894 0.000000 0.032305
0.461374 0.000000 0.017088
0.719739 0.000000 0.090215
0.952330 0.000000 0.155622
1.000000 0.000000 0.244120
1.000000 0.373722 0.381085
0.000000 0.000000 0.136612
0.000000 0.000000 0.108624
0.162149 0.000000 0.067692
0.323544 0.000000 0.069854
0.544887 0.000000 0.080902
0.771744 0.000000 0.104583
0.960611 0.000000 0.158093
1.000000 0.000000 0.247005
1.000000 0.388736 0.380928
0.000000 0.127597 0.246687
0.000000 0.139603 0.236533
0.172955 0.206013 0.229342
0.425295 0.042255 0.139072
0.603766 0.000000 0.097920
0.791302 0.000000 0.108942
0.961883 0.000000 0.158748
1.000000 0.087431 0.245699
1.000000 0.399052 0.380478
0.000000 0.297420 0.159924
0.000000 0.332319 0.111264
0.000000 0.396171 0.032308
0.441186 0.376122 0.000000
0.658962 0.258729 0.000000
0.826090 0.044848 0.091206
0.974343 0.000000 0.151387
1.000000 0.206007 0.245384
1.000000 0.423735 0.382401
0.000000 0.430685 0.000000
0.000000 0.512013 0.000000
0.000000 0.525758 0.000000
0.214874 0.537311 0.000000
0.656609 0.483618 0.000000
0.843924 0.423838 0.000000
0.970415 0.344237 0.099666
1.000000 0.346509 0.236524
1.000000 0.467133 0.371964
0.000000 0.636920 0.000000
0.000000 0.645269 0.000000
0.000000 0.647073 0.000000
0.191862 0.643808 0.000000
0.703185 0.621430 0.000000
0.888358 0.542952 0.000000
0.947391 0.595201 0.000000
1.000000 0.555737 0.171903
1.000000 0.564288 0.361344
0.000000 0.774595 0.000000
0.000000 0.775880 0.000000
0.000000 0.776878 0.000000
0.000000 0.776098 0.000000
0.573981 0.764390 0.000000
0.861530 0.738186 0.000000
0.973241 0.673739 0.000000
1.000000 0.723533 0.000000
1.000000 0.725714 0.306324
0.000000 0.876814 0.000000
0.000000 0.875854 0.000000
0.000000 0.874546 0.000000
0.216519 0.873220 0.000000
0.506088 0.867570 0.000000
0.783452 0.855564 0.000000
0.940562 0.839046 0.000000
1.000000 0.791597 0.000000
1.000000 0.835889 0.000000
0.380954 0.938671 0.000000
0.429971 0.937653 0.000000
0.452468 0.937127 0.000000
0.514167 0.935487 0.000000
0.610789 0.932308 0.000000
0.758348 0.925919 0.000000
0.894619 0.918344 0.000000
0.988448 0.902859 0.000000
1.000000 0.874427 0.000000
0.000000 0.000000 0.235040
0.000000 0.000000 0.134620
0.133221 0.000000 0.103141
0.305006 0.000000 0.066196
0.467986 0.000000 0.047441
0.691315 0.000000 0.147251
0.939724 0.000000 0.211687
1.000000 0.000000 0.286547
1.000000 0.373001 0.406775
0.000000 0.000000 0.231990
0.000000 0.000000 0.184351
0.124633 0.000000 0.147309
0.305639 0.000000 0.079553
0.494525 0.000000 0.140510
0.751704 0.000000 0.195750
0.955905 0.000000 0.224829
1.000000 0.000000 0.289200
1.000000 0.383450 0.406378
0.000000 0.036419 0.360475
0.000000 0.042794 0.339958
0.000000 0.071922 0.331507
0.396767 0.000000 0.273480
0.585156 0.000000 0.231451
0.788681 0.000000 0.215675
0.965345 0.000000 0.229787
1.000000 0.000000 0.289404
1.000000 0.398358 0.406182
0.000000 0.230130 0.445734
0.000000 0.252067 0.425207
0.000000 0.367498 0.432451
0.406209 0.416443 0.442279
0.674724 0.272307 0.324187
0.836390 0.000000 0.237656
0.974725 0.000000 0.238793
1.000000 0.197315 0.289733
1.000000 0.422572 0.408068
0.000000 0.435621 0.398469
0.000000 0.503583 0.330861
0.000000 0.559726 0.318240
0.000000 0.614341 0.299578
0.666146 0.589877 0.267888
0.855321 0.470616 0.205185
0.981449 0.352471 0.225354
1.000000 0.341119 0.284473
1.000000 0.467047 0.403488
0.000000 0.666783 0.052241
0.000000 0.709562 0.000000
0.000000 0.727629 0.000000
0.000000 0.738423 0.000000
0.468126 0.736225 0.000000
0.829900 0.687819 0.000000
0.953324 0.638099 0.057036
1.000000 0.555072 0.257242
1.000000 0.563925 0.390199
0.000000 0.782812 0.000000
0.000000 0.782110 0.000000
0.000000 0.783559 0.000000
0.000000 0.783150 0.000000
0.470105 0.773119 0.000000
0.847830 0.747978 0.000000
0.971703 0.673913 0.000000
1.000000 0.758918 0.000000
1.000000 0.732416 0.355090
0.000000 0.875499 0.000000
0.000000 0.874459 0.000000
0.000000 0.874918 0.000000
0.156826 0.873676 0.000000
0.499590 0.867769 0.000000
0.780097 0.855751 0.000000
0.938125 0.837613 0.000000
1.000000 0.791597 0.000000
1.000000 0.852171 0.000000
0.372123 0.938836 0.000000
0.422208 0.937826 0.000000
0.452468 0.937127 0.000000
0.507720 0.935673 0.000000
0.610789 0.932308 0.000000
0.755097 0.926080 0.000000
0.894619 0.918344 0.000000
0.988448 0.902859 0.000000
1.000000 0.873136 0.000000
0.000000 0.000000 0.337881
0.000000 0.000000 0.192486
0.077678 0.000000 0.165941
0.285125 0.000000 0.123473
0.453767 0.000000 0.084391
0.630391 0.000000 0.062548
0.923384 0.000000 0.307210
1.000000 0.000000 0.363189
1.000000 0.369581 0.449151
0.000000 0.000000 0.320793
0.000000 0.000000 0.244412
0.047449 0.000000 0.201600
0.286540 0.000000 0.134157
0.453767 0.000000 0.084391
0.691537 0.000000 0.251224
0.941077 0.000000 0.340243
1.000000 0.000000 0.367120
1.000000 0.381667 0.452393
0.000000 0.000000 0.467281
0.000000 0.000000 0.433314
0.000000 0.000000 0.412048
0.290772 0.000000 0.393871
0.528416 0.000000 0.297165
0.754217 0.000000 0.333668
0.957558 0.000000 0.357142
1.000000 0.000000 0.373541
1.000000 0.396937 0.452810
0.000000 0.132852 0.569188
0.000000 0.149784 0.544728
0.000000 0.213902 0.537913
0.222627 0.244652 0.568814
0.664990 0.092897 0.525050
0.821952 0.000000 0.416817
0.972139 0.000000 0.386474
1.000000 0.190851 0.381360
1.000000 0.419314 0.452751
0.000000 0.345199 0.623067
0.000000 0.377134 0.600275
0.000000 0.487222 0.597144
0.000000 0.597047 0.630926
0.631258 0.614496 0.640745
0.856458 0.487691 0.528967
0.986129 0.332166 0.418110
1.000000 0.352569 0.390474
1.000000 0.465017 0.454368
0.000000 0.621265 0.552081
0.000000 0.690027 0.526621
0.000000 0.721490 0.528647
0.000000 0.752805 0.526886
0.397824 0.782020 0.523450
0.814147 0.760839 0.490224
0.951430 0.672699 0.394179
1.000000 0.565749 0.392417
1.000000 0.563337 0.453337
0.000000 0.832891 0.318483
0.000000 0.846582 0.308372
0.000000 0.854824 0.307974
0.000000 0.865731 0.300915
0.000000 0.865915 0.272307
0.692243 0.854604 0.242595
0.916133 0.831585 0.211203
0.997923 0.787365 0.312150
1.000000 0.733851 0.439775
0.000000 0.906198 0.000000
0.000000 0.905034 0.000000
0.000000 0.904213 0.000000
0.000000 0.906229 0.000000
0.000000 0.904483 0.000000
0.555714 0.898573 0.000000
0.855637 0.881532 0.000000
0.979663 0.835484 0.000000
1.000000 0.869550 0.310781
0.353734 0.939163 0.000000
0.397992 0.938337 0.000000
0.437596 0.937479 0.000000
0.487742 0.936226 0.000000
0.601872 0.930718 0.000000
0.753062 0.924251 0.000000
0.893877 0.916444 0.000000
0.987924 0.901849 0.000000
1.000000 0.873136 0.000000
0.000000 0.000000 0.452955
0.000000 0.000000 0.250192
0.025479 0.000000 0.225626
0.239160 0.000000 0.212525
0.429921 0.000000 0.148415
0.617532 0.000000 0.111798
0.818857 0.000000 0.257408
1.000000 0.000000 0.491268
1.000000 0.338625 0.535881
0.000000 0.000000 0.424906
0.000000 0.000000 0.273544
0.000000 0.000000 0.233205
0.235736 0.000000 0.211152
0.429577 0.000000 0.146189
0.617532 0.000000 0.111798
0.878211 0.000000 0.393222
1.000000 0.000000 0.501031
1.000000 0.359168 0.536621
0.000000 0.000000 0.570513
0.000000 0.000000 0.510867
0.000000 0.000000 0.502797
0.110557 0.000000 0.480496
0.493152 0.000000 0.418618
0.618812 0.000000 0.197035
0.923606 0.000000 0.451716
1.000000 0.000000 0.518922
1.000000 0.374796 0.540241
0.000000 0.000000 0.661679
0.000000 0.069628 0.618686
0.000000 0.110478 0.613835
0.000000 0.131293 0.633718
0.519629 0.000000 0.617204
0.794741 0.000000 0.534129
0.954794 0.000000 0.526128
1.000000 0.000000 0.535365
1.000000 0.410358 0.547601
0.000000 0.231656 0.736486
0.000000 0.266342 0.711808
0.000000 0.342996 0.701289
0.000000 0.394331 0.728832
0.456800 0.446417 0.752253
0.863339 0.351882 0.715659
0.981559 0.222526 0.609236
1.000000 0.314035 0.560849
1.000000 0.463933 0.552546
0.000000 0.471778 0.772594
0.000000 0.502958 0.760697
0.000000 0.613768 0.743147
0.000000 0.700075 0.767520
0.114757 0.764728 0.782465
0.783591 0.771080 0.790202
0.940063 0.687866 0.705369
1.000000 0.558746 0.591219
1.000000 0.565957 0.559842
0.000000 0.814785 0.703492
0.000000 0.833886 0.709687
0.000000 0.844338 0.709154
0.000000 0.857900 0.712303
0.000000 0.875130 0.714397
0.658907 0.878514 0.704187
0.897626 0.866220 0.687082
0.990256 0.806413 0.582121
1.000000 0.740037 0.555957
0.000000 0.932099 0.527999
0.000000 0.933907 0.525019
0.000000 0.934428 0.518229
0.000000 0.937190 0.521470
0.000000 0.941047 0.520423
0.549649 0.934529 0.502867
0.831339 0.925162 0.482889
0.964504 0.912719 0.461946
1.000000 0.885367 0.527559
0.000000 0.971467 0.095847
0.000000 0.971105 0.096439
0.000000 0.970482 0.085111
0.000000 0.969369 0.080451
0.334468 0.966517 0.000000
0.558825 0.964490 0.059153
0.762439 0.956756 0.000000
0.926091 0.945732 0.000000
1.000000 0.923110 0.000000
0.000000 0.000000 0.567479
0.000000 0.000000 0.302612
0.000000 0.000000 0.289051
0.195470 0.000000 0.280043
0.393712 0.000000 0.241236
0.594878 0.000000 0.183359
0.783426 0.000000 0.143894
1.000000 0.000000 0.506669
1.000000 0.236285 0.656479
0.000000 0.000000 0.567479
0.000000 0.000000 0.302613
0.000000 0.000000 0.287188
0.195470 0.000000 0.280043
0.393712 0.000000 0.241236
0.594878 0.000000 0.183359
0.783426 0.000000 0.143894
1.000000 0.000000 0.550656
1.000000 0.266655 0.660602
0.000000 0.000000 0.655738
0.000000 0.000000 0.565493
0.000000 0.000000 0.547304
0.000000 0.000000 0.518548
0.345040 0.000000 0.446135
0.590208 0.000000 0.197529
0.783426 0.000000 0.143894
1.000000 0.000000 0.589778
1.000000 0.288815 0.667928
0.000000 0.000000 0.754381
0.000000 0.020625 0.698603
0.000000 0.061923 0.701997
0.000000 0.076380 0.716881
0.307688 0.000000 0.698626
0.739700 0.000000 0.673203
0.876618 0.000000 0.491386
1.000000 0.000000 0.632024
1.000000 0.335495 0.679462
0.000000 0.121153 0.807365
0.000000 0.175153 0.767661
0.000000 0.211289 0.770550
0.000000 0.244053 0.790452
0.203082 0.262715 0.806971
0.754759 0.159572 0.785910
0.974063 0.000000 0.720286
1.000000 0.077989 0.704055
1.000000 0.414757 0.701666
0.000000 0.356007 0.853977
0.000000 0.397401 0.836966
0.000000 0.476633 0.827726
0.000000 0.541760 0.841184
0.000000 0.606012 0.850345
0.665381 0.646685 0.860355
0.961916 0.580941 0.839762
1.000000 0.463714 0.765266
1.000000 0.536389 0.720953
0.000000 0.604237 0.872393
0.000000 0.620582 0.866570
0.000000 0.731033 0.844359
0.000000 0.802056 0.857329
0.000000 0.848593 0.867339
0.562370 0.873740 0.874809
0.885627 0.873708 0.879163
0.977454 0.819551 0.825263
1.000000 0.741617 0.751972
0.000000 0.924753 0.830272
0.000000 0.928274 0.830539
0.000000 0.930755 0.829394
0.000000 0.934717 0.828079
0.000000 0.939024 0.827251
0.423938 0.941208 0.826197
0.805932 0.938699 0.824882
0.948079 0.929939 0.814794
1.000000 0.895379 0.752330
0.000000 0.981336 0.710167
0.000000 0.981127 0.708845
0.000000 0.980887 0.707532
0.000000 0.982083 0.705320
0.249737 0.981414 0.707344
0.527872 0.980677 0.703349
0.748122 0.973965 0.688273
0.906671 0.966851 0.677391
0.988720 0.960872 0.669438
0.000000 0.000000 0.487411
0.000000 0.000000 0.372552
0.000000 0.000000 0.360466
0.162998 0.000000 0.357204
0.379124 0.000000 0.354699
0.556308 0.000000 0.288736
0.760806 0.000000 0.222406
0.944000 0.000000 0.185216
1.000000 0.000000 0.701463
0.000000 0.000000 0.499070
0.000000 0.000000 0.372553
0.000000 0.000000 0.360474
0.162998 0.000000 0.357204
0.379124 0.000000 0.354699
0.556308 0.000000 0.288736
0.760806 0.000000 0.222406
0.944023 0.000000 0.182592
1.000000 0.000000 0.720377
0.000000 0.000000 0.591683
0.000000 0.000000 0.487610
0.000000 0.000000 0.455950
0.122292 0.000000 0.413429
0.379124 0.000000 0.354699
0.556308 0.000000 0.288736
0.760806 0.000000 0.222406
0.944023 0.000000 0.182592
1.000000 0.000000 0.735433
0.000000 0.000000 0.813178
0.000000 0.000000 0.772248
0.000000 0.000000 0.777169
0.000000 0.000000 0.782362
0.174210 0.000000 0.763725
0.529064 0.000000 0.725826
0.824666 0.000000 0.534954
0.944023 0.000000 0.182592
1.000000 0.000000 0.760991
0.000000 0.064687 0.870938
0.000000 0.142157 0.838281
0.000000 0.162843 0.843806
0.000000 0.186947 0.853168
0.000000 0.196651 0.862263
0.522574 0.112054 0.850936
0.929265 0.000000 0.831606
1.000000 0.000000 0.711547
1.000000 0.193871 0.792946
0.000000 0.209576 0.909928
0.000000 0.294594 0.878122
0.000000 0.327037 0.878916
0.000000 0.368508 0.886045
0.000000 0.405268 0.896567
0.453518 0.425510 0.901646
0.924872 0.369853 0.890678
1.000000 0.223546 0.846086
1.000000 0.427827 0.833431
0.000000 0.478224 0.935506
0.000000 0.562916 0.915477
0.000000 0.623880 0.910170
0.000000 0.681418 0.913924
0.000000 0.736923 0.916829
0.000000 0.776377 0.919872
0.815258 0.795018 0.923059
0.995843 0.753703 0.909686
1.000000 0.676728 0.862131
0.000000 0.728889 0.940762
0.000000 0.728889 0.940762
0.000000 0.827331 0.916916
0.000000 0.881936 0.919288
0.000000 0.912929 0.926274
0.000000 0.930482 0.930125
0.752832 0.934793 0.933426
0.937077 0.937847 0.935306
0.997600 0.901960 0.898174
0.000000 0.979689 0.903638
0.000000 0.980345 0.903209
0.000000 0.980315 0.901777
0.000000 0.982497 0.900588
0.000000 0.982923 0.900185
0.340643 0.980549 0.898535
0.703203 0.978422 0.895225
0.886185 0.975725 0.894111
0.976525 0.969866 0.889032
0.000000 0.000000 0.455982
0.000000 0.000000 0.450246
0.000000 0.000000 0.441612
0.179831 0.000000 0.435223
0.348917 0.000000 0.433682
0.554093 0.000000 0.400722
0.716527 0.000000 0.333836
0.918902 0.000000 0.271324
1.000000 0.000000 0.235847
0.000000 0.000000 0.455982
0.000000 0.000000 0.450250
0.000000 0.000000 0.441612
0.179831 0.000000 0.435223
0.348917 0.000000 0.433682
0.554093 0.000000 0.400722
0.716527 0.000000 0.333836
0.918902 0.000000 0.271324
1.000000 0.000000 0.235847
0.000000 0.000000 0.455982
0.000000 0.000000 0.450253
0.000000 0.000000 0.441617
0.179831 0.000000 0.435223
0.348917 0.000000 0.433682
0.554093 0.000000 0.400722
0.716527 0.000000 0.333836
0.918902 0.000000 0.271324
1.000000 0.000000 0.235847
0.000000 0.000000 0.798420
0.000000 0.000000 0.794997
0.000000 0.000000 0.787629
0.000000 0.000000 0.773184
0.159129 0.000000 0.739083
0.471904 0.000000 0.615253
0.716527 0.000000 0.333836
0.918902 0.000000 0.271324
1.000000 0.000000 0.235847
0.000000 0.087163 0.888324
0.000000 0.110368 0.891365
0.000000 0.115382 0.894608
0.000000 0.130905 0.900717
0.000000 0.129849 0.901174
0.401708 0.000000 0.893258
0.754754 0.000000 0.875673
1.000000 0.000000 0.792442
1.000000 0.000000 0.235847
0.000000 0.238139 0.927931
0.000000 0.259343 0.929950
0.000000 0.279100 0.929745
0.000000 0.302826 0.934168
0.000000 0.325911 0.939332
0.317133 0.347286 0.939629
0.744701 0.282239 0.930450
1.000000 0.129827 0.921094
1.000000 0.000000 0.851871
0.000000 0.394555 0.950528
0.000000 0.441587 0.946159
0.000000 0.472183 0.947377
0.000000 0.506453 0.950987
0.000000 0.547187 0.953198
0.000000 0.590647 0.955824
0.663536 0.599699 0.954571
0.993834 0.579192 0.947666
1.000000 0.493010 0.922846
0.000000 0.609438 0.981339
0.000000 0.708157 0.961613
0.000000 0.753880 0.959036
0.000000 0.791777 0.960166
0.000000 0.829175 0.961887
0.000000 0.854455 0.963080
0.535900 0.869825 0.964280
0.893977 0.879958 0.964838
1.000000 0.857230 0.956295
0.000000 0.835225 0.978034
0.000000 0.835225 0.978034
0.000000 0.892841 0.964735
0.000000 0.933727 0.960960
0.000000 0.958872 0.965048
0.000000 0.970305 0.966922
0.522821 0.971935 0.968312
0.863649 0.973001 0.968911
0.970034 0.974220 0.968328
