Assets/Lutify-Free-LUTs-Pack/Lutify Free LUTs Pack/Colour Film Boost Pro - Film Boost 10/Lutify.me-FilmBoost10-ProTune-to-Rec709.cube
# Created with: fylm.ai - Colour Grading and Collaboration Software in Cloud 
# Website: https://fylm.ai 
# META
# Option: Gamut compress
# Block 1: IDT | GoPro ProTune Native ProTune Flat
# Block 2: colourMatch | Blending Mode: Normal | {"ColorSpace":0,"CrossCovarianceLimit":50,"ReshapingIterations":1,"PercentSaturationShift":100,"PercentShadingShift":100,"ExtraShading":true,"PercentTint":100,"PercentModified":100}
# Block 3: subtractiveColour | Blending Mode: Normal | {"sliders":{"gainY":0.55,"C":0.3,"M":0.3,"Y":0.3}}
# Block 4: LUT | Filmic Curve Response: Low Contrast 2 (100%)
# Block 5: logPrimaries | Blending Mode: Normal | {"wheels":{"shadows":{"Y":"0","R":"1","G":"1","B":"1"},"midtones":{"Y":"0","R":"1","G":"1","B":"1"},"highlights":{"Y":"0","R":"1","G":"1","B":"1"},"offset":{"Y":"0","R":"1","G":"1","B":"1"}},"sliders":{"shadows":{"Y":0,"R":-0.085,"G":0.024,"B":0.134},"midtones":{"Y":0,"R":0,"G":-0.023,"B":0},"highlights":{"Y":0,"R":0,"G":0,"B":0},"offset":{"Y":0,"R":0.012,"G":-0.012,"B":0}}}
# Block 6: HSL | Blending Mode: Normal | {"hue":{"Reds":0,"Yellows":0,"Greens":0,"Cyans":0,"Blues":0,"Magentas":0},"saturation":{"Reds":1,"Yellows":1,"Greens":1,"Cyans":1,"Blues":1,"Magentas":1},"luminance":{"Reds":0.9,"Yellows":0.9,"Greens":0.9,"Cyans":0.9,"Blues":0.9,"Magentas":0.9},"lum_sat":{"Blacks":1,"Shadows":1,"Midtones":1,"Highlights":1,"Whites":1},"sat_sat":{"10":1,"20":1,"30":1,"40":1,"50":1}}
# Block 7: ODT | Rec709
TITLE "Lutify.me-FilmBoost10-ProTune-to-Rec709" 
LUT_3D_SIZE 5
0.000000 0.000000 0.000000
0.056988 0.000000 0.000000
0.161830 0.000000 0.000000
0.313178 0.000000 0.013719
0.547649 0.000000 0.056834
0.000000 0.074750 0.000000
0.079416 0.067047 0.000000
0.199347 0.000000 0.000000
0.343422 0.000000 0.024661
0.573665 0.000000 0.065465
0.000000 0.203078 0.000000
0.051069 0.201261 0.000000
0.274318 0.169441 0.000000
0.411213 0.050621 0.000000
0.631630 0.000000 0.072967
0.000000 0.372034 0.000000
0.177122 0.370011 0.000000
0.345634 0.363241 0.000000
0.556449 0.291246 0.000000
0.699065 0.233475 0.000000
0.382936 0.582594 0.000000
0.405275 0.581805 0.000000
0.488735 0.578274 0.000000
0.657121 0.558440 0.000000
0.823151 0.472190 0.000000
0.000000 0.000000 0.058313
0.043059 0.000000 0.056114
0.157360 0.000000 0.038675
0.307299 0.000000 0.040858
0.544220 0.000000 0.065503
0.000000 0.067383 0.087382
0.057137 0.072027 0.084955
0.191260 0.000000 0.057966
0.341586 0.000000 0.051573
0.573074 0.000000 0.077459
0.000000 0.212833 0.000000
0.000000 0.213503 0.000000
0.247842 0.188966 0.000000
0.419793 0.044807 0.036466
0.630021 0.000000 0.089515
0.000000 0.372114 0.000000
0.167314 0.370236 0.000000
0.341799 0.363454 0.000000
0.524829 0.315059 0.000000
0.709035 0.241130 0.000000
0.382936 0.582594 0.000000
0.405275 0.581805 0.000000
0.488735 0.578274 0.000000
0.657121 0.558440 0.000000
0.820107 0.472675 0.000000
0.000000 0.000000 0.127185
0.000000 0.000000 0.119085
0.144968 0.000000 0.089410
0.301409 0.000000 0.064180
0.534706 0.000000 0.095717
0.000000 0.000000 0.180272
0.000000 0.000000 0.171024
0.170143 0.000000 0.144132
0.325213 0.000000 0.102900
0.557462 0.000000 0.118383
0.000000 0.211583 0.240628
0.000000 0.219535 0.241001
0.197361 0.227513 0.253218
0.426536 0.036187 0.180092
0.626430 0.000000 0.151710
0.000000 0.426859 0.000000
0.000000 0.426185 0.000000
0.000000 0.428101 0.000000
0.498267 0.403411 0.000000
0.724106 0.258327 0.137996
0.380087 0.579680 0.000000
0.405275 0.581805 0.000000
0.488735 0.578274 0.000000
0.659435 0.551650 0.000000
0.776247 0.516151 0.000000
0.000000 0.000000 0.254922
0.000000 0.000000 0.248752
0.085204 0.000000 0.227429
0.304269 0.000000 0.128240
0.503918 0.000000 0.094674
0.000000 0.000000 0.299039
0.000000 0.000000 0.296353
0.074164 0.000000 0.281850
0.330169 0.000000 0.200691
0.519710 0.000000 0.149202
0.000000 0.103447 0.387477
0.000000 0.109453 0.387669
0.047631 0.109714 0.392347
0.410834 0.000000 0.344542
0.612903 0.000000 0.267221
0.000000 0.436158 0.475385
0.000000 0.447770 0.477941
0.000000 0.459896 0.479719
0.463460 0.468825 0.495998
0.740273 0.256819 0.389260
0.000000 0.697900 0.135902
0.000000 0.700997 0.142126
0.000000 0.699284 0.142803
0.410656 0.694011 0.155793
0.771370 0.677838 0.230363
0.000000 0.000000 0.479940
0.000000 0.000000 0.476109
0.000000 0.000000 0.465445
0.228947 0.000000 0.427395
0.503459 0.000000 0.166548
0.000000 0.000000 0.499240
0.000000 0.000000 0.501327
0.000000 0.000000 0.495060
0.237266 0.000000 0.464081
0.526333 0.000000 0.250488
0.000000 0.079889 0.546897
0.000000 0.080432 0.546066
0.000000 0.082475 0.557321
0.256983 0.000000 0.538755
0.622967 0.000000 0.440795
0.000000 0.278703 0.646882
0.000000 0.276186 0.647555
0.000000 0.280955 0.652840
0.258688 0.284825 0.663812
0.736782 0.000000 0.620625
0.000000 0.704408 0.727461
0.000000 0.709227 0.725794
0.000000 0.717556 0.722306
0.253974 0.724492 0.730940
0.738478 0.728260 0.744540
