Assets/Lutify-Free-LUTs-Pack/Lutify Free LUTs Pack/Colour Film Boost Pro - Film Boost 10/Lutify.me-FilmBoost10-FLog2-to-Rec709.cube
# Created with: fylm.ai - Colour Grading and Collaboration Software in Cloud 
# Website: https://fylm.ai 
# META
# Option: Gamut compress
# Block 1: IDT | Fujifilm F-Gamut F-Log2
# Block 2: colourMatch | Blending Mode: Normal | {"ColorSpace":0,"CrossCovarianceLimit":50,"ReshapingIterations":1,"PercentSaturationShift":100,"PercentShadingShift":100,"ExtraShading":true,"PercentTint":100,"PercentModified":100}
# Block 3: subtractiveColour | Blending Mode: Normal | {"sliders":{"gainY":0.55,"C":0.3,"M":0.3,"Y":0.3}}
# Block 4: LUT | Filmic Curve Response: Low Contrast 2 (100%)
# Block 5: logPrimaries | Blending Mode: Normal | {"wheels":{"shadows":{"Y":"0","R":"1","G":"1","B":"1"},"midtones":{"Y":"0","R":"1","G":"1","B":"1"},"highlights":{"Y":"0","R":"1","G":"1","B":"1"},"offset":{"Y":"0","R":"1","G":"1","B":"1"}},"sliders":{"shadows":{"Y":0,"R":-0.085,"G":0.024,"B":0.134},"midtones":{"Y":0,"R":0,"G":-0.023,"B":0},"highlights":{"Y":0,"R":0,"G":0,"B":0},"offset":{"Y":0,"R":0.012,"G":-0.012,"B":0}}}
# Block 6: HSL | Blending Mode: Normal | {"hue":{"Reds":0,"Yellows":0,"Greens":0,"Cyans":0,"Blues":0,"Magentas":0},"saturation":{"Reds":1,"Yellows":1,"Greens":1,"Cyans":1,"Blues":1,"Magentas":1},"luminance":{"Reds":0.9,"Yellows":0.9,"Greens":0.9,"Cyans":0.9,"Blues":0.9,"Magentas":0.9},"lum_sat":{"Blacks":1,"Shadows":1,"Midtones":1,"Highlights":1,"Whites":1},"sat_sat":{"10":1,"20":1,"30":1,"40":1,"50":1}}
# Block 7: ODT | Rec709
TITLE "Lutify.me-FilmBoost10-FLog2-to-Rec709" 
LUT_3D_SIZE 33
0.000000 0.000000 0.000000
0.000000 0.000000 0.000000
0.000000 0.000000 0.000000
0.000000 0.000000 0.000000
0.000000 0.000000 0.000000
0.000000 0.000000 0.000000
0.055798 0.000000 0.000000
0.087750 0.000000 0.000000
0.115635 0.000000 0.000000
0.145992 0.000000 0.000000
0.180596 0.000000 0.000000
0.219440 0.000000 0.000000
0.261777 0.000000 0.000000
0.309339 0.000000 0.000000
0.365166 0.000000 0.000000
0.425140 0.000000 0.000000
0.497057 0.000000 0.000000
0.571585 0.000000 0.000000
0.646989 0.000000 0.032179
0.723802 0.000000 0.048566
0.808981 0.000000 0.067644
0.881304 0.000000 0.093576
0.949534 0.000000 0.119438
0.995649 0.000000 0.161855
1.000000 0.047535 0.202584
1.000000 0.231995 0.248321
1.000000 0.336158 0.294007
1.000000 0.423052 0.362229
1.000000 0.496560 0.409163
1.000000 0.583258 0.476133
1.000000 0.656742 0.540078
1.000000 0.715822 0.602731
1.000000 0.766238 0.661124
0.000000 0.000000 0.000000
0.000000 0.000000 0.000000
0.000000 0.000000 0.000000
0.000000 0.000000 0.000000
0.000000 0.000000 0.000000
0.000000 0.000000 0.000000
0.057957 0.000000 0.000000
0.089830 0.000000 0.000000
0.117209 0.000000 0.000000
0.147976 0.000000 0.000000
0.184426 0.000000 0.000000
0.222439 0.000000 0.000000
0.264055 0.000000 0.000000
0.313387 0.000000 0.000000
0.369744 0.000000 0.000000
0.425162 0.000000 0.000000
0.497286 0.000000 0.000000
0.575125 0.000000 0.000000
0.650399 0.000000 0.031780
0.724078 0.000000 0.049127
0.808949 0.000000 0.067349
0.881230 0.000000 0.093279
0.950009 0.000000 0.121850
0.995649 0.000000 0.161855
1.000000 0.047247 0.206095
1.000000 0.231995 0.248321
1.000000 0.336158 0.294007
1.000000 0.423052 0.362229
1.000000 0.496560 0.409163
1.000000 0.583258 0.476133
1.000000 0.656742 0.540078
1.000000 0.715822 0.602731
1.000000 0.766238 0.661124
0.000000 0.000000 0.000000
0.000000 0.000000 0.000000
0.000000 0.000000 0.000000
0.000000 0.000000 0.000000
0.000000 0.000000 0.000000
0.000000 0.000000 0.000000
0.060465 0.000000 0.000000
0.091408 0.000000 0.000000
0.119686 0.000000 0.000000
0.150930 0.000000 0.000000
0.187100 0.000000 0.000000
0.224236 0.000000 0.000000
0.269622 0.000000 0.000000
0.315307 0.000000 0.000000
0.369753 0.000000 0.000000
0.427982 0.000000 0.000000
0.497513 0.000000 0.000000
0.575378 0.000000 0.000000
0.650668 0.000000 0.032065
0.724069 0.000000 0.048856
0.808933 0.000000 0.067197
0.881192 0.000000 0.093127
0.949934 0.000000 0.121683
0.995649 0.000000 0.161855
1.000000 0.085199 0.205735
1.000000 0.236833 0.248114
1.000000 0.336158 0.294007
1.000000 0.423052 0.362229
1.000000 0.496560 0.409163
1.000000 0.583258 0.476133
1.000000 0.656742 0.540078
1.000000 0.715822 0.602731
1.000000 0.766238 0.661124
0.000000 0.000000 0.000000
0.000000 0.000000 0.000000
0.000000 0.000000 0.000000
0.000000 0.000000 0.000000
0.000000 0.000000 0.000000
0.008552 0.000000 0.000000
0.062624 0.000000 0.000000
0.094170 0.000000 0.000000
0.122878 0.000000 0.000000
0.155798 0.000000 0.000000
0.188741 0.000000 0.000000
0.229042 0.000000 0.000000
0.271835 0.000000 0.000000
0.317325 0.000000 0.000000
0.372002 0.000000 0.000000
0.428009 0.000000 0.000000
0.500556 0.000000 0.000000
0.575635 0.000000 0.000000
0.650670 0.000000 0.031757
0.724061 0.000000 0.048572
0.808933 0.000000 0.067197
0.881192 0.000000 0.093127
0.949934 0.000000 0.121683
0.995522 0.000000 0.161683
1.000000 0.085199 0.205735
1.000000 0.236870 0.248254
1.000000 0.336158 0.294007
1.000000 0.423052 0.362229
1.000000 0.496560 0.409163
1.000000 0.583258 0.476133
1.000000 0.656742 0.540078
1.000000 0.715822 0.602731
1.000000 0.766238 0.661124
0.000000 0.000000 0.000000
0.000000 0.000000 0.000000
0.000000 0.000000 0.000000
0.000000 0.000000 0.000000
0.000000 0.000000 0.000000
0.037342 0.000000 0.000000
0.072798 0.000000 0.000000
0.101048 0.000000 0.000000
0.127066 0.000000 0.000000
0.160231 0.000000 0.000000
0.193796 0.000000 0.000000
0.233911 0.000000 0.000000
0.275371 0.000000 0.000000
0.321223 0.000000 0.000000
0.374433 0.000000 0.000000
0.430856 0.000000 0.000000
0.500798 0.000000 0.000000
0.575902 0.000000 0.000000
0.650676 0.000000 0.031094
0.724331 0.000000 0.048970
0.809500 0.000000 0.068689
0.881116 0.000000 0.092812
0.949782 0.000000 0.121340
0.995917 0.000000 0.164608
1.000000 0.085199 0.205735
1.000000 0.236870 0.248254
1.000000 0.343862 0.293585
1.000000 0.423052 0.362229
1.000000 0.496560 0.409163
1.000000 0.583258 0.476133
1.000000 0.656742 0.540078
1.000000 0.715822 0.602731
1.000000 0.766238 0.661124
0.000000 0.017284 0.000000
0.000000 0.018543 0.000000
0.000000 0.019770 0.000000
0.000000 0.022127 0.000000
0.000000 0.027344 0.000000
0.031549 0.022859 0.000000
0.073307 0.000000 0.000000
0.109175 0.000000 0.000000
0.134269 0.000000 0.000000
0.169046 0.000000 0.000000
0.199066 0.000000 0.000000
0.240036 0.000000 0.000000
0.280500 0.000000 0.000000
0.325165 0.000000 0.000000
0.376895 0.000000 0.000000
0.433551 0.000000 0.000000
0.504087 0.000000 0.000000
0.579460 0.000000 0.000000
0.657770 0.000000 0.031112
0.724322 0.000000 0.048661
0.809431 0.000000 0.068042
0.881037 0.000000 0.092486
0.950178 0.000000 0.123617
0.995655 0.000000 0.164263
1.000000 0.097665 0.205550
1.000000 0.236870 0.248254
1.000000 0.343862 0.293585
1.000000 0.423052 0.362229
1.000000 0.496560 0.409163
1.000000 0.583258 0.476133
1.000000 0.656742 0.540078
1.000000 0.718205 0.602642
1.000000 0.766238 0.661124
0.000000 0.048525 0.000000
0.000000 0.048667 0.000000
0.000000 0.049225 0.000000
0.000000 0.050277 0.000000
0.000000 0.052154 0.000000
0.000000 0.053889 0.000000
0.064957 0.049218 0.000000
0.105206 0.036770 0.000000
0.141039 0.000000 0.000000
0.175928 0.000000 0.000000
0.212909 0.000000 0.000000
0.247679 0.000000 0.000000
0.288733 0.000000 0.000000
0.337122 0.000000 0.000000
0.381710 0.000000 0.000000
0.433775 0.000000 0.000000
0.504348 0.000000 0.000000
0.579743 0.000000 0.000000
0.657776 0.000000 0.030144
0.728339 0.000000 0.049420
0.813498 0.000000 0.069647
0.884678 0.000000 0.094410
0.952552 0.000000 0.123339
0.995655 0.000000 0.164263
1.000000 0.097665 0.205550
1.000000 0.241646 0.248043
1.000000 0.344456 0.298243
1.000000 0.426561 0.362048
1.000000 0.496560 0.409163
1.000000 0.583258 0.476133
1.000000 0.656742 0.540078
1.000000 0.718205 0.602642
1.000000 0.766238 0.661124
0.000000 0.068895 0.000000
0.000000 0.069051 0.000000
0.000000 0.069198 0.000000
0.000000 0.070601 0.000000
0.000000 0.074581 0.000000
0.000000 0.078484 0.000000
0.042884 0.079087 0.000000
0.103232 0.067743 0.000000
0.142647 0.054227 0.000000
0.187206 0.009664 0.000000
0.223645 0.000000 0.000000
0.258927 0.000000 0.000000
0.295656 0.000000 0.000000
0.345523 0.000000 0.000000
0.391476 0.000000 0.000000
0.442316 0.000000 0.000000
0.513824 0.000000 0.000000
0.583096 0.000000 0.000000
0.658319 0.000000 0.030582
0.728876 0.000000 0.050092
0.813382 0.000000 0.068578
0.884552 0.000000 0.093902
0.952387 0.000000 0.122973
0.999664 0.000000 0.164292
1.000000 0.108385 0.205361
1.000000 0.241972 0.250034
1.000000 0.344456 0.298243
1.000000 0.426561 0.362048
1.000000 0.499862 0.408990
1.000000 0.583258 0.476133
1.000000 0.656742 0.540078
1.000000 0.718205 0.602642
1.000000 0.766238 0.661124
0.000000 0.092890 0.000000
0.000000 0.094496 0.000000
0.000000 0.094702 0.000000
0.000000 0.096410 0.000000
0.000000 0.099088 0.000000
0.000000 0.102589 0.000000
0.000000 0.104210 0.000000
0.093697 0.103416 0.000000
0.145037 0.090556 0.000000
0.190861 0.072167 0.000000
0.232139 0.052182 0.000000
0.272510 0.000000 0.000000
0.308565 0.000000 0.000000
0.354514 0.000000 0.000000
0.401671 0.000000 0.000000
0.448403 0.000000 0.000000
0.521140 0.000000 0.000000
0.587207 0.000000 0.000000
0.662021 0.000000 0.029010
0.732877 0.000000 0.050357
0.813921 0.000000 0.069892
0.887979 0.000000 0.095140
0.952596 0.000000 0.124911
0.999582 0.000000 0.165409
1.000000 0.126648 0.204974
1.000000 0.251359 0.249606
1.000000 0.348282 0.298033
1.000000 0.426561 0.362048
1.000000 0.500917 0.412332
1.000000 0.586387 0.475973
1.000000 0.657029 0.543161
1.000000 0.718205 0.602642
1.000000 0.766238 0.661124
0.000000 0.121723 0.000000
0.000000 0.123740 0.000000
0.000000 0.123988 0.000000
0.000000 0.125332 0.000000
0.000000 0.131646 0.000000
0.000000 0.134257 0.000000
0.000000 0.143034 0.000000
0.000000 0.142987 0.000000
0.127387 0.140264 0.000000
0.192748 0.120121 0.000000
0.245591 0.102574 0.000000
0.281079 0.084263 0.000000
0.319209 0.057149 0.000000
0.366803 0.000000 0.000000
0.412934 0.000000 0.000000
0.466255 0.000000 0.000000
0.531624 0.000000 0.000000
0.598533 0.000000 0.000000
0.666271 0.000000 0.028181
0.733957 0.000000 0.051997
0.818496 0.000000 0.072685
0.888342 0.000000 0.096542
0.955057 0.000000 0.125671
0.999442 0.000000 0.165223
1.000000 0.141997 0.206417
1.000000 0.255966 0.249386
1.000000 0.352093 0.297821
1.000000 0.430360 0.364661
1.000000 0.500917 0.412332
1.000000 0.586387 0.475973
1.000000 0.662685 0.542898
1.000000 0.718205 0.602642
1.000000 0.766238 0.661124
0.000000 0.154151 0.000000
0.000000 0.157857 0.000000
0.000000 0.158370 0.000000
0.000000 0.158948 0.000000
0.000000 0.164730 0.000000
0.000000 0.171431 0.000000
0.000000 0.174887 0.000000
0.000000 0.178234 0.000000
0.080044 0.176515 0.000000
0.186061 0.174254 0.000000
0.246068 0.150504 0.000000
0.288722 0.136519 0.000000
0.328587 0.119496 0.000000
0.385071 0.086436 0.000000
0.428297 0.000000 0.000000
0.480898 0.000000 0.000000
0.545832 0.000000 0.000000
0.610027 0.000000 0.000000
0.674509 0.000000 0.026360
0.745144 0.000000 0.051871
0.818858 0.000000 0.072478
0.891641 0.000000 0.097544
0.955136 0.000000 0.127430
0.999390 0.000000 0.167648
1.000000 0.155997 0.206003
1.000000 0.265053 0.249081
1.000000 0.356081 0.297771
1.000000 0.430360 0.364661
1.000000 0.507490 0.411986
1.000000 0.586387 0.475973
1.000000 0.662685 0.542898
1.000000 0.718205 0.602642
1.000000 0.768133 0.661079
0.000000 0.187993 0.000000
0.000000 0.191211 0.000000
0.000000 0.196174 0.000000
0.000000 0.196922 0.000000
0.000000 0.201483 0.000000
0.000000 0.205878 0.000000
0.000000 0.211584 0.000000
0.000000 0.215670 0.000000
0.000000 0.214058 0.000000
0.149106 0.211524 0.000000
0.231679 0.209934 0.000000
0.297142 0.181029 0.000000
0.340854 0.168447 0.000000
0.397363 0.144965 0.000000
0.445057 0.124689 0.000000
0.496142 0.091416 0.000000
0.558794 0.000000 0.000000
0.625003 0.000000 0.000000
0.686463 0.000000 0.023095
0.756854 0.000000 0.052451
0.826428 0.000000 0.073180
0.900674 0.000000 0.097831
0.955081 0.000000 0.128970
1.000000 0.000000 0.169997
1.000000 0.175561 0.208854
1.000000 0.270116 0.252902
1.000000 0.360152 0.299914
1.000000 0.433861 0.364478
1.000000 0.507490 0.411986
1.000000 0.589517 0.475812
1.000000 0.662685 0.542898
1.000000 0.720576 0.602554
1.000000 0.768133 0.661079
0.000000 0.229401 0.000000
0.000000 0.231615 0.000000
0.000000 0.236995 0.000000
0.000000 0.238544 0.000000
0.000000 0.241497 0.000000
0.000000 0.246060 0.000000
0.000000 0.252196 0.000000
0.000000 0.251865 0.000000
0.000000 0.255718 0.000000
0.000000 0.255399 0.000000
0.177720 0.256785 0.000000
0.280665 0.249377 0.000000
0.343386 0.223719 0.000000
0.406466 0.201901 0.000000
0.454962 0.186641 0.000000
0.510093 0.165185 0.000000
0.569325 0.133424 0.000000
0.635753 0.082493 0.000000
0.698372 0.000000 0.000000
0.765290 0.000000 0.051467
0.834230 0.000000 0.073956
0.903404 0.000000 0.097250
0.957418 0.000000 0.131445
1.000000 0.061808 0.171808
1.000000 0.198415 0.209721
1.000000 0.287481 0.252122
1.000000 0.371407 0.299256
1.000000 0.444339 0.363920
1.000000 0.510776 0.411811
1.000000 0.592949 0.478683
1.000000 0.665495 0.542768
1.000000 0.720825 0.605646
1.000000 0.768133 0.661079
0.000000 0.276100 0.000000
0.000000 0.277643 0.000000
0.000000 0.279120 0.000000
0.000000 0.286003 0.000000
0.000000 0.289656 0.000000
0.000000 0.295045 0.000000
0.000000 0.296524 0.000000
0.000000 0.302048 0.000000
0.000000 0.303189 0.000000
0.000000 0.310083 0.000000
0.000000 0.307934 0.000000
0.215370 0.303932 0.000000
0.323439 0.303477 0.000000
0.408757 0.267104 0.000000
0.474696 0.251104 0.000000
0.528699 0.239021 0.000000
0.588361 0.218406 0.000000
0.653659 0.189009 0.000000
0.712467 0.156510 0.000000
0.776996 0.079708 0.033970
0.852193 0.000000 0.074951
0.906640 0.000000 0.099634
0.958898 0.000000 0.130495
1.000000 0.136148 0.173411
1.000000 0.224238 0.212221
1.000000 0.304514 0.253213
1.000000 0.379436 0.303600
1.000000 0.448378 0.366737
1.000000 0.517647 0.414379
1.000000 0.596082 0.478522
1.000000 0.665495 0.542768
1.000000 0.720825 0.605646
1.000000 0.768133 0.661079
0.000000 0.330052 0.000000
0.000000 0.331642 0.000000
0.000000 0.333129 0.000000
0.000000 0.335629 0.000000
0.000000 0.339982 0.000000
0.000000 0.347239 0.000000
0.000000 0.349302 0.000000
0.000000 0.353606 0.000000
0.000000 0.359863 0.000000
0.000000 0.361243 0.000000
0.000000 0.364221 0.000000
0.068075 0.366389 0.000000
0.249022 0.362515 0.000000
0.389331 0.353634 0.000000
0.471493 0.321114 0.000000
0.534750 0.309127 0.000000
0.603463 0.287594 0.000000
0.668355 0.265551 0.000000
0.726199 0.243165 0.000000
0.787196 0.216576 0.000000
0.858304 0.150698 0.065978
0.912713 0.111284 0.104159
0.960717 0.138522 0.135481
1.000000 0.191387 0.175961
1.000000 0.257533 0.216116
1.000000 0.321106 0.254435
1.000000 0.394643 0.305286
1.000000 0.458795 0.366168
1.000000 0.524218 0.414024
1.000000 0.599966 0.478817
1.000000 0.668576 0.545732
1.000000 0.723932 0.606094
1.000000 0.770013 0.661037
0.000000 0.383952 0.000000
0.000000 0.386127 0.000000
0.000000 0.388181 0.000000
0.000000 0.389925 0.000000
0.000000 0.391879 0.000000
0.000000 0.397197 0.000000
0.000000 0.403497 0.000000
0.000000 0.408147 0.000000
0.000000 0.416021 0.000000
0.000000 0.419825 0.000000
0.000000 0.421364 0.000000
0.000000 0.422170 0.000000
0.116759 0.425155 0.000000
0.328204 0.422796 0.000000
0.458981 0.414107 0.000000
0.532506 0.383532 0.000000
0.612049 0.360099 0.000000
0.681677 0.339617 0.000000
0.737032 0.321382 0.000000
0.798719 0.305989 0.000000
0.864781 0.272457 0.052734
0.915900 0.241887 0.098546
0.963640 0.223318 0.140279
1.000000 0.250112 0.180718
1.000000 0.297404 0.219268
1.000000 0.349624 0.259263
1.000000 0.406486 0.312001
1.000000 0.466019 0.368634
1.000000 0.534373 0.416420
1.000000 0.606507 0.481528
1.000000 0.674135 0.545479
1.000000 0.723932 0.606094
1.000000 0.773937 0.663960
0.000000 0.453076 0.000000
0.000000 0.457768 0.000000
0.000000 0.459639 0.000000
0.000000 0.461322 0.000000
0.000000 0.463451 0.000000
0.000000 0.465608 0.000000
0.000000 0.468674 0.000000
0.000000 0.473722 0.000000
0.000000 0.478707 0.000000
0.000000 0.482923 0.000000
0.000000 0.484789 0.000000
0.000000 0.483009 0.000000
0.000000 0.492457 0.000000
0.210195 0.491352 0.000000
0.382609 0.488224 0.000000
0.518341 0.479632 0.000000
0.611570 0.445295 0.000000
0.689632 0.421794 0.000000
0.752122 0.407907 0.000000
0.809731 0.392314 0.000000
0.871460 0.370556 0.000000
0.920361 0.343565 0.095211
0.964883 0.323452 0.137778
1.000000 0.319377 0.187254
1.000000 0.342857 0.223677
1.000000 0.381032 0.263750
1.000000 0.425034 0.313508
1.000000 0.483501 0.367831
1.000000 0.548102 0.418854
1.000000 0.619001 0.480876
1.000000 0.676897 0.545355
1.000000 0.726502 0.609098
1.000000 0.776430 0.664540
0.000000 0.522343 0.000000
0.000000 0.523709 0.000000
0.000000 0.525778 0.000000
0.000000 0.526938 0.000000
0.000000 0.528809 0.000000
0.000000 0.531171 0.000000
0.000000 0.533800 0.000000
0.000000 0.540193 0.000000
0.000000 0.547063 0.000000
0.000000 0.549870 0.000000
0.000000 0.553996 0.000000
0.000000 0.555698 0.000000
0.000000 0.556827 0.000000
0.000000 0.561392 0.000000
0.276145 0.561199 0.000000
0.451879 0.555073 0.000000
0.585333 0.548940 0.000000
0.684946 0.516454 0.000000
0.757882 0.494160 0.000000
0.817665 0.476193 0.000000
0.874093 0.453236 0.000000
0.919561 0.436082 0.081822
0.961969 0.419648 0.141227
0.997739 0.408381 0.188507
1.000000 0.401311 0.228827
1.000000 0.415380 0.268013
1.000000 0.458344 0.319338
1.000000 0.504712 0.372372
1.000000 0.565090 0.423865
1.000000 0.628681 0.483432
1.000000 0.683614 0.551793
1.000000 0.733396 0.608861
1.000000 0.778238 0.664506
0.000000 0.592018 0.000000
0.000000 0.593009 0.000000
0.000000 0.597301 0.000000
0.000000 0.598303 0.000000
0.000000 0.599563 0.000000
0.000000 0.601081 0.000000
0.000000 0.603375 0.000000
0.000000 0.606459 0.000000
0.000000 0.609826 0.000000
0.000000 0.614833 0.000000
0.000000 0.617605 0.000000
0.000000 0.621816 0.000000
0.000000 0.625350 0.000000
0.000000 0.623477 0.000000
0.137045 0.625013 0.000000
0.367409 0.627067 0.000000
0.524557 0.623075 0.000000
0.663913 0.615460 0.000000
0.756860 0.580794 0.000000
0.816567 0.558577 0.000000
0.876558 0.535570 0.000000
0.921060 0.522653 0.064665
0.958984 0.503986 0.138906
0.994998 0.494143 0.197660
1.000000 0.483758 0.235547
1.000000 0.471060 0.272761
1.000000 0.497875 0.321953
1.000000 0.536972 0.382533
1.000000 0.585578 0.428934
1.000000 0.638599 0.486231
1.000000 0.691684 0.551443
1.000000 0.738160 0.611805
1.000000 0.781812 0.664445
0.000000 0.655392 0.034790
0.000000 0.659501 0.022000
0.000000 0.660288 0.022738
0.000000 0.661606 0.000000
0.000000 0.662662 0.000000
0.000000 0.663456 0.000000
0.000000 0.665314 0.000000
0.000000 0.667178 0.000000
0.000000 0.670121 0.000000
0.000000 0.673071 0.000000
0.000000 0.678407 0.000000
0.000000 0.687159 0.000000
0.000000 0.688220 0.000000
0.000000 0.691462 0.000000
0.000000 0.688865 0.000000
0.235048 0.690280 0.000000
0.455058 0.688118 0.000000
0.607813 0.683496 0.000000
0.730020 0.676176 0.000000
0.801565 0.654421 0.000000
0.873715 0.618742 0.000000
0.917698 0.602251 0.053472
0.950976 0.590814 0.134243
0.986375 0.574507 0.203548
1.000000 0.563719 0.242951
1.000000 0.551020 0.283227
1.000000 0.551766 0.331767
1.000000 0.575338 0.389264
1.000000 0.616079 0.436499
1.000000 0.657418 0.491442
1.000000 0.703071 0.557460
1.000000 0.745377 0.614959
1.000000 0.785544 0.667363
0.000000 0.727469 0.122753
0.000000 0.728499 0.123238
0.000000 0.729013 0.123485
0.000000 0.729528 0.123733
0.000000 0.730299 0.124109
0.000000 0.731071 0.124491
0.000000 0.731841 0.124876
0.000000 0.733381 0.121312
0.000000 0.735426 0.117912
0.000000 0.737713 0.114558
0.000000 0.743308 0.104213
0.000000 0.747563 0.097926
0.000000 0.746929 0.098703
0.000000 0.750193 0.065124
0.000000 0.754791 0.000000
0.000000 0.752594 0.000000
0.345745 0.752442 0.000000
0.530636 0.746692 0.000000
0.670258 0.742420 0.000000
0.783512 0.733026 0.000000
0.854853 0.714904 0.000000
0.905989 0.692008 0.072703
0.943927 0.676801 0.151788
0.974876 0.664229 0.217929
1.000000 0.653377 0.255447
1.000000 0.640575 0.298992
1.000000 0.636705 0.348985
1.000000 0.627520 0.401460
1.000000 0.646706 0.447441
1.000000 0.679008 0.497061
1.000000 0.713628 0.560171
1.000000 0.754267 0.617813
1.000000 0.791548 0.670863
0.000000 0.781272 0.199820
0.000000 0.781499 0.199991
0.000000 0.781951 0.200336
0.000000 0.782177 0.200509
0.000000 0.782628 0.200856
0.000000 0.783077 0.201205
0.000000 0.783750 0.201734
0.000000 0.784643 0.202446
0.000000 0.785754 0.199928
0.000000 0.787724 0.201588
0.000000 0.789450 0.196180
0.000000 0.794382 0.194260
0.000000 0.799573 0.190171
0.000000 0.800499 0.182268
0.000000 0.803121 0.169451
0.000000 0.801958 0.153029
0.239879 0.802822 0.153118
0.454156 0.799833 0.136443
0.614473 0.793535 0.130954
0.736064 0.789422 0.131134
0.824987 0.786214 0.111355
0.888942 0.765939 0.100821
0.930718 0.746984 0.175316
0.961914 0.731610 0.228825
0.990507 0.721524 0.271558
1.000000 0.706578 0.314388
1.000000 0.696118 0.363932
1.000000 0.693360 0.419788
1.000000 0.687735 0.457907
1.000000 0.705207 0.505478
1.000000 0.733938 0.562827
1.000000 0.767679 0.624247
1.000000 0.798780 0.676640
0.000000 0.830202 0.281770
0.000000 0.830559 0.282226
0.000000 0.830913 0.282685
0.000000 0.831089 0.282915
0.000000 0.831089 0.282915
0.000000 0.831614 0.283609
0.000000 0.831961 0.284075
0.000000 0.832315 0.277847
0.000000 0.833165 0.279019
0.000000 0.834002 0.276852
0.000000 0.836786 0.277744
0.000000 0.838175 0.276587
0.000000 0.841419 0.268422
0.000000 0.843546 0.269536
0.000000 0.842178 0.269994
0.000000 0.841768 0.263123
0.074064 0.841197 0.245629
0.400751 0.842852 0.246352
0.552275 0.839256 0.229821
0.689246 0.833247 0.229390
0.800829 0.828849 0.230988
0.865532 0.826749 0.224804
0.915034 0.810821 0.216926
0.949908 0.792609 0.256232
0.978297 0.781236 0.296893
1.000000 0.770859 0.340391
1.000000 0.758978 0.390140
1.000000 0.752702 0.436827
1.000000 0.741586 0.475390
1.000000 0.740061 0.514302
1.000000 0.753664 0.572156
1.000000 0.779904 0.627418
1.000000 0.809077 0.676869
0.000000 0.866378 0.366119
0.000000 0.866378 0.366119
0.000000 0.866514 0.366384
0.000000 0.869941 0.366088
0.000000 0.870074 0.366354
0.000000 0.870074 0.366354
0.000000 0.870336 0.366889
0.000000 0.870466 0.367157
0.000000 0.870851 0.367965
0.000000 0.872914 0.365292
0.000000 0.873522 0.363303
0.000000 0.874318 0.365236
0.000000 0.876713 0.357016
0.000000 0.879172 0.356129
0.000000 0.879424 0.358191
0.000000 0.877434 0.358691
0.000000 0.875973 0.348445
0.356842 0.874898 0.334951
0.517863 0.873769 0.332651
0.652593 0.868225 0.323985
0.766920 0.865388 0.320508
0.833248 0.863000 0.321033
0.894700 0.859063 0.312079
0.938593 0.845062 0.302467
0.966236 0.831051 0.329133
0.990429 0.821695 0.371805
1.000000 0.811467 0.417094
1.000000 0.803454 0.463281
1.000000 0.793482 0.500846
1.000000 0.788690 0.536370
1.000000 0.786394 0.584966
1.000000 0.799356 0.637114
1.000000 0.822864 0.691209
0.000000 0.900272 0.433807
0.000000 0.900272 0.433807
0.000000 0.900358 0.434093
0.000000 0.900358 0.434093
0.000000 0.900444 0.434380
0.000000 0.900444 0.434380
0.000000 0.900610 0.434954
0.000000 0.902090 0.435205
0.000000 0.902254 0.432477
0.000000 0.902404 0.433056
0.000000 0.902621 0.433930
0.000000 0.905628 0.431766
0.000000 0.905994 0.430247
0.000000 0.907638 0.428758
0.000000 0.908042 0.428516
0.000000 0.907061 0.430234
0.000000 0.905125 0.430624
0.291080 0.905773 0.417120
0.479664 0.904150 0.411186
0.609388 0.903263 0.405833
0.722697 0.897995 0.397647
0.800152 0.893996 0.400540
0.865333 0.891181 0.398208
0.915723 0.889750 0.397070
0.953212 0.879481 0.380423
0.977571 0.869529 0.405235
0.999244 0.854298 0.447827
1.000000 0.850308 0.490006
1.000000 0.839659 0.525909
1.000000 0.832828 0.560644
1.000000 0.829918 0.611252
1.000000 0.826325 0.653352
1.000000 0.842022 0.700574
0.000000 0.929752 0.502943
0.000000 0.929752 0.502943
0.000000 0.929752 0.502943
0.000000 0.929752 0.502943
0.000000 0.929783 0.503247
0.000000 0.929783 0.503247
0.000000 0.929813 0.503551
0.000000 0.929841 0.503856
