Assets/Lutify-Free-LUTs-Pack/Lutify Free LUTs Pack/Colour Film Boost Pro - Film Boost 10/Lutify.me-FilmBoost10-CanonLog2-to-Rec709.cube
# Created with: fylm.ai - Colour Grading and Collaboration Software in Cloud 
# Website: https://fylm.ai 
# META
# Option: Gamut compress
# Block 1: IDT | CanonLog2 Cinema Gamut Daylight
# Block 2: colourMatch | Blending Mode: Normal | {"ColorSpace":0,"CrossCovarianceLimit":50,"ReshapingIterations":1,"PercentSaturationShift":100,"PercentShadingShift":100,"ExtraShading":true,"PercentTint":100,"PercentModified":100}
# Block 3: subtractiveColour | Blending Mode: Normal | {"sliders":{"gainY":0.55,"C":0.3,"M":0.3,"Y":0.3}}
# Block 4: LUT | Filmic Curve Response: Low Contrast 2 (100%)
# Block 5: logPrimaries | Blending Mode: Normal | {"wheels":{"shadows":{"Y":"0","R":"1","G":"1","B":"1"},"midtones":{"Y":"0","R":"1","G":"1","B":"1"},"highlights":{"Y":"0","R":"1","G":"1","B":"1"},"offset":{"Y":"0","R":"1","G":"1","B":"1"}},"sliders":{"shadows":{"Y":0,"R":-0.085,"G":0.024,"B":0.134},"midtones":{"Y":0,"R":0,"G":-0.023,"B":0},"highlights":{"Y":0,"R":0,"G":0,"B":0},"offset":{"Y":0,"R":0.012,"G":-0.012,"B":0}}}
# Block 6: HSL | Blending Mode: Normal | {"hue":{"Reds":0,"Yellows":0,"Greens":0,"Cyans":0,"Blues":0,"Magentas":0},"saturation":{"Reds":1,"Yellows":1,"Greens":1,"Cyans":1,"Blues":1,"Magentas":1},"luminance":{"Reds":0.9,"Yellows":0.9,"Greens":0.9,"Cyans":0.9,"Blues":0.9,"Magentas":0.9},"lum_sat":{"Blacks":1,"Shadows":1,"Midtones":1,"Highlights":1,"Whites":1},"sat_sat":{"10":1,"20":1,"30":1,"40":1,"50":1}}
# Block 7: ODT | Rec709
TITLE "Lutify.me-FilmBoost10-CanonLog2-to-Rec709" 
LUT_3D_SIZE 33
0.000000 0.000000 0.000000
0.000000 0.000000 0.000000
0.000000 0.000000 0.000000
0.000000 0.000000 0.000000
0.000000 0.000000 0.000000
0.018702 0.000000 0.000000
0.063312 0.000000 0.000000
0.094572 0.000000 0.000000
0.122781 0.000000 0.000000
0.150233 0.000000 0.000000
0.183711 0.000000 0.000000
0.218595 0.000000 0.000000
0.262181 0.000000 0.000000
0.310639 0.000000 0.000000
0.362294 0.000000 0.000000
0.422926 0.000000 0.000000
0.496965 0.000000 0.000000
0.571624 0.000000 0.000000
0.651677 0.000000 0.011261
0.727476 0.000000 0.042263
0.811898 0.000000 0.058815
0.884528 0.000000 0.083779
0.949008 0.000000 0.112433
1.000000 0.000000 0.154538
1.000000 0.000000 0.194915
1.000000 0.040961 0.237521
1.000000 0.253460 0.289282
1.000000 0.359128 0.347482
1.000000 0.440964 0.408175
1.000000 0.520742 0.466189
1.000000 0.612665 0.526006
1.000000 0.684209 0.588227
1.000000 0.741269 0.650920
0.000000 0.000000 0.000000
0.000000 0.000000 0.000000
0.000000 0.000000 0.000000
0.000000 0.000000 0.000000
0.000000 0.000000 0.000000
0.022745 0.000000 0.000000
0.065336 0.000000 0.000000
0.099180 0.000000 0.000000
0.126198 0.000000 0.000000
0.156439 0.000000 0.000000
0.187210 0.000000 0.000000
0.226199 0.000000 0.000000
0.269683 0.000000 0.000000
0.319408 0.000000 0.000000
0.370049 0.000000 0.000000
0.425558 0.000000 0.000000
0.499834 0.000000 0.000000
0.574937 0.000000 0.000000
0.651685 0.000000 0.007324
0.727458 0.000000 0.041630
0.815342 0.000000 0.058245
0.887550 0.000000 0.083370
0.951540 0.000000 0.112397
1.000000 0.000000 0.154421
1.000000 0.000000 0.195064
1.000000 0.083354 0.237225
1.000000 0.253460 0.289282
1.000000 0.359128 0.347482
1.000000 0.440964 0.408175
1.000000 0.520742 0.466189
1.000000 0.612665 0.526006
1.000000 0.684209 0.588227
1.000000 0.741269 0.650920
0.000000 0.000000 0.000000
0.000000 0.000000 0.000000
0.000000 0.000000 0.000000
0.000000 0.000000 0.000000
0.000000 0.000000 0.000000
0.033461 0.000000 0.000000
0.069699 0.000000 0.000000
0.104465 0.000000 0.000000
0.129737 0.000000 0.000000
0.159885 0.000000 0.000000
0.193897 0.000000 0.000000
0.232377 0.000000 0.000000
0.275636 0.000000 0.000000
0.329906 0.000000 0.000000
0.374612 0.000000 0.000000
0.428025 0.000000 0.000000
0.505740 0.000000 0.000000
0.578246 0.000000 0.000000
0.655106 0.000000 0.000000
0.730643 0.000000 0.040193
0.815323 0.000000 0.058035
0.887500 0.000000 0.083149
0.951445 0.000000 0.112170
1.000000 0.000000 0.151483
1.000000 0.000000 0.195064
1.000000 0.083354 0.237225
1.000000 0.253460 0.289282
1.000000 0.359645 0.347697
1.000000 0.440964 0.408175
1.000000 0.526798 0.465901
1.000000 0.612665 0.526006
1.000000 0.684209 0.588227
1.000000 0.741269 0.650920
0.000000 0.000000 0.000000
0.000000 0.000000 0.000000
0.000000 0.000000 0.000000
0.000000 0.000000 0.000000
0.000000 0.000000 0.000000
0.050353 0.000000 0.000000
0.079379 0.000000 0.000000
0.108369 0.000000 0.000000
0.132622 0.000000 0.000000
0.164335 0.000000 0.000000
0.198049 0.000000 0.000000
0.238843 0.000000 0.000000
0.281420 0.000000 0.000000
0.332290 0.000000 0.000000
0.386138 0.000000 0.000000
0.435838 0.000000 0.000000
0.505764 0.000000 0.000000
0.578019 0.000000 0.000000
0.655111 0.000000 0.000000
0.730632 0.000000 0.039733
0.815284 0.000000 0.057591
0.887475 0.000000 0.083035
0.951397 0.000000 0.112054
1.000000 0.000000 0.151483
1.000000 0.000000 0.194931
1.000000 0.083354 0.237225
1.000000 0.262331 0.288941
1.000000 0.363226 0.347535
1.000000 0.440964 0.408175
1.000000 0.526798 0.465901
1.000000 0.612665 0.526006
1.000000 0.684209 0.588227
1.000000 0.741269 0.650920
0.000000 0.017038 0.000000
0.000000 0.017380 0.000000
0.000000 0.017578 0.000000
0.000000 0.018439 0.000000
0.000000 0.021267 0.000000
0.048785 0.000000 0.000000
0.085814 0.000000 0.000000
0.115610 0.000000 0.000000
0.139547 0.000000 0.000000
0.169904 0.000000 0.000000
0.202374 0.000000 0.000000
0.245621 0.000000 0.000000
0.285308 0.000000 0.000000
0.338341 0.000000 0.000000
0.386163 0.000000 0.000000
0.438383 0.000000 0.000000
0.508632 0.000000 0.000000
0.581333 0.000000 0.000000
0.655118 0.000000 0.000000
0.730346 0.000000 0.038599
0.815264 0.000000 0.057354
0.887423 0.000000 0.082800
0.951298 0.000000 0.111813
1.000000 0.000000 0.151475
1.000000 0.000000 0.194931
1.000000 0.096439 0.237072
1.000000 0.262331 0.288941
1.000000 0.363226 0.347535
1.000000 0.444206 0.408026
1.000000 0.526798 0.465901
1.000000 0.612665 0.526006
1.000000 0.684209 0.588227
1.000000 0.743220 0.650857
0.000000 0.046544 0.000000
0.000000 0.045916 0.000000
0.000000 0.046139 0.000000
0.000000 0.047850 0.000000
0.000000 0.048519 0.000000
0.040079 0.048569 0.000000
0.080838 0.034048 0.000000
0.119206 0.000000 0.000000
0.150238 0.000000 0.000000
0.186024 0.000000 0.000000
0.217211 0.000000 0.000000
0.252318 0.000000 0.000000
0.290444 0.000000 0.000000
0.340407 0.000000 0.000000
0.393293 0.000000 0.000000
0.443679 0.000000 0.000000
0.508670 0.000000 0.000000
0.581354 0.000000 0.000000
0.658542 0.000000 0.000000
0.730337 0.000000 0.038197
0.815253 0.000000 0.057233
0.887369 0.000000 0.082554
0.951197 0.000000 0.111566
1.000000 0.000000 0.151214
1.000000 0.000000 0.194658
1.000000 0.096439 0.237072
1.000000 0.262331 0.288941
1.000000 0.363226 0.347535
1.000000 0.443598 0.402382
1.000000 0.526798 0.465901
1.000000 0.612665 0.526006
1.000000 0.684209 0.588227
1.000000 0.743220 0.650857
0.000000 0.062812 0.000000
0.000000 0.063111 0.000000
0.000000 0.064363 0.000000
0.000000 0.066894 0.000000
0.000000 0.068575 0.000000
0.000000 0.069181 0.000000
0.075181 0.064351 0.000000
0.117423 0.047976 0.000000
0.155725 0.022729 0.000000
0.194353 0.000000 0.000000
0.228149 0.000000 0.000000
0.263691 0.000000 0.000000
0.302558 0.000000 0.000000
0.348664 0.000000 0.000000
0.395800 0.000000 0.000000
0.454624 0.000000 0.000000
0.511553 0.000000 0.000000
0.588008 0.000000 0.000000
0.658558 0.000000 0.000000
0.736716 0.000000 0.034933
0.818674 0.000000 0.056352
0.887286 0.000000 0.082170
0.953696 0.000000 0.111516
1.000000 0.000000 0.150944
1.000000 0.000000 0.194658
1.000000 0.096682 0.237233
1.000000 0.266691 0.288767
1.000000 0.363226 0.347535
1.000000 0.443598 0.402382
1.000000 0.526798 0.465901
1.000000 0.612665 0.526006
1.000000 0.685421 0.588904
1.000000 0.743220 0.650857
0.000000 0.085093 0.000000
0.000000 0.085439 0.000000
0.000000 0.087077 0.000000
0.000000 0.089493 0.000000
0.000000 0.091551 0.000000
0.000000 0.094130 0.000000
0.055946 0.094188 0.000000
0.119378 0.080021 0.000000
0.162407 0.063840 0.000000
0.209243 0.019639 0.000000
0.246173 0.000000 0.000000
0.282141 0.000000 0.000000
0.315378 0.000000 0.000000
0.359420 0.000000 0.000000
0.400785 0.000000 0.000000
0.457175 0.000000 0.000000
0.514286 0.000000 0.000000
0.590902 0.000000 0.000000
0.661737 0.000000 0.000000
0.736699 0.000000 0.034003
0.818614 0.000000 0.055608
0.890261 0.000000 0.081629
0.953536 0.000000 0.111118
1.000000 0.000000 0.150805
1.000000 0.000000 0.192938
1.000000 0.107793 0.237078
1.000000 0.266691 0.288767
1.000000 0.366798 0.347372
1.000000 0.443598 0.402382
1.000000 0.526798 0.465901
1.000000 0.615531 0.525867
1.000000 0.685421 0.588904
1.000000 0.743220 0.650857
0.000000 0.110281 0.000000
0.000000 0.113986 0.000000
0.000000 0.114325 0.000000
0.000000 0.118335 0.000000
0.000000 0.119145 0.000000
0.000000 0.123544 0.000000
0.000000 0.125592 0.000000
0.106383 0.122097 0.000000
0.163355 0.105898 0.000000
0.216265 0.080129 0.000000
0.261105 0.051980 0.000000
0.296070 0.000000 0.000000
0.333067 0.000000 0.000000
0.375261 0.000000 0.000000
0.415909 0.000000 0.000000
0.462524 0.000000 0.000000
0.532713 0.000000 0.000000
0.600019 0.000000 0.000000
0.664666 0.000000 0.000000
0.739868 0.000000 0.030550
0.818550 0.000000 0.054778
0.890106 0.000000 0.080879
0.955776 0.000000 0.110486
1.000000 0.000000 0.150643
1.000000 0.000000 0.192939
1.000000 0.126581 0.236759
1.000000 0.271007 0.288591
1.000000 0.366798 0.347372
1.000000 0.446840 0.402229
1.000000 0.529829 0.465756
1.000000 0.615531 0.525867
1.000000 0.687849 0.588801
1.000000 0.743220 0.650857
0.000000 0.140773 0.000000
0.000000 0.142351 0.000000
0.000000 0.145018 0.000000
0.000000 0.150101 0.000000
0.000000 0.150984 0.000000
0.000000 0.158900 0.000000
0.000000 0.159651 0.000000
0.055440 0.158186 0.000000
0.159130 0.154456 0.000000
0.222330 0.129400 0.000000
0.272227 0.106349 0.000000
0.311449 0.073844 0.000000
0.354833 0.000000 0.000000
0.394981 0.000000 0.000000
0.435035 0.000000 0.000000
0.476766 0.000000 0.000000
0.538340 0.000000 0.000000
0.606110 0.000000 0.000000
0.670540 0.000000 0.000000
0.746223 0.000000 0.022612
0.821319 0.000000 0.050959
0.889941 0.000000 0.080052
0.955534 0.000000 0.109866
1.000000 0.000000 0.150194
1.000000 0.000000 0.192642
1.000000 0.134840 0.236595
1.000000 0.275281 0.288412
1.000000 0.370360 0.347207
1.000000 0.446840 0.402229
1.000000 0.529829 0.465756
1.000000 0.615531 0.525867
1.000000 0.687849 0.588801
1.000000 0.743220 0.650857
0.000000 0.171813 0.000000
0.000000 0.172444 0.000000
0.000000 0.179931 0.000000
0.000000 0.184738 0.000000
0.000000 0.185460 0.000000
0.000000 0.189454 0.000000
0.000000 0.190567 0.000000
0.000000 0.195364 0.000000
0.116251 0.193014 0.000000
0.218913 0.179502 0.000000
0.273073 0.155149 0.000000
0.319745 0.134743 0.000000
0.367671 0.098632 0.000000
0.416633 0.044462 0.000000
0.455750 0.000000 0.000000
0.495768 0.000000 0.000000
0.547400 0.000000 0.000000
0.611682 0.000000 0.000000
0.679883 0.000000 0.000000
0.751474 0.000000 0.000000
0.824286 0.000000 0.046185
0.895221 0.000000 0.076524
0.957638 0.000000 0.108929
1.000000 0.000000 0.149680
1.000000 0.000000 0.192174
1.000000 0.156786 0.236084
1.000000 0.280281 0.288599
1.000000 0.373915 0.347041
1.000000 0.450081 0.402074
1.000000 0.532863 0.465609
1.000000 0.618400 0.525728
1.000000 0.687849 0.588801
1.000000 0.743220 0.650857
0.000000 0.207463 0.000000
0.000000 0.210029 0.000000
0.000000 0.215831 0.000000
0.000000 0.220069 0.000000
0.000000 0.221535 0.000000
0.000000 0.227242 0.000000
0.000000 0.231473 0.000000
0.000000 0.232227 0.000000
0.000000 0.228479 0.000000
0.190363 0.225146 0.000000
0.269374 0.210786 0.000000
0.331219 0.184229 0.000000
0.381012 0.154765 0.000000
0.440279 0.121029 0.000000
0.481174 0.078465 0.000000
0.516223 0.000000 0.000000
0.566269 0.000000 0.000000
0.623874 0.000000 0.000000
0.682488 0.000000 0.000000
0.760174 0.000000 0.000000
0.829840 0.000000 0.036623
0.900519 0.000000 0.072854
0.961669 0.000000 0.106180
1.000000 0.000000 0.146381
1.000000 0.000000 0.191658
1.000000 0.175932 0.235543
1.000000 0.292703 0.288044
1.000000 0.380999 0.346701
1.000000 0.453321 0.401918
1.000000 0.535900 0.465462
1.000000 0.618400 0.525728
1.000000 0.690268 0.588700
1.000000 0.743220 0.650857
0.000000 0.250672 0.000000
0.000000 0.254086 0.000000
0.000000 0.260531 0.000000
0.000000 0.260492 0.000000
0.000000 0.263802 0.000000
0.000000 0.265421 0.000000
0.000000 0.270454 0.000000
0.000000 0.270046 0.000000
0.000000 0.270466 0.000000
0.133669 0.267136 0.000000
0.243744 0.265801 0.000000
0.328671 0.243222 0.000000
0.394211 0.215364 0.000000
0.460471 0.185358 0.000000
0.510848 0.142044 0.000000
0.552869 0.106226 0.000000
0.593763 0.061591 0.000000
0.642256 0.000000 0.000000
0.694077 0.000000 0.000000
0.761680 0.000000 0.000000
0.845230 0.000000 0.000000
0.905030 0.000000 0.065206
0.963246 0.000000 0.103883
1.000000 0.000000 0.145138
1.000000 0.000000 0.190559
1.000000 0.199066 0.235108
1.000000 0.301181 0.287852
1.000000 0.388053 0.346355
1.000000 0.459801 0.401603
1.000000 0.538939 0.465314
1.000000 0.621272 0.525589
1.000000 0.690268 0.588700
1.000000 0.743220 0.650857
0.000000 0.294486 0.000000
0.000000 0.300197 0.000000
0.000000 0.300154 0.000000
0.000000 0.304016 0.000000
0.000000 0.307923 0.000000
0.000000 0.311868 0.000000
0.000000 0.317894 0.000000
0.000000 0.317650 0.000000
0.000000 0.318936 0.000000
0.000000 0.316875 0.000000
0.192932 0.311076 0.000000
0.312722 0.306904 0.000000
0.394143 0.281030 0.000000
0.469349 0.250929 0.000000
0.524572 0.217393 0.000000
0.578926 0.189037 0.000000
0.628838 0.158095 0.000000
0.661227 0.143162 0.000000
0.711384 0.102113 0.000000
0.769885 0.000000 0.000000
0.846241 0.000000 0.000000
0.908831 0.000000 0.050590
0.966487 0.000000 0.098319
1.000000 0.000000 0.143205
1.000000 0.094949 0.189855
1.000000 0.229288 0.230297
1.000000 0.312829 0.285051
1.000000 0.399009 0.346044
1.000000 0.466818 0.401545
1.000000 0.541980 0.465164
1.000000 0.624148 0.525448
1.000000 0.692680 0.588599
1.000000 0.743220 0.650857
0.000000 0.348335 0.000000
0.000000 0.348289 0.000000
0.000000 0.350513 0.000000
0.000000 0.352761 0.000000
0.000000 0.355019 0.000000
0.000000 0.357273 0.000000
0.000000 0.361866 0.000000
0.000000 0.361658 0.000000
0.000000 0.363575 0.000000
0.000000 0.362323 0.000000
0.093444 0.359461 0.000000
0.269797 0.352352 0.000000
0.377312 0.350462 0.000000
0.473931 0.317541 0.000000
0.546909 0.287765 0.000000
0.601063 0.253761 0.000000
0.660415 0.217298 0.000000
0.695713 0.197310 0.000000
0.727982 0.197147 0.000000
0.785781 0.160199 0.000000
0.851901 0.059038 0.000000
0.911736 0.000000 0.000000
0.966342 0.000000 0.087226
1.000000 0.076207 0.135917
1.000000 0.166857 0.184667
1.000000 0.257650 0.229032
1.000000 0.332614 0.284203
1.000000 0.409464 0.345496
1.000000 0.472977 0.398405
1.000000 0.551118 0.464711
1.000000 0.629898 0.525167
1.000000 0.695083 0.588499
1.000000 0.745164 0.650796
0.000000 0.391410 0.000000
0.000000 0.399067 0.000000
0.000000 0.401634 0.000000
0.000000 0.404219 0.000000
0.000000 0.406828 0.000000
0.000000 0.406765 0.000000
0.000000 0.406670 0.000000
0.000000 0.406490 0.000000
0.000000 0.411481 0.000000
0.000000 0.413397 0.000000
0.000000 0.411639 0.000000
0.180053 0.408793 0.000000
0.335897 0.403860 0.000000
0.474469 0.383639 0.000000
0.544653 0.362343 0.000000
0.606783 0.329081 0.000000
0.672405 0.293353 0.000000
0.729910 0.256078 0.000000
0.755983 0.248907 0.000000
0.791817 0.250457 0.000000
0.854838 0.224853 0.000000
0.912220 0.185511 0.000000
0.967042 0.154743 0.064615
1.000000 0.177578 0.122077
1.000000 0.226110 0.179997
1.000000 0.296452 0.225113
1.000000 0.355044 0.278643
1.000000 0.419875 0.344930
1.000000 0.485895 0.397731
1.000000 0.561356 0.464818
1.000000 0.635617 0.524887
1.000000 0.697477 0.588401
1.000000 0.747098 0.650736
0.000000 0.456299 0.000000
0.000000 0.461946 0.000000
0.000000 0.461918 0.000000
0.000000 0.461888 0.000000
0.000000 0.461864 0.000000
0.000000 0.461813 0.000000
0.000000 0.461724 0.000000
0.000000 0.464447 0.000000
0.000000 0.467048 0.000000
0.000000 0.469424 0.000000
0.000000 0.468426 0.000000
0.000000 0.463630 0.000000
0.266219 0.459687 0.000000
0.429920 0.458721 0.000000
0.537437 0.445480 0.000000
0.609833 0.410844 0.000000
0.682882 0.383549 0.000000
0.743407 0.346828 0.000000
0.805119 0.304120 0.000000
0.823976 0.313213 0.000000
0.864977 0.318392 0.000000
0.921158 0.302129 0.000000
0.964823 0.269926 0.000000
1.000000 0.265914 0.100619
1.000000 0.292293 0.167856
1.000000 0.336395 0.220320
1.000000 0.387994 0.274178
1.000000 0.437848 0.344418
1.000000 0.495756 0.394679
1.000000 0.570482 0.464351
1.000000 0.642391 0.525238
1.000000 0.702239 0.588207
1.000000 0.750938 0.650622
0.000000 0.513980 0.000000
0.000000 0.516874 0.000000
0.000000 0.516830 0.000000
0.000000 0.516783 0.000000
0.000000 0.516741 0.000000
0.000000 0.516677 0.000000
0.000000 0.516584 0.000000
0.000000 0.516419 0.000000
0.000000 0.519164 0.000000
0.000000 0.527713 0.000000
0.000000 0.526994 0.000000
0.000000 0.525647 0.000000
0.119796 0.516841 0.000000
0.380808 0.510937 0.000000
0.500733 0.504983 0.000000
0.615509 0.492482 0.000000
0.691616 0.452970 0.000000
0.753853 0.417011 0.000000
0.812887 0.386751 0.000000
0.861426 0.356967 0.000000
0.874744 0.371637 0.000000
0.916467 0.390835 0.000000
0.965010 0.383135 0.000000
1.000000 0.359974 0.045433
1.000000 0.354741 0.150991
1.000000 0.381459 0.210838
1.000000 0.416542 0.267734
1.000000 0.461228 0.335363
1.000000 0.515098 0.393597
1.000000 0.586220 0.463851
1.000000 0.647998 0.524966
1.000000 0.707735 0.591360
1.000000 0.755756 0.651322
0.000000 0.567242 0.000000
0.000000 0.567166 0.000000
0.000000 0.567104 0.000000
0.000000 0.567074 0.000000
0.000000 0.567032 0.000000
0.000000 0.569942 0.000000
0.000000 0.569862 0.000000
0.000000 0.572747 0.000000
0.000000 0.572531 0.000000
0.000000 0.572164 0.000000
0.000000 0.571538 0.000000
0.000000 0.570499 0.000000
0.000000 0.568515 0.000000
0.275694 0.564636 0.000000
0.449091 0.564935 0.000000
0.583679 0.557216 0.000000
0.681011 0.532625 0.000000
0.757249 0.505648 0.000000
0.813943 0.473656 0.000000
0.865202 0.441722 0.000000
0.915988 0.409137 0.000000
0.921974 0.433707 0.000000
0.956637 0.461331 0.000000
0.997938 0.457769 0.000000
1.000000 0.426464 0.112542
1.000000 0.432018 0.198644
1.000000 0.459313 0.262431
1.000000 0.494274 0.322995
1.000000 0.544868 0.392480
1.000000 0.601483 0.463040
1.000000 0.659102 0.524433
1.000000 0.712395 0.591179
1.000000 0.759477 0.651223
0.000000 0.627266 0.000000
0.000000 0.630219 0.000000
0.000000 0.630174 0.000000
0.000000 0.630111 0.000000
0.000000 0.630044 0.000000
0.000000 0.629990 0.000000
0.000000 0.629874 0.000000
0.000000 0.629747 0.000000
0.000000 0.629529 0.000000
0.000000 0.629150 0.000000
0.000000 0.631765 0.000000
0.000000 0.634192 0.000000
0.000000 0.632709 0.000000
0.000000 0.630098 0.000000
0.363940 0.625416 0.000000
0.524799 0.619259 0.000000
0.662378 0.609861 0.000000
0.745034 0.590039 0.000000
0.813939 0.560677 0.000000
0.872845 0.528429 0.000000
0.916337 0.501613 0.000000
0.957734 0.464921 0.000000
0.952851 0.510965 0.000000
0.989443 0.531593 0.000000
1.000000 0.531786 0.000000
1.000000 0.504497 0.167908
1.000000 0.510652 0.248093
1.000000 0.538022 0.317271
1.000000 0.577051 0.387961
1.000000 0.623126 0.456637
1.000000 0.673201 0.524118
1.000000 0.721593 0.590835
1.000000 0.764982 0.651087
0.000000 0.678390 0.000000
0.000000 0.678306 0.000000
0.000000 0.678215 0.000000
0.000000 0.678143 0.000000
0.000000 0.678118 0.000000
0.000000 0.678015 0.000000
0.000000 0.677933 0.000000
0.000000 0.677786 0.000000
0.000000 0.677594 0.000000
0.000000 0.677307 0.000000
0.000000 0.680023 0.000000
0.000000 0.679216 0.000000
0.000000 0.677837 0.000000
0.000000 0.675887 0.000000
0.280986 0.672495 0.000000
0.442904 0.677339 0.000000
0.612383 0.663813 0.000000
0.739255 0.653032 0.000000
0.805609 0.634814 0.000000
0.871114 0.602446 0.000000
0.916385 0.579203 0.000000
0.952623 0.547402 0.000000
0.985555 0.529954 0.000000
0.976142 0.586771 0.000000
1.000000 0.604616 0.000000
1.000000 0.607614 0.088048
1.000000 0.587312 0.217577
1.000000 0.594460 0.305386
1.000000 0.619068 0.385527
1.000000 0.650069 0.449630
1.000000 0.689295 0.520752
1.000000 0.729235 0.591315
1.000000 0.770822 0.651386
0.000000 0.731336 0.000000
0.000000 0.731208 0.000000
0.000000 0.731175 0.000000
0.000000 0.731141 0.000000
0.000000 0.731072 0.000000
0.000000 0.730963 0.000000
0.000000 0.730927 0.000000
0.000000 0.730770 0.000000
0.000000 0.730516 0.000000
0.000000 0.732989 0.000000
0.000000 0.732494 0.000000
0.000000 0.731632 0.000000
0.000000 0.730647 0.000000
0.000000 0.729108 0.000000
0.142835 0.726821 0.000000
0.371919 0.726201 0.000000
0.554995 0.720069 0.000000
0.695685 0.712906 0.000000
0.798262 0.705989 0.000000
0.859121 0.673284 0.000000
0.908336 0.653366 0.000000
0.945801 0.621857 0.000000
0.979539 0.604549 0.000000
1.000000 0.578502 0.000000
0.999177 0.648582 0.000000
1.000000 0.660427 0.000000
1.000000 0.674035 0.173529
1.000000 0.657808 0.275916
1.000000 0.662804 0.375041
1.000000 0.682134 0.448273
1.000000 0.710253 0.517628
1.000000 0.744886 0.591201
1.000000 0.781272 0.651205
0.000000 0.776033 0.000000
0.000000 0.775880 0.000000
0.000000 0.775828 0.000000
0.000000 0.775720 0.000000
0.000000 0.775665 0.000000
0.000000 0.775552 0.000000
0.000000 0.775435 0.000000
0.000000 0.777721 0.000000
0.000000 0.777390 0.000000
0.000000 0.777105 0.000000
0.000000 0.776800 0.000000
0.000000 0.776124 0.000000
0.000000 0.775458 0.000000
0.000000 0.774166 0.000000
0.000000 0.775074 0.000000
0.313216 0.772088 0.000000
0.493578 0.767447 0.000000
0.647569 0.761005 0.000000
0.767808 0.754270 0.000000
0.842245 0.748669 0.000000
0.894442 0.722732 0.000000
0.935576 0.702717 0.000000
0.971703 0.673913 0.000000
1.000000 0.648708 0.000000
1.000000 0.624130 0.000000
1.000000 0.708545 0.000000
1.000000 0.723709 0.000000
1.000000 0.726081 0.243509
1.000000 0.713257 0.353173
1.000000 0.719235 0.433161
1.000000 0.736944 0.514093
1.000000 0.761908 0.588591
1.000000 0.792108 0.651957
0.000000 0.818621 0.000000
0.000000 0.818543 0.000000
0.000000 0.818465 0.000000
0.000000 0.818465 0.000000
0.000000 0.818384 0.000000
0.000000 0.818220 0.000000
0.000000 0.818136 0.000000
0.000000 0.818050 0.000000
0.000000 0.817785 0.000000
0.000000 0.817603 0.000000
0.000000 0.817128 0.000000
0.000000 0.816517 0.000000
0.000000 0.815861 0.000000
0.000000 0.816921 0.000000
0.000000 0.817435 0.000000
0.302183 0.815143 0.000000
0.455137 0.811748 0.000000
0.582988 0.807340 0.000000
0.712646 0.801250 0.000000
0.814535 0.795330 0.000000
0.881781 0.780913 0.000000
0.928059 0.763157 0.000000
0.962359 0.738416 0.000000
0.987043 0.724882 0.000000
1.000000 0.700001 0.000000
1.000000 0.681630 0.000000
1.000000 0.758069 0.000000
1.000000 0.773494 0.150385
1.000000 0.774452 0.313907
1.000000 0.764163 0.418901
1.000000 0.769606 0.500006
1.000000 0.784774 0.582821
1.000000 0.807127 0.652356
0.000000 0.857138 0.000000
0.000000 0.857040 0.000000
0.000000 0.856941 0.000000
0.000000 0.856941 0.000000
0.000000 0.856840 0.000000
0.000000 0.856840 0.000000
0.000000 0.856635 0.000000
0.000000 0.856531 0.000000
0.000000 0.856319 0.000000
0.000000 0.855992 0.000000
0.000000 0.855654 0.000000
0.000000 0.855304 0.000000
0.000000 0.854442 0.000000
0.000000 0.853514 0.000000
0.160356 0.852222 0.000000
0.335799 0.850151 0.000000
0.441481 0.847834 0.000000
0.551678 0.844426 0.000000
0.669458 0.839568 0.000000
0.779978 0.833818 0.000000
0.855201 0.834595 0.000000
0.913618 0.822475 0.000000
0.948512 0.802607 0.000000
0.973098 0.791437 0.000000
1.000000 0.771055 0.000000
1.000000 0.752888 0.000000
1.000000 0.737907 0.000000
1.000000 0.809360 0.000000
1.000000 0.818648 0.241352
1.000000 0.819993 0.397800
1.000000 0.809302 0.487663
1.000000 0.814530 0.572839
1.000000 0.826144 0.650615
0.000000 0.884341 0.000000
0.000000 0.884220 0.000000
0.000000 0.884220 0.000000
0.000000 0.884098 0.000000
0.000000 0.884098 0.000000
0.000000 0.883975 0.000000
0.000000 0.883975 0.000000
