Assets/Lutify-Free-LUTs-Pack/Lutify Free LUTs Pack/Colour Film Boost Pro - Film Boost 10/Lutify.me-FilmBoost10-LogC3-to-Rec709.cube
# Created with: fylm.ai - Colour Grading and Collaboration Software in Cloud 
# Website: https://fylm.ai 
# META
# Option: Gamut compress
# Block 1: IDT | Arri Alexa - LogC3
# Block 2: colourMatch | Blending Mode: Normal | {"ColorSpace":0,"CrossCovarianceLimit":50,"ReshapingIterations":1,"PercentSaturationShift":100,"PercentShadingShift":100,"ExtraShading":true,"PercentTint":100,"PercentModified":100}
# Block 3: subtractiveColour | Blending Mode: Normal | {"sliders":{"gainY":0.55,"C":0.3,"M":0.3,"Y":0.3}}
# Block 4: LUT | Filmic Curve Response: Low Contrast 2 (100%)
# Block 5: logPrimaries | Blending Mode: Normal | {"wheels":{"shadows":{"Y":"0","R":"1","G":"1","B":"1"},"midtones":{"Y":"0","R":"1","G":"1","B":"1"},"highlights":{"Y":"0","R":"1","G":"1","B":"1"},"offset":{"Y":"0","R":"1","G":"1","B":"1"}},"sliders":{"shadows":{"Y":0,"R":-0.085,"G":0.024,"B":0.134},"midtones":{"Y":0,"R":0,"G":-0.023,"B":0},"highlights":{"Y":0,"R":0,"G":0,"B":0},"offset":{"Y":0,"R":0.012,"G":-0.012,"B":0}}}
# Block 6: HSL | Blending Mode: Normal | {"hue":{"Reds":0,"Yellows":0,"Greens":0,"Cyans":0,"Blues":0,"Magentas":0},"saturation":{"Reds":1,"Yellows":1,"Greens":1,"Cyans":1,"Blues":1,"Magentas":1},"luminance":{"Reds":0.9,"Yellows":0.9,"Greens":0.9,"Cyans":0.9,"Blues":0.9,"Magentas":0.9},"lum_sat":{"Blacks":1,"Shadows":1,"Midtones":1,"Highlights":1,"Whites":1},"sat_sat":{"10":1,"20":1,"30":1,"40":1,"50":1}}
# Block 7: ODT | Rec709
TITLE "Lutify.me-FilmBoost10-LogC3-to-Rec709" 
LUT_3D_SIZE 33
0.000000 0.000000 0.000000
0.000000 0.000000 0.000000
0.000000 0.000000 0.000000
0.000000 0.000000 0.000000
0.000000 0.000000 0.000000
0.015386 0.000000 0.000000
0.061304 0.000000 0.000000
0.093049 0.000000 0.000000
0.121445 0.000000 0.000000
0.149372 0.000000 0.000000
0.182597 0.000000 0.000000
0.219284 0.000000 0.000000
0.263412 0.000000 0.000000
0.316935 0.000000 0.000000
0.370327 0.000000 0.000000
0.425903 0.000000 0.000000
0.495027 0.000000 0.000000
0.574015 0.000000 0.000000
0.648606 0.000000 0.018640
0.723695 0.000000 0.044171
0.809162 0.000000 0.065270
0.883951 0.000000 0.091317
0.949268 0.000000 0.123783
0.993656 0.069380 0.165300
1.000000 0.224342 0.208378
1.000000 0.320778 0.252054
1.000000 0.404967 0.301656
1.000000 0.482143 0.361388
1.000000 0.560209 0.417281
1.000000 0.636866 0.479210
1.000000 0.697701 0.543703
1.000000 0.750818 0.613747
1.000000 0.793214 0.668766
0.000000 0.000000 0.000000
0.000000 0.000000 0.000000
0.000000 0.000000 0.000000
0.000000 0.000000 0.000000
0.000000 0.000000 0.000000
0.029557 0.000000 0.000000
0.065987 0.000000 0.000000
0.097636 0.000000 0.000000
0.124134 0.000000 0.000000
0.154931 0.000000 0.000000
0.186687 0.000000 0.000000
0.226823 0.000000 0.000000
0.271409 0.000000 0.000000
0.322702 0.000000 0.000000
0.379569 0.000000 0.000000
0.428756 0.000000 0.000000
0.498302 0.000000 0.000000
0.577352 0.000000 0.000000
0.648629 0.000000 0.015439
0.723958 0.000000 0.044147
0.809694 0.000000 0.066528
0.883746 0.000000 0.090374
0.949165 0.000000 0.123545
0.993656 0.069380 0.165300
1.000000 0.224342 0.208378
1.000000 0.320778 0.252054
1.000000 0.404967 0.301656
1.000000 0.482143 0.361388
1.000000 0.560209 0.417281
1.000000 0.636866 0.479210
1.000000 0.697701 0.543703
1.000000 0.750818 0.613747
1.000000 0.793214 0.668766
0.000000 0.000000 0.000000
0.000000 0.000000 0.000000
0.000000 0.000000 0.000000
0.000000 0.000000 0.000000
0.000000 0.000000 0.000000
0.039989 0.000000 0.000000
0.073238 0.000000 0.000000
0.105453 0.000000 0.000000
0.130073 0.000000 0.000000
0.160363 0.000000 0.000000
0.193427 0.000000 0.000000
0.236441 0.000000 0.000000
0.277072 0.000000 0.000000
0.330458 0.000000 0.000000
0.384274 0.000000 0.000000
0.431623 0.000000 0.000000
0.501196 0.000000 0.000000
0.580693 0.000000 0.000000
0.655451 0.000000 0.011099
0.723940 0.000000 0.043076
0.809630 0.000000 0.065798
0.887325 0.000000 0.092377
0.951470 0.000000 0.123134
0.993481 0.084086 0.165061
1.000000 0.229204 0.208119
1.000000 0.324790 0.251792
1.000000 0.405078 0.301816
1.000000 0.482143 0.361388
1.000000 0.563513 0.417092
1.000000 0.636866 0.479210
1.000000 0.697701 0.543703
1.000000 0.750818 0.613747
1.000000 0.793214 0.668766
0.000000 0.000000 0.000000
0.000000 0.000000 0.000000
0.000000 0.000000 0.000000
0.000000 0.000000 0.000000
0.018348 0.000000 0.000000
0.063254 0.000000 0.000000
0.089391 0.000000 0.000000
0.114819 0.000000 0.000000
0.138778 0.000000 0.000000
0.170011 0.000000 0.000000
0.205335 0.000000 0.000000
0.246090 0.000000 0.000000
0.285430 0.000000 0.000000
0.336423 0.000000 0.000000
0.386705 0.000000 0.000000
0.439723 0.000000 0.000000
0.507361 0.000000 0.000000
0.583818 0.000000 0.000000
0.658885 0.000000 0.000000
0.727391 0.000000 0.042021
0.809608 0.000000 0.065543
0.887215 0.000000 0.091884
0.951362 0.000000 0.122881
0.993125 0.106349 0.164569
1.000000 0.234002 0.207853
1.000000 0.324790 0.251792
1.000000 0.408732 0.301574
1.000000 0.482143 0.361388
1.000000 0.563513 0.417092
1.000000 0.636866 0.479210
1.000000 0.697701 0.543703
1.000000 0.750818 0.613747
1.000000 0.793214 0.668766
0.000000 0.020989 0.000000
0.000000 0.024829 0.000000
0.000000 0.029403 0.000000
0.000000 0.034531 0.000000
0.000000 0.039561 0.000000
0.055624 0.031595 0.000000
0.093670 0.000000 0.000000
0.122800 0.000000 0.000000
0.150307 0.000000 0.000000
0.185819 0.000000 0.000000
0.218555 0.000000 0.000000
0.258786 0.000000 0.000000
0.295563 0.000000 0.000000
0.340550 0.000000 0.000000
0.389140 0.000000 0.000000
0.445064 0.000000 0.000000
0.513555 0.000000 0.000000
0.590707 0.000000 0.000000
0.658909 0.000000 0.000000
0.727652 0.000000 0.041774
0.813590 0.000000 0.066451
0.887160 0.000000 0.091629
0.951253 0.000000 0.122624
0.993125 0.106349 0.164569
1.000000 0.234002 0.207853
1.000000 0.324790 0.251792
1.000000 0.409020 0.304022
1.000000 0.482143 0.361388
1.000000 0.563513 0.417092
1.000000 0.636866 0.479210
1.000000 0.700368 0.543592
1.000000 0.750818 0.613747
1.000000 0.793214 0.668766
0.000000 0.048693 0.000000
0.000000 0.049750 0.000000
0.000000 0.051662 0.000000
0.000000 0.054937 0.000000
0.000000 0.058966 0.000000
0.053788 0.058140 0.000000
0.088683 0.049302 0.000000
0.120914 0.037879 0.000000
0.156385 0.000000 0.000000
0.194290 0.000000 0.000000
0.228103 0.000000 0.000000
0.265441 0.000000 0.000000
0.302655 0.000000 0.000000
0.346812 0.000000 0.000000
0.396411 0.000000 0.000000
0.453497 0.000000 0.000000
0.516532 0.000000 0.000000
0.594088 0.000000 0.000000
0.662335 0.000000 0.000000
0.731101 0.000000 0.040537
0.813566 0.000000 0.066178
0.890044 0.000000 0.090850
0.951029 0.000000 0.122094
0.992943 0.115566 0.164315
1.000000 0.238741 0.207583
1.000000 0.328780 0.251526
1.000000 0.409020 0.304022
1.000000 0.485609 0.361181
1.000000 0.563513 0.417092
1.000000 0.636866 0.479210
1.000000 0.700368 0.543592
1.000000 0.750818 0.613747
1.000000 0.796719 0.668730
0.000000 0.065928 0.000000
0.000000 0.067272 0.000000
0.000000 0.069196 0.000000
0.000000 0.073328 0.000000
0.000000 0.078441 0.000000
0.035700 0.078625 0.000000
0.088461 0.076009 0.000000
0.128696 0.060893 0.000000
0.164446 0.047524 0.000000
0.201237 0.000000 0.000000
0.239973 0.000000 0.000000
0.275634 0.000000 0.000000
0.310035 0.000000 0.000000
0.359737 0.000000 0.000000
0.399048 0.000000 0.000000
0.456327 0.000000 0.000000
0.520099 0.000000 0.000000
0.597720 0.000000 0.000000
0.666300 0.000000 0.000000
0.731075 0.000000 0.038518
0.813495 0.000000 0.065320
0.889924 0.000000 0.090292
0.950915 0.000000 0.121820
0.992758 0.123986 0.164057
1.000000 0.238741 0.207583
1.000000 0.328780 0.251526
1.000000 0.412666 0.303780
1.000000 0.485609 0.361181
1.000000 0.563513 0.417092
1.000000 0.636866 0.479210
1.000000 0.700368 0.543592
1.000000 0.750818 0.613747
1.000000 0.796719 0.668730
0.000000 0.087856 0.000000
0.000000 0.088845 0.000000
0.000000 0.091994 0.000000
0.000000 0.097639 0.000000
0.000000 0.100933 0.000000
0.000000 0.101725 0.000000
0.086891 0.101345 0.000000
0.130624 0.090878 0.000000
0.172521 0.079910 0.000000
0.212585 0.062703 0.000000
0.247855 0.039191 0.000000
0.285770 0.000000 0.000000
0.321676 0.000000 0.000000
0.369072 0.000000 0.000000
0.414479 0.000000 0.000000
0.459623 0.000000 0.000000
0.523699 0.000000 0.000000
0.598344 0.000000 0.000000
0.669757 0.000000 0.000000
0.734515 0.000000 0.036426
0.816895 0.000000 0.064336
0.890279 0.000000 0.091756
0.950799 0.000000 0.121540
0.996868 0.137238 0.166866
1.000000 0.248064 0.207026
1.000000 0.336701 0.250983
1.000000 0.412666 0.303780
1.000000 0.485609 0.361181
1.000000 0.566816 0.416901
1.000000 0.639976 0.479047
1.000000 0.700368 0.543592
1.000000 0.750818 0.613747
1.000000 0.796719 0.668730
0.000000 0.115543 0.000000
0.000000 0.115809 0.000000
0.000000 0.120839 0.000000
0.000000 0.125513 0.000000
0.000000 0.130131 0.000000
0.000000 0.133595 0.000000
0.055112 0.133386 0.000000
0.123996 0.133040 0.000000
0.176179 0.118176 0.000000
0.221008 0.101131 0.000000
0.261054 0.087677 0.000000
0.293196 0.072026 0.000000
0.338272 0.029383 0.000000
0.376768 0.000000 0.000000
0.425533 0.000000 0.000000
0.471968 0.000000 0.000000
0.537147 0.000000 0.000000
0.605454 0.000000 0.000000
0.673511 0.000000 0.000000
0.741961 0.000000 0.035388
0.820799 0.000000 0.064448
0.892976 0.000000 0.090232
0.950562 0.000000 0.120963
0.996673 0.144307 0.166599
1.000000 0.252348 0.206859
1.000000 0.340633 0.250707
1.000000 0.416306 0.303536
1.000000 0.489073 0.360971
1.000000 0.566816 0.416901
1.000000 0.639976 0.479047
1.000000 0.700898 0.544063
1.000000 0.750818 0.613747
1.000000 0.796719 0.668730
0.000000 0.142251 0.000000
0.000000 0.147008 0.000000
0.000000 0.153561 0.000000
0.000000 0.156672 0.000000
0.000000 0.162354 0.000000
0.000000 0.164430 0.000000
0.000000 0.166143 0.000000
0.100554 0.164434 0.000000
0.175500 0.160502 0.000000
0.233115 0.145014 0.000000
0.274588 0.127515 0.000000
0.310105 0.114117 0.000000
0.348009 0.098127 0.000000
0.392332 0.071187 0.000000
0.432234 0.033631 0.000000
0.490924 0.000000 0.000000
0.544316 0.000000 0.000000
0.609336 0.000000 0.000000
0.677573 0.000000 0.000000
0.752279 0.000000 0.026998
0.824020 0.000000 0.061276
0.899117 0.000000 0.091038
0.953118 0.000000 0.122870
0.996069 0.163630 0.165764
1.000000 0.257478 0.210220
1.000000 0.344541 0.250575
1.000000 0.416306 0.303536
1.000000 0.489073 0.360971
1.000000 0.570120 0.416710
1.000000 0.639976 0.479047
1.000000 0.700898 0.544063
1.000000 0.752995 0.613688
1.000000 0.797183 0.669293
0.000000 0.176401 0.000000
0.000000 0.181520 0.000000
0.000000 0.186800 0.000000
0.000000 0.190842 0.000000
0.000000 0.197682 0.000000
0.000000 0.197405 0.000000
0.000000 0.198265 0.000000
0.063269 0.196907 0.000000
0.157119 0.197758 0.000000
0.233964 0.186082 0.000000
0.280522 0.168342 0.000000
0.318773 0.156265 0.000000
0.360060 0.143248 0.000000
0.406597 0.123806 0.000000
0.448016 0.111260 0.000000
0.498714 0.084269 0.000000
0.552183 0.008742 0.000000
0.620264 0.000000 0.000000
0.684728 0.000000 0.000000
0.756210 0.000000 0.005937
0.831067 0.000000 0.058296
0.898654 0.000000 0.088787
0.952759 0.045816 0.123741
0.995799 0.181533 0.168088
1.000000 0.266478 0.209632
1.000000 0.348720 0.252406
1.000000 0.419939 0.303289
1.000000 0.496286 0.363415
1.000000 0.570418 0.419696
1.000000 0.643072 0.478884
1.000000 0.704055 0.550183
1.000000 0.752995 0.613688
1.000000 0.797183 0.669293
0.000000 0.215582 0.000000
0.000000 0.221581 0.000000
0.000000 0.224389 0.000000
0.000000 0.228652 0.000000
0.000000 0.232960 0.000000
0.000000 0.237223 0.000000
0.000000 0.236669 0.000000
0.000000 0.235341 0.000000
0.129520 0.234157 0.000000
0.220477 0.229544 0.000000
0.276410 0.216488 0.000000
0.328570 0.201632 0.000000
0.375856 0.185728 0.000000
0.424007 0.169146 0.000000
0.464648 0.157779 0.000000
0.513404 0.147555 0.000000
0.573050 0.125330 0.000000
0.628840 0.107972 0.000000
0.693010 0.089154 0.000000
0.763033 0.000000 0.000000
0.834526 0.000000 0.052512
0.901760 0.000000 0.089772
0.954470 0.108913 0.122068
0.996699 0.206917 0.166634
1.000000 0.284523 0.212132
1.000000 0.360309 0.251546
1.000000 0.427187 0.302788
1.000000 0.500055 0.363562
1.000000 0.573720 0.419506
1.000000 0.643072 0.478884
1.000000 0.704055 0.550183
1.000000 0.752995 0.613688
1.000000 0.797183 0.669293
0.000000 0.262187 0.000000
0.000000 0.262102 0.000000
0.000000 0.265410 0.000000
0.000000 0.270485 0.000000
0.000000 0.272075 0.000000
0.000000 0.275380 0.000000
0.000000 0.274967 0.000000
0.000000 0.275715 0.000000
0.056632 0.273747 0.000000
0.190941 0.270444 0.000000
0.258857 0.272267 0.000000
0.332665 0.256223 0.000000
0.388673 0.237824 0.000000
0.443784 0.221649 0.000000
0.481944 0.215661 0.000000
0.531814 0.205553 0.000000
0.585472 0.196607 0.000000
0.643748 0.182886 0.000000
0.704459 0.174042 0.000000
0.771578 0.161110 0.000000
0.846933 0.119363 0.030642
0.903579 0.113635 0.084143
0.956211 0.162909 0.123407
0.995655 0.231187 0.166562
1.000000 0.301159 0.210977
1.000000 0.372338 0.254964
1.000000 0.438382 0.304668
1.000000 0.506940 0.363136
1.000000 0.577232 0.419514
1.000000 0.649225 0.478563
1.000000 0.706674 0.550078
1.000000 0.755156 0.613631
1.000000 0.798913 0.669278
0.000000 0.305937 0.000000
0.000000 0.307862 0.000000
0.000000 0.313818 0.000000
0.000000 0.317810 0.000000
0.000000 0.319739 0.000000
0.000000 0.319529 0.000000
0.000000 0.319150 0.000000
0.000000 0.318225 0.000000
0.000000 0.319174 0.000000
0.127026 0.317011 0.000000
0.213725 0.320835 0.000000
0.309629 0.318017 0.000000
0.388846 0.299867 0.000000
0.457291 0.278169 0.000000
0.506451 0.262821 0.000000
0.548339 0.257886 0.000000
0.600294 0.250526 0.000000
0.664614 0.245515 0.000000
0.715559 0.238118 0.000000
0.778534 0.236152 0.000000
0.852724 0.217302 0.000000
0.907432 0.202329 0.072955
0.956694 0.217456 0.119843
0.995665 0.266684 0.165253
1.000000 0.325921 0.210846
1.000000 0.387431 0.253905
1.000000 0.449154 0.303886
1.000000 0.513818 0.362704
1.000000 0.583824 0.419129
1.000000 0.652280 0.478404
1.000000 0.706674 0.550078
1.000000 0.755156 0.613631
1.000000 0.798913 0.669278
0.000000 0.354960 0.000000
0.000000 0.357193 0.000000
0.000000 0.361780 0.000000
0.000000 0.364037 0.000000
0.000000 0.366282 0.000000
0.000000 0.366068 0.000000
0.000000 0.365689 0.000000
0.000000 0.365155 0.000000
0.000000 0.364331 0.000000
0.000000 0.365299 0.000000
0.151592 0.370559 0.000000
0.273000 0.366770 0.000000
0.368774 0.361879 0.000000
0.453826 0.344008 0.000000
0.512872 0.327638 0.000000
0.565053 0.311076 0.000000
0.612220 0.306047 0.000000
0.674482 0.299585 0.000000
0.729060 0.298241 0.000000
0.784252 0.293007 0.000000
0.857806 0.289729 0.000000
0.910104 0.282159 0.047648
0.957262 0.288508 0.108811
0.994062 0.316585 0.161537
1.000000 0.361379 0.211679
1.000000 0.402379 0.252640
1.000000 0.463454 0.302808
1.000000 0.527846 0.364720
1.000000 0.590711 0.421741
1.000000 0.655550 0.478472
1.000000 0.709278 0.549975
1.000000 0.757301 0.613577
1.000000 0.800635 0.669265
0.000000 0.406700 0.000000
0.000000 0.406609 0.000000
0.000000 0.411809 0.000000
0.000000 0.414378 0.000000
0.000000 0.416909 0.000000
0.000000 0.416741 0.000000
0.000000 0.416492 0.000000
0.000000 0.416116 0.000000
0.000000 0.418205 0.000000
0.000000 0.422870 0.000000
0.000000 0.424321 0.000000
0.203734 0.422005 0.000000
0.323690 0.421065 0.000000
0.428212 0.415586 0.000000
0.506277 0.400486 0.000000
0.568891 0.382819 0.000000
0.629044 0.369264 0.000000
0.680838 0.367222 0.000000
0.746599 0.367373 0.000000
0.798836 0.362986 0.000000
0.860182 0.363331 0.000000
0.911290 0.360864 0.000000
0.956614 0.362557 0.098260
0.992160 0.377949 0.152488
1.000000 0.399441 0.209719
1.000000 0.428144 0.250605
1.000000 0.477727 0.301863
1.000000 0.541659 0.364012
1.000000 0.603884 0.420963
1.000000 0.661860 0.481234
1.000000 0.711866 0.549873
1.000000 0.759430 0.613526
1.000000 0.802350 0.669254
0.000000 0.468787 0.000000
0.000000 0.471580 0.000000
0.000000 0.471480 0.000000
0.000000 0.474265 0.000000
0.000000 0.474147 0.000000
0.000000 0.476926 0.000000
0.000000 0.476771 0.000000
0.000000 0.476679 0.000000
0.000000 0.476267 0.000000
0.000000 0.478512 0.000000
0.000000 0.486146 0.000000
0.000000 0.484567 0.000000
0.245113 0.484842 0.000000
0.363125 0.481323 0.000000
0.474369 0.478932 0.000000
0.559685 0.470240 0.000000
0.635003 0.444422 0.000000
0.691155 0.433082 0.000000
0.750924 0.433866 0.000000
0.807687 0.431076 0.000000
0.865020 0.431978 0.000000
0.910318 0.435438 0.000000
0.956917 0.428535 0.079654
0.990201 0.434081 0.150122
1.000000 0.447161 0.203883
1.000000 0.464728 0.249372
1.000000 0.502494 0.299998
1.000000 0.562732 0.368492
1.000000 0.617945 0.426619
1.000000 0.670784 0.480786
1.000000 0.716998 0.549677
1.000000 0.763858 0.613683
1.000000 0.804057 0.669245
0.000000 0.527483 0.000000
0.000000 0.533358 0.000000
0.000000 0.533275 0.000000
0.000000 0.535959 0.000000
0.000000 0.535862 0.000000
0.000000 0.535577 0.000000
0.000000 0.538466 0.000000
0.000000 0.538266 0.000000
0.000000 0.538108 0.000000
0.000000 0.537543 0.000000
0.000000 0.539900 0.000000
0.000000 0.541427 0.000000
0.095814 0.542756 0.000000
0.285292 0.540259 0.000000
0.412875 0.539243 0.000000
0.525456 0.534036 0.000000
0.622464 0.533880 0.000000
0.684302 0.509606 0.000000
0.747975 0.503461 0.000000
0.805135 0.503380 0.000000
0.867829 0.492770 0.000000
0.915491 0.500760 0.000000
0.951390 0.506723 0.000000
0.989093 0.499012 0.141869
1.000000 0.509430 0.203792
1.000000 0.519372 0.253134
1.000000 0.545097 0.301848
1.000000 0.586908 0.370009
1.000000 0.631051 0.425839
1.000000 0.680204 0.483892
1.000000 0.724783 0.549637
1.000000 0.767987 0.613600
1.000000 0.805934 0.672200
0.000000 0.590237 0.000000
0.000000 0.593178 0.000000
0.000000 0.593109 0.000000
0.000000 0.593010 0.000000
0.000000 0.592904 0.000000
0.000000 0.598860 0.000000
0.000000 0.598740 0.000000
0.000000 0.601549 0.000000
0.000000 0.601292 0.000000
0.000000 0.603913 0.000000
0.000000 0.606020 0.000000
0.000000 0.607788 0.000000
0.000000 0.606482 0.000000
0.170914 0.607864 0.000000
0.340489 0.604747 0.000000
0.470102 0.603479 0.000000
0.593888 0.601148 0.000000
0.687913 0.592005 0.000000
0.752936 0.570452 0.000000
0.812345 0.564982 0.000000
0.868871 0.563780 0.000000
0.914001 0.558541 0.000000
0.946915 0.566542 0.000000
0.981106 0.569140 0.112194
1.000000 0.570151 0.201080
1.000000 0.576394 0.254069
1.000000 0.597839 0.305451
1.000000 0.625055 0.376755
1.000000 0.654278 0.430803
1.000000 0.692176 0.489536
1.000000 0.734633 0.549307
1.000000 0.774054 0.613498
1.000000 0.809482 0.675138
0.000000 0.662934 0.000000
0.000000 0.662670 0.000000
0.000000 0.662576 0.000000
0.000000 0.662477 0.000000
0.000000 0.665496 0.000000
0.000000 0.665390 0.000000
0.000000 0.665203 0.000000
0.000000 0.664575 0.000000
0.000000 0.667366 0.000000
0.000000 0.666968 0.000000
0.000000 0.669384 0.000000
0.000000 0.671672 0.000000
0.000000 0.669784 0.000000
0.000000 0.667909 0.000000
0.272142 0.671795 0.000000
0.404429 0.674709 0.000000
0.537677 0.670689 0.000000
0.642748 0.668895 0.000000
0.742731 0.660606 0.000000
0.808385 0.641055 0.000000
0.863801 0.628897 0.000000
0.904332 0.638371 0.000000
0.941595 0.637951 0.000000
0.971783 0.645287 0.063044
1.000000 0.643795 0.195211
1.000000 0.646158 0.253463
1.000000 0.653179 0.308862
1.000000 0.668325 0.380292
1.000000 0.685320 0.432384
1.000000 0.706473 0.492254
1.000000 0.744759 0.552626
1.000000 0.780500 0.617046
1.000000 0.816299 0.675413
0.000000 0.727820 0.000000
0.000000 0.727686 0.000000
0.000000 0.727640 0.000000
0.000000 0.727545 0.000000
0.000000 0.727497 0.000000
0.000000 0.727346 0.000000
0.000000 0.727763 0.000000
0.000000 0.727488 0.000000
0.000000 0.727312 0.000000
0.000000 0.729413 0.000000
0.000000 0.728926 0.000000
0.000000 0.730619 0.000000
0.000000 0.732440 0.000000
0.000000 0.733575 0.000000
0.199217 0.731519 0.000000
0.376890 0.730789 0.000000
0.495147 0.732721 0.000000
0.596360 0.729001 0.000000
0.702292 0.723906 0.000000
0.791803 0.719885 0.000000
0.850283 0.704586 0.000000
0.898299 0.697213 0.000000
0.932945 0.704028 0.000000
0.964300 0.699767 0.000000
0.989912 0.701433 0.174006
1.000000 0.703631 0.243329
1.000000 0.700748 0.311431
1.000000 0.711279 0.387603
1.000000 0.720694 0.443764
1.000000 0.735576 0.491650
1.000000 0.761071 0.555617
1.000000 0.790181 0.620082
1.000000 0.822781 0.675448
0.000000 0.784406 0.000000
0.000000 0.784277 0.000000
0.000000 0.784211 0.000000
0.000000 0.784076 0.000000
0.000000 0.784006 0.000000
0.000000 0.783936 0.000000
0.000000 0.783716 0.000000
0.000000 0.783641 0.000000
0.000000 0.783405 0.000000
0.000000 0.783072 0.000000
0.000000 0.782622 0.000000
0.000000 0.784508 0.000000
0.000000 0.786108 0.000000
0.000000 0.787103 0.000000
0.147693 0.787173 0.000000
0.348397 0.784169 0.000000
0.453541 0.781542 0.000000
0.564544 0.785105 0.000000
0.665340 0.782882 0.000000
0.767934 0.777655 0.000000
0.847811 0.770950 0.000000
0.884163 0.762782 0.000000
0.922850 0.751981 0.000000
0.955321 0.757975 0.000000
0.982034 0.751004 0.146218
1.000000 0.753970 0.245021
1.000000 0.755676 0.305689
1.000000 0.754603 0.392635
1.000000 0.759554 0.449319
1.000000 0.767521 0.503906
1.000000 0.780643 0.561883
1.000000 0.801566 0.623438
1.000000 0.831116 0.679008
0.000000 0.832588 0.000000
0.000000 0.832588 0.000000
0.000000 0.832402 0.000000
0.000000 0.832308 0.000000
0.000000 0.832212 0.000000
0.000000 0.832212 0.000000
0.000000 0.832115 0.000000
0.000000 0.831816 0.000000
0.000000 0.831715 0.000000
0.000000 0.831224 0.000000
0.000000 0.830899 0.000000
0.000000 0.830213 0.000000
0.000000 0.831450 0.000000
0.000000 0.830112 0.000000
0.204462 0.830426 0.000000
0.348842 0.831637 0.000000
0.451817 0.828875 0.000000
0.550389 0.826062 0.000000
0.643201 0.826029 0.000000
0.749438 0.821220 0.000000
0.820558 0.817081 0.000000
0.878871 0.812799 0.000000
0.917076 0.803234 0.000000
0.946061 0.796939 0.000000
0.971456 0.801116 0.101108
0.995028 0.795243 0.232125
1.000000 0.797307 0.316075
1.000000 0.801292 0.390854
1.000000 0.795037 0.456423
1.000000 0.799134 0.511049
1.000000 0.810161 0.572000
1.000000 0.821402 0.630385
1.000000 0.843696 0.685558
0.000000 0.870396 0.000000
0.000000 0.870396 0.000000
0.000000 0.870163 0.000000
0.000000 0.870045 0.000000
0.000000 0.870045 0.000000
0.000000 0.869925 0.000000
0.000000 0.869804 0.000000
0.000000 0.869557 0.000000
0.000000 0.869123 0.000000
0.000000 0.868869 0.000000
0.000000 0.868343 0.000000
0.000000 0.867934 0.000000
0.000000 0.866771 0.000000
0.142451 0.866017 0.000000
0.264322 0.866575 0.000000
0.367880 0.866521 0.000000
0.468911 0.865724 0.000000
0.553292 0.864670 0.000000
0.643298 0.860840 0.000000
0.725578 0.858576 0.000000
0.795394 0.856726 0.000000
0.857154 0.853084 0.000000
0.905479 0.848144 0.000000
0.937904 0.841284 0.000000
0.965550 0.835470 0.000000
0.985756 0.836883 0.212199
1.000000 0.831565 0.311656
1.000000 0.835292 0.394756
1.000000 0.836118 0.457017
1.000000 0.834594 0.525888
1.000000 0.839878 0.580224
1.000000 0.848924 0.638420
1.000000 0.857965 0.689196
0.000000 0.902722 0.000000
0.000000 0.902722 0.000000
0.000000 0.902581 0.000000
0.000000 0.902581 0.000000
0.000000 0.902581 0.000000
0.000000 0.902438 0.000000
0.000000 0.902438 0.000000
0.000000 0.902293 0.000000
0.000000 0.902147 0.000000
0.000000 0.902000 0.000000
0.075963 0.901799 0.000000
0.156373 0.901491 0.000000
0.236234 0.900859 0.000000
0.274240 0.901455 0.000000
0.342504 0.900441 0.000000
0.420301 0.899908 0.000000
0.478627 0.899458 0.000000
0.563313 0.898106 0.000000
0.644376 0.897783 0.000000
0.716723 0.894301 0.000000
0.775137 0.892466 0.000000
0.835779 0.889221 0.000000
0.882601 0.887898 0.000000
0.921839 0.885035 0.077874
0.952911 0.880128 0.083948
0.978754 0.872134 0.188700
0.996589 0.874250 0.313325
1.000000 0.871251 0.394764
1.000000 0.871967 0.470318
1.000000 0.871075 0.528543
1.000000 0.868236 0.586773
1.000000 0.874019 0.650638
1.000000 0.878491 0.699437
0.224856 0.926926 0.158388
0.241192 0.926767 0.158514
0.241192 0.926767 0.158514
0.241192 0.926767 0.158514
0.241192 0.926767 0.158514
0.256234 0.926607 0.158641
0.256234 0.926607 0.158641
0.270244 0.926445 0.158771
