Assets/Lutify-Free-LUTs-Pack/Lutify Free LUTs Pack/Colour Film Boost Pro - Film Boost 10/Lutify.me-FilmBoost10-RWG-to-Rec709.cube
# Created with: fylm.ai - Colour Grading and Collaboration Software in Cloud 
# Website: https://fylm.ai 
# META
# Option: Gamut compress
# Block 1: IDT | RED REDWideGamutRGB Log3G10
# Block 2: colourMatch | Blending Mode: Normal | {"ColorSpace":0,"CrossCovarianceLimit":50,"ReshapingIterations":1,"PercentSaturationShift":100,"PercentShadingShift":100,"ExtraShading":true,"PercentTint":100,"PercentModified":100}
# Block 3: subtractiveColour | Blending Mode: Normal | {"sliders":{"gainY":0.55,"C":0.3,"M":0.3,"Y":0.3}}
# Block 4: LUT | Filmic Curve Response: Low Contrast 2 (100%)
# Block 5: logPrimaries | Blending Mode: Normal | {"wheels":{"shadows":{"Y":"0","R":"1","G":"1","B":"1"},"midtones":{"Y":"0","R":"1","G":"1","B":"1"},"highlights":{"Y":"0","R":"1","G":"1","B":"1"},"offset":{"Y":"0","R":"1","G":"1","B":"1"}},"sliders":{"shadows":{"Y":0,"R":-0.085,"G":0.024,"B":0.134},"midtones":{"Y":0,"R":0,"G":-0.023,"B":0},"highlights":{"Y":0,"R":0,"G":0,"B":0},"offset":{"Y":0,"R":0.012,"G":-0.012,"B":0}}}
# Block 6: HSL | Blending Mode: Normal | {"hue":{"Reds":0,"Yellows":0,"Greens":0,"Cyans":0,"Blues":0,"Magentas":0},"saturation":{"Reds":1,"Yellows":1,"Greens":1,"Cyans":1,"Blues":1,"Magentas":1},"luminance":{"Reds":0.9,"Yellows":0.9,"Greens":0.9,"Cyans":0.9,"Blues":0.9,"Magentas":0.9},"lum_sat":{"Blacks":1,"Shadows":1,"Midtones":1,"Highlights":1,"Whites":1},"sat_sat":{"10":1,"20":1,"30":1,"40":1,"50":1}}
# Block 7: ODT | Rec709
TITLE "Lutify.me-FilmBoost10-RWG-to-Rec709" 
LUT_3D_SIZE 5
0.000000 0.000000 0.000000
0.182597 0.000000 0.000000
0.701529 0.000000 0.000000
1.000000 0.394579 0.192727
1.000000 0.898808 0.760611
0.000000 0.159506 0.000000
0.255238 0.150169 0.000000
0.722562 0.000000 0.000000
1.000000 0.404070 0.186302
1.000000 0.898712 0.759093
0.000000 0.588603 0.000000
0.000000 0.603017 0.000000
0.842667 0.509463 0.000000
1.000000 0.497939 0.000000
1.000000 0.900714 0.757747
0.000000 0.939484 0.000000
0.000000 0.939650 0.000000
0.497530 0.932116 0.000000
1.000000 0.873247 0.000000
1.000000 0.923163 0.713132
0.857253 1.000000 0.606704
0.857253 1.000000 0.606704
0.867920 1.000000 0.607639
0.957965 1.000000 0.634608
1.000000 0.998036 0.801494
0.000000 0.000000 0.107012
0.160389 0.000000 0.057602
0.715857 0.000000 0.066657
1.000000 0.398821 0.218608
1.000000 0.898808 0.760611
0.000000 0.114865 0.239112
0.162030 0.193559 0.217433
0.726517 0.000000 0.052778
1.000000 0.405123 0.214280
1.000000 0.898808 0.760611
0.000000 0.582604 0.000000
0.000000 0.597046 0.000000
0.840159 0.506486 0.000000
1.000000 0.520364 0.077409
1.000000 0.900808 0.759264
0.000000 0.939572 0.000000
0.000000 0.939747 0.000000
0.497530 0.932116 0.000000
1.000000 0.873247 0.000000
1.000000 0.922599 0.714282
0.857253 1.000000 0.606704
0.857253 1.000000 0.606704
0.867920 1.000000 0.607639
0.957965 1.000000 0.634608
1.000000 0.998036 0.801494
0.000000 0.000000 0.259075
0.088944 0.000000 0.240549
0.580825 0.000000 0.106245
1.000000 0.410764 0.440748
1.000000 0.899238 0.775566
0.000000 0.000000 0.495320
0.000000 0.000000 0.491625
0.638819 0.000000 0.312114
1.000000 0.421833 0.443494
1.000000 0.899238 0.775566
0.000000 0.423110 0.742984
0.000000 0.521897 0.704423
0.745764 0.740343 0.752907
1.000000 0.547078 0.423615
1.000000 0.901757 0.774276
0.000000 0.937666 0.000000
0.000000 0.938738 0.000000
0.470871 0.931852 0.000000
1.000000 0.871936 0.000000
1.000000 0.924826 0.744089
0.855896 1.000000 0.606593
0.855896 1.000000 0.606593
0.867920 1.000000 0.607639
0.957204 1.000000 0.634315
1.000000 0.998036 0.801494
0.328713 0.000000 0.442292
0.358873 0.000000 0.442011
0.600760 0.000000 0.398451
1.000000 0.000000 0.240840
1.000000 0.901958 0.874513
0.109764 0.000000 0.750777
0.174506 0.000000 0.747125
0.525614 0.000000 0.626846
1.000000 0.000000 0.237690
1.000000 0.902630 0.874495
0.000000 0.295246 0.938450
0.000000 0.298630 0.939739
0.395639 0.312050 0.940083
1.000000 0.000000 0.859654
1.000000 0.903974 0.874458
0.000000 0.824748 0.978786
0.000000 0.824748 0.978786
0.000000 0.953210 0.965600
0.968773 0.972286 0.966195
1.000000 0.932563 0.872311
0.836384 1.000000 0.605161
0.837813 1.000000 0.605256
0.853166 1.000000 0.606375
0.952659 1.000000 0.629525
1.000000 0.998036 0.801494
0.913320 0.000000 0.649649
0.916004 0.000000 0.649485
0.936172 0.000000 0.645030
1.000000 0.000000 0.581982
1.000000 0.169827 0.470045
0.913320 0.000000 0.649649
0.916004 0.000000 0.649485
0.936172 0.000000 0.645030
1.000000 0.000000 0.581982
1.000000 0.169827 0.470045
0.800784 0.000000 1.000000
0.804670 0.000000 1.000000
0.849592 0.000000 1.000000
1.000000 0.000000 0.991919
1.000000 0.169827 0.470045
0.562268 0.796214 1.000000
0.568346 0.796172 1.000000
0.622499 0.800245 1.000000
0.901475 0.803766 1.000000
1.000000 0.805004 0.999112
0.000000 1.000000 1.000000
0.000000 1.000000 1.000000
0.000000 1.000000 1.000000
0.770165 1.000000 1.000000
1.000000 1.000000 1.000000
