Assets/Lutify-Free-LUTs-Pack/Lutify Free LUTs Pack/Colour Film Boost Pro - Film Boost 10/Lutify.me-FilmBoost10-SLog3Venice-to-Rec709.cube
# Created with: fylm.ai - Colour Grading and Collaboration Software in Cloud 
# Website: https://fylm.ai 
# META
# Option: Gamut compress
# Block 1: IDT | Sony Venice S-Log3 S-Gamut3
# Block 2: colourMatch | Blending Mode: Normal | {"ColorSpace":0,"CrossCovarianceLimit":50,"ReshapingIterations":1,"PercentSaturationShift":100,"PercentShadingShift":100,"ExtraShading":true,"PercentTint":100,"PercentModified":100}
# Block 3: subtractiveColour | Blending Mode: Normal | {"sliders":{"gainY":0.55,"C":0.3,"M":0.3,"Y":0.3}}
# Block 4: LUT | Filmic Curve Response: Low Contrast 2 (100%)
# Block 5: logPrimaries | Blending Mode: Normal | {"wheels":{"shadows":{"Y":"0","R":"1","G":"1","B":"1"},"midtones":{"Y":"0","R":"1","G":"1","B":"1"},"highlights":{"Y":"0","R":"1","G":"1","B":"1"},"offset":{"Y":"0","R":"1","G":"1","B":"1"}},"sliders":{"shadows":{"Y":0,"R":-0.085,"G":0.024,"B":0.134},"midtones":{"Y":0,"R":0,"G":-0.023,"B":0},"highlights":{"Y":0,"R":0,"G":0,"B":0},"offset":{"Y":0,"R":0.012,"G":-0.012,"B":0}}}
# Block 6: HSL | Blending Mode: Normal | {"hue":{"Reds":0,"Yellows":0,"Greens":0,"Cyans":0,"Blues":0,"Magentas":0},"saturation":{"Reds":1,"Yellows":1,"Greens":1,"Cyans":1,"Blues":1,"Magentas":1},"luminance":{"Reds":0.9,"Yellows":0.9,"Greens":0.9,"Cyans":0.9,"Blues":0.9,"Magentas":0.9},"lum_sat":{"Blacks":1,"Shadows":1,"Midtones":1,"Highlights":1,"Whites":1},"sat_sat":{"10":1,"20":1,"30":1,"40":1,"50":1}}
# Block 7: ODT | Rec709
TITLE "Lutify.me-FilmBoost10-SLog3Venice-to-Rec709" 
LUT_3D_SIZE 9
0.000000 0.000000 0.000000
0.000000 0.000000 0.000000
0.124818 0.000000 0.000000
0.255913 0.000000 0.000000
0.465072 0.000000 0.000000
0.762807 0.000000 0.039866
1.000000 0.000000 0.146716
1.000000 0.370547 0.326361
1.000000 0.678251 0.559284
0.000000 0.012572 0.000000
0.000000 0.018404 0.000000
0.133687 0.000000 0.000000
0.275282 0.000000 0.000000
0.477499 0.000000 0.000000
0.763309 0.000000 0.039758
1.000000 0.000000 0.146376
1.000000 0.377681 0.325987
1.000000 0.678251 0.559284
0.000000 0.096961 0.000000
0.000000 0.104072 0.000000
0.139764 0.100732 0.000000
0.304763 0.000000 0.000000
0.493540 0.000000 0.000000
0.770446 0.000000 0.036252
1.000000 0.000000 0.146836
1.000000 0.381235 0.325797
1.000000 0.680786 0.559172
0.000000 0.212806 0.000000
0.000000 0.230595 0.000000
0.000000 0.250513 0.000000
0.325972 0.225037 0.000000
0.546355 0.097015 0.000000
0.794500 0.000000 0.031746
1.000000 0.000000 0.152982
1.000000 0.396080 0.327735
1.000000 0.683311 0.559062
0.000000 0.368970 0.000000
0.000000 0.390373 0.000000
0.000000 0.436635 0.000000
0.000000 0.464382 0.000000
0.563850 0.423422 0.000000
0.825586 0.315329 0.000000
1.000000 0.228568 0.159398
1.000000 0.435929 0.335887
1.000000 0.691100 0.561715
0.000000 0.566828 0.214654
0.000000 0.592722 0.167820
0.000000 0.635818 0.092996
0.000000 0.698739 0.000000
0.000000 0.726844 0.000000
0.815647 0.678118 0.000000
0.990880 0.589062 0.152728
1.000000 0.554635 0.347897
1.000000 0.716648 0.570060
0.000000 0.765015 0.442962
0.000000 0.783021 0.401598
0.000000 0.810649 0.368052
0.000000 0.847698 0.359320
0.000000 0.881399 0.348305
0.500969 0.884667 0.300480
0.934275 0.854136 0.238326
1.000000 0.803590 0.407579
1.000000 0.781969 0.594318
0.000000 0.915444 0.654685
0.000000 0.922340 0.632359
0.000000 0.932225 0.626001
0.000000 0.948161 0.623344
0.000000 0.963304 0.631451
0.000000 0.971537 0.626335
0.776645 0.961641 0.598598
0.986606 0.945174 0.561678
1.000000 0.915240 0.673799
0.000000 0.998050 0.822673
0.000000 1.000000 0.819845
0.000000 1.000000 0.818246
0.000000 1.000000 0.820012
0.000000 1.000000 0.820962
0.000000 1.000000 0.824948
0.637239 1.000000 0.823563
0.902202 0.997987 0.811047
1.000000 0.991288 0.803287
0.000000 0.000000 0.012572
0.000000 0.000000 0.000000
0.118693 0.000000 0.000000
0.245292 0.000000 0.000000
0.468916 0.000000 0.000000
0.766836 0.000000 0.052026
1.000000 0.000000 0.153469
1.000000 0.370850 0.328830
1.000000 0.678251 0.559284
0.000000 0.000000 0.032824
0.000000 0.000000 0.026440
0.126720 0.000000 0.000000
0.265837 0.000000 0.000000
0.480945 0.000000 0.010098
0.767340 0.000000 0.052358
1.000000 0.000000 0.155781
1.000000 0.377982 0.328460
1.000000 0.678251 0.559284
0.000000 0.094344 0.021991
0.000000 0.101606 0.000000
0.117889 0.108912 0.000000
0.298506 0.000000 0.000000
0.494190 0.000000 0.000000
0.772432 0.000000 0.054875
1.000000 0.000000 0.157766
1.000000 0.381536 0.328272
1.000000 0.680786 0.559172
0.000000 0.211324 0.000000
0.000000 0.225717 0.000000
0.000000 0.261704 0.000000
0.304800 0.243895 0.000000
0.550081 0.114718 0.000000
0.789827 0.000000 0.057174
1.000000 0.000000 0.161623
1.000000 0.400187 0.332557
1.000000 0.683584 0.562039
0.000000 0.368832 0.080372
0.000000 0.384967 0.000000
0.000000 0.436253 0.000000
0.000000 0.476550 0.000000
0.561108 0.444853 0.000000
0.830681 0.329919 0.000000
1.000000 0.230216 0.169217
1.000000 0.436518 0.341092
1.000000 0.691368 0.564701
0.000000 0.566795 0.243062
0.000000 0.592517 0.197418
0.000000 0.635379 0.139388
0.000000 0.698197 0.029732
0.000000 0.729094 0.000000
0.814999 0.686825 0.000000
0.991354 0.590740 0.169017
1.000000 0.555221 0.353529
1.000000 0.716648 0.570060
0.000000 0.762339 0.452930
0.000000 0.782838 0.414271
0.000000 0.810466 0.380837
0.000000 0.847678 0.369231
0.000000 0.881374 0.361687
0.502372 0.885226 0.314907
0.934537 0.854746 0.251653
1.000000 0.803775 0.410666
1.000000 0.781969 0.594318
0.000000 0.914062 0.657752
0.000000 0.920957 0.635241
0.000000 0.932060 0.628807
0.000000 0.948149 0.626513
0.000000 0.963190 0.630897
0.000000 0.971525 0.629408
0.776751 0.961699 0.601827
0.986238 0.946010 0.565283
1.000000 0.915240 0.673799
0.000000 0.997984 0.822473
0.000000 1.000000 0.819634
0.000000 1.000000 0.819990
0.000000 1.000000 0.821474
0.000000 1.000000 0.820962
0.000000 1.000000 0.824948
0.637239 1.000000 0.823563
0.902237 0.998007 0.812732
1.000000 0.991288 0.803287
0.000000 0.000000 0.062471
0.000000 0.000000 0.054820
0.108963 0.000000 0.038627
0.243422 0.000000 0.031094
0.465727 0.000000 0.038935
0.770464 0.000000 0.070923
1.000000 0.000000 0.167348
1.000000 0.371759 0.336341
1.000000 0.678527 0.562260
0.000000 0.000000 0.084122
0.000000 0.000000 0.073542
0.106783 0.000000 0.055004
0.260540 0.000000 0.046143
0.485695 0.000000 0.042816
0.774455 0.000000 0.071617
1.000000 0.000000 0.166956
1.000000 0.378887 0.335985
1.000000 0.678527 0.562260
0.000000 0.074662 0.149061
0.000000 0.088377 0.138411
0.096417 0.112429 0.130154
0.299123 0.000000 0.068418
0.504726 0.000000 0.047249
0.780176 0.000000 0.076661
1.000000 0.000000 0.167671
1.000000 0.382439 0.335803
1.000000 0.681060 0.562149
0.000000 0.215409 0.162476
0.000000 0.228541 0.144084
0.000000 0.265221 0.113082
0.303357 0.272558 0.077115
0.553969 0.113579 0.043369
0.796308 0.000000 0.078837
1.000000 0.000000 0.175029
1.000000 0.400784 0.337648
1.000000 0.683584 0.562039
0.000000 0.370844 0.174315
0.000000 0.391694 0.141034
0.000000 0.429508 0.093830
0.000000 0.494504 0.000000
0.564091 0.468420 0.000000
0.836926 0.327671 0.032882
1.000000 0.232707 0.184333
1.000000 0.437404 0.349037
1.000000 0.691368 0.564701
0.000000 0.566737 0.282486
0.000000 0.589089 0.244290
0.000000 0.634288 0.200162
0.000000 0.695121 0.140606
0.000000 0.734538 0.000000
0.810677 0.700363 0.000000
0.992032 0.593283 0.192684
1.000000 0.555807 0.359230
1.000000 0.716648 0.570060
0.000000 0.759643 0.462915
0.000000 0.779817 0.433417
0.000000 0.809799 0.399604
0.000000 0.847315 0.388601
0.000000 0.881348 0.375036
0.495413 0.887582 0.332787
0.934311 0.857526 0.275175
1.000000 0.804329 0.419960
1.000000 0.782352 0.600375
0.000000 0.913884 0.663732
0.000000 0.920699 0.641115
0.000000 0.931821 0.631428
0.000000 0.947162 0.629654
0.000000 0.963153 0.640345
0.000000 0.971513 0.632484
0.774005 0.961960 0.608222
0.986177 0.946148 0.571067
1.000000 0.915330 0.676541
0.000000 0.997908 0.824000
0.000000 0.999751 0.821226
0.000000 1.000000 0.819763
0.000000 1.000000 0.821474
0.000000 1.000000 0.822647
0.000000 1.000000 0.824948
0.637098 1.000000 0.825105
0.902237 0.998007 0.812732
1.000000 0.991315 0.804785
0.000000 0.000000 0.123233
0.000000 0.000000 0.101363
0.093975 0.000000 0.089227
0.237944 0.000000 0.058024
0.445836 0.000000 0.092662
0.772638 0.000000 0.116707
1.000000 0.000000 0.194496
1.000000 0.373579 0.351860
1.000000 0.678803 0.565244
0.000000 0.000000 0.165255
0.000000 0.000000 0.142603
0.079856 0.000000 0.131978
0.242548 0.000000 0.091602
0.471128 0.000000 0.110695
0.779683 0.000000 0.120810
1.000000 0.000000 0.197281
1.000000 0.373579 0.351860
1.000000 0.678803 0.565244
0.000000 0.021816 0.245983
0.000000 0.038891 0.225272
0.000000 0.045830 0.220421
0.286720 0.000000 0.171433
0.499116 0.000000 0.137229
0.792567 0.000000 0.125078
1.000000 0.000000 0.198549
1.000000 0.384547 0.354017
1.000000 0.681334 0.565133
0.000000 0.166869 0.330362
0.000000 0.184189 0.310570
0.000000 0.235251 0.307783
0.265068 0.287631 0.315593
0.573231 0.119485 0.198642
0.810773 0.000000 0.140433
1.000000 0.000000 0.203710
1.000000 0.399369 0.356221
1.000000 0.684129 0.568015
0.000000 0.373531 0.370637
0.000000 0.386959 0.353411
0.000000 0.424581 0.307025
0.000000 0.506785 0.287656
0.555537 0.517373 0.252987
0.847634 0.337064 0.164277
1.000000 0.237750 0.216379
1.000000 0.435429 0.362840
1.000000 0.691903 0.570694
0.000000 0.566506 0.385062
0.000000 0.587649 0.343848
0.000000 0.628625 0.308661
0.000000 0.696741 0.275137
0.000000 0.750344 0.240316
0.810067 0.718866 0.180474
0.992570 0.601989 0.239161
1.000000 0.554205 0.376769
1.000000 0.719755 0.579005
0.000000 0.762145 0.517651
0.000000 0.778628 0.477552
0.000000 0.806468 0.447525
0.000000 0.846725 0.434123
0.000000 0.880988 0.424467
0.500823 0.889772 0.389537
0.934048 0.863703 0.338759
1.000000 0.805729 0.441700
1.000000 0.782734 0.606455
0.000000 0.909367 0.681572
0.000000 0.919700 0.658208
0.000000 0.930129 0.646047
0.000000 0.946763 0.647788
0.000000 0.963102 0.652906
0.000000 0.970752 0.647715
0.771438 0.962334 0.621146
0.984839 0.947438 0.589209
1.000000 0.915420 0.679275
0.000000 0.997187 0.826909
0.000000 0.999598 0.824258
0.000000 1.000000 0.822662
0.000000 1.000000 0.824504
0.000000 1.000000 0.824026
0.000000 1.000000 0.828177
0.636958 1.000000 0.826640
0.902309 0.998048 0.816082
1.000000 0.991341 0.806280
0.000000 0.000000 0.203990
0.000000 0.000000 0.192528
0.034669 0.000000 0.183029
0.236436 0.000000 0.143102
0.406810 0.000000 0.092229
0.759859 0.000000 0.240316
1.000000 0.000000 0.277475
1.000000 0.370998 0.393809
1.000000 0.680182 0.580268
0.000000 0.000000 0.264374
0.000000 0.000000 0.253081
0.000000 0.000000 0.240201
0.240348 0.000000 0.220423
0.418297 0.000000 0.143745
0.769210 0.000000 0.249234
1.000000 0.000000 0.279793
1.000000 0.374567 0.393671
1.000000 0.680182 0.580268
0.000000 0.000000 0.333609
0.000000 0.000000 0.323369
0.000000 0.000000 0.318213
0.225165 0.000000 0.304476
0.462992 0.000000 0.233840
0.779382 0.000000 0.262482
1.000000 0.000000 0.284339
1.000000 0.378128 0.393530
1.000000 0.680182 0.580268
0.000000 0.097229 0.452259
0.000000 0.115711 0.432373
0.000000 0.136400 0.431192
0.152949 0.163385 0.452549
0.577578 0.000000 0.375401
0.810427 0.000000 0.299211
1.000000 0.000000 0.291535
1.000000 0.396549 0.395853
1.000000 0.685219 0.580051
0.000000 0.295952 0.548984
0.000000 0.300237 0.548817
0.000000 0.353865 0.521714
0.000000 0.473830 0.549958
0.541670 0.536056 0.561282
0.862436 0.350191 0.407088
1.000000 0.248733 0.318191
1.000000 0.436428 0.405992
1.000000 0.693241 0.585796
0.000000 0.558526 0.612661
0.000000 0.574976 0.602505
0.000000 0.614265 0.551889
0.000000 0.692184 0.537994
0.000000 0.761412 0.531775
0.803806 0.749325 0.499213
0.992925 0.616053 0.373318
1.000000 0.552509 0.427856
1.000000 0.718647 0.594278
0.000000 0.753662 0.629865
0.000000 0.769720 0.604993
0.000000 0.798222 0.562778
0.000000 0.845723 0.543226
0.000000 0.884281 0.538796
0.477471 0.894384 0.522140
0.927386 0.875309 0.476541
1.000000 0.810898 0.492839
1.000000 0.783500 0.618686
0.000000 0.903119 0.735711
0.000000 0.913923 0.706280
0.000000 0.924819 0.691683
0.000000 0.945626 0.685215
0.000000 0.962773 0.688490
0.000000 0.970649 0.683304
0.772685 0.963068 0.663359
0.982448 0.950707 0.632735
1.000000 0.916041 0.695114
0.000000 0.995940 0.833438
0.000000 0.997993 0.832841
0.000000 1.000000 0.829540
0.000000 1.000000 0.831973
0.000000 1.000000 0.833450
0.000000 1.000000 0.836083
0.632929 1.000000 0.834171
0.901194 0.998225 0.824288
1.000000 0.991447 0.812226
0.000000 0.000000 0.384746
0.000000 0.000000 0.374668
0.000000 0.000000 0.369584
0.150704 0.000000 0.351956
0.427455 0.000000 0.267691
0.636702 0.000000 0.177393
1.000000 0.000000 0.453245
1.000000 0.371288 0.495091
1.000000 0.675604 0.626185
0.000000 0.000000 0.439827
0.000000 0.000000 0.433824
0.000000 0.000000 0.428009
0.121864 0.000000 0.413400
0.453410 0.000000 0.359635
0.663129 0.000000 0.254803
1.000000 0.000000 0.460227
1.000000 0.375256 0.495218
1.000000 0.675604 0.626185
0.000000 0.000000 0.485680
0.000000 0.000000 0.492135
0.000000 0.000000 0.487886
0.059427 0.000000 0.481413
0.479600 0.000000 0.454512
0.708317 0.000000 0.329483
1.000000 0.000000 0.467462
1.000000 0.380051 0.495378
1.000000 0.680691 0.625969
0.000000 0.071410 0.559609
0.000000 0.078850 0.561439
0.000000 0.083500 0.566260
0.000000 0.087264 0.580903
0.480362 0.000000 0.560810
0.787979 0.000000 0.459473
1.000000 0.000000 0.493145
1.000000 0.399560 0.498977
1.000000 0.684317 0.626313
0.000000 0.239705 0.660287
0.000000 0.260188 0.655350
0.000000 0.279990 0.661356
0.000000 0.320517 0.683078
0.382412 0.366095 0.704565
0.872052 0.191139 0.633157
1.000000 0.200664 0.536258
1.000000 0.443143 0.509355
1.000000 0.694525 0.629018
0.000000 0.463042 0.767898
0.000000 0.463042 0.767898
0.000000 0.463042 0.767898
0.000000 0.609804 0.740012
0.000000 0.734666 0.773483
0.778768 0.765980 0.785541
0.988668 0.630515 0.641180
1.000000 0.562534 0.539773
1.000000 0.720056 0.640812
0.000000 0.730049 0.804377
0.000000 0.730049 0.804377
0.000000 0.730214 0.802261
0.000000 0.829322 0.756375
0.000000 0.878388 0.764836
0.444018 0.899510 0.763047
0.915250 0.890971 0.739017
1.000000 0.818167 0.620212
1.000000 0.784505 0.665229
0.000000 0.896905 0.826521
0.000000 0.896905 0.826521
0.000000 0.909692 0.797343
0.000000 0.939491 0.770845
0.000000 0.962924 0.771598
0.000000 0.972539 0.768668
0.776390 0.964359 0.761651
0.977914 0.953998 0.730430
1.000000 0.918463 0.733946
0.000000 0.989670 0.861349
0.000000 0.994838 0.857619
0.000000 0.996830 0.853639
0.000000 1.000000 0.852566
0.000000 1.000000 0.852216
0.000000 1.000000 0.852006
0.624791 1.000000 0.849914
0.901680 0.998469 0.843235
1.000000 0.992494 0.833321
0.000000 0.000000 0.658947
0.000000 0.000000 0.655831
0.000000 0.000000 0.652193
0.000000 0.000000 0.645156
0.329232 0.000000 0.630194
0.726301 0.000000 0.542437
0.898191 0.000000 0.397997
1.000000 0.282413 0.691337
1.000000 0.672731 0.717529
0.000000 0.000000 0.676065
0.000000 0.000000 0.676027
0.000000 0.000000 0.672625
0.000000 0.000000 0.666062
0.329263 0.000000 0.647952
0.744217 0.000000 0.587071
0.920663 0.000000 0.447290
1.000000 0.286797 0.694693
1.000000 0.672731 0.717529
0.000000 0.000000 0.705264
0.000000 0.000000 0.704723
0.000000 0.000000 0.701598
0.000000 0.000000 0.695081
0.323503 0.000000 0.680006
0.757049 0.000000 0.635502
0.937482 0.000000 0.498794
1.000000 0.300090 0.695276
1.000000 0.675602 0.717664
0.000000 0.093644 0.743306
0.000000 0.096284 0.743124
0.000000 0.098152 0.747826
0.000000 0.096217 0.748162
0.307197 0.000000 0.734775
0.783266 0.000000 0.714692
0.977736 0.000000 0.587941
1.000000 0.325630 0.702673
1.000000 0.678460 0.717800
0.000000 0.212011 0.787585
0.000000 0.216542 0.790440
0.000000 0.219820 0.794868
0.000000 0.234517 0.800779
0.204952 0.238852 0.812215
0.784568 0.050884 0.795665
1.000000 0.000000 0.706871
1.000000 0.395092 0.723610
1.000000 0.693044 0.721225
0.000000 0.458308 0.839116
0.000000 0.475752 0.840682
0.000000 0.485352 0.843606
0.000000 0.508758 0.853719
0.000000 0.572853 0.860534
0.672578 0.613757 0.868677
1.000000 0.511399 0.831160
1.000000 0.530294 0.756379
1.000000 0.723433 0.730790
0.000000 0.645824 0.901790
0.000000 0.645824 0.901790
0.000000 0.645824 0.901790
0.000000 0.645824 0.901790
0.000000 0.832427 0.884251
0.296350 0.892942 0.895541
0.904518 0.898857 0.900592
1.000000 0.825734 0.822024
1.000000 0.790134 0.754345
0.000000 0.873221 0.915072
0.000000 0.873221 0.915072
0.000000 0.873221 0.915072
0.000000 0.873221 0.915072
0.000000 0.956161 0.890827
0.000000 0.972286 0.887360
0.760588 0.967129 0.885871
0.969337 0.962125 0.876365
1.000000 0.921650 0.809377
0.000000 0.976433 0.930090
0.000000 0.976433 0.930090
0.000000 0.976433 0.930090
0.000000 0.993448 0.898206
0.000000 1.000000 0.895508
0.000000 1.000000 0.893514
0.611288 1.000000 0.890003
0.896560 0.999969 0.885283
1.000000 0.993483 0.874905
0.000000 0.106189 0.868171
0.000000 0.104753 0.868115
0.000000 0.102672 0.868035
0.165835 0.089681 0.865652
0.360824 0.000000 0.862436
0.629935 0.000000 0.849087
0.984891 0.000000 0.799193
1.000000 0.000000 0.667590
1.000000 0.620396 0.854693
0.000000 0.111801 0.872151
0.000000 0.111366 0.872132
0.000000 0.108538 0.872016
0.163136 0.101149 0.868195
0.352174 0.011095 0.865090
0.630973 0.000000 0.852102
0.988592 0.000000 0.808473
1.000000 0.000000 0.683547
1.000000 0.623535 0.854716
0.000000 0.127405 0.876785
0.000000 0.126684 0.876749
0.000000 0.124742 0.876654
0.157550 0.118293 0.872892
0.347664 0.075377 0.868116
0.631193 0.000000 0.858890
0.992878 0.000000 0.820617
1.000000 0.000000 0.706694
1.000000 0.623535 0.854716
0.000000 0.168010 0.888006
0.000000 0.167323 0.887958
0.000000 0.165824 0.887856
0.114305 0.165244 0.887809
0.329639 0.139266 0.883151
0.632449 0.000000 0.872756
1.000000 0.000000 0.847308
1.000000 0.000000 0.750710
1.000000 0.631143 0.856256
0.000000 0.257247 0.908184
0.000000 0.257273 0.908578
0.000000 0.257276 0.909230
0.000000 0.259270 0.909700
0.270763 0.260593 0.907167
0.609024 0.205986 0.901171
1.000000 0.000000 0.887083
1.000000 0.000000 0.808021
1.000000 0.652492 0.859758
0.000000 0.424855 0.925698
0.000000 0.425336 0.926008
0.000000 0.429498 0.926587
0.000000 0.434864 0.927965
0.000000 0.452842 0.929119
0.515339 0.465304 0.930334
0.982390 0.406159 0.919775
1.000000 0.325958 0.873218
1.000000 0.693887 0.867962
0.000000 0.711437 0.943632
0.000000 0.713552 0.943341
0.000000 0.720320 0.942364
0.000000 0.730754 0.944601
0.000000 0.764716 0.945052
0.000000 0.798280 0.947000
0.850492 0.815191 0.948656
1.000000 0.758767 0.927930
1.000000 0.776303 0.884049
0.000000 0.819094 0.970984
0.000000 0.819094 0.970984
0.000000 0.814595 0.971304
0.000000 0.814595 0.971304
0.000000 0.814595 0.971304
0.000000 0.954063 0.957953
0.713222 0.966824 0.961374
0.964451 0.968263 0.961666
1.000000 0.927566 0.921648
0.000000 0.959549 0.977862
0.000000 0.959549 0.977862
0.000000 0.959549 0.977862
0.000000 0.959549 0.977862
0.000000 0.959549 0.977862
0.000000 1.000000 0.962757
0.563303 1.000000 0.957130
0.890341 1.000000 0.955853
0.998029 0.996864 0.949912
0.425615 0.279313 0.969761
0.430426 0.278796 0.969720
0.439992 0.277741 0.969639
0.463625 0.274967 0.969430
0.519659 0.264496 0.968045
0.666289 0.235711 0.966416
0.906533 0.097823 0.958903
1.000000 0.000000 0.935498
1.000000 0.000000 0.861933
0.424422 0.284968 0.970615
0.429645 0.284526 0.969749
0.439252 0.283499 0.969668
0.462977 0.280802 0.969461
0.519065 0.267461 0.968901
0.666227 0.239233 0.966442
0.906224 0.108475 0.959815
1.000000 0.000000 0.936690
1.000000 0.000000 0.864058
0.423115 0.293635 0.970647
0.423115 0.293635 0.970647
0.437655 0.292167 0.970528
0.452030 0.290637 0.970406
0.517974 0.276498 0.969778
0.665624 0.249726 0.967347
0.905891 0.134806 0.960795
1.000000 0.000000 0.940277
1.000000 0.000000 0.866508
0.414513 0.308588 0.973135
0.419468 0.308143 0.973097
0.419468 0.308143 0.973097
0.443918 0.305825 0.972902
0.510174 0.298446 0.972319
0.664082 0.274112 0.969107
0.902218 0.188732 0.961957
1.000000 0.000000 0.945100
1.000000 0.000000 0.874523
0.393752 0.364539 0.977535
0.399060 0.364190 0.977501
0.404334 0.363836 0.977467
0.425105 0.362373 0.977326
0.483651 0.364277 0.976825
0.643923 0.339530 0.974678
0.891608 0.283942 0.968032
1.000000 0.157532 0.956232
1.000000 0.168501 0.897733
0.303140 0.479255 0.984834
0.303140 0.479255 0.984834
0.325338 0.479249 0.984950
0.346388 0.479218 0.985064
0.432951 0.481664 0.984637
0.597922 0.482227 0.981409
0.864661 0.446905 0.977850
1.000000 0.412030 0.969890
1.000000 0.400993 0.928585
0.000000 0.666522 0.987654
0.000000 0.666655 0.987688
0.000000 0.666917 0.987757
0.000000 0.670880 0.987730
0.000000 0.675708 0.987951
0.447590 0.692214 0.987077
0.768525 0.701439 0.984641
1.000000 0.681928 0.979974
1.000000 0.652885 0.953887
0.000000 0.889394 0.991212
0.000000 0.889673 0.991300
0.000000 0.889947 0.991387
0.000000 0.890904 0.991702
0.000000 0.897274 0.992003
0.000000 0.910445 0.990767
0.604481 0.916093 0.989861
0.938061 0.919811 0.990247
1.000000 0.894703 0.979079
0.000000 0.923566 1.000000
0.000000 0.923566 1.000000
0.000000 0.923566 1.000000
0.000000 0.923566 1.000000
0.000000 0.923566 1.000000
0.000000 0.923566 1.000000
0.094330 1.000000 0.995694
0.873523 1.000000 0.995965
0.994443 0.999594 0.995848
