Assets/Lutify-Free-LUTs-Pack/Lutify Free LUTs Pack/Colour Film Boost Pro - Film Boost 10/Lutify.me-FilmBoost10-CanonLog3-to-Rec709.cube
# Created with: fylm.ai - Colour Grading and Collaboration Software in Cloud 
# Website: https://fylm.ai 
# META
# Option: Gamut compress
# Block 1: IDT | CanonLog3 Cinema Gamut Daylight
# Block 2: colourMatch | Blending Mode: Normal | {"ColorSpace":0,"CrossCovarianceLimit":50,"ReshapingIterations":1,"PercentSaturationShift":100,"PercentShadingShift":100,"ExtraShading":true,"PercentTint":100,"PercentModified":100}
# Block 3: subtractiveColour | Blending Mode: Normal | {"sliders":{"gainY":0.55,"C":0.3,"M":0.3,"Y":0.3}}
# Block 4: LUT | Filmic Curve Response: Low Contrast 2 (100%)
# Block 5: logPrimaries | Blending Mode: Normal | {"wheels":{"shadows":{"Y":"0","R":"1","G":"1","B":"1"},"midtones":{"Y":"0","R":"1","G":"1","B":"1"},"highlights":{"Y":"0","R":"1","G":"1","B":"1"},"offset":{"Y":"0","R":"1","G":"1","B":"1"}},"sliders":{"shadows":{"Y":0,"R":-0.085,"G":0.024,"B":0.134},"midtones":{"Y":0,"R":0,"G":-0.023,"B":0},"highlights":{"Y":0,"R":0,"G":0,"B":0},"offset":{"Y":0,"R":0.012,"G":-0.012,"B":0}}}
# Block 6: HSL | Blending Mode: Normal | {"hue":{"Reds":0,"Yellows":0,"Greens":0,"Cyans":0,"Blues":0,"Magentas":0},"saturation":{"Reds":1,"Yellows":1,"Greens":1,"Cyans":1,"Blues":1,"Magentas":1},"luminance":{"Reds":0.9,"Yellows":0.9,"Greens":0.9,"Cyans":0.9,"Blues":0.9,"Magentas":0.9},"lum_sat":{"Blacks":1,"Shadows":1,"Midtones":1,"Highlights":1,"Whites":1},"sat_sat":{"10":1,"20":1,"30":1,"40":1,"50":1}}
# Block 7: ODT | Rec709
TITLE "Lutify.me-FilmBoost10-CanonLog3-to-Rec709" 
LUT_3D_SIZE 33
0.000000 0.000000 0.000000
0.000000 0.000000 0.000000
0.000000 0.000000 0.000000
0.000000 0.000000 0.000000
0.000000 0.000000 0.000000
0.079605 0.000000 0.000000
0.120126 0.000000 0.000000
0.154633 0.000000 0.000000
0.189416 0.000000 0.000000
0.218595 0.000000 0.000000
0.255585 0.000000 0.000000
0.297281 0.000000 0.000000
0.328310 0.000000 0.000000
0.363208 0.000000 0.000000
0.404909 0.000000 0.000000
0.463353 0.000000 0.000000
0.511603 0.000000 0.000000
0.561548 0.000000 0.000000
0.620123 0.000000 0.000000
0.663263 0.000000 0.000000
0.732231 0.000000 0.000000
0.789210 0.000000 0.000000
0.846959 0.000000 0.038038
0.896745 0.000000 0.063210
0.943063 0.000000 0.086498
0.979904 0.000000 0.111629
1.000000 0.000000 0.143698
1.000000 0.000000 0.176083
1.000000 0.000000 0.205601
1.000000 0.097901 0.234644
1.000000 0.227173 0.274975
1.000000 0.317680 0.315066
1.000000 0.374449 0.356419
0.000000 0.000000 0.000000
0.000000 0.000000 0.000000
0.000000 0.000000 0.000000
0.000000 0.000000 0.000000
0.000000 0.000000 0.000000
0.081055 0.000000 0.000000
0.120126 0.000000 0.000000
0.154633 0.000000 0.000000
0.189416 0.000000 0.000000
0.221352 0.000000 0.000000
0.257176 0.000000 0.000000
0.297281 0.000000 0.000000
0.342183 0.000000 0.000000
0.381107 0.000000 0.000000
0.433200 0.000000 0.000000
0.498679 0.000000 0.000000
0.558930 0.000000 0.000000
0.589122 0.000000 0.000000
0.632837 0.000000 0.000000
0.679752 0.000000 0.000000
0.735454 0.000000 0.000000
0.792093 0.000000 0.000000
0.850182 0.000000 0.035186
0.899514 0.000000 0.061343
0.942810 0.000000 0.085539
0.981805 0.000000 0.110942
1.000000 0.000000 0.142903
1.000000 0.000000 0.172614
1.000000 0.000000 0.203720
1.000000 0.127405 0.234160
1.000000 0.236762 0.274630
1.000000 0.321501 0.314894
1.000000 0.379071 0.356738
0.000000 0.000000 0.000000
0.000000 0.000000 0.000000
0.000000 0.000000 0.000000
0.000000 0.000000 0.000000
0.000000 0.000000 0.000000
0.084746 0.000000 0.000000
0.124818 0.000000 0.000000
0.159200 0.000000 0.000000
0.196561 0.000000 0.000000
0.234207 0.000000 0.000000
0.273653 0.000000 0.000000
0.316947 0.000000 0.000000
0.364106 0.000000 0.000000
0.412477 0.000000 0.000000
0.465942 0.000000 0.000000
0.517811 0.000000 0.000000
0.575889 0.000000 0.000000
0.605880 0.000000 0.000000
0.639709 0.000000 0.000000
0.688942 0.000000 0.000000
0.738166 0.000000 0.000000
0.794184 0.000000 0.000000
0.852573 0.000000 0.027611
0.899296 0.000000 0.059704
0.945170 0.000000 0.084519
0.983646 0.000000 0.110166
1.000000 0.000000 0.139718
1.000000 0.000000 0.172488
1.000000 0.000000 0.203263
1.000000 0.143253 0.233823
1.000000 0.246071 0.274275
1.000000 0.321501 0.314894
1.000000 0.385989 0.356416
0.000000 0.000000 0.000000
0.000000 0.000000 0.000000
0.000000 0.000000 0.000000
0.000000 0.000000 0.000000
0.000000 0.000000 0.000000
0.093416 0.000000 0.000000
0.133447 0.000000 0.000000
0.174781 0.000000 0.000000
0.212887 0.000000 0.000000
0.253499 0.000000 0.000000
0.294022 0.000000 0.000000
0.337210 0.000000 0.000000
0.385826 0.000000 0.000000
0.433528 0.000000 0.000000
0.475597 0.000000 0.000000
0.530538 0.000000 0.000000
0.585897 0.000000 0.000000
0.619390 0.000000 0.000000
0.649976 0.000000 0.000000
0.691490 0.000000 0.000000
0.744357 0.000000 0.000000
0.796821 0.000000 0.000000
0.851913 0.000000 0.018706
0.901597 0.000000 0.056121
0.944997 0.000000 0.083823
0.983379 0.000000 0.109509
1.000000 0.000000 0.139385
1.000000 0.000000 0.172173
1.000000 0.000000 0.202778
1.000000 0.157375 0.233472
1.000000 0.251058 0.274286
1.000000 0.321501 0.314894
1.000000 0.389438 0.356253
0.000000 0.058406 0.000000
0.000000 0.055625 0.000000
0.000000 0.053823 0.000000
0.000000 0.054109 0.000000
0.000000 0.058992 0.000000
0.104198 0.039912 0.000000
0.155533 0.000000 0.000000
0.198736 0.000000 0.000000
0.234164 0.000000 0.000000
0.275460 0.000000 0.000000
0.313381 0.000000 0.000000
0.359207 0.000000 0.000000
0.400496 0.000000 0.000000
0.441709 0.000000 0.000000
0.487629 0.000000 0.000000
0.543515 0.000000 0.000000
0.595962 0.000000 0.000000
0.639722 0.000000 0.000000
0.656870 0.000000 0.000000
0.694507 0.000000 0.000000
0.746827 0.000000 0.000000
0.799738 0.000000 0.000000
0.854588 0.000000 0.000000
0.900938 0.000000 0.052635
0.947377 0.000000 0.082955
0.985217 0.000000 0.108745
1.000000 0.000000 0.139047
1.000000 0.000000 0.172014
1.000000 0.000000 0.202610
1.000000 0.163965 0.233292
1.000000 0.259980 0.273917
1.000000 0.325304 0.314720
1.000000 0.389438 0.356253
0.000000 0.091212 0.000000
0.000000 0.088449 0.000000
0.000000 0.086423 0.000000
0.000000 0.088801 0.000000
0.000000 0.098069 0.000000
0.098807 0.093628 0.000000
0.166576 0.068548 0.000000
0.217590 0.026090 0.000000
0.260661 0.000000 0.000000
0.295704 0.000000 0.000000
0.332646 0.000000 0.000000
0.372617 0.000000 0.000000
0.410594 0.000000 0.000000
0.452947 0.000000 0.000000
0.493803 0.000000 0.000000
0.553328 0.000000 0.000000
0.606050 0.000000 0.000000
0.649976 0.000000 0.000000
0.663755 0.000000 0.000000
0.697304 0.000000 0.000000
0.752779 0.000000 0.000000
0.802376 0.000000 0.000000
0.857766 0.000000 0.000000
0.903294 0.000000 0.049082
0.949713 0.000000 0.081994
0.984991 0.000000 0.108167
1.000000 0.000000 0.139171
1.000000 0.000000 0.171675
1.000000 0.000000 0.202440
1.000000 0.176410 0.232922
1.000000 0.264364 0.273729
1.000000 0.332856 0.314366
1.000000 0.392883 0.356088
0.000000 0.123307 0.000000
0.000000 0.121498 0.000000
0.000000 0.119713 0.000000
0.000000 0.126491 0.000000
0.000000 0.135200 0.000000
0.035514 0.139706 0.000000
0.164981 0.125980 0.000000
0.227777 0.096412 0.000000
0.275958 0.064494 0.000000
0.314419 0.000000 0.000000
0.349699 0.000000 0.000000
0.394098 0.000000 0.000000
0.426379 0.000000 0.000000
0.467421 0.000000 0.000000
0.509151 0.000000 0.000000
0.559991 0.000000 0.000000
0.609520 0.000000 0.000000
0.653451 0.000000 0.000000
0.677515 0.000000 0.000000
0.699879 0.000000 0.000000
0.755265 0.000000 0.000000
0.805806 0.000000 0.000000
0.860380 0.000000 0.000000
0.902590 0.000000 0.044257
0.948987 0.000000 0.078677
0.986456 0.000000 0.105166
1.000000 0.000000 0.137309
1.000000 0.000000 0.171501
1.000000 0.000000 0.201908
1.000000 0.182625 0.232920
1.000000 0.268702 0.273538
1.000000 0.337064 0.314401
1.000000 0.392883 0.356088
0.000000 0.155985 0.000000
0.000000 0.153716 0.000000
0.000000 0.153716 0.000000
0.000000 0.157804 0.000000
0.000000 0.168631 0.000000
0.000000 0.175335 0.000000
0.148511 0.170156 0.000000
0.234311 0.147361 0.000000
0.285625 0.124860 0.000000
0.323567 0.102533 0.000000
0.364257 0.057707 0.000000
0.405358 0.000000 0.000000
0.443504 0.000000 0.000000
0.485940 0.000000 0.000000
0.528395 0.000000 0.000000
0.570068 0.000000 0.000000
0.619748 0.000000 0.000000
0.660389 0.000000 0.000000
0.684465 0.000000 0.000000
0.712331 0.000000 0.000000
0.757761 0.000000 0.000000
0.808169 0.000000 0.000000
0.862706 0.000000 0.000000
0.905091 0.000000 0.039859
0.951260 0.000000 0.077435
0.986032 0.000000 0.104008
1.000000 0.000000 0.136884
1.000000 0.000000 0.171129
1.000000 0.062169 0.201895
1.000000 0.199422 0.232327
1.000000 0.273777 0.273741
1.000000 0.337064 0.314401
1.000000 0.396322 0.355921
0.000000 0.183183 0.000000
0.000000 0.181861 0.000000
0.000000 0.183183 0.000000
0.000000 0.188367 0.000000
0.000000 0.200712 0.000000
0.000000 0.210419 0.000000
0.093075 0.208660 0.000000
0.226112 0.196071 0.000000
0.285310 0.175032 0.000000
0.333847 0.149757 0.000000
0.375417 0.123593 0.000000
0.417917 0.092677 0.000000
0.459560 0.000000 0.000000
0.496500 0.000000 0.000000
0.539180 0.000000 0.000000
0.583881 0.000000 0.000000
0.633495 0.000000 0.000000
0.674223 0.000000 0.000000
0.698302 0.000000 0.000000
0.722541 0.000000 0.000000
0.760262 0.000000 0.000000
0.820422 0.000000 0.000000
0.868202 0.000000 0.000000
0.910228 0.000000 0.032384
0.952842 0.000000 0.072750
0.987742 0.000000 0.102877
1.000000 0.000000 0.136038
1.000000 0.000000 0.167609
1.000000 0.093494 0.201510
1.000000 0.209999 0.231913
1.000000 0.277683 0.271454
1.000000 0.340790 0.314219
1.000000 0.403184 0.355583
0.000000 0.212770 0.000000
0.000000 0.211278 0.000000
0.000000 0.215780 0.000000
0.000000 0.225303 0.000000
0.000000 0.236345 0.000000
0.000000 0.243571 0.000000
0.000000 0.241290 0.000000
0.199800 0.238990 0.000000
0.279926 0.226300 0.000000
0.338289 0.199944 0.000000
0.393357 0.169353 0.000000
0.436124 0.144625 0.000000
0.479409 0.110304 0.000000
0.516723 0.040300 0.000000
0.556763 0.000000 0.000000
0.598144 0.000000 0.000000
0.644258 0.000000 0.000000
0.684765 0.000000 0.000000
0.729446 0.000000 0.000000
0.736439 0.000000 0.000000
0.765282 0.000000 0.000000
0.823004 0.000000 0.000000
0.869341 0.000000 0.000000
0.912004 0.000000 0.000000
0.954494 0.000000 0.068143
0.987252 0.000000 0.101464
1.000000 0.000000 0.135124
1.000000 0.000000 0.166948
1.000000 0.124140 0.200904
1.000000 0.225658 0.231650
1.000000 0.290164 0.270846
1.000000 0.351885 0.313660
1.000000 0.406610 0.355411
0.000000 0.244529 0.000000
0.000000 0.244529 0.000000
0.000000 0.249292 0.000000
0.000000 0.262582 0.000000
0.000000 0.272391 0.000000
0.000000 0.277361 0.000000
0.000000 0.281364 0.000000
0.144857 0.273942 0.000000
0.264619 0.271882 0.000000
0.340080 0.249295 0.000000
0.398918 0.222237 0.000000
0.449628 0.202079 0.000000
0.494551 0.171905 0.000000
0.535431 0.139783 0.000000
0.571955 0.104018 0.000000
0.619327 0.000000 0.000000
0.658561 0.000000 0.000000
0.695520 0.000000 0.000000
0.736512 0.000000 0.000000
0.750312 0.000000 0.000000
0.777000 0.000000 0.000000
0.824485 0.000000 0.000000
0.873137 0.000000 0.000000
0.913317 0.000000 0.000000
0.955929 0.000000 0.061788
0.990397 0.000000 0.097023
1.000000 0.000000 0.132696
1.000000 0.000000 0.166226
1.000000 0.154648 0.200226
1.000000 0.235624 0.231395
1.000000 0.298671 0.270634
1.000000 0.355558 0.313469
1.000000 0.410030 0.355237
0.000000 0.270959 0.000000
0.000000 0.270959 0.000000
0.000000 0.282379 0.000000
0.000000 0.300201 0.000000
0.000000 0.307901 0.000000
0.000000 0.313686 0.000000
0.000000 0.316854 0.000000
0.000000 0.314088 0.000000
0.223386 0.309865 0.000000
0.329622 0.302823 0.000000
0.394722 0.278735 0.000000
0.459984 0.252616 0.000000
0.506605 0.228094 0.000000
0.548273 0.200063 0.000000
0.587876 0.178687 0.000000
0.631460 0.138722 0.000000
0.670099 0.076847 0.000000
0.709912 0.000000 0.000000
0.743660 0.000000 0.000000
0.774502 0.000000 0.000000
0.784823 0.000000 0.000000
0.831520 0.000000 0.000000
0.874532 0.000000 0.000000
0.913930 0.000000 0.000000
0.958785 0.000000 0.046131
0.991428 0.000000 0.092297
1.000000 0.000000 0.130693
1.000000 0.081829 0.163684
1.000000 0.179143 0.196164
1.000000 0.253926 0.228598
1.000000 0.310672 0.269987
1.000000 0.362869 0.313082
1.000000 0.417334 0.355134
0.000000 0.300262 0.000000
0.000000 0.302199 0.000000
0.000000 0.322694 0.000000
0.000000 0.337208 0.000000
0.000000 0.343684 0.000000
0.000000 0.350234 0.000000
0.000000 0.349593 0.000000
0.000000 0.347655 0.000000
0.181604 0.343985 0.000000
0.300054 0.339020 0.000000
0.390682 0.333452 0.000000
0.460104 0.301852 0.000000
0.518310 0.280169 0.000000
0.566426 0.258589 0.000000
0.603244 0.230058 0.000000
0.650042 0.201044 0.000000
0.688297 0.166209 0.000000
0.727642 0.118052 0.000000
0.764518 0.000000 0.000000
0.795090 0.000000 0.000000
0.815578 0.000000 0.000000
0.837923 0.000000 0.000000
0.874026 0.000000 0.000000
0.919985 0.000000 0.000000
0.958575 0.000000 0.000000
0.989776 0.000000 0.083522
1.000000 0.039805 0.120119
1.000000 0.139778 0.158996
1.000000 0.206869 0.195064
1.000000 0.275987 0.227309
1.000000 0.326040 0.265105
1.000000 0.374518 0.312933
1.000000 0.424131 0.354775
0.000000 0.334996 0.000000
0.000000 0.341543 0.000000
0.000000 0.356249 0.000000
0.000000 0.369191 0.000000
0.000000 0.376318 0.000000
0.000000 0.378552 0.000000
0.000000 0.383001 0.000000
0.000000 0.384169 0.000000
0.066534 0.381415 0.000000
0.256377 0.377528 0.000000
0.362928 0.372649 0.000000
0.466182 0.350556 0.000000
0.518935 0.332160 0.000000
0.571893 0.307164 0.000000
0.614469 0.282823 0.000000
0.658728 0.259392 0.000000
0.700029 0.234433 0.000000
0.738665 0.194073 0.000000
0.775078 0.160031 0.000000
0.812050 0.105238 0.000000
0.842042 0.000000 0.000000
0.843497 0.095800 0.000000
0.882353 0.000000 0.000000
0.922600 0.000000 0.000000
0.958642 0.000000 0.000000
0.988964 0.056607 0.064216
1.000000 0.136690 0.112534
1.000000 0.189384 0.153502
1.000000 0.241228 0.191543
1.000000 0.296888 0.224278
1.000000 0.341380 0.264134
1.000000 0.384976 0.309928
1.000000 0.430617 0.351757
0.000000 0.369066 0.000000
0.000000 0.380446 0.000000
0.000000 0.404370 0.000000
0.000000 0.412217 0.000000
0.000000 0.417435 0.000000
0.000000 0.417232 0.000000
0.000000 0.424885 0.000000
0.000000 0.426916 0.000000
0.000000 0.425235 0.000000
0.191202 0.419510 0.000000
0.325819 0.418185 0.000000
0.449856 0.410246 0.000000
0.525061 0.385978 0.000000
0.572276 0.364118 0.000000
0.619421 0.338579 0.000000
0.666050 0.318169 0.000000
0.707842 0.291588 0.000000
0.746363 0.264027 0.000000
0.782217 0.237880 0.000000
0.821812 0.206786 0.000000
0.860481 0.145452 0.000000
0.866270 0.175052 0.000000
0.885061 0.178784 0.000000
0.925199 0.146695 0.000000
0.957459 0.160841 0.000000
0.988282 0.163425 0.037991
1.000000 0.190204 0.100017
1.000000 0.234193 0.147172
1.000000 0.276748 0.185643
1.000000 0.317289 0.223003
1.000000 0.363879 0.260711
1.000000 0.402462 0.306457
1.000000 0.441200 0.351448
0.000000 0.406686 0.000000
0.000000 0.432681 0.000000
0.000000 0.447860 0.000000
0.000000 0.453439 0.000000
0.000000 0.453326 0.000000
0.000000 0.455989 0.000000
0.000000 0.464188 0.000000
0.000000 0.463540 0.000000
0.000000 0.462316 0.000000
0.000000 0.460340 0.000000
0.274475 0.456607 0.000000
0.409002 0.456933 0.000000
0.508947 0.448888 0.000000
0.570704 0.422587 0.000000
0.622510 0.399556 0.000000
0.669483 0.382609 0.000000
0.717326 0.355012 0.000000
0.762976 0.323368 0.000000
0.795439 0.299775 0.000000
0.833864 0.280046 0.000000
0.871136 0.236912 0.000000
0.909156 0.194255 0.000000
0.898201 0.252815 0.000000
0.927661 0.248883 0.000000
0.956697 0.233517 0.000000
0.988130 0.230925 0.000000
1.000000 0.242345 0.082376
1.000000 0.273810 0.136371
1.000000 0.309947 0.181250
1.000000 0.344496 0.219075
1.000000 0.382314 0.259319
1.000000 0.416295 0.301038
1.000000 0.454678 0.350668
0.000000 0.449578 0.000000
0.000000 0.479222 0.000000
0.000000 0.487823 0.000000
0.000000 0.493531 0.000000
0.000000 0.496305 0.000000
0.000000 0.496094 0.000000
0.000000 0.498713 0.000000
0.000000 0.504099 0.000000
0.000000 0.503124 0.000000
0.000000 0.501456 0.000000
0.202125 0.498424 0.000000
0.374686 0.493512 0.000000
0.474379 0.488593 0.000000
0.560723 0.480176 0.000000
0.625536 0.456009 0.000000
0.677692 0.429234 0.000000
0.727872 0.408261 0.000000
0.768604 0.378230 0.000000
0.807396 0.360906 0.000000
0.838481 0.344422 0.000000
0.877776 0.303952 0.000000
0.911794 0.273182 0.000000
0.921524 0.285674 0.000000
0.926010 0.326852 0.000000
0.961728 0.311806 0.000000
0.985516 0.308047 0.000000
1.000000 0.301118 0.046486
1.000000 0.318379 0.122481
1.000000 0.340861 0.172634
1.000000 0.374223 0.212356
1.000000 0.400133 0.253850
1.000000 0.436995 0.297185
1.000000 0.467535 0.344562
0.000000 0.508282 0.000000
0.000000 0.517021 0.000000
0.000000 0.528733 0.000000
0.000000 0.534537 0.000000
0.000000 0.534362 0.000000
0.000000 0.534160 0.000000
0.000000 0.536854 0.000000
0.000000 0.539394 0.000000
0.000000 0.538619 0.000000
0.000000 0.537370 0.000000
0.000000 0.534897 0.000000
0.315482 0.530942 0.000000
0.442192 0.526107 0.000000
0.540854 0.520386 0.000000
0.621385 0.511013 0.000000
0.678317 0.484103 0.000000
0.732713 0.459809 0.000000
0.772565 0.433703 0.000000
0.811988 0.410377 0.000000
0.845462 0.394274 0.000000
0.877692 0.367598 0.000000
0.916037 0.338659 0.000000
0.943491 0.321944 0.000000
0.934132 0.356616 0.000000
0.954638 0.374920 0.000000
0.988798 0.371115 0.000000
1.000000 0.368979 0.000000
1.000000 0.362984 0.095464
1.000000 0.377913 0.160260
1.000000 0.399456 0.204227
1.000000 0.421762 0.250318
1.000000 0.453755 0.289073
1.000000 0.484350 0.341133
0.000000 0.558591 0.000000
0.000000 0.564474 0.000000
0.000000 0.567333 0.000000
0.000000 0.567166 0.000000
0.000000 0.570002 0.000000
0.000000 0.572810 0.000000
0.000000 0.572531 0.000000
0.000000 0.572083 0.000000
0.000000 0.571385 0.000000
0.000000 0.570272 0.000000
0.000000 0.568515 0.000000
0.238160 0.565396 0.000000
0.391081 0.567261 0.000000
0.498895 0.562563 0.000000
0.605532 0.554780 0.000000
0.671962 0.537053 0.000000
0.730817 0.512750 0.000000
0.772503 0.496749 0.000000
0.813943 0.473656 0.000000
0.847962 0.451345 0.000000
0.884191 0.435145 0.000000
0.916265 0.405621 0.000000
0.943589 0.379858 0.000000
0.967984 0.365011 0.000000
0.954169 0.418469 0.000000
0.981376 0.429393 0.000000
1.000000 0.429866 0.000000
1.000000 0.416631 0.035368
1.000000 0.417245 0.143454
1.000000 0.431651 0.196354
1.000000 0.456487 0.240635
1.000000 0.478058 0.285261
1.000000 0.507746 0.334885
0.000000 0.600611 0.000000
0.000000 0.603459 0.000000
0.000000 0.603274 0.000000
0.000000 0.609137 0.000000
0.000000 0.608956 0.000000
0.000000 0.611780 0.000000
0.000000 0.611527 0.000000
0.000000 0.611006 0.000000
0.000000 0.610459 0.000000
0.000000 0.612746 0.000000
0.000000 0.611216 0.000000
0.046010 0.608802 0.000000
0.330255 0.605246 0.000000
0.460669 0.603857 0.000000
0.570999 0.598440 0.000000
0.657414 0.590931 0.000000
0.720249 0.570180 0.000000
0.768123 0.557185 0.000000
0.816137 0.530268 0.000000
0.851238 0.508142 0.000000
0.886892 0.492497 0.000000
0.917416 0.470793 0.000000
0.941205 0.450048 0.000000
0.968078 0.425329 0.000000
0.982126 0.419918 0.000000
0.977875 0.470333 0.000000
1.000000 0.483624 0.000000
1.000000 0.484152 0.000000
1.000000 0.471994 0.102805
1.000000 0.473469 0.182189
1.000000 0.487827 0.235117
1.000000 0.505340 0.280697
1.000000 0.534035 0.330300
0.000000 0.642850 0.000000
0.000000 0.642607 0.000000
0.000000 0.648459 0.000000
0.000000 0.648259 0.000000
0.000000 0.648072 0.000000
0.000000 0.647803 0.000000
0.000000 0.647563 0.000000
0.000000 0.650227 0.000000
0.000000 0.652812 0.000000
0.000000 0.655298 0.000000
0.000000 0.653908 0.000000
0.000000 0.652088 0.000000
0.233314 0.649269 0.000000
0.403449 0.645371 0.000000
0.527329 0.637481 0.000000
0.625890 0.632248 0.000000
0.709153 0.627255 0.000000
0.756103 0.614956 0.000000
0.807302 0.591588 0.000000
0.851445 0.565225 0.000000
0.889859 0.549462 0.000000
0.916965 0.532014 0.000000
0.942577 0.508068 0.000000
0.966015 0.491311 0.000000
0.989544 0.478200 0.000000
0.985379 0.495851 0.000000
0.992916 0.541099 0.000000
1.000000 0.537056 0.000000
1.000000 0.541874 0.000000
1.000000 0.527778 0.155629
1.000000 0.528113 0.218884
1.000000 0.545708 0.272111
1.000000 0.563804 0.325621
0.000000 0.675934 0.000000
0.000000 0.678725 0.000000
0.000000 0.678508 0.000000
0.000000 0.681322 0.000000
0.000000 0.681107 0.000000
0.000000 0.680857 0.000000
0.000000 0.680637 0.000000
0.000000 0.680312 0.000000
0.000000 0.682933 0.000000
0.000000 0.682088 0.000000
0.000000 0.680813 0.000000
0.000000 0.676224 0.000000
0.170450 0.673977 0.000000
0.353692 0.673937 0.000000
0.460430 0.676726 0.000000
0.593645 0.670932 0.000000
0.685242 0.665649 0.000000
0.766622 0.649692 0.000000
0.804609 0.638237 0.000000
0.847584 0.612481 0.000000
0.884490 0.597170 0.000000
0.915829 0.582629 0.000000
0.942847 0.562152 0.000000
0.966229 0.542326 0.000000
0.985024 0.533405 0.000000
1.000000 0.514235 0.000000
0.991332 0.561657 0.000000
1.000000 0.592065 0.000000
1.000000 0.594045 0.000000
1.000000 0.593471 0.101558
1.000000 0.584536 0.194175
1.000000 0.588844 0.260149
1.000000 0.599447 0.314949
0.000000 0.711819 0.000000
0.000000 0.714521 0.000000
0.000000 0.714242 0.000000
0.000000 0.714052 0.000000
0.000000 0.713807 0.000000
0.000000 0.713601 0.000000
0.000000 0.713413 0.000000
0.000000 0.715941 0.000000
0.000000 0.715324 0.000000
0.000000 0.714565 0.000000
0.000000 0.713370 0.000000
0.000000 0.712276 0.000000
0.000000 0.710215 0.000000
0.298616 0.707855 0.000000
0.409538 0.711031 0.000000
0.544470 0.706217 0.000000
0.656571 0.700696 0.000000
0.746258 0.693822 0.000000
0.804095 0.680587 0.000000
0.837175 0.663377 0.000000
0.881714 0.644008 0.000000
0.912016 0.626458 0.000000
0.938841 0.609498 0.000000
0.961553 0.593284 0.000000
0.979931 0.584491 0.000000
1.000000 0.565567 0.000000
1.000000 0.543997 0.000000
1.000000 0.605807 0.000000
1.000000 0.636062 0.000000
1.000000 0.640018 0.000000
1.000000 0.643156 0.160993
1.000000 0.633874 0.237899
1.000000 0.635099 0.304789
0.000000 0.745764 0.000000
0.000000 0.745497 0.000000
0.000000 0.745218 0.000000
0.000000 0.745007 0.000000
0.000000 0.747494 0.000000
0.000000 0.747140 0.000000
0.000000 0.746893 0.000000
0.000000 0.749140 0.000000
0.000000 0.748559 0.000000
0.000000 0.747882 0.000000
0.000000 0.747094 0.000000
0.000000 0.745964 0.000000
0.000000 0.744538 0.000000
0.230194 0.742450 0.000000
0.364950 0.742769 0.000000
0.507953 0.738490 0.000000
0.626586 0.733353 0.000000
0.714805 0.725792 0.000000
0.785249 0.722257 0.000000
0.831523 0.716651 0.000000
0.873462 0.693196 0.000000
0.904954 0.676386 0.000000
0.929270 0.666670 0.000000
0.955605 0.643709 0.000000
0.979809 0.627718 0.000000
0.999063 0.612617 0.000000
1.000000 0.594729 0.000000
1.000000 0.580638 0.000000
1.000000 0.653885 0.000000
1.000000 0.680303 0.000000
1.000000 0.684871 0.054857
1.000000 0.683066 0.213079
1.000000 0.673476 0.275029
0.000000 0.776979 0.000000
0.000000 0.776571 0.000000
0.000000 0.776130 0.000000
0.000000 0.775828 0.000000
0.000000 0.778083 0.000000
0.000000 0.777784 0.000000
0.000000 0.777390 0.000000
0.000000 0.779545 0.000000
0.000000 0.779073 0.000000
0.000000 0.778551 0.000000
0.000000 0.777674 0.000000
0.000000 0.776919 0.000000
0.000000 0.775597 0.000000
0.150078 0.776470 0.000000
0.339630 0.771585 0.000000
0.475099 0.768059 0.000000
0.590227 0.763691 0.000000
0.681786 0.759238 0.000000
0.759960 0.754753 0.000000
0.817247 0.754288 0.000000
0.860538 0.741025 0.000000
0.896704 0.722427 0.000000
0.924471 0.710063 0.000000
0.949571 0.694940 0.000000
0.972540 0.676923 0.000000
0.992120 0.659159 0.000000
1.000000 0.641495 0.000000
1.000000 0.627430 0.000000
1.000000 0.610918 0.000000
1.000000 0.706145 0.000000
1.000000 0.720248 0.000000
1.000000 0.726861 0.148150
1.000000 0.718955 0.260646
0.000000 0.804695 0.000000
0.000000 0.804244 0.000000
0.000000 0.803797 0.000000
0.000000 0.803517 0.000000
0.000000 0.803370 0.000000
0.000000 0.803061 0.000000
0.000000 0.802899 0.000000
