Assets/Lutify-Free-LUTs-Pack/Lutify Free LUTs Pack/Colour Film Boost Pro - Film Boost 10/Lutify.me-FilmBoost10-FLog2-to-Rec709.cube
# Created with: fylm.ai - Colour Grading and Collaboration Software in Cloud 
# Website: https://fylm.ai 
# META
# Option: Gamut compress
# Block 1: IDT | Fujifilm F-Gamut F-Log2
# Block 2: colourMatch | Blending Mode: Normal | {"ColorSpace":0,"CrossCovarianceLimit":50,"ReshapingIterations":1,"PercentSaturationShift":100,"PercentShadingShift":100,"ExtraShading":true,"PercentTint":100,"PercentModified":100}
# Block 3: subtractiveColour | Blending Mode: Normal | {"sliders":{"gainY":0.55,"C":0.3,"M":0.3,"Y":0.3}}
# Block 4: LUT | Filmic Curve Response: Low Contrast 2 (100%)
# Block 5: logPrimaries | Blending Mode: Normal | {"wheels":{"shadows":{"Y":"0","R":"1","G":"1","B":"1"},"midtones":{"Y":"0","R":"1","G":"1","B":"1"},"highlights":{"Y":"0","R":"1","G":"1","B":"1"},"offset":{"Y":"0","R":"1","G":"1","B":"1"}},"sliders":{"shadows":{"Y":0,"R":-0.085,"G":0.024,"B":0.134},"midtones":{"Y":0,"R":0,"G":-0.023,"B":0},"highlights":{"Y":0,"R":0,"G":0,"B":0},"offset":{"Y":0,"R":0.012,"G":-0.012,"B":0}}}
# Block 6: HSL | Blending Mode: Normal | {"hue":{"Reds":0,"Yellows":0,"Greens":0,"Cyans":0,"Blues":0,"Magentas":0},"saturation":{"Reds":1,"Yellows":1,"Greens":1,"Cyans":1,"Blues":1,"Magentas":1},"luminance":{"Reds":0.9,"Yellows":0.9,"Greens":0.9,"Cyans":0.9,"Blues":0.9,"Magentas":0.9},"lum_sat":{"Blacks":1,"Shadows":1,"Midtones":1,"Highlights":1,"Whites":1},"sat_sat":{"10":1,"20":1,"30":1,"40":1,"50":1}}
# Block 7: ODT | Rec709
TITLE "Lutify.me-FilmBoost10-FLog2-to-Rec709" 
LUT_3D_SIZE 5
0.000000 0.000000 0.000000
0.115635 0.000000 0.000000
0.497057 0.000000 0.000000
1.000000 0.047535 0.202584
1.000000 0.766238 0.661124
0.000000 0.092890 0.000000
0.145037 0.090556 0.000000
0.521140 0.000000 0.000000
1.000000 0.126648 0.204974
1.000000 0.766238 0.661124
0.000000 0.453076 0.000000
0.000000 0.478707 0.000000
0.611570 0.445295 0.000000
1.000000 0.342857 0.223677
1.000000 0.776430 0.664540
0.000000 0.900272 0.433807
0.000000 0.902254 0.432477
0.000000 0.905125 0.430624
0.953212 0.879481 0.380423
1.000000 0.842022 0.700574
0.730280 1.000000 0.869488
0.733089 1.000000 0.869635
0.749497 1.000000 0.870516
0.855110 1.000000 0.867206
1.000000 0.996597 0.862319
0.000000 0.000000 0.071990
0.102167 0.000000 0.049823
0.507818 0.000000 0.052770
1.000000 0.060286 0.219932
1.000000 0.766448 0.664129
0.000000 0.086210 0.153177
0.108835 0.124744 0.143276
0.534476 0.000000 0.063577
1.000000 0.138477 0.220635
1.000000 0.766448 0.664129
0.000000 0.452235 0.130566
0.000000 0.495496 0.097079
0.619473 0.493409 0.000000
1.000000 0.345044 0.240017
1.000000 0.776430 0.664540
0.000000 0.900046 0.453112
0.000000 0.902196 0.455646
0.000000 0.908349 0.448521
0.953419 0.880380 0.402871
1.000000 0.842173 0.703330
0.730280 1.000000 0.869488
0.733089 1.000000 0.869635
0.749497 1.000000 0.870516
0.855110 1.000000 0.867206
1.000000 0.996597 0.862319
0.000000 0.035627 0.383046
0.000000 0.043753 0.390373
0.544743 0.000000 0.314814
1.000000 0.147952 0.359322
1.000000 0.767494 0.679015
0.000000 0.079927 0.426301
0.000000 0.091688 0.432804
0.590572 0.000000 0.383974
1.000000 0.182323 0.362435
1.000000 0.767494 0.679015
0.000000 0.438907 0.569582
0.000000 0.481553 0.586031
0.600080 0.588640 0.610995
1.000000 0.381101 0.392539
1.000000 0.777422 0.679332
0.000000 0.903711 0.613270
0.000000 0.905643 0.611815
0.000000 0.912803 0.612117
0.948493 0.893912 0.581351
1.000000 0.843084 0.719604
0.729906 1.000000 0.874088
0.732717 1.000000 0.874228
0.749138 1.000000 0.875071
0.854145 1.000000 0.874720
1.000000 0.996701 0.867897
0.000000 0.334840 0.856443
0.000000 0.343516 0.857508
0.366663 0.358975 0.863232
1.000000 0.215229 0.807346
1.000000 0.784992 0.798771
0.000000 0.348115 0.855917
0.000000 0.351644 0.857184
0.362602 0.368652 0.865217
1.000000 0.238641 0.810076
1.000000 0.784992 0.798771
0.000000 0.460214 0.873248
0.000000 0.464900 0.874489
0.273927 0.499788 0.878642
1.000000 0.429846 0.845346
1.000000 0.793421 0.801202
0.000000 0.897257 0.913311
0.000000 0.901097 0.913881
0.000000 0.910284 0.916647
0.926518 0.924420 0.922672
1.000000 0.857689 0.820435
0.727204 1.000000 0.923081
0.727204 1.000000 0.923081
0.744423 1.000000 0.922799
0.850052 1.000000 0.922741
1.000000 0.999365 0.914811
0.573187 0.804349 0.997080
0.579523 0.804306 0.997090
0.627270 0.803959 0.997176
0.858608 0.810755 0.996329
1.000000 0.805633 0.980164
0.573187 0.804349 0.997080
0.579523 0.804306 0.997090
0.627270 0.803959 0.997176
0.858608 0.810755 0.996329
1.000000 0.805633 0.980164
0.574727 0.810907 0.997017
0.574727 0.810907 0.997017
0.622921 0.810522 0.997104
0.855420 0.819776 0.996285
1.000000 0.813161 0.980985
0.548711 0.877019 0.997838
0.555301 0.876947 0.997849
0.592757 0.876521 0.997912
0.823190 0.885060 0.996770
1.000000 0.878111 0.985939
0.692120 1.000000 1.000000
0.696818 1.000000 1.000000
0.711019 1.000000 1.000000
0.839333 1.000000 1.000000
1.000000 1.000000 1.000000
