Assets/Lutify-Free-LUTs-Pack/Lutify Free LUTs Pack/Colour Film Boost Pro - Film Boost 10/Lutify.me-FilmBoost10-KineLog3-to-Rec709.cube
# Created with: fylm.ai - Colour Grading and Collaboration Software in Cloud 
# Website: https://fylm.ai 
# META
# Option: Gamut compress
# Block 1: IDT | Kinefinity KineLOG3 - BETA
# Block 2: colourMatch | Blending Mode: Normal | {"ColorSpace":0,"CrossCovarianceLimit":50,"ReshapingIterations":1,"PercentSaturationShift":100,"PercentShadingShift":100,"ExtraShading":true,"PercentTint":100,"PercentModified":100}
# Block 3: subtractiveColour | Blending Mode: Normal | {"sliders":{"gainY":0.55,"C":0.3,"M":0.3,"Y":0.3}}
# Block 4: LUT | Filmic Curve Response: Low Contrast 2 (100%)
# Block 5: logPrimaries | Blending Mode: Normal | {"wheels":{"shadows":{"Y":"0","R":"1","G":"1","B":"1"},"midtones":{"Y":"0","R":"1","G":"1","B":"1"},"highlights":{"Y":"0","R":"1","G":"1","B":"1"},"offset":{"Y":"0","R":"1","G":"1","B":"1"}},"sliders":{"shadows":{"Y":0,"R":-0.085,"G":0.024,"B":0.134},"midtones":{"Y":0,"R":0,"G":-0.023,"B":0},"highlights":{"Y":0,"R":0,"G":0,"B":0},"offset":{"Y":0,"R":0.012,"G":-0.012,"B":0}}}
# Block 6: HSL | Blending Mode: Normal | {"hue":{"Reds":0,"Yellows":0,"Greens":0,"Cyans":0,"Blues":0,"Magentas":0},"saturation":{"Reds":1,"Yellows":1,"Greens":1,"Cyans":1,"Blues":1,"Magentas":1},"luminance":{"Reds":0.9,"Yellows":0.9,"Greens":0.9,"Cyans":0.9,"Blues":0.9,"Magentas":0.9},"lum_sat":{"Blacks":1,"Shadows":1,"Midtones":1,"Highlights":1,"Whites":1},"sat_sat":{"10":1,"20":1,"30":1,"40":1,"50":1}}
# Block 7: ODT | Rec709
TITLE "Lutify.me-FilmBoost10-KineLog3-to-Rec709" 
LUT_3D_SIZE 33
0.000000 0.000000 0.000000
0.000000 0.000000 0.000000
0.000000 0.000000 0.000000
0.000000 0.000000 0.000000
0.000000 0.000000 0.000000
0.000000 0.000000 0.000000
0.035156 0.000000 0.000000
0.069213 0.000000 0.000000
0.100733 0.000000 0.000000
0.126198 0.000000 0.000000
0.154633 0.000000 0.000000
0.185967 0.000000 0.000000
0.218595 0.000000 0.000000
0.262011 0.000000 0.000000
0.312047 0.000000 0.000000
0.368166 0.000000 0.000000
0.421152 0.000000 0.000000
0.494896 0.000000 0.000000
0.572793 0.000000 0.000000
0.649888 0.000000 0.000000
0.728409 0.000000 0.032536
0.814368 0.000000 0.054620
0.886733 0.000000 0.080263
0.953425 0.000000 0.110840
1.000000 0.000000 0.150496
1.000000 0.000000 0.193920
1.000000 0.176732 0.239273
1.000000 0.301141 0.289883
1.000000 0.399184 0.351087
1.000000 0.473357 0.406621
1.000000 0.560881 0.470147
1.000000 0.642188 0.533626
1.000000 0.707479 0.594015
0.000000 0.000000 0.000000
0.000000 0.000000 0.000000
0.000000 0.000000 0.000000
0.000000 0.000000 0.000000
0.000000 0.000000 0.000000
0.000000 0.000000 0.000000
0.037452 0.000000 0.000000
0.070550 0.000000 0.000000
0.103079 0.000000 0.000000
0.127598 0.000000 0.000000
0.156439 0.000000 0.000000
0.187107 0.000000 0.000000
0.222744 0.000000 0.000000
0.267289 0.000000 0.000000
0.318206 0.000000 0.000000
0.373889 0.000000 0.000000
0.426552 0.000000 0.000000
0.498163 0.000000 0.000000
0.573049 0.000000 0.000000
0.653566 0.000000 0.000000
0.728950 0.000000 0.033749
0.814642 0.000000 0.055231
0.887229 0.000000 0.081900
0.953368 0.000000 0.110698
1.000000 0.000000 0.152926
1.000000 0.000000 0.193764
1.000000 0.176732 0.239273
1.000000 0.309152 0.289495
1.000000 0.399483 0.353748
1.000000 0.473357 0.406621
1.000000 0.560881 0.470147
1.000000 0.642188 0.533626
1.000000 0.707479 0.594015
0.000000 0.000000 0.000000
0.000000 0.000000 0.000000
0.000000 0.000000 0.000000
0.000000 0.000000 0.000000
0.000000 0.000000 0.000000
0.000000 0.000000 0.000000
0.039527 0.000000 0.000000
0.073268 0.000000 0.000000
0.105443 0.000000 0.000000
0.129734 0.000000 0.000000
0.159200 0.000000 0.000000
0.191760 0.000000 0.000000
0.230301 0.000000 0.000000
0.274576 0.000000 0.000000
0.323190 0.000000 0.000000
0.379101 0.000000 0.000000
0.434512 0.000000 0.000000
0.504483 0.000000 0.000000
0.576589 0.000000 0.000000
0.653576 0.000000 0.000000
0.728945 0.000000 0.033421
0.814598 0.000000 0.054668
0.887110 0.000000 0.081329
0.953253 0.000000 0.110404
1.000000 0.000000 0.152775
1.000000 0.000000 0.193764
1.000000 0.176732 0.239273
1.000000 0.309152 0.289495
1.000000 0.399483 0.353748
1.000000 0.473357 0.406621
1.000000 0.560881 0.470147
1.000000 0.642188 0.533626
1.000000 0.707479 0.594015
0.000000 0.000000 0.000000
0.000000 0.000000 0.000000
0.000000 0.000000 0.000000
0.000000 0.000000 0.000000
0.000000 0.000000 0.000000
0.000000 0.000000 0.000000
0.044024 0.000000 0.000000
0.076287 0.000000 0.000000
0.107480 0.000000 0.000000
0.133002 0.000000 0.000000
0.163373 0.000000 0.000000
0.199775 0.000000 0.000000
0.238068 0.000000 0.000000
0.280689 0.000000 0.000000
0.332109 0.000000 0.000000
0.383789 0.000000 0.000000
0.439929 0.000000 0.000000
0.504527 0.000000 0.000000
0.576850 0.000000 0.000000
0.657258 0.000000 0.000000
0.728934 0.000000 0.032718
0.815153 0.000000 0.056007
0.887080 0.000000 0.081179
0.955657 0.000000 0.110182
1.000000 0.000000 0.152775
1.000000 0.000000 0.196652
1.000000 0.182661 0.239090
1.000000 0.309152 0.289495
1.000000 0.399483 0.353748
1.000000 0.473357 0.406621
1.000000 0.560881 0.470147
1.000000 0.642188 0.533626
1.000000 0.707479 0.594015
0.000000 0.000000 0.000000
0.000000 0.000000 0.000000
0.000000 0.000000 0.000000
0.000000 0.000000 0.000000
0.000000 0.000000 0.000000
0.000000 0.000000 0.000000
0.054050 0.000000 0.000000
0.082159 0.000000 0.000000
0.113121 0.000000 0.000000
0.137680 0.000000 0.000000
0.169041 0.000000 0.000000
0.206773 0.000000 0.000000
0.246560 0.000000 0.000000
0.288418 0.000000 0.000000
0.336318 0.000000 0.000000
0.388504 0.000000 0.000000
0.442701 0.000000 0.000000
0.507606 0.000000 0.000000
0.580411 0.000000 0.000000
0.657783 0.000000 0.000000
0.736434 0.000000 0.033736
0.818614 0.000000 0.055608
0.890654 0.000000 0.082835
0.956059 0.000000 0.112283
1.000000 0.000000 0.152620
1.000000 0.000000 0.196652
1.000000 0.182661 0.239090
1.000000 0.313447 0.289487
1.000000 0.402981 0.353573
1.000000 0.473357 0.406621
1.000000 0.560881 0.470147
1.000000 0.642188 0.533626
1.000000 0.707479 0.594015
0.000000 0.016464 0.000000
0.000000 0.016864 0.000000
0.000000 0.017103 0.000000
0.000000 0.018522 0.000000
0.000000 0.020279 0.000000
0.000000 0.024166 0.000000
0.059791 0.000000 0.000000
0.095559 0.000000 0.000000
0.121196 0.000000 0.000000
0.145832 0.000000 0.000000
0.177225 0.000000 0.000000
0.214181 0.000000 0.000000
0.252203 0.000000 0.000000
0.292090 0.000000 0.000000
0.340400 0.000000 0.000000
0.393286 0.000000 0.000000
0.451025 0.000000 0.000000
0.510906 0.000000 0.000000
0.580687 0.000000 0.000000
0.657795 0.000000 0.000000
0.736699 0.000000 0.034003
0.818857 0.000000 0.055866
0.890654 0.000000 0.082835
0.955997 0.000000 0.112128
1.000000 0.000000 0.152744
1.000000 0.000000 0.196490
1.000000 0.188424 0.238903
1.000000 0.313447 0.289487
1.000000 0.402981 0.353573
1.000000 0.476595 0.406458
1.000000 0.560881 0.470147
1.000000 0.642188 0.533626
1.000000 0.707479 0.594015
0.000000 0.046507 0.000000
0.000000 0.045616 0.000000
0.000000 0.045841 0.000000
0.000000 0.046946 0.000000
0.000000 0.048206 0.000000
0.000000 0.049870 0.000000
0.052800 0.046888 0.000000
0.090909 0.033389 0.000000
0.124196 0.000000 0.000000
0.157331 0.000000 0.000000
0.191747 0.000000 0.000000
0.224149 0.000000 0.000000
0.260405 0.000000 0.000000
0.300807 0.000000 0.000000
0.348637 0.000000 0.000000
0.395765 0.000000 0.000000
0.451263 0.000000 0.000000
0.511153 0.000000 0.000000
0.587562 0.000000 0.000000
0.661737 0.000000 0.000000
0.736686 0.000000 0.033166
0.818844 0.000000 0.055696
0.890588 0.000000 0.082525
0.955934 0.000000 0.111971
1.000000 0.000000 0.152427
1.000000 0.000000 0.196490
1.000000 0.188804 0.240791
1.000000 0.313447 0.289487
1.000000 0.402981 0.353573
1.000000 0.476595 0.406458
1.000000 0.560881 0.470147
1.000000 0.642188 0.533626
1.000000 0.707479 0.594015
0.000000 0.060815 0.000000
0.000000 0.061806 0.000000
0.000000 0.060999 0.000000
0.000000 0.063224 0.000000
0.000000 0.065791 0.000000
0.000000 0.069730 0.000000
0.033198 0.068690 0.000000
0.085795 0.062036 0.000000
0.125710 0.044586 0.000000
0.161132 0.016406 0.000000
0.200687 0.000000 0.000000
0.233978 0.000000 0.000000
0.270404 0.000000 0.000000
0.304341 0.000000 0.000000
0.355024 0.000000 0.000000
0.398276 0.000000 0.000000
0.454319 0.000000 0.000000
0.514275 0.000000 0.000000
0.591161 0.000000 0.000000
0.662009 0.000000 0.000000
0.740145 0.000000 0.031719
0.818788 0.000000 0.054978
0.891034 0.000000 0.084024
0.958296 0.000000 0.111732
1.000000 0.000000 0.155038
1.000000 0.000000 0.196325
1.000000 0.199882 0.240412
1.000000 0.313447 0.289487
1.000000 0.402981 0.353573
1.000000 0.477107 0.406714
1.000000 0.563938 0.469993
1.000000 0.642188 0.533626
1.000000 0.707479 0.594015
0.000000 0.079937 0.000000
0.000000 0.081202 0.000000
0.000000 0.082696 0.000000
0.000000 0.082995 0.000000
0.000000 0.087389 0.000000
0.000000 0.090205 0.000000
0.000000 0.093850 0.000000
0.078476 0.090447 0.000000
0.127350 0.074509 0.000000
0.170315 0.058413 0.000000
0.212079 0.000000 0.000000
0.247749 0.000000 0.000000
0.282153 0.000000 0.000000
0.317277 0.000000 0.000000
0.361629 0.000000 0.000000
0.403287 0.000000 0.000000
0.460285 0.000000 0.000000
0.521020 0.000000 0.000000
0.597865 0.000000 0.000000
0.665957 0.000000 0.000000
0.740681 0.000000 0.032686
0.822197 0.000000 0.053883
0.890927 0.000000 0.083523
0.958552 0.000000 0.113532
1.000000 0.000000 0.154711
1.000000 0.000000 0.195985
1.000000 0.200171 0.240735
1.000000 0.313447 0.289487
1.000000 0.402981 0.353573
1.000000 0.477107 0.406714
1.000000 0.563938 0.469993
1.000000 0.645014 0.533490
1.000000 0.707479 0.594015
0.000000 0.103032 0.000000
0.000000 0.106196 0.000000
0.000000 0.108046 0.000000
0.000000 0.108325 0.000000
0.000000 0.113083 0.000000
0.000000 0.115668 0.000000
0.000000 0.119731 0.000000
0.028433 0.120495 0.000000
0.118287 0.117698 0.000000
0.171657 0.099905 0.000000
0.216469 0.075961 0.000000
0.256091 0.054814 0.000000
0.292639 0.000000 0.000000
0.333138 0.000000 0.000000
0.373111 0.000000 0.000000
0.416071 0.000000 0.000000
0.463577 0.000000 0.000000
0.534146 0.000000 0.000000
0.601285 0.000000 0.000000
0.669410 0.000000 0.000000
0.740921 0.000000 0.031149
0.822686 0.000000 0.054489
0.896907 0.000000 0.083023
0.958341 0.000000 0.113008
1.000000 0.000000 0.154667
1.000000 0.000000 0.197583
1.000000 0.205516 0.240541
1.000000 0.317690 0.291532
1.000000 0.406473 0.353395
1.000000 0.477107 0.406714
1.000000 0.563938 0.469993
1.000000 0.645014 0.533490
1.000000 0.709823 0.593924
0.000000 0.131765 0.000000
0.000000 0.132738 0.000000
0.000000 0.136979 0.000000
0.000000 0.137453 0.000000
0.000000 0.143566 0.000000
0.000000 0.146624 0.000000
0.000000 0.151913 0.000000
0.000000 0.155967 0.000000
0.078247 0.154302 0.000000
0.165254 0.147665 0.000000
0.222938 0.125704 0.000000
0.270658 0.101801 0.000000
0.304125 0.080408 0.000000
0.346447 0.000000 0.000000
0.390302 0.000000 0.000000
0.429946 0.000000 0.000000
0.472874 0.000000 0.000000
0.540856 0.000000 0.000000
0.608547 0.000000 0.000000
0.676299 0.000000 0.000000
0.748663 0.000000 0.031101
0.826607 0.000000 0.054654
0.897161 0.000000 0.083728
0.960875 0.000000 0.114528
1.000000 0.000000 0.156966
1.000000 0.000000 0.197406
1.000000 0.210755 0.240342
1.000000 0.325496 0.291130
1.000000 0.409959 0.353217
1.000000 0.480336 0.406551
1.000000 0.563938 0.469993
1.000000 0.645307 0.536511
1.000000 0.709823 0.593924
0.000000 0.159449 0.000000
0.000000 0.164189 0.000000
0.000000 0.168383 0.000000
0.000000 0.170373 0.000000
0.000000 0.175349 0.000000
0.000000 0.182786 0.000000
0.000000 0.185332 0.000000
0.000000 0.189078 0.000000
0.000000 0.188038 0.000000
0.129523 0.185657 0.000000
0.216608 0.175610 0.000000
0.273768 0.150765 0.000000
0.315840 0.129826 0.000000
0.357093 0.112887 0.000000
0.404744 0.077346 0.000000
0.442504 0.000000 0.000000
0.495139 0.000000 0.000000
0.551395 0.000000 0.000000
0.620048 0.000000 0.000000
0.683995 0.000000 0.000000
0.755531 0.000000 0.023351
0.827609 0.000000 0.056557
0.900430 0.000000 0.084581
0.962895 0.000000 0.113620
1.000000 0.000000 0.156609
1.000000 0.000000 0.200156
1.000000 0.226614 0.243560
1.000000 0.329369 0.290925
1.000000 0.410657 0.356117
1.000000 0.480336 0.406551
1.000000 0.568041 0.470390
1.000000 0.645307 0.536511
1.000000 0.710079 0.596932
0.000000 0.194032 0.000000
0.000000 0.197185 0.000000
0.000000 0.204927 0.000000
0.000000 0.209183 0.000000
0.000000 0.215473 0.000000
0.000000 0.220064 0.000000
0.000000 0.219902 0.000000
0.000000 0.226887 0.000000
0.000000 0.227628 0.000000
0.000000 0.225512 0.000000
0.181761 0.224092 0.000000
0.264775 0.204900 0.000000
0.320419 0.181308 0.000000
0.369297 0.161083 0.000000
0.417533 0.140877 0.000000
0.462069 0.111565 0.000000
0.509861 0.066056 0.000000
0.566299 0.000000 0.000000
0.631168 0.000000 0.000000
0.695438 0.000000 0.000000
0.763194 0.000000 0.013829
0.835344 0.000000 0.057243
0.906371 0.000000 0.084400
0.962937 0.000000 0.115750
1.000000 0.000000 0.155779
1.000000 0.088402 0.199588
1.000000 0.236495 0.243301
1.000000 0.333223 0.290717
1.000000 0.414131 0.355939
1.000000 0.486794 0.406220
1.000000 0.571085 0.470235
1.000000 0.648122 0.536378
1.000000 0.710079 0.596932
0.000000 0.233899 0.000000
0.000000 0.240751 0.000000
0.000000 0.246566 0.000000
0.000000 0.248063 0.000000
0.000000 0.255530 0.000000
0.000000 0.260437 0.000000
0.000000 0.260324 0.000000
0.000000 0.263557 0.000000
0.000000 0.266564 0.000000
0.000000 0.268937 0.000000
0.108115 0.262547 0.000000
0.225147 0.261498 0.000000
0.307845 0.244223 0.000000
0.375113 0.220716 0.000000
0.432786 0.199817 0.000000
0.480417 0.180152 0.000000
0.523450 0.158176 0.000000
0.582327 0.114065 0.000000
0.643578 0.000000 0.000000
0.703822 0.000000 0.000000
0.775360 0.000000 0.000000
0.848875 0.000000 0.053268
0.909021 0.000000 0.082877
0.964848 0.000000 0.115394
1.000000 0.000000 0.157414
1.000000 0.136756 0.200390
1.000000 0.255541 0.244360
1.000000 0.345258 0.292548
1.000000 0.421064 0.355578
1.000000 0.490023 0.406052
1.000000 0.577480 0.472881
1.000000 0.649164 0.536965
1.000000 0.712411 0.596842
0.000000 0.279077 0.000000
0.000000 0.284009 0.000000
0.000000 0.289388 0.000000
0.000000 0.296458 0.000000
0.000000 0.300154 0.000000
0.000000 0.303996 0.000000
0.000000 0.303921 0.000000
0.000000 0.307775 0.000000
0.000000 0.313610 0.000000
0.000000 0.317110 0.000000
0.000000 0.317685 0.000000
0.130842 0.314864 0.000000
0.254296 0.310476 0.000000
0.359818 0.294628 0.000000
0.440134 0.264967 0.000000
0.494394 0.246380 0.000000
0.549241 0.227626 0.000000
0.602756 0.207345 0.000000
0.660327 0.174102 0.000000
0.717849 0.135654 0.000000
0.783053 0.000000 0.000000
0.859439 0.000000 0.048033
0.914815 0.000000 0.083040
0.969348 0.000000 0.118303
1.000000 0.000000 0.162109
1.000000 0.177241 0.200747
1.000000 0.269109 0.243833
1.000000 0.353102 0.294410
1.000000 0.428575 0.360656
1.000000 0.496482 0.405713
1.000000 0.580531 0.472725
1.000000 0.651947 0.536832
1.000000 0.712411 0.596842
0.000000 0.329987 0.000000
0.000000 0.336608 0.000000
0.000000 0.341469 0.000000
0.000000 0.345895 0.000000
0.000000 0.352510 0.000000
0.000000 0.354621 0.000000
0.000000 0.356887 0.000000
0.000000 0.358990 0.000000
0.000000 0.358842 0.000000
0.000000 0.363086 0.000000
0.000000 0.366862 0.000000
0.000000 0.367557 0.000000
0.145417 0.369508 0.000000
0.306142 0.358923 0.000000
0.426248 0.345692 0.000000
0.498618 0.314217 0.000000
0.556057 0.296269 0.000000
0.615682 0.277731 0.000000
0.676749 0.258132 0.000000
0.730029 0.228749 0.000000
0.798872 0.194066 0.000000
0.865986 0.108058 0.028010
0.920763 0.000000 0.085874
0.970478 0.033232 0.118222
1.000000 0.135551 0.164279
1.000000 0.220997 0.204091
1.000000 0.299635 0.246260
1.000000 0.368625 0.298183
1.000000 0.435477 0.360290
1.000000 0.503242 0.408225
1.000000 0.583583 0.472568
1.000000 0.654722 0.536701
1.000000 0.715214 0.597090
0.000000 0.391028 0.000000
0.000000 0.396550 0.000000
0.000000 0.399072 0.000000
0.000000 0.403928 0.000000
0.000000 0.406541 0.000000
0.000000 0.408991 0.000000
0.000000 0.411435 0.000000
0.000000 0.413688 0.000000
0.000000 0.418432 0.000000
0.000000 0.418189 0.000000
0.000000 0.419864 0.000000
0.000000 0.429921 0.000000
0.000000 0.428108 0.000000
0.163414 0.428140 0.000000
0.356280 0.421978 0.000000
0.476172 0.409293 0.000000
0.554193 0.373491 0.000000
0.624587 0.348219 0.000000
0.691722 0.336045 0.000000
0.749035 0.319000 0.000000
0.806979 0.289825 0.000000
0.874199 0.256222 0.000000
0.923963 0.204543 0.075222
0.973319 0.186484 0.121619
1.000000 0.212364 0.166794
1.000000 0.263891 0.207174
1.000000 0.325007 0.251151
1.000000 0.391193 0.299371
1.000000 0.449900 0.359972
1.000000 0.513363 0.407964
1.000000 0.593354 0.478043
1.000000 0.660529 0.539463
1.000000 0.717516 0.597003
0.000000 0.465357 0.000000
0.000000 0.468383 0.000000
0.000000 0.470854 0.000000
0.000000 0.474735 0.000000
0.000000 0.474713 0.000000
0.000000 0.479841 0.000000
0.000000 0.482288 0.000000
0.000000 0.484511 0.000000
0.000000 0.487110 0.000000
0.000000 0.489679 0.000000
0.000000 0.491710 0.000000
0.000000 0.490144 0.000000
0.000000 0.497476 0.000000
0.000000 0.500491 0.000000
0.218771 0.496844 0.000000
0.396992 0.491080 0.000000
0.533254 0.480390 0.000000
0.625651 0.447176 0.000000
0.697685 0.422972 0.000000
0.761443 0.406812 0.000000
0.815959 0.391979 0.000000
0.877120 0.366466 0.000000
0.932390 0.324461 0.050420
0.972397 0.297877 0.114696
1.000000 0.293192 0.168661
1.000000 0.315603 0.211160
1.000000 0.360689 0.253200
1.000000 0.410086 0.303174
1.000000 0.463857 0.361965
1.000000 0.526559 0.410125
1.000000 0.600227 0.480983
1.000000 0.666008 0.539208
1.000000 0.722580 0.602861
0.000000 0.532709 0.000000
0.000000 0.535636 0.000000
0.000000 0.538154 0.000000
0.000000 0.543939 0.000000
0.000000 0.548539 0.000000
0.000000 0.547547 0.000000
0.000000 0.550267 0.000000
0.000000 0.549729 0.000000
0.000000 0.552665 0.000000
0.000000 0.558345 0.000000
0.000000 0.560716 0.000000
0.000000 0.564961 0.000000
0.000000 0.563576 0.000000
0.000000 0.567535 0.000000
0.000000 0.566562 0.000000
0.281429 0.562613 0.000000
0.446594 0.564581 0.000000
0.596191 0.554713 0.000000
0.687505 0.515805 0.000000
0.757387 0.498996 0.000000
0.825423 0.470215 0.000000
0.883235 0.457724 0.000000
0.929137 0.435358 0.000000
0.970495 0.406159 0.106235
1.000000 0.384509 0.166247
1.000000 0.378841 0.211160
1.000000 0.402460 0.254344
1.000000 0.439294 0.306094
1.000000 0.487949 0.360787
1.000000 0.546946 0.412448
1.000000 0.615522 0.480187
1.000000 0.674427 0.541865
1.000000 0.724846 0.602780
0.000000 0.607333 0.000000
0.000000 0.612856 0.000000
0.000000 0.615110 0.000000
0.000000 0.616878 0.000000
0.000000 0.618659 0.000000
0.000000 0.619110 0.000000
0.000000 0.619073 0.000000
0.000000 0.618762 0.000000
0.000000 0.621476 0.000000
0.000000 0.621376 0.000000
0.000000 0.623696 0.000000
0.000000 0.631569 0.000000
0.000000 0.632597 0.000000
0.000000 0.631171 0.000000
0.000000 0.634606 0.000000
0.000000 0.635977 0.000000
0.362198 0.631614 0.000000
0.526695 0.629032 0.000000
0.673262 0.614937 0.000000
0.750955 0.584771 0.000000
0.823959 0.564101 0.000000
0.884371 0.539094 0.000000
0.926865 0.524996 0.000000
0.964874 0.508073 0.078428
1.000000 0.481279 0.163746
1.000000 0.457157 0.208154
1.000000 0.450655 0.256652
1.000000 0.479082 0.308813
1.000000 0.515548 0.362147
1.000000 0.570052 0.416950
1.000000 0.628086 0.482542
1.000000 0.683145 0.544837
1.000000 0.729584 0.605645
0.000000 0.679117 0.000000
0.000000 0.680429 0.000000
0.000000 0.681747 0.000000
0.000000 0.683600 0.000000
0.000000 0.684930 0.000000
0.000000 0.685996 0.000000
0.000000 0.689859 0.000000
0.000000 0.691467 0.000000
0.000000 0.694971 0.000000
0.000000 0.694862 0.000000
0.000000 0.697466 0.000000
0.000000 0.699413 0.000000
0.000000 0.700957 0.000000
0.000000 0.704875 0.000000
0.000000 0.705512 0.000000
0.000000 0.702305 0.000000
0.220408 0.707453 0.000000
0.446104 0.700650 0.000000
0.600799 0.696213 0.000000
0.729973 0.685817 0.000000
0.817189 0.651000 0.000000
0.873886 0.634001 0.000000
0.921573 0.610473 0.000000
0.957232 0.601544 0.041155
0.991288 0.579026 0.158157
1.000000 0.552756 0.220255
1.000000 0.526806 0.260906
1.000000 0.528775 0.312839
1.000000 0.560654 0.370966
1.000000 0.603098 0.421171
1.000000 0.646958 0.482140
1.000000 0.693657 0.544380
1.000000 0.739439 0.609034
0.000000 0.743639 0.000000
0.000000 0.744634 0.000000
0.000000 0.745629 0.000000
0.000000 0.746872 0.000000
0.000000 0.747616 0.000000
0.000000 0.748608 0.000000
0.000000 0.749351 0.000000
0.000000 0.750093 0.000000
0.000000 0.751329 0.000000
0.000000 0.755786 0.000000
0.000000 0.759079 0.000000
0.000000 0.757740 0.000000
0.000000 0.759497 0.000000
0.000000 0.763921 0.000000
0.000000 0.764918 0.000000
0.000000 0.767015 0.000000
0.000000 0.763005 0.000000
0.359726 0.763053 0.000000
0.534222 0.756355 0.000000
0.668491 0.752594 0.000000
0.788188 0.742107 0.000000
0.862935 0.713943 0.000000
0.909436 0.699409 0.000000
0.947652 0.681156 0.000000
0.980039 0.670424 0.156876
1.000000 0.651924 0.223046
1.000000 0.633414 0.272660
1.000000 0.612678 0.319912
1.000000 0.612619 0.382887
1.000000 0.633118 0.428579
1.000000 0.670953 0.484242
1.000000 0.710138 0.553192
1.000000 0.748228 0.611800
0.000000 0.800428 0.102930
0.000000 0.800851 0.103437
0.000000 0.801484 0.104201
0.000000 0.801695 0.104458
0.000000 0.802534 0.105486
0.000000 0.803161 0.106264
0.000000 0.803369 0.106523
0.000000 0.803992 0.107308
0.000000 0.805023 0.108624
0.000000 0.806247 0.110223
0.000000 0.807857 0.100477
0.000000 0.809595 0.084747
0.000000 0.808881 0.077060
0.000000 0.810150 0.052569
0.000000 0.813323 0.000000
0.000000 0.814236 0.000000
0.000000 0.817072 0.000000
0.195108 0.812936 0.000000
0.446473 0.811794 0.000000
0.606103 0.807227 0.000000
0.734004 0.800344 0.000000
0.836696 0.791448 0.000000
0.898907 0.765850 0.000000
0.934300 0.754470 0.000000
0.968292 0.740915 0.152141
0.997208 0.727378 0.223992
1.000000 0.711399 0.279025
1.000000 0.690338 0.340728
1.000000 0.678993 0.397104
1.000000 0.675174 0.442063
1.000000 0.697193 0.492419
1.000000 0.728409 0.559260
1.000000 0.761396 0.617865
0.000000 0.846259 0.204044
0.000000 0.848623 0.204406
0.000000 0.848944 0.204889
0.000000 0.849103 0.205130
0.000000 0.849580 0.205860
0.000000 0.849737 0.206104
0.000000 0.850051 0.206594
0.000000 0.850518 0.207333
0.000000 0.852823 0.207763
0.000000 0.853423 0.208770
0.000000 0.854159 0.210044
0.000000 0.854847 0.207665
0.000000 0.854347 0.203947
0.000000 0.853441 0.196355
0.000000 0.852190 0.184609
0.000000 0.854744 0.184489
0.000000 0.854756 0.180830
0.000000 0.853953 0.155731
0.383877 0.849462 0.148977
0.538279 0.848109 0.136788
0.683287 0.844554 0.108950
0.796217 0.838226 0.109516
0.875648 0.831002 0.094307
0.922948 0.812728 0.023497
0.954200 0.801463 0.172965
0.984470 0.787364 0.241511
1.000000 0.777908 0.291434
1.000000 0.762568 0.350568
1.000000 0.747679 0.413332
1.000000 0.729800 0.455636
1.000000 0.730367 0.507289
1.000000 0.749987 0.565056
1.000000 0.777958 0.624292
0.000000 0.883307 0.308264
0.000000 0.883307 0.308264
0.000000 0.883549 0.308813
0.000000 0.883668 0.309089
0.000000 0.883668 0.309089
0.000000 0.883905 0.309642
0.000000 0.884022 0.309919
0.000000 0.884139 0.310197
0.000000 0.884368 0.310754
0.000000 0.887596 0.310992
0.000000 0.888039 0.305305
0.000000 0.888454 0.306447
0.000000 0.888947 0.307887
0.000000 0.889561 0.306475
0.000000 0.888580 0.303066
0.000000 0.887176 0.292361
0.000000 0.888161 0.285683
0.000000 0.887159 0.282897
0.301435 0.886408 0.269643
0.506022 0.881562 0.264310
0.645124 0.878793 0.252791
0.761030 0.874104 0.243250
0.842690 0.869059 0.239449
0.904022 0.863374 0.232993
0.940546 0.850156 0.211902
0.971924 0.836572 0.254671
0.994930 0.826557 0.310568
1.000000 0.817318 0.375131
1.000000 0.806473 0.430128
1.000000 0.789641 0.480606
1.000000 0.777729 0.522583
1.000000 0.778850 0.577746
1.000000 0.796773 0.630544
0.000000 0.917668 0.385715
0.000000 0.917805 0.383052
0.000000 0.917805 0.383052
0.000000 0.917868 0.383345
0.000000 0.917868 0.383345
0.000000 0.917990 0.383934
0.000000 0.917990 0.383934
0.000000 0.918050 0.384229
