Assets/Lutify-Free-LUTs-Pack/Lutify Free LUTs Pack/Colour Film Boost Pro - Film Boost 10/Lutify.me-FilmBoost10-SLog1-to-Rec709.cube
# Created with: fylm.ai - Colour Grading and Collaboration Software in Cloud 
# Website: https://fylm.ai 
# META
# Option: Gamut compress
# Block 1: IDT | Sony S-Log S-Gamut 10-bit
# Block 2: colourMatch | Blending Mode: Normal | {"ColorSpace":0,"CrossCovarianceLimit":50,"ReshapingIterations":1,"PercentSaturationShift":100,"PercentShadingShift":100,"ExtraShading":true,"PercentTint":100,"PercentModified":100}
# Block 3: subtractiveColour | Blending Mode: Normal | {"sliders":{"gainY":0.55,"C":0.3,"M":0.3,"Y":0.3}}
# Block 4: LUT | Filmic Curve Response: Low Contrast 2 (100%)
# Block 5: logPrimaries | Blending Mode: Normal | {"wheels":{"shadows":{"Y":"0","R":"1","G":"1","B":"1"},"midtones":{"Y":"0","R":"1","G":"1","B":"1"},"highlights":{"Y":"0","R":"1","G":"1","B":"1"},"offset":{"Y":"0","R":"1","G":"1","B":"1"}},"sliders":{"shadows":{"Y":0,"R":-0.085,"G":0.024,"B":0.134},"midtones":{"Y":0,"R":0,"G":-0.023,"B":0},"highlights":{"Y":0,"R":0,"G":0,"B":0},"offset":{"Y":0,"R":0.012,"G":-0.012,"B":0}}}
# Block 6: HSL | Blending Mode: Normal | {"hue":{"Reds":0,"Yellows":0,"Greens":0,"Cyans":0,"Blues":0,"Magentas":0},"saturation":{"Reds":1,"Yellows":1,"Greens":1,"Cyans":1,"Blues":1,"Magentas":1},"luminance":{"Reds":0.9,"Yellows":0.9,"Greens":0.9,"Cyans":0.9,"Blues":0.9,"Magentas":0.9},"lum_sat":{"Blacks":1,"Shadows":1,"Midtones":1,"Highlights":1,"Whites":1},"sat_sat":{"10":1,"20":1,"30":1,"40":1,"50":1}}
# Block 7: ODT | Rec709
TITLE "Lutify.me-FilmBoost10-SLog1-to-Rec709" 
LUT_3D_SIZE 5
0.000000 0.000000 0.000000
0.159200 0.000000 0.000000
0.441529 0.000000 0.000000
0.868905 0.000000 0.074138
1.000000 0.291682 0.285469
0.000000 0.136699 0.000000
0.217332 0.137504 0.000000
0.493186 0.000000 0.000000
0.876460 0.000000 0.076105
1.000000 0.312812 0.287070
0.000000 0.383616 0.000000
0.000000 0.443029 0.000000
0.559861 0.404398 0.000000
0.907926 0.250867 0.052612
1.000000 0.387040 0.297047
0.000000 0.747211 0.137877
0.000000 0.775148 0.087820
0.000000 0.800326 0.000000
0.880694 0.752399 0.000000
1.000000 0.664337 0.329986
0.000000 0.950352 0.546930
0.000000 0.950828 0.550145
0.000000 0.955166 0.543306
0.646155 0.950374 0.519734
0.980758 0.928484 0.482088
0.000000 0.000000 0.090746
0.147227 0.000000 0.043421
0.438662 0.000000 0.055595
0.877585 0.000000 0.113537
1.000000 0.293897 0.301238
0.000000 0.106861 0.215194
0.145688 0.174763 0.198290
0.507965 0.000000 0.086753
0.884680 0.000000 0.117688
1.000000 0.314349 0.302653
0.000000 0.381325 0.197225
0.000000 0.468436 0.133400
0.568251 0.476581 0.042243
0.917190 0.267397 0.132284
1.000000 0.389086 0.313938
0.000000 0.749866 0.232051
0.000000 0.771554 0.225157
0.000000 0.808280 0.191864
0.877615 0.772710 0.096359
1.000000 0.669525 0.350745
0.000000 0.952042 0.565674
0.000000 0.952559 0.569176
0.000000 0.955104 0.562216
0.638307 0.951246 0.542906
0.980282 0.930026 0.503304
0.000000 0.000000 0.228977
0.080598 0.000000 0.189809
0.390401 0.000000 0.098488
0.874816 0.000000 0.254115
1.000000 0.289043 0.367482
0.000000 0.012981 0.379782
0.000000 0.052941 0.364071
0.493425 0.000000 0.283240
0.893259 0.000000 0.274560
1.000000 0.318062 0.369469
0.000000 0.291989 0.543118
0.000000 0.414118 0.524937
0.536456 0.525674 0.554589
0.930957 0.276555 0.344547
1.000000 0.388885 0.381638
0.000000 0.742167 0.514826
0.000000 0.769846 0.515895
0.000000 0.819540 0.501529
0.870155 0.808170 0.469220
1.000000 0.680888 0.441166
0.000000 0.951477 0.634369
0.000000 0.952967 0.637861
0.000000 0.954857 0.631294
0.632997 0.954019 0.620893
0.977226 0.935874 0.581324
0.000000 0.000000 0.560382
0.000000 0.000000 0.558271
0.362950 0.000000 0.534331
0.774619 0.000000 0.358780
1.000000 0.251803 0.578223
0.000000 0.055723 0.614783
0.000000 0.067614 0.628418
0.353041 0.000000 0.615615
0.839597 0.000000 0.481178
1.000000 0.280799 0.588691
0.000000 0.218780 0.702805
0.000000 0.245992 0.718045
0.257977 0.285379 0.749094
0.934717 0.000000 0.664042
1.000000 0.387933 0.615180
0.000000 0.580574 0.813402
0.000000 0.682885 0.802301
0.000000 0.796214 0.827626
0.846717 0.834061 0.842885
1.000000 0.696101 0.695307
0.000000 0.950393 0.814905
0.000000 0.952215 0.817349
0.000000 0.954765 0.817725
0.613291 0.957542 0.812978
0.964918 0.946043 0.794042
0.000000 0.170779 0.868725
0.000000 0.172075 0.870206
0.195663 0.165325 0.867336
0.800874 0.000000 0.851784
1.000000 0.000000 0.727109
0.000000 0.198052 0.874912
0.000000 0.198162 0.878091
0.165903 0.203345 0.876760
0.802396 0.000000 0.861620
1.000000 0.000000 0.747622
0.000000 0.275139 0.890695
0.000000 0.283302 0.893350
0.000000 0.302355 0.899442
0.784324 0.227103 0.890705
1.000000 0.000000 0.814632
0.000000 0.530567 0.920741
0.000000 0.549207 0.921539
0.000000 0.575759 0.924868
0.689274 0.624961 0.927672
1.000000 0.540072 0.891770
0.000000 0.873794 0.939592
0.000000 0.899736 0.940817
0.000000 0.931577 0.946759
0.403311 0.952942 0.950222
0.953854 0.957356 0.950303
