Assets/Lutify-Free-LUTs-Pack/Lutify Free LUTs Pack/Colour Film Boost Pro - Film Boost 10/Lutify.me-FilmBoost10-FLog-to-Rec709.cube
# Created with: fylm.ai - Colour Grading and Collaboration Software in Cloud 
# Website: https://fylm.ai 
# META
# Option: Gamut compress
# Block 1: IDT | Fujifilm F-Gamut F-Log
# Block 2: colourMatch | Blending Mode: Normal | {"ColorSpace":0,"CrossCovarianceLimit":50,"ReshapingIterations":1,"PercentSaturationShift":100,"PercentShadingShift":100,"ExtraShading":true,"PercentTint":100,"PercentModified":100}
# Block 3: subtractiveColour | Blending Mode: Normal | {"sliders":{"gainY":0.55,"C":0.3,"M":0.3,"Y":0.3}}
# Block 4: LUT | Filmic Curve Response: Low Contrast 2 (100%)
# Block 5: logPrimaries | Blending Mode: Normal | {"wheels":{"shadows":{"Y":"0","R":"1","G":"1","B":"1"},"midtones":{"Y":"0","R":"1","G":"1","B":"1"},"highlights":{"Y":"0","R":"1","G":"1","B":"1"},"offset":{"Y":"0","R":"1","G":"1","B":"1"}},"sliders":{"shadows":{"Y":0,"R":-0.085,"G":0.024,"B":0.134},"midtones":{"Y":0,"R":0,"G":-0.023,"B":0},"highlights":{"Y":0,"R":0,"G":0,"B":0},"offset":{"Y":0,"R":0.012,"G":-0.012,"B":0}}}
# Block 6: HSL | Blending Mode: Normal | {"hue":{"Reds":0,"Yellows":0,"Greens":0,"Cyans":0,"Blues":0,"Magentas":0},"saturation":{"Reds":1,"Yellows":1,"Greens":1,"Cyans":1,"Blues":1,"Magentas":1},"luminance":{"Reds":0.9,"Yellows":0.9,"Greens":0.9,"Cyans":0.9,"Blues":0.9,"Magentas":0.9},"lum_sat":{"Blacks":1,"Shadows":1,"Midtones":1,"Highlights":1,"Whites":1},"sat_sat":{"10":1,"20":1,"30":1,"40":1,"50":1}}
# Block 7: ODT | Rec709
TITLE "Lutify.me-FilmBoost10-FLog-to-Rec709" 
LUT_3D_SIZE 5
0.000000 0.000000 0.000000
0.100733 0.000000 0.000000
0.336978 0.000000 0.000000
0.742879 0.000000 0.052098
1.000000 0.216375 0.244855
0.000000 0.078859 0.000000
0.119378 0.080021 0.000000
0.372153 0.000000 0.000000
0.748216 0.000000 0.054344
1.000000 0.236165 0.244030
0.000000 0.299737 0.000000
0.000000 0.326209 0.000000
0.436472 0.293622 0.000000
0.793350 0.134101 0.040855
1.000000 0.304488 0.253070
0.000000 0.675598 0.041931
0.000000 0.685197 0.032118
0.000000 0.704713 0.000000
0.818784 0.667215 0.000000
1.000000 0.569365 0.286369
0.000000 0.927501 0.495412
0.000000 0.928763 0.493732
0.000000 0.931258 0.494539
0.616906 0.924472 0.471196
0.968626 0.901995 0.444626
0.000000 0.000000 0.063466
0.085851 0.000000 0.045979
0.339298 0.000000 0.041365
0.754454 0.000000 0.083509
1.000000 0.218067 0.254774
0.000000 0.074043 0.130351
0.088825 0.103714 0.121133
0.378921 0.000000 0.055577
0.758536 0.000000 0.083973
1.000000 0.238114 0.256027
0.000000 0.306455 0.115250
0.000000 0.347151 0.083642
0.439342 0.347910 0.000000
0.802819 0.160426 0.090878
1.000000 0.305667 0.261469
0.000000 0.675556 0.170147
0.000000 0.690753 0.161749
0.000000 0.715370 0.112130
0.813675 0.680020 0.000000
1.000000 0.574335 0.299475
0.000000 0.927453 0.511728
0.000000 0.928705 0.513279
0.000000 0.931230 0.504261
0.612887 0.925151 0.488405
0.967545 0.902821 0.463366
0.000000 0.000000 0.250426
0.000000 0.000000 0.239414
0.350250 0.000000 0.190888
0.768946 0.000000 0.208385
1.000000 0.240156 0.302251
0.000000 0.049193 0.306056
0.000000 0.066744 0.308875
0.406778 0.000000 0.263099
0.779567 0.000000 0.221256
1.000000 0.250288 0.306692
0.000000 0.282739 0.415767
0.000000 0.340481 0.424625
0.412203 0.422492 0.448461
0.828629 0.210234 0.274814
1.000000 0.316546 0.314176
0.000000 0.680988 0.430649
0.000000 0.698722 0.426341
0.000000 0.740105 0.422698
0.818605 0.723522 0.384908
1.000000 0.588172 0.365913
0.000000 0.927225 0.580736
0.000000 0.928489 0.578913
0.000000 0.931008 0.573156
0.601820 0.927736 0.561775
0.964266 0.907846 0.534876
0.000000 0.116163 0.592273
0.000000 0.125009 0.603269
0.273046 0.110533 0.611437
0.812185 0.000000 0.531823
1.000000 0.282170 0.534753
0.000000 0.140671 0.607580
0.000000 0.150388 0.612482
0.260727 0.148284 0.625885
0.828484 0.000000 0.552334
1.000000 0.300723 0.538331
0.000000 0.276882 0.669046
0.000000 0.293992 0.674696
0.144593 0.337025 0.701860
0.864174 0.232233 0.652782
1.000000 0.365922 0.553295
0.000000 0.656400 0.754330
0.000000 0.671297 0.761173
0.000000 0.732724 0.779533
0.784983 0.776569 0.792590
1.000000 0.633289 0.623909
0.000000 0.929615 0.773821
0.000000 0.931867 0.774321
0.000000 0.933248 0.776645
0.584724 0.935839 0.776749
0.955788 0.923663 0.754403
0.000000 0.389645 0.887981
0.000000 0.390332 0.888853
0.000000 0.402051 0.892578
0.699472 0.393278 0.889627
1.000000 0.307462 0.842323
0.000000 0.401562 0.889015
0.000000 0.402301 0.889878
0.000000 0.408095 0.893821
0.698112 0.400736 0.891198
1.000000 0.321498 0.844610
0.000000 0.441339 0.893712
0.000000 0.442403 0.893051
0.000000 0.458390 0.896145
0.693269 0.457213 0.895916
1.000000 0.393181 0.853536
0.000000 0.642285 0.908754
0.000000 0.646897 0.909208
0.000000 0.662512 0.910284
0.603408 0.703203 0.913906
1.000000 0.668745 0.894793
0.000000 0.924011 0.932136
0.000000 0.926706 0.932468
0.000000 0.927786 0.931984
0.530806 0.935364 0.936249
0.942588 0.943251 0.940062
