Assets/Lutify-Free-LUTs-Pack/Lutify Free LUTs Pack/Colour Film Boost Pro - Film Boost 10/Lutify.me-FilmBoost10-ACEScct-to-ACEScct.cube
# Created with: fylm.ai - Colour Grading and Collaboration Software in Cloud 
# Website: https://fylm.ai 
# META
# Option: Gamut compress
# Block 1: subtractiveColour | Blending Mode: Normal | {"sliders":{"gainY":0.55,"C":0.3,"M":0.3,"Y":0.3}}
# Block 2: LUT | Filmic Curve Response: Low Contrast 2 (100%)
# Block 3: logPrimaries | Blending Mode: Normal | {"wheels":{"shadows":{"Y":"0","R":"1","G":"1","B":"1"},"midtones":{"Y":"0","R":"1","G":"1","B":"1"},"highlights":{"Y":"0","R":"1","G":"1","B":"1"},"offset":{"Y":"0","R":"1","G":"1","B":"1"}},"sliders":{"shadows":{"Y":0,"R":-0.085,"G":0.024,"B":0.134},"midtones":{"Y":0,"R":0,"G":-0.023,"B":0},"highlights":{"Y":0,"R":0,"G":0,"B":0},"offset":{"Y":0,"R":0.012,"G":-0.012,"B":0}}}
# Block 4: HSL | Blending Mode: Normal | {"hue":{"Reds":0,"Yellows":0,"Greens":0,"Cyans":0,"Blues":0,"Magentas":0},"saturation":{"Reds":1,"Yellows":1,"Greens":1,"Cyans":1,"Blues":1,"Magentas":1},"luminance":{"Reds":0.9,"Yellows":0.9,"Greens":0.9,"Cyans":0.9,"Blues":0.9,"Magentas":0.9},"lum_sat":{"Blacks":1,"Shadows":1,"Midtones":1,"Highlights":1,"Whites":1},"sat_sat":{"10":1,"20":1,"30":1,"40":1,"50":1}}
TITLE "Lutify.me-FilmBoost10-ACEScct-to-ACEScct" 
LUT_3D_SIZE 5
0.021449 0.038558 0.071622
0.179997 0.040763 0.070415
0.434494 0.152011 0.112506
0.633818 0.419189 0.376473
0.878029 0.596774 0.549021
0.027643 0.187539 0.076783
0.221379 0.192589 0.070261
0.438183 0.194431 0.116194
0.633818 0.421984 0.376473
0.878029 0.596774 0.549021
0.130730 0.425857 0.197260
0.205636 0.431368 0.187739
0.463718 0.430177 0.150522
0.636996 0.439954 0.383226
0.878267 0.597856 0.551012
0.419814 0.620873 0.457300
0.422841 0.621173 0.457521
0.460860 0.627999 0.456924
0.660023 0.625090 0.428683
0.881270 0.621060 0.555770
0.604074 0.869909 0.633701
0.604074 0.869909 0.633701
0.604915 0.871642 0.632677
0.637604 0.879032 0.630920
0.907184 0.881922 0.601916
0.021039 0.044467 0.172783
0.180184 0.046521 0.140976
0.437252 0.156688 0.154981
0.634008 0.419314 0.378450
0.878029 0.596774 0.549021
0.021697 0.177834 0.248242
0.210046 0.223337 0.240013
0.441349 0.201409 0.164405
0.634008 0.422111 0.378450
0.878029 0.596774 0.549021
0.130730 0.425857 0.267643
0.199377 0.434780 0.260959
0.467282 0.440821 0.225157
0.637092 0.440020 0.384216
0.878267 0.597856 0.551012
0.419814 0.620873 0.461064
0.422841 0.621173 0.461286
0.461014 0.628209 0.458969
0.660228 0.627156 0.430688
0.881270 0.621060 0.555770
0.604074 0.869909 0.633701
0.604074 0.869909 0.633701
0.604915 0.871642 0.633607
0.637604 0.879032 0.630920
0.907184 0.881922 0.601916
0.089628 0.170508 0.409577
0.153915 0.180640 0.410972
0.437119 0.178737 0.385725
0.636578 0.425383 0.413350
0.878386 0.597016 0.552008
0.089494 0.208018 0.419097
0.155593 0.220449 0.419790
0.444629 0.223963 0.401343
0.636578 0.426321 0.413350
0.878386 0.597016 0.552008
0.103726 0.421498 0.465644
0.172400 0.429552 0.467670
0.476613 0.474345 0.480361
0.640428 0.444199 0.418102
0.878386 0.597937 0.552008
0.419679 0.622555 0.491016
0.421696 0.622755 0.491174
0.461180 0.628435 0.492267
0.661605 0.635861 0.468294
0.881390 0.621145 0.556767
0.603895 0.871513 0.634444
0.603895 0.871513 0.634444
0.604915 0.871642 0.634538
0.637895 0.879432 0.634009
0.907566 0.882293 0.604945
0.384070 0.438210 0.598875
0.388070 0.439427 0.599255
0.428411 0.447014 0.603155
0.637090 0.443632 0.580405
0.880188 0.601349 0.580215
0.384070 0.439149 0.598875
0.388070 0.440366 0.599255
0.428411 0.447960 0.603155
0.638032 0.444574 0.580405
0.880188 0.601349 0.580215
0.384645 0.456552 0.604874
0.387641 0.456767 0.605159
0.432193 0.464977 0.606937
0.642537 0.463688 0.586649
0.880188 0.602275 0.580215
0.397084 0.616681 0.655034
0.402044 0.617144 0.655526
0.442267 0.625007 0.657073
0.670166 0.675703 0.664157
0.883339 0.626600 0.586016
0.601503 0.874462 0.669203
0.601503 0.874462 0.669203
0.603539 0.874718 0.668470
0.635012 0.881187 0.670339
0.910685 0.892714 0.641746
0.576156 0.622458 0.832319
0.576156 0.622458 0.832319
0.577175 0.624416 0.832444
0.615341 0.631918 0.835570
0.878472 0.624558 0.798135
0.576156 0.622458 0.832319
0.576156 0.622458 0.832319
0.577175 0.624416 0.832444
0.615341 0.631918 0.835570
0.878472 0.624558 0.798135
0.575984 0.624135 0.833934
0.575984 0.624135 0.833934
0.578020 0.624322 0.834184
0.615148 0.632658 0.837183
0.878604 0.625585 0.798255
0.576485 0.646016 0.838898
0.576485 0.646016 0.838898
0.578520 0.646208 0.839148
0.615413 0.653506 0.843761
0.886236 0.652951 0.814974
0.585075 0.872627 0.904144
0.585075 0.872627 0.904144
0.588085 0.872987 0.904517
0.621600 0.881939 0.907132
0.933770 0.949049 0.934588
