Assets/Lutify-Free-LUTs-Pack/Lutify Free LUTs Pack/Colour Film Boost Pro - Film Boost 10/Lutify.me-FilmBoost10-CanonLog2-to-Rec709.cube
# Created with: fylm.ai - Colour Grading and Collaboration Software in Cloud 
# Website: https://fylm.ai 
# META
# Option: Gamut compress
# Block 1: IDT | CanonLog2 Cinema Gamut Daylight
# Block 2: colourMatch | Blending Mode: Normal | {"ColorSpace":0,"CrossCovarianceLimit":50,"ReshapingIterations":1,"PercentSaturationShift":100,"PercentShadingShift":100,"ExtraShading":true,"PercentTint":100,"PercentModified":100}
# Block 3: subtractiveColour | Blending Mode: Normal | {"sliders":{"gainY":0.55,"C":0.3,"M":0.3,"Y":0.3}}
# Block 4: LUT | Filmic Curve Response: Low Contrast 2 (100%)
# Block 5: logPrimaries | Blending Mode: Normal | {"wheels":{"shadows":{"Y":"0","R":"1","G":"1","B":"1"},"midtones":{"Y":"0","R":"1","G":"1","B":"1"},"highlights":{"Y":"0","R":"1","G":"1","B":"1"},"offset":{"Y":"0","R":"1","G":"1","B":"1"}},"sliders":{"shadows":{"Y":0,"R":-0.085,"G":0.024,"B":0.134},"midtones":{"Y":0,"R":0,"G":-0.023,"B":0},"highlights":{"Y":0,"R":0,"G":0,"B":0},"offset":{"Y":0,"R":0.012,"G":-0.012,"B":0}}}
# Block 6: HSL | Blending Mode: Normal | {"hue":{"Reds":0,"Yellows":0,"Greens":0,"Cyans":0,"Blues":0,"Magentas":0},"saturation":{"Reds":1,"Yellows":1,"Greens":1,"Cyans":1,"Blues":1,"Magentas":1},"luminance":{"Reds":0.9,"Yellows":0.9,"Greens":0.9,"Cyans":0.9,"Blues":0.9,"Magentas":0.9},"lum_sat":{"Blacks":1,"Shadows":1,"Midtones":1,"Highlights":1,"Whites":1},"sat_sat":{"10":1,"20":1,"30":1,"40":1,"50":1}}
# Block 7: ODT | Rec709
TITLE "Lutify.me-FilmBoost10-CanonLog2-to-Rec709" 
LUT_3D_SIZE 5
0.000000 0.000000 0.000000
0.122781 0.000000 0.000000
0.496965 0.000000 0.000000
1.000000 0.000000 0.194915
1.000000 0.741269 0.650920
0.000000 0.110281 0.000000
0.163355 0.105898 0.000000
0.532713 0.000000 0.000000
1.000000 0.000000 0.192939
1.000000 0.743220 0.650857
0.000000 0.456299 0.000000
0.000000 0.467048 0.000000
0.682882 0.383549 0.000000
1.000000 0.292293 0.167856
1.000000 0.750938 0.650622
0.000000 0.857138 0.000000
0.000000 0.856319 0.000000
0.441481 0.847834 0.000000
1.000000 0.771055 0.000000
1.000000 0.826144 0.650615
0.833887 0.991185 0.272528
0.835883 0.991079 0.272876
0.847589 0.990077 0.270947
0.934982 0.984991 0.300758
1.000000 0.960556 0.585439
0.000000 0.000000 0.076662
0.094876 0.000000 0.044901
0.488243 0.000000 0.048229
1.000000 0.000000 0.209736
1.000000 0.741735 0.656804
0.000000 0.078983 0.151153
0.101097 0.116043 0.134412
0.535761 0.000000 0.052533
1.000000 0.000000 0.209021
1.000000 0.743683 0.656741
0.000000 0.456333 0.000000
0.000000 0.473079 0.000000
0.657275 0.400462 0.000000
1.000000 0.292264 0.194397
1.000000 0.751386 0.656505
0.000000 0.857331 0.000000
0.000000 0.856426 0.000000
0.434251 0.848021 0.000000
1.000000 0.771055 0.000000
1.000000 0.826305 0.653471
0.834018 0.990803 0.268378
0.836017 0.990697 0.268733
0.847589 0.990077 0.270947
0.934982 0.984991 0.300758
1.000000 0.960556 0.585439
0.000000 0.000000 0.255778
0.000000 0.000000 0.155707
0.421473 0.000000 0.079838
1.000000 0.000000 0.337401
1.000000 0.741187 0.674462
0.000000 0.000000 0.374880
0.000000 0.000000 0.327062
0.434304 0.000000 0.178570
1.000000 0.000000 0.340780
1.000000 0.743133 0.674395
0.000000 0.320719 0.587402
0.000000 0.422682 0.554862
0.590895 0.574458 0.604085
1.000000 0.292757 0.359847
1.000000 0.748917 0.674203
0.000000 0.892820 0.000000
0.000000 0.892058 0.000000
0.000000 0.889862 0.000000
0.962472 0.824254 0.000000
1.000000 0.827430 0.673276
0.831999 0.990910 0.268026
0.834018 0.990803 0.268378
0.847589 0.990077 0.270947
0.933811 0.985064 0.300114
1.000000 0.960556 0.585439
0.000000 0.000000 0.358268
0.000000 0.000000 0.344554
0.346737 0.000000 0.334462
0.903923 0.000000 0.176644
1.000000 0.724855 0.794004
0.000000 0.000000 0.360605
0.000000 0.000000 0.344555
0.344138 0.000000 0.334497
0.903923 0.000000 0.176644
1.000000 0.727199 0.794093
0.000000 0.119207 0.810652
0.000000 0.134133 0.812621
0.000000 0.171436 0.837163
1.000000 0.000000 0.676775
1.000000 0.739268 0.796590
0.000000 0.697127 0.924036
0.000000 0.768031 0.905498
0.000000 0.892977 0.910956
0.925785 0.921398 0.921785
1.000000 0.830962 0.807702
0.724226 1.000000 0.622756
0.724226 1.000000 0.622756
0.739530 1.000000 0.625321
0.846828 1.000000 0.621504
1.000000 0.990812 0.620901
0.194019 0.000000 0.590703
0.213397 0.000000 0.590559
0.368107 0.000000 0.586019
0.843618 0.000000 0.505263
1.000000 0.000000 0.343720
0.194019 0.000000 0.590703
0.213397 0.000000 0.590559
0.368107 0.000000 0.586019
0.843618 0.000000 0.505263
1.000000 0.000000 0.343720
0.188400 0.000000 0.590742
0.207896 0.000000 0.590601
0.368107 0.000000 0.586019
0.843618 0.000000 0.505263
1.000000 0.000000 0.343720
0.000000 0.549715 1.000000
0.000000 0.551282 1.000000
0.000000 0.582763 1.000000
0.685389 0.641075 1.000000
1.000000 0.483254 0.965978
0.000000 0.957167 1.000000
0.000000 0.957167 1.000000
0.000000 1.000000 1.000000
0.623542 1.000000 1.000000
1.000000 1.000000 1.000000
