Assets/Lutify-Free-LUTs-Pack/Lutify Free LUTs Pack/Colour Film Boost Pro - Film Boost 10/Lutify.me-FilmBoost10-NLog-to-Rec709.cube
# Created with: fylm.ai - Colour Grading and Collaboration Software in Cloud 
# Website: https://fylm.ai 
# META
# Option: Gamut compress
# Block 1: IDT | Nikon BT2020 N-Log
# Block 2: colourMatch | Blending Mode: Normal | {"ColorSpace":0,"CrossCovarianceLimit":50,"ReshapingIterations":1,"PercentSaturationShift":100,"PercentShadingShift":100,"ExtraShading":true,"PercentTint":100,"PercentModified":100}
# Block 3: subtractiveColour | Blending Mode: Normal | {"sliders":{"gainY":0.55,"C":0.3,"M":0.3,"Y":0.3}}
# Block 4: LUT | Filmic Curve Response: Low Contrast 2 (100%)
# Block 5: logPrimaries | Blending Mode: Normal | {"wheels":{"shadows":{"Y":"0","R":"1","G":"1","B":"1"},"midtones":{"Y":"0","R":"1","G":"1","B":"1"},"highlights":{"Y":"0","R":"1","G":"1","B":"1"},"offset":{"Y":"0","R":"1","G":"1","B":"1"}},"sliders":{"shadows":{"Y":0,"R":-0.085,"G":0.024,"B":0.134},"midtones":{"Y":0,"R":0,"G":-0.023,"B":0},"highlights":{"Y":0,"R":0,"G":0,"B":0},"offset":{"Y":0,"R":0.012,"G":-0.012,"B":0}}}
# Block 6: HSL | Blending Mode: Normal | {"hue":{"Reds":0,"Yellows":0,"Greens":0,"Cyans":0,"Blues":0,"Magentas":0},"saturation":{"Reds":1,"Yellows":1,"Greens":1,"Cyans":1,"Blues":1,"Magentas":1},"luminance":{"Reds":0.9,"Yellows":0.9,"Greens":0.9,"Cyans":0.9,"Blues":0.9,"Magentas":0.9},"lum_sat":{"Blacks":1,"Shadows":1,"Midtones":1,"Highlights":1,"Whites":1},"sat_sat":{"10":1,"20":1,"30":1,"40":1,"50":1}}
# Block 7: ODT | Rec709
TITLE "Lutify.me-FilmBoost10-NLog-to-Rec709" 
LUT_3D_SIZE 5
0.000000 0.000000 0.000000
0.140628 0.000000 0.000000
0.482455 0.000000 0.000000
0.917829 0.000000 0.108189
1.000000 0.447877 0.379419
0.000000 0.118330 0.000000
0.184048 0.117077 0.000000
0.515976 0.000000 0.000000
0.924420 0.000000 0.113933
1.000000 0.455041 0.381926
0.000000 0.441753 0.000000
0.000000 0.468457 0.000000
0.599335 0.434288 0.000000
0.943952 0.310186 0.121361
1.000000 0.500815 0.388564
0.000000 0.808499 0.243095
0.000000 0.815279 0.240695
0.000000 0.826032 0.203360
0.902326 0.791163 0.169710
1.000000 0.723635 0.441548
0.000000 0.970660 0.667051
0.000000 0.970457 0.667989
0.371428 0.970886 0.668515
0.757565 0.962930 0.649981
0.989361 0.949654 0.635792
0.000000 0.000000 0.089393
0.135082 0.000000 0.063513
0.493639 0.000000 0.064565
0.921199 0.000000 0.136195
1.000000 0.448766 0.388026
0.000000 0.110074 0.194402
0.131521 0.165548 0.186178
0.532754 0.000000 0.084161
0.929971 0.000000 0.142030
1.000000 0.455930 0.390571
0.000000 0.440302 0.165312
0.000000 0.491099 0.141237
0.606527 0.490090 0.071557
0.950260 0.327540 0.166852
1.000000 0.501998 0.400277
0.000000 0.808412 0.309016
0.000000 0.814996 0.310282
0.000000 0.829962 0.276196
0.904538 0.795140 0.240327
1.000000 0.724391 0.451046
0.000000 0.970610 0.678844
0.000000 0.970419 0.676837
0.370555 0.970861 0.674366
0.757870 0.963099 0.659668
0.989254 0.949785 0.641755
0.000000 0.034746 0.371064
0.000000 0.041674 0.382609
0.528415 0.000000 0.308496
0.934940 0.000000 0.320663
1.000000 0.458143 0.447479
0.000000 0.093379 0.423674
0.000000 0.113043 0.435383
0.581485 0.000000 0.390799
0.940394 0.000000 0.332119
1.000000 0.465000 0.447181
0.000000 0.427970 0.554880
0.000000 0.481569 0.573265
0.587587 0.571163 0.600772
0.958624 0.377754 0.409540
1.000000 0.511037 0.457755
0.000000 0.813045 0.579153
0.000000 0.820255 0.579055
0.000000 0.846542 0.578241
0.898246 0.830151 0.546166
1.000000 0.735045 0.519045
0.000000 0.970448 0.715537
0.000000 0.970245 0.716372
0.328989 0.970946 0.720944
0.759582 0.964058 0.712020
0.988276 0.950893 0.691065
0.000000 0.205467 0.739638
0.000000 0.219374 0.743896
0.442927 0.203369 0.753671
0.959406 0.000000 0.677704
1.000000 0.497474 0.677494
0.000000 0.231713 0.752992
0.000000 0.241538 0.754716
0.430713 0.237962 0.762095
0.963244 0.000000 0.694332
1.000000 0.501222 0.680845
0.000000 0.414326 0.796935
0.000000 0.432073 0.800156
0.344840 0.481389 0.819982
0.962880 0.415363 0.787014
1.000000 0.554024 0.695291
0.000000 0.795116 0.848296
0.000000 0.805384 0.851977
0.000000 0.846846 0.859965
0.874610 0.861493 0.867492
1.000000 0.764545 0.751705
0.000000 0.972653 0.857122
0.000000 0.972528 0.857423
0.251957 0.973083 0.858213
0.758338 0.969186 0.854630
0.979676 0.961091 0.844716
0.000000 0.550304 0.944431
0.117665 0.550561 0.944665
0.378060 0.555346 0.946379
0.835906 0.554994 0.941570
1.000000 0.520140 0.910596
0.000000 0.557024 0.944086
0.085450 0.557293 0.944321
0.369920 0.565635 0.945865
0.834358 0.562971 0.941448
1.000000 0.528094 0.910554
0.000000 0.596674 0.945829
0.000000 0.597112 0.946132
0.338884 0.606204 0.946599
0.823653 0.621193 0.944030
1.000000 0.578518 0.916009
0.000000 0.778467 0.953784
0.000000 0.779145 0.953254
0.000000 0.792332 0.952551
0.755297 0.809379 0.954250
1.000000 0.788318 0.940577
0.000000 0.969708 0.967086
0.000000 0.969614 0.967184
0.000000 0.972019 0.966909
0.719079 0.972335 0.967525
0.970806 0.974173 0.968330
