Assets/Lutify-Free-LUTs-Pack/Lutify Free LUTs Pack/Colour Film Boost Pro - Film Boost 10/Lutify.me-FilmBoost10-DJIDLog-to-Rec709.cube
# Created with: fylm.ai - Colour Grading and Collaboration Software in Cloud 
# Website: https://fylm.ai 
# META
# Option: Gamut compress
# Block 1: IDT | DJI D-Gamut D-Log
# Block 2: colourMatch | Blending Mode: Normal | {"ColorSpace":0,"CrossCovarianceLimit":50,"ReshapingIterations":1,"PercentSaturationShift":100,"PercentShadingShift":100,"ExtraShading":true,"PercentTint":100,"PercentModified":100}
# Block 3: subtractiveColour | Blending Mode: Normal | {"sliders":{"gainY":0.55,"C":0.3,"M":0.3,"Y":0.3}}
# Block 4: LUT | Filmic Curve Response: Low Contrast 2 (100%)
# Block 5: logPrimaries | Blending Mode: Normal | {"wheels":{"shadows":{"Y":"0","R":"1","G":"1","B":"1"},"midtones":{"Y":"0","R":"1","G":"1","B":"1"},"highlights":{"Y":"0","R":"1","G":"1","B":"1"},"offset":{"Y":"0","R":"1","G":"1","B":"1"}},"sliders":{"shadows":{"Y":0,"R":-0.085,"G":0.024,"B":0.134},"midtones":{"Y":0,"R":0,"G":-0.023,"B":0},"highlights":{"Y":0,"R":0,"G":0,"B":0},"offset":{"Y":0,"R":0.012,"G":-0.012,"B":0}}}
# Block 6: HSL | Blending Mode: Normal | {"hue":{"Reds":0,"Yellows":0,"Greens":0,"Cyans":0,"Blues":0,"Magentas":0},"saturation":{"Reds":1,"Yellows":1,"Greens":1,"Cyans":1,"Blues":1,"Magentas":1},"luminance":{"Reds":0.9,"Yellows":0.9,"Greens":0.9,"Cyans":0.9,"Blues":0.9,"Magentas":0.9},"lum_sat":{"Blacks":1,"Shadows":1,"Midtones":1,"Highlights":1,"Whites":1},"sat_sat":{"10":1,"20":1,"30":1,"40":1,"50":1}}
# Block 7: ODT | Rec709
TITLE "Lutify.me-FilmBoost10-DJIDLog-to-Rec709" 
LUT_3D_SIZE 33
0.000000 0.000000 0.000000
0.000000 0.000000 0.000000
0.000000 0.000000 0.000000
0.000000 0.000000 0.000000
0.000000 0.000000 0.000000
0.071901 0.000000 0.000000
0.094572 0.000000 0.000000
0.114386 0.000000 0.000000
0.136413 0.000000 0.000000
0.161075 0.000000 0.000000
0.189416 0.000000 0.000000
0.222039 0.000000 0.000000
0.263232 0.000000 0.000000
0.312544 0.000000 0.000000
0.361330 0.000000 0.000000
0.413613 0.000000 0.000000
0.473381 0.000000 0.000000
0.541597 0.000000 0.000000
0.609575 0.000000 0.000000
0.680994 0.000000 0.000000
0.758260 0.000000 0.025837
0.829329 0.000000 0.050384
0.903935 0.000000 0.074163
0.960590 0.000000 0.103616
1.000000 0.000000 0.140449
1.000000 0.191043 0.181457
1.000000 0.299636 0.220305
1.000000 0.385920 0.264343
1.000000 0.457525 0.320604
1.000000 0.532917 0.370291
1.000000 0.610420 0.432843
1.000000 0.674348 0.490312
1.000000 0.728542 0.559166
0.000000 0.000000 0.000000
0.000000 0.000000 0.000000
0.000000 0.000000 0.000000
0.000000 0.000000 0.000000
0.000000 0.000000 0.000000
0.076373 0.000000 0.000000
0.097636 0.000000 0.000000
0.118823 0.000000 0.000000
0.140414 0.000000 0.000000
0.165208 0.000000 0.000000
0.193685 0.000000 0.000000
0.230939 0.000000 0.000000
0.269233 0.000000 0.000000
0.316959 0.000000 0.000000
0.367944 0.000000 0.000000
0.416215 0.000000 0.000000
0.476365 0.000000 0.000000
0.544637 0.000000 0.000000
0.616293 0.000000 0.000000
0.680480 0.000000 0.000000
0.758234 0.000000 0.023530
0.832689 0.000000 0.049246
0.903780 0.000000 0.073235
0.960829 0.000000 0.105513
1.000000 0.000000 0.141873
1.000000 0.191043 0.181457
1.000000 0.299636 0.220305
1.000000 0.386207 0.266518
1.000000 0.456943 0.315580
1.000000 0.532917 0.370291
1.000000 0.610420 0.432843
1.000000 0.674348 0.490312
1.000000 0.728542 0.559166
0.000000 0.000000 0.000000
0.000000 0.000000 0.000000
0.000000 0.000000 0.000000
0.000000 0.000000 0.000000
0.000000 0.000000 0.000000
0.081789 0.000000 0.000000
0.104465 0.000000 0.000000
0.122391 0.000000 0.000000
0.144437 0.000000 0.000000
0.170957 0.000000 0.000000
0.200495 0.000000 0.000000
0.239163 0.000000 0.000000
0.275245 0.000000 0.000000
0.322711 0.000000 0.000000
0.370199 0.000000 0.000000
0.421397 0.000000 0.000000
0.479364 0.000000 0.000000
0.551150 0.000000 0.000000
0.619686 0.000000 0.000000
0.683930 0.000000 0.000000
0.761698 0.000000 0.021725
0.832667 0.000000 0.048880
0.903674 0.000000 0.072578
0.960728 0.000000 0.105219
1.000000 0.000000 0.141597
1.000000 0.191043 0.181457
1.000000 0.299636 0.220305
1.000000 0.386207 0.266518
1.000000 0.456943 0.315580
1.000000 0.532917 0.370291
1.000000 0.610420 0.432843
1.000000 0.674348 0.490312
1.000000 0.728542 0.559166
0.000000 0.000000 0.000000
0.000000 0.000000 0.000000
0.000000 0.000000 0.000000
0.000000 0.000000 0.000000
0.000000 0.000000 0.000000
0.094591 0.000000 0.000000
0.112026 0.000000 0.000000
0.128406 0.000000 0.000000
0.151363 0.000000 0.000000
0.177018 0.000000 0.000000
0.210229 0.000000 0.000000
0.245988 0.000000 0.000000
0.282107 0.000000 0.000000
0.324649 0.000000 0.000000
0.374757 0.000000 0.000000
0.424066 0.000000 0.000000
0.485376 0.000000 0.000000
0.550989 0.000000 0.000000
0.619719 0.000000 0.000000
0.687374 0.000000 0.000000
0.761677 0.000000 0.019237
0.832621 0.000000 0.048119
0.903620 0.000000 0.072238
0.960626 0.000000 0.104918
1.000000 0.000000 0.141597
1.000000 0.196504 0.181168
1.000000 0.299704 0.220495
1.000000 0.389883 0.266238
1.000000 0.460402 0.315334
1.000000 0.536204 0.370081
1.000000 0.610420 0.432843
1.000000 0.674348 0.490312
1.000000 0.728542 0.559166
0.000000 0.014989 0.000000
0.000000 0.017352 0.000000
0.000000 0.019637 0.000000
0.000000 0.024207 0.000000
0.000000 0.030107 0.000000
0.100019 0.000000 0.000000
0.119369 0.000000 0.000000
0.137762 0.000000 0.000000
0.163078 0.000000 0.000000
0.189511 0.000000 0.000000
0.218600 0.000000 0.000000
0.252404 0.000000 0.000000
0.290447 0.000000 0.000000
0.336423 0.000000 0.000000
0.379399 0.000000 0.000000
0.426736 0.000000 0.000000
0.488427 0.000000 0.000000
0.554509 0.000000 0.000000
0.623093 0.000000 0.000000
0.687385 0.000000 0.000000
0.765138 0.000000 0.016540
0.842756 0.000000 0.047421
0.906447 0.000000 0.071567
0.963025 0.000000 0.105023
1.000000 0.000000 0.141315
1.000000 0.196823 0.182808
1.000000 0.303821 0.220191
1.000000 0.389883 0.266238
1.000000 0.460402 0.315334
1.000000 0.536507 0.370368
1.000000 0.610420 0.432843
1.000000 0.674348 0.490312
1.000000 0.728542 0.559166
0.000000 0.069803 0.000000
0.000000 0.070040 0.000000
0.000000 0.072625 0.000000
0.000000 0.076770 0.000000
0.000000 0.080399 0.000000
0.096819 0.075779 0.000000
0.125450 0.065634 0.000000
0.153594 0.053484 0.000000
0.185303 0.038017 0.000000
0.216452 0.000000 0.000000
0.247734 0.000000 0.000000
0.280518 0.000000 0.000000
0.309974 0.000000 0.000000
0.353207 0.000000 0.000000
0.393733 0.000000 0.000000
0.437643 0.000000 0.000000
0.494753 0.000000 0.000000
0.564502 0.000000 0.000000
0.633323 0.000000 0.000000
0.697475 0.000000 0.000000
0.768540 0.000000 0.000000
0.845920 0.000000 0.044153
0.906723 0.000000 0.072457
0.962708 0.000000 0.104083
1.000000 0.000000 0.140876
1.000000 0.207075 0.182385
1.000000 0.311973 0.219571
1.000000 0.393549 0.265954
1.000000 0.460402 0.315334
1.000000 0.536507 0.370368
1.000000 0.613560 0.432660
1.000000 0.674348 0.490312
1.000000 0.728542 0.559166
0.000000 0.086509 0.000000
0.000000 0.086814 0.000000
0.000000 0.088514 0.000000
0.000000 0.092456 0.000000
0.000000 0.097323 0.000000
0.098096 0.095261 0.000000
0.127553 0.085723 0.000000
0.156555 0.077163 0.000000
0.191547 0.063655 0.000000
0.223260 0.039285 0.000000
0.252630 0.000000 0.000000
0.285644 0.000000 0.000000
0.317612 0.000000 0.000000
0.359911 0.000000 0.000000
0.401281 0.000000 0.000000
0.440424 0.000000 0.000000
0.497761 0.000000 0.000000
0.567827 0.000000 0.000000
0.633379 0.000000 0.000000
0.700926 0.000000 0.000000
0.768513 0.000000 0.000000
0.845836 0.000000 0.042556
0.909509 0.000000 0.071722
0.962599 0.000000 0.103755
1.000000 0.045612 0.140576
1.000000 0.207075 0.182385
1.000000 0.312264 0.221452
1.000000 0.393549 0.265954
1.000000 0.460402 0.315334
1.000000 0.536507 0.370368
1.000000 0.613560 0.432660
1.000000 0.674348 0.490312
1.000000 0.728542 0.559166
0.000000 0.103128 0.000000
0.000000 0.103471 0.000000
0.000000 0.106995 0.000000
0.000000 0.113426 0.000000
0.000000 0.117404 0.000000
0.084077 0.117532 0.000000
0.123728 0.117255 0.000000
0.158553 0.108474 0.000000
0.195929 0.091770 0.000000
0.228652 0.076657 0.000000
0.261183 0.062190 0.000000
0.292851 0.030756 0.000000
0.331652 0.000000 0.000000
0.371464 0.000000 0.000000
0.409258 0.000000 0.000000
0.454472 0.000000 0.000000
0.503890 0.000000 0.000000
0.571295 0.000000 0.000000
0.636848 0.000000 0.000000
0.701208 0.000000 0.000000
0.771947 0.000000 0.000000
0.849625 0.000000 0.043575
0.909319 0.000000 0.070489
0.962376 0.000000 0.103078
1.000000 0.083084 0.139959
1.000000 0.217265 0.181776
1.000000 0.316301 0.221140
1.000000 0.393549 0.265954
1.000000 0.467313 0.314835
1.000000 0.539787 0.370157
1.000000 0.613560 0.432660
1.000000 0.677123 0.490178
1.000000 0.728542 0.559166
0.000000 0.126321 0.000000
0.000000 0.128503 0.000000
0.000000 0.133037 0.000000
0.000000 0.137133 0.000000
0.000000 0.143366 0.000000
0.033772 0.147135 0.000000
0.106412 0.145580 0.000000
0.155985 0.142670 0.000000
0.198135 0.124895 0.000000
0.238171 0.112342 0.000000
0.272496 0.094989 0.000000
0.304125 0.080408 0.000000
0.340524 0.047603 0.000000
0.381496 0.000000 0.000000
0.415084 0.000000 0.000000
0.463683 0.000000 0.000000
0.510310 0.000000 0.000000
0.574621 0.000000 0.000000
0.640590 0.000000 0.000000
0.704674 0.000000 0.000000
0.775378 0.000000 0.000000
0.849501 0.000000 0.041127
0.912001 0.000000 0.069207
0.962147 0.000000 0.102371
1.000000 0.095324 0.139640
1.000000 0.222236 0.181461
1.000000 0.316301 0.221140
1.000000 0.397208 0.265667
1.000000 0.467313 0.314835
1.000000 0.539787 0.370157
1.000000 0.613560 0.432660
1.000000 0.677123 0.490178
1.000000 0.728542 0.559166
0.000000 0.151962 0.000000
0.000000 0.154759 0.000000
0.000000 0.159194 0.000000
0.000000 0.162535 0.000000
0.000000 0.168536 0.000000
0.000000 0.171080 0.000000
0.081673 0.169898 0.000000
0.144648 0.170343 0.000000
0.201436 0.162905 0.000000
0.247202 0.145015 0.000000
0.281560 0.131217 0.000000
0.315906 0.116714 0.000000
0.350317 0.103821 0.000000
0.392467 0.075857 0.000000
0.429488 0.023828 0.000000
0.473291 0.000000 0.000000
0.520652 0.000000 0.000000
0.584771 0.000000 0.000000
0.647571 0.000000 0.000000
0.708674 0.000000 0.000000
0.779038 0.000000 0.000000
0.852598 0.000000 0.036510
0.911722 0.000000 0.067268
0.966616 0.000000 0.101865
1.000000 0.123752 0.138642
1.000000 0.231963 0.180814
1.000000 0.324302 0.220501
1.000000 0.400858 0.265376
1.000000 0.470765 0.314582
1.000000 0.543066 0.369944
1.000000 0.613560 0.432660
1.000000 0.677123 0.490178
1.000000 0.730869 0.559088
0.000000 0.180231 0.000000
0.000000 0.183965 0.000000
0.000000 0.190821 0.000000
0.000000 0.196460 0.000000
0.000000 0.197765 0.000000
0.000000 0.199706 0.000000
0.000000 0.198790 0.000000
0.118928 0.200946 0.000000
0.191507 0.199729 0.000000
0.246514 0.184283 0.000000
0.286750 0.167209 0.000000
0.323022 0.155342 0.000000
0.360060 0.143248 0.000000
0.403983 0.120972 0.000000
0.444829 0.101407 0.000000
0.486780 0.066169 0.000000
0.540817 0.000000 0.000000
0.592259 0.000000 0.000000
0.651133 0.000000 0.000000
0.712188 0.000000 0.000000
0.782395 0.000000 0.000000
0.855577 0.000000 0.027553
0.914612 0.000000 0.066805
0.965986 0.000000 0.099868
1.000000 0.139065 0.137943
1.000000 0.241445 0.180140
1.000000 0.332269 0.220042
1.000000 0.400858 0.265376
1.000000 0.470765 0.314582
1.000000 0.543655 0.375564
1.000000 0.617352 0.433084
1.000000 0.677123 0.490178
1.000000 0.730869 0.559088
0.000000 0.215088 0.000000
0.000000 0.219652 0.000000
0.000000 0.224455 0.000000
0.000000 0.224325 0.000000
0.000000 0.231603 0.000000
0.000000 0.236759 0.000000
0.000000 0.235965 0.000000
0.070420 0.233981 0.000000
0.169147 0.230982 0.000000
0.240986 0.226087 0.000000
0.285183 0.210194 0.000000
0.332137 0.194158 0.000000
0.373703 0.179111 0.000000
0.420953 0.158651 0.000000
0.463672 0.141536 0.000000
0.501107 0.131671 0.000000
0.548610 0.104690 0.000000
0.600211 0.064312 0.000000
0.661921 0.000000 0.000000
0.716087 0.000000 0.000000
0.789693 0.000000 0.000000
0.858898 0.000000 0.000000
0.914204 0.000000 0.063731
0.965447 0.000000 0.098094
1.000000 0.170319 0.136208
1.000000 0.255650 0.182639
1.000000 0.336194 0.219708
1.000000 0.408136 0.264786
1.000000 0.474214 0.314327
1.000000 0.546935 0.375354
1.000000 0.617352 0.433084
1.000000 0.679885 0.490045
1.000000 0.731108 0.562096
0.000000 0.255550 0.000000
0.000000 0.257156 0.000000
0.000000 0.257069 0.000000
0.000000 0.262002 0.000000
0.000000 0.265297 0.000000
0.000000 0.269738 0.000000
0.000000 0.269125 0.000000
0.000000 0.267725 0.000000
0.125479 0.265603 0.000000
0.212678 0.263982 0.000000
0.271863 0.263845 0.000000
0.336259 0.244043 0.000000
0.390400 0.225716 0.000000
0.435539 0.207151 0.000000
0.481180 0.194637 0.000000
0.519764 0.186997 0.000000
0.566703 0.171676 0.000000
0.621430 0.154454 0.000000
0.676711 0.131802 0.000000
0.724275 0.110190 0.000000
0.793461 0.000000 0.000000
0.862055 0.000000 0.000000
0.916771 0.000000 0.061058
0.967117 0.104669 0.097590
1.000000 0.192527 0.134546
1.000000 0.273513 0.181164
1.000000 0.344274 0.220949
1.000000 0.412316 0.267128
1.000000 0.481684 0.318879
1.000000 0.550214 0.375143
1.000000 0.620480 0.432900
1.000000 0.679885 0.490045
1.000000 0.733420 0.562020
0.000000 0.296287 0.000000
0.000000 0.296223 0.000000
0.000000 0.300020 0.000000
0.000000 0.303863 0.000000
0.000000 0.307728 0.000000
0.000000 0.311169 0.000000
0.000000 0.310639 0.000000
0.000000 0.309652 0.000000
0.000000 0.308321 0.000000
0.161309 0.307982 0.000000
0.233208 0.309420 0.000000
0.319120 0.306275 0.000000
0.390386 0.283791 0.000000
0.450417 0.256546 0.000000
0.497508 0.245792 0.000000
0.540463 0.227689 0.000000
0.581442 0.228135 0.000000
0.632644 0.212837 0.000000
0.690383 0.196081 0.000000
0.744182 0.180812 0.000000
0.800127 0.161304 0.000000
0.867412 0.119755 0.000000
0.918737 0.120985 0.052949
0.968435 0.160933 0.096135
1.000000 0.222415 0.135088
1.000000 0.295178 0.180937
1.000000 0.359670 0.219549
1.000000 0.419533 0.266528
1.000000 0.485533 0.319112
1.000000 0.556772 0.374717
1.000000 0.623609 0.432716
1.000000 0.682955 0.490250
1.000000 0.733420 0.562020
0.000000 0.339294 0.000000
0.000000 0.341456 0.000000
0.000000 0.343621 0.000000
0.000000 0.348031 0.000000
0.000000 0.350221 0.000000
0.000000 0.349715 0.000000
0.000000 0.351545 0.000000
0.000000 0.353231 0.000000
0.000000 0.352356 0.000000
0.000000 0.353179 0.000000
0.189557 0.350652 0.000000
0.291603 0.346521 0.000000
0.381597 0.339603 0.000000
0.452243 0.323151 0.000000
0.510144 0.299171 0.000000
0.556753 0.283391 0.000000
0.598324 0.270048 0.000000
0.649094 0.269563 0.000000
0.697041 0.260324 0.000000
0.753792 0.248128 0.000000
0.809482 0.238434 0.000000
0.871802 0.220284 0.000000
0.921878 0.208550 0.000000
0.968668 0.221508 0.090954
1.000000 0.258425 0.131049
1.000000 0.319621 0.178567
1.000000 0.378629 0.217900
1.000000 0.433899 0.265287
1.000000 0.495809 0.318339
1.000000 0.563330 0.374286
1.000000 0.626739 0.432532
1.000000 0.685683 0.490121
1.000000 0.735718 0.561946
0.000000 0.383712 0.000000
0.000000 0.386157 0.000000
0.000000 0.388615 0.000000
0.000000 0.391077 0.000000
0.000000 0.390983 0.000000
0.000000 0.398235 0.000000
0.000000 0.397984 0.000000
0.000000 0.397545 0.000000
0.000000 0.399441 0.000000
0.000000 0.398225 0.000000
0.105749 0.396348 0.000000
0.249943 0.393540 0.000000
0.349185 0.389467 0.000000
0.445625 0.381308 0.000000
0.513201 0.361050 0.000000
0.572856 0.334827 0.000000
0.620282 0.323792 0.000000
0.660645 0.317155 0.000000
0.705179 0.316260 0.000000
0.762277 0.311266 0.000000
0.813996 0.303966 0.000000
0.876032 0.290354 0.000000
0.928371 0.291107 0.000000
0.968950 0.293151 0.074774
1.000000 0.308500 0.127300
1.000000 0.351572 0.178673
1.000000 0.393306 0.214564
1.000000 0.448283 0.264221
1.000000 0.506069 0.317546
1.000000 0.573699 0.376758
1.000000 0.632989 0.432162
1.000000 0.688397 0.489995
1.000000 0.738303 0.562217
0.000000 0.442043 0.000000
0.000000 0.441998 0.000000
0.000000 0.444749 0.000000
0.000000 0.444685 0.000000
0.000000 0.447426 0.000000
0.000000 0.447115 0.000000
0.000000 0.446926 0.000000
0.000000 0.446692 0.000000
0.000000 0.449025 0.000000
0.000000 0.451006 0.000000
0.000000 0.449937 0.000000
0.127374 0.448160 0.000000
0.290764 0.444762 0.000000
0.404539 0.442737 0.000000
0.498550 0.434775 0.000000
0.564684 0.417208 0.000000
0.630662 0.392029 0.000000
0.679738 0.380890 0.000000
0.720643 0.387738 0.000000
0.768867 0.383836 0.000000
0.832159 0.373866 0.000000
0.881983 0.373794 0.000000
0.928255 0.373793 0.000000
0.967367 0.370599 0.037785
1.000000 0.374477 0.113061
1.000000 0.389640 0.175774
1.000000 0.423034 0.213169
1.000000 0.466021 0.262532
1.000000 0.523289 0.316443
1.000000 0.583514 0.376102
1.000000 0.645345 0.431436
1.000000 0.693786 0.489748
1.000000 0.740564 0.562149
0.000000 0.497503 0.000000
0.000000 0.497433 0.000000
0.000000 0.500301 0.000000
0.000000 0.500224 0.000000
0.000000 0.500149 0.000000
0.000000 0.505548 0.000000
0.000000 0.505201 0.000000
0.000000 0.504996 0.000000
0.000000 0.504668 0.000000
0.000000 0.506822 0.000000
0.000000 0.508790 0.000000
0.000000 0.507392 0.000000
0.191594 0.504786 0.000000
0.333796 0.501114 0.000000
0.452300 0.495762 0.000000
0.534673 0.495791 0.000000
0.625208 0.472014 0.000000
0.690096 0.440242 0.000000
0.732662 0.437476 0.000000
0.774830 0.441970 0.000000
0.836108 0.439293 0.000000
0.887329 0.430152 0.000000
0.929121 0.432788 0.000000
0.964641 0.431687 0.000000
1.000000 0.434013 0.104480
1.000000 0.437458 0.168336
1.000000 0.455922 0.211286
1.000000 0.490752 0.260267
1.000000 0.540290 0.315037
1.000000 0.600160 0.377853
1.000000 0.651980 0.434324
1.000000 0.699120 0.489509
1.000000 0.745043 0.562019
0.000000 0.556487 0.000000
0.000000 0.556243 0.000000
0.000000 0.556166 0.000000
0.000000 0.558913 0.000000
0.000000 0.558643 0.000000
0.000000 0.561226 0.000000
0.000000 0.561114 0.000000
0.000000 0.563821 0.000000
0.000000 0.563519 0.000000
0.000000 0.562841 0.000000
0.000000 0.562085 0.000000
0.000000 0.563557 0.000000
0.000000 0.567838 0.000000
0.225824 0.562227 0.000000
0.376396 0.558184 0.000000
0.487333 0.556101 0.000000
0.596955 0.551056 0.000000
0.675822 0.527624 0.000000
0.737756 0.495262 0.000000
0.779939 0.495855 0.000000
0.834748 0.502187 0.000000
0.886607 0.495820 0.000000
0.927425 0.497280 0.000000
0.963754 0.502170 0.000000
0.995423 0.502153 0.070111
1.000000 0.502168 0.155230
1.000000 0.506866 0.213563
1.000000 0.526303 0.261405
1.000000 0.571184 0.315304
1.000000 0.617259 0.382786
1.000000 0.663976 0.433643
1.000000 0.708032 0.495805
1.000000 0.749462 0.561901
0.000000 0.612425 0.000000
0.000000 0.612154 0.000000
0.000000 0.615130 0.000000
0.000000 0.614853 0.000000
0.000000 0.614786 0.000000
0.000000 0.617336 0.000000
0.000000 0.617252 0.000000
0.000000 0.620144 0.000000
0.000000 0.619735 0.000000
0.000000 0.622274 0.000000
0.000000 0.624332 0.000000
0.000000 0.623159 0.000000
0.000000 0.621741 0.000000
0.000000 0.625232 0.000000
0.275252 0.625025 0.000000
0.420048 0.620895 0.000000
0.536390 0.615328 0.000000
0.645307 0.607333 0.000000
0.724882 0.583149 0.000000
0.790555 0.559475 0.000000
0.838018 0.551184 0.000000
0.886377 0.561967 0.000000
0.927268 0.563429 0.000000
0.958000 0.569641 0.000000
0.987353 0.572531 0.000000
1.000000 0.572457 0.136185
1.000000 0.576967 0.202188
1.000000 0.585899 0.262631
1.000000 0.605539 0.317957
1.000000 0.640584 0.384714
1.000000 0.679302 0.436422
1.000000 0.718273 0.495395
1.000000 0.756684 0.565452
0.000000 0.680941 0.000000
0.000000 0.680860 0.000000
0.000000 0.680803 0.000000
0.000000 0.680257 0.000000
0.000000 0.680227 0.000000
0.000000 0.682749 0.000000
0.000000 0.682185 0.000000
0.000000 0.682032 0.000000
0.000000 0.684420 0.000000
0.000000 0.683423 0.000000
0.000000 0.685553 0.000000
0.000000 0.684646 0.000000
0.000000 0.683565 0.000000
0.000000 0.684921 0.000000
0.032546 0.685173 0.000000
0.328410 0.681499 0.000000
0.475920 0.676251 0.000000
0.581796 0.670323 0.000000
0.686321 0.666592 0.000000
0.776306 0.650671 0.000000
0.831459 0.630679 0.000000
0.877859 0.625578 0.000000
0.917125 0.632793 0.000000
0.955019 0.638681 0.000000
0.981523 0.638853 0.000000
1.000000 0.641605 0.108924
1.000000 0.643148 0.197718
1.000000 0.644005 0.258438
1.000000 0.652759 0.320164
1.000000 0.669150 0.386078
1.000000 0.696727 0.438825
1.000000 0.731158 0.498277
1.000000 0.767138 0.565253
0.000000 0.735829 0.000000
0.000000 0.735751 0.000000
0.000000 0.735711 0.000000
0.000000 0.735588 0.000000
0.000000 0.735545 0.000000
0.000000 0.737703 0.000000
0.000000 0.737609 0.000000
0.000000 0.737461 0.000000
0.000000 0.736805 0.000000
0.000000 0.739179 0.000000
0.000000 0.738656 0.000000
0.000000 0.740197 0.000000
0.000000 0.739053 0.000000
0.000000 0.737815 0.000000
0.000000 0.738243 0.000000
0.255454 0.737729 0.000000
0.419748 0.739056 0.000000
0.528995 0.734105 0.000000
0.639629 0.727625 0.000000
0.735507 0.723503 0.000000
0.818126 0.711641 0.000000
0.871358 0.683166 0.000000
0.905851 0.680432 0.000000
0.946066 0.688885 0.000000
0.972439 0.694875 0.000000
0.999336 0.694534 0.000000
1.000000 0.694438 0.188528
1.000000 0.698100 0.255300
1.000000 0.699111 0.316944
1.000000 0.705356 0.393460
1.000000 0.718523 0.438176
1.000000 0.745888 0.501185
1.000000 0.775588 0.568512
0.000000 0.789971 0.000000
0.000000 0.789508 0.000000
0.000000 0.789452 0.000000
0.000000 0.789336 0.000000
0.000000 0.789276 0.000000
0.000000 0.789092 0.000000
0.000000 0.788898 0.000000
0.000000 0.788830 0.000000
0.000000 0.788623 0.000000
0.000000 0.787999 0.000000
0.000000 0.792443 0.000000
0.000000 0.791626 0.000000
0.000000 0.793464 0.000000
0.000000 0.794535 0.000000
0.000000 0.794502 0.000000
0.179977 0.791393 0.000000
0.366135 0.790588 0.000000
0.498745 0.786170 0.000000
0.590257 0.781157 0.000000
0.701204 0.774843 0.000000
0.795969 0.770090 0.000000
0.857157 0.760163 0.000000
0.898326 0.737348 0.000000
0.933828 0.733068 0.000000
0.964095 0.741925 0.000000
0.987674 0.746517 0.000000
1.000000 0.744580 0.163551
1.000000 0.745925 0.254070
1.000000 0.746285 0.321001
1.000000 0.747899 0.392664
1.000000 0.751974 0.446695
1.000000 0.766361 0.501511
1.000000 0.791192 0.569203
0.000000 0.835738 0.000000
0.000000 0.835738 0.000000
0.000000 0.835657 0.000000
0.000000 0.835491 0.000000
0.000000 0.835491 0.000000
0.000000 0.834976 0.000000
0.000000 0.834889 0.000000
0.000000 0.834800 0.000000
0.000000 0.834185 0.000000
0.000000 0.833998 0.000000
0.000000 0.833367 0.000000
0.000000 0.834805 0.000000
0.000000 0.833819 0.000000
0.000000 0.834816 0.000000
0.000000 0.835119 0.000000
0.184823 0.834821 0.000000
0.337860 0.835555 0.000000
0.463769 0.831954 0.000000
0.562948 0.830042 0.000000
0.669401 0.824362 0.000000
0.768016 0.815981 0.000000
0.841173 0.812138 0.000000
0.888753 0.806224 0.000000
0.922711 0.782138 0.000000
0.952764 0.782804 0.000000
0.978616 0.786397 0.000000
0.999801 0.789911 0.110561
1.000000 0.787841 0.245200
1.000000 0.788334 0.321524
1.000000 0.788969 0.396566
1.000000 0.789628 0.453613
1.000000 0.793409 0.510889
1.000000 0.809445 0.569804
0.000000 0.873120 0.000000
0.000000 0.873018 0.000000
0.000000 0.873018 0.000000
0.000000 0.872915 0.000000
0.000000 0.872915 0.000000
0.000000 0.872490 0.000000
0.000000 0.872381 0.000000
0.000000 0.871971 0.000000
0.000000 0.871859 0.000000
0.000000 0.871516 0.000000
0.000000 0.871281 0.000000
0.000000 0.870497 0.000000
0.000000 0.869563 0.000000
0.000000 0.868891 0.000000
0.000000 0.869254 0.000000
0.229611 0.869378 0.000000
0.352740 0.868606 0.000000
0.455989 0.867560 0.000000
0.548230 0.864142 0.000000
0.646946 0.861288 0.000000
0.740029 0.855950 0.000000
0.815547 0.851028 0.000000
0.874647 0.845913 0.000000
0.909815 0.845269 0.000000
0.943747 0.824308 0.000000
0.969506 0.821718 0.000000
0.991030 0.827198 0.000000
1.000000 0.827772 0.220247
1.000000 0.826789 0.314660
1.000000 0.827482 0.400213
1.000000 0.827614 0.462864
1.000000 0.829952 0.516422
1.000000 0.834973 0.574515
0.000000 0.905537 0.000000
0.000000 0.905537 0.000000
0.000000 0.905537 0.000000
0.000000 0.905409 0.000000
0.000000 0.905409 0.000000
0.000000 0.905149 0.000000
0.000000 0.905149 0.000000
0.000000 0.905017 0.000000
