Assets/Lutify-Free-LUTs-Pack/Lutify Free LUTs Pack/Colour Film Boost Pro - Film Boost 10/Lutify.me-FilmBoost10-LogC4-to-Rec709.cube
# Created with: fylm.ai - Colour Grading and Collaboration Software in Cloud 
# Website: https://fylm.ai 
# META
# Option: Gamut compress
# Block 1: IDT | Arri Alexa 35 - LogC4
# Block 2: colourMatch | Blending Mode: Normal | {"ColorSpace":0,"CrossCovarianceLimit":50,"ReshapingIterations":1,"PercentSaturationShift":100,"PercentShadingShift":100,"ExtraShading":true,"PercentTint":100,"PercentModified":100}
# Block 3: subtractiveColour | Blending Mode: Normal | {"sliders":{"gainY":0.55,"C":0.3,"M":0.3,"Y":0.3}}
# Block 4: LUT | Filmic Curve Response: Low Contrast 2 (100%)
# Block 5: logPrimaries | Blending Mode: Normal | {"wheels":{"shadows":{"Y":"0","R":"1","G":"1","B":"1"},"midtones":{"Y":"0","R":"1","G":"1","B":"1"},"highlights":{"Y":"0","R":"1","G":"1","B":"1"},"offset":{"Y":"0","R":"1","G":"1","B":"1"}},"sliders":{"shadows":{"Y":0,"R":-0.085,"G":0.024,"B":0.134},"midtones":{"Y":0,"R":0,"G":-0.023,"B":0},"highlights":{"Y":0,"R":0,"G":0,"B":0},"offset":{"Y":0,"R":0.012,"G":-0.012,"B":0}}}
# Block 6: HSL | Blending Mode: Normal | {"hue":{"Reds":0,"Yellows":0,"Greens":0,"Cyans":0,"Blues":0,"Magentas":0},"saturation":{"Reds":1,"Yellows":1,"Greens":1,"Cyans":1,"Blues":1,"Magentas":1},"luminance":{"Reds":0.9,"Yellows":0.9,"Greens":0.9,"Cyans":0.9,"Blues":0.9,"Magentas":0.9},"lum_sat":{"Blacks":1,"Shadows":1,"Midtones":1,"Highlights":1,"Whites":1},"sat_sat":{"10":1,"20":1,"30":1,"40":1,"50":1}}
# Block 7: ODT | Rec709
TITLE "Lutify.me-FilmBoost10-LogC4-to-Rec709" 
LUT_3D_SIZE 33
0.000000 0.000000 0.000000
0.000000 0.000000 0.000000
0.000000 0.000000 0.000000
0.000000 0.000000 0.000000
0.045440 0.000000 0.000000
0.105443 0.000000 0.000000
0.145992 0.000000 0.000000
0.189416 0.000000 0.000000
0.238659 0.000000 0.000000
0.299388 0.000000 0.000000
0.359034 0.000000 0.000000
0.427624 0.000000 0.000000
0.520324 0.000000 0.000000
0.608746 0.000000 0.000000
0.701819 0.000000 0.041002
0.798023 0.000000 0.060130
0.882675 0.000000 0.088104
0.953845 0.000000 0.122678
1.000000 0.000000 0.172797
1.000000 0.000000 0.216673
1.000000 0.146324 0.272834
1.000000 0.307920 0.337140
1.000000 0.411876 0.401425
1.000000 0.501269 0.468057
1.000000 0.600421 0.543562
1.000000 0.685181 0.613127
1.000000 0.748186 0.678930
1.000000 0.800299 0.737043
1.000000 0.849346 0.795658
1.000000 0.884857 0.835395
1.000000 0.910248 0.871225
1.000000 0.933707 0.905599
1.000000 0.953980 0.936571
0.000000 0.000000 0.000000
0.000000 0.000000 0.000000
0.000000 0.000000 0.000000
0.000000 0.000000 0.000000
0.045440 0.000000 0.000000
0.105443 0.000000 0.000000
0.147670 0.000000 0.000000
0.191760 0.000000 0.000000
0.243196 0.000000 0.000000
0.301616 0.000000 0.000000
0.362395 0.000000 0.000000
0.431328 0.000000 0.000000
0.523755 0.000000 0.000000
0.609004 0.000000 0.005233
0.702089 0.000000 0.041396
0.798002 0.000000 0.059909
0.883158 0.000000 0.089631
0.953994 0.000000 0.123628
1.000000 0.000000 0.172594
1.000000 0.000000 0.216673
1.000000 0.146324 0.272834
1.000000 0.307920 0.337140
1.000000 0.411876 0.401425
1.000000 0.501269 0.468057
1.000000 0.600421 0.543562
1.000000 0.685181 0.613127
1.000000 0.748186 0.678930
1.000000 0.800299 0.737043
1.000000 0.849346 0.795658
1.000000 0.884857 0.835395
1.000000 0.910248 0.871225
1.000000 0.933707 0.905599
1.000000 0.953980 0.936571
0.000000 0.000000 0.000000
0.000000 0.000000 0.000000
0.000000 0.000000 0.000000
0.000000 0.000000 0.000000
0.047211 0.000000 0.000000
0.108626 0.000000 0.000000
0.150233 0.000000 0.000000
0.195559 0.000000 0.000000
0.248408 0.000000 0.000000
0.307852 0.000000 0.000000
0.370183 0.000000 0.000000
0.439746 0.000000 0.000000
0.526967 0.000000 0.000000
0.612617 0.000000 0.006229
0.702637 0.000000 0.042537
0.801465 0.000000 0.059506
0.883135 0.000000 0.089545
0.953946 0.000000 0.123532
1.000000 0.000000 0.172489
1.000000 0.000000 0.216552
1.000000 0.153434 0.272697
1.000000 0.307920 0.337140
1.000000 0.411876 0.401425
1.000000 0.501573 0.471027
1.000000 0.600421 0.543562
1.000000 0.685181 0.613127
1.000000 0.748186 0.678930
1.000000 0.801707 0.737006
1.000000 0.849346 0.795658
1.000000 0.884857 0.835395
1.000000 0.910248 0.871225
1.000000 0.933707 0.905599
1.000000 0.953980 0.936571
0.000000 0.000000 0.000000
0.000000 0.000000 0.000000
0.000000 0.000000 0.000000
0.000000 0.000000 0.000000
0.055436 0.000000 0.000000
0.114140 0.000000 0.000000
0.157508 0.000000 0.000000
0.204120 0.000000 0.000000
0.257553 0.000000 0.000000
0.320541 0.000000 0.000000
0.379497 0.000000 0.000000
0.442697 0.000000 0.000000
0.536835 0.000000 0.000000
0.612885 0.000000 0.006158
0.706085 0.000000 0.041673
0.801721 0.000000 0.059894
0.883042 0.000000 0.089183
0.953848 0.000000 0.123336
1.000000 0.000000 0.175191
1.000000 0.000000 0.216429
1.000000 0.153434 0.272697
1.000000 0.311812 0.336990
1.000000 0.411876 0.401425
1.000000 0.501573 0.471027
1.000000 0.600421 0.543562
1.000000 0.685181 0.613127
1.000000 0.748186 0.678930
1.000000 0.801707 0.737006
1.000000 0.849346 0.795658
1.000000 0.884857 0.835395
1.000000 0.910248 0.871225
1.000000 0.933707 0.905599
1.000000 0.953980 0.936571
0.000000 0.048658 0.000000
0.000000 0.048268 0.000000
0.000000 0.047664 0.000000
0.000000 0.049444 0.000000
0.053483 0.048146 0.000000
0.124196 0.000000 0.000000
0.177033 0.000000 0.000000
0.224110 0.000000 0.000000
0.270311 0.000000 0.000000
0.330454 0.000000 0.000000
0.393782 0.000000 0.000000
0.454047 0.000000 0.000000
0.540789 0.000000 0.000000
0.620397 0.000000 0.008301
0.709811 0.000000 0.041478
0.802255 0.000000 0.060889
0.886607 0.000000 0.090602
0.956595 0.000000 0.125206
1.000000 0.000000 0.174967
1.000000 0.000000 0.219731
1.000000 0.166711 0.272416
1.000000 0.311812 0.336990
1.000000 0.415223 0.401280
1.000000 0.501573 0.471027
1.000000 0.600421 0.543562
1.000000 0.685181 0.613127
1.000000 0.748186 0.678930
1.000000 0.801707 0.737006
1.000000 0.849346 0.795658
1.000000 0.884857 0.835395
1.000000 0.910248 0.871225
1.000000 0.933707 0.905599
1.000000 0.953980 0.936571
0.000000 0.082483 0.000000
0.000000 0.083780 0.000000
0.000000 0.086683 0.000000
0.000000 0.088650 0.000000
0.000000 0.095413 0.000000
0.124278 0.077880 0.000000
0.192751 0.041991 0.000000
0.247734 0.000000 0.000000
0.292219 0.000000 0.000000
0.340600 0.000000 0.000000
0.401571 0.000000 0.000000
0.463047 0.000000 0.000000
0.544794 0.000000 0.000000
0.625082 0.000000 0.013895
0.710065 0.000000 0.041082
0.806847 0.000000 0.063227
0.886975 0.000000 0.091786
0.956374 0.000000 0.124765
1.000000 0.000000 0.177698
1.000000 0.000000 0.219606
1.000000 0.174182 0.274662
1.000000 0.319532 0.336685
1.000000 0.415832 0.406982
1.000000 0.504657 0.470888
1.000000 0.603310 0.543428
1.000000 0.685181 0.613127
1.000000 0.748186 0.678930
1.000000 0.801707 0.737006
1.000000 0.849346 0.795658
1.000000 0.884857 0.835395
1.000000 0.910248 0.871225
1.000000 0.933707 0.905599
1.000000 0.953980 0.936571
0.000000 0.123307 0.000000
0.000000 0.124221 0.000000
0.000000 0.128199 0.000000
0.000000 0.132898 0.000000
0.000000 0.143281 0.000000
0.084745 0.141968 0.000000
0.196023 0.119635 0.000000
0.261102 0.085235 0.000000
0.314633 0.023430 0.000000
0.364876 0.000000 0.000000
0.412253 0.000000 0.000000
0.478345 0.000000 0.000000
0.558419 0.000000 0.000000
0.635809 0.000000 0.000000
0.714048 0.000000 0.040323
0.811371 0.000000 0.065018
0.890343 0.000000 0.092687
0.958918 0.000000 0.126368
1.000000 0.000000 0.177330
1.000000 0.000000 0.222697
1.000000 0.191678 0.274218
1.000000 0.323674 0.339069
1.000000 0.419175 0.406838
1.000000 0.505927 0.471360
1.000000 0.603310 0.543428
1.000000 0.685181 0.613127
1.000000 0.748186 0.678930
1.000000 0.801707 0.737006
1.000000 0.849346 0.795658
1.000000 0.884857 0.835395
1.000000 0.910248 0.871225
1.000000 0.933707 0.905599
1.000000 0.953980 0.936571
0.000000 0.165395 0.000000
0.000000 0.167835 0.000000
0.000000 0.173329 0.000000
0.000000 0.177326 0.000000
0.000000 0.186749 0.000000
0.000000 0.195509 0.000000
0.168737 0.190222 0.000000
0.270023 0.161447 0.000000
0.325866 0.127153 0.000000
0.388120 0.089136 0.000000
0.441004 0.000000 0.000000
0.495185 0.000000 0.000000
0.576561 0.000000 0.000000
0.646876 0.000000 0.000000
0.722865 0.000000 0.042028
0.815536 0.000000 0.065503
0.891172 0.000000 0.095655
0.961304 0.000000 0.127796
1.000000 0.000000 0.178322
1.000000 0.000000 0.222289
1.000000 0.207898 0.273748
1.000000 0.327949 0.339095
1.000000 0.422516 0.406693
1.000000 0.508994 0.471221
1.000000 0.606832 0.543547
1.000000 0.687604 0.613026
1.000000 0.748186 0.678930
1.000000 0.801707 0.737006
1.000000 0.849346 0.795658
1.000000 0.884857 0.835395
1.000000 0.910248 0.871225
1.000000 0.933707 0.905599
1.000000 0.953980 0.936571
0.000000 0.212770 0.000000
0.000000 0.212926 0.000000
0.000000 0.221423 0.000000
0.000000 0.227719 0.000000
0.000000 0.239456 0.000000
0.000000 0.246735 0.000000
0.068025 0.240231 0.000000
0.244849 0.237629 0.000000
0.338007 0.201735 0.000000
0.405865 0.168130 0.000000
0.462091 0.137009 0.000000
0.523634 0.088932 0.000000
0.595411 0.000000 0.000000
0.665979 0.000000 0.000000
0.734259 0.000000 0.037114
0.820131 0.000000 0.066336
0.900660 0.000000 0.097374
0.965950 0.000000 0.130007
1.000000 0.000000 0.179081
1.000000 0.000000 0.223472
1.000000 0.223870 0.275518
1.000000 0.339245 0.338618
1.000000 0.426409 0.406759
1.000000 0.512062 0.471080
1.000000 0.609718 0.543411
1.000000 0.687604 0.613026
1.000000 0.748186 0.678930
1.000000 0.801707 0.737006
1.000000 0.850404 0.795632
1.000000 0.884973 0.836852
1.000000 0.910248 0.871225
1.000000 0.933707 0.905599
1.000000 0.953980 0.936571
0.000000 0.265991 0.000000
0.000000 0.266640 0.000000
0.000000 0.274929 0.000000
0.000000 0.283513 0.000000
0.000000 0.293025 0.000000
0.000000 0.298386 0.000000
0.000000 0.304768 0.000000
0.141239 0.300628 0.000000
0.297536 0.295321 0.000000
0.411594 0.254528 0.000000
0.481143 0.228012 0.000000
0.545631 0.205268 0.000000
0.610625 0.164641 0.000000
0.682816 0.082497 0.000000
0.756774 0.000000 0.022247
0.832171 0.000000 0.067698
0.909545 0.000000 0.098174
0.972596 0.000000 0.133093
1.000000 0.000000 0.182735
1.000000 0.106412 0.228014
1.000000 0.248508 0.278918
1.000000 0.347311 0.343444
1.000000 0.433362 0.409330
1.000000 0.515437 0.473912
1.000000 0.612912 0.546328
1.000000 0.690018 0.612925
1.000000 0.750055 0.678868
1.000000 0.803113 0.736970
1.000000 0.850404 0.795632
1.000000 0.884973 0.836852
1.000000 0.910248 0.871225
1.000000 0.933707 0.905599
1.000000 0.953980 0.936571
0.000000 0.317484 0.000000
0.000000 0.324768 0.000000
0.000000 0.335429 0.000000
0.000000 0.342317 0.000000
0.000000 0.351653 0.000000
0.000000 0.358147 0.000000
0.000000 0.364508 0.000000
0.000000 0.367107 0.000000
0.179187 0.365335 0.000000
0.376321 0.353161 0.000000
0.483002 0.320857 0.000000
0.557015 0.296582 0.000000
0.641352 0.266352 0.000000
0.697362 0.232710 0.000000
0.773739 0.177185 0.000000
0.852423 0.000000 0.057928
0.915050 0.000000 0.098843
0.974051 0.000000 0.135490
1.000000 0.000000 0.185591
1.000000 0.181381 0.230017
1.000000 0.275811 0.280132
1.000000 0.366397 0.345406
1.000000 0.443323 0.408878
1.000000 0.525251 0.473724
1.000000 0.615805 0.546193
1.000000 0.692695 0.615870
1.000000 0.750282 0.681722
1.000000 0.803113 0.736970
1.000000 0.850404 0.795632
1.000000 0.885731 0.836840
1.000000 0.910248 0.871225
1.000000 0.934272 0.905587
1.000000 0.953980 0.936571
0.000000 0.383667 0.000000
0.000000 0.391166 0.000000
0.000000 0.401986 0.000000
0.000000 0.409993 0.000000
0.000000 0.416242 0.000000
0.000000 0.426183 0.000000
0.000000 0.436076 0.000000
0.000000 0.437691 0.000000
0.000000 0.440750 0.000000
0.239389 0.439103 0.000000
0.438600 0.430062 0.000000
0.556050 0.389585 0.000000
0.651474 0.359142 0.000000
0.720829 0.332229 0.000000
0.786003 0.306920 0.000000
0.864591 0.254093 0.000000
0.922311 0.170958 0.098899
0.976756 0.142394 0.139971
1.000000 0.182046 0.190562
1.000000 0.239813 0.235501
1.000000 0.310438 0.285498
1.000000 0.388980 0.352346
1.000000 0.457554 0.408692
1.000000 0.535071 0.479264
1.000000 0.622791 0.546434
1.000000 0.695091 0.615771
1.000000 0.752141 0.681661
1.000000 0.804516 0.736935
1.000000 0.851459 0.795606
1.000000 0.885731 0.836840
1.000000 0.911524 0.871203
1.000000 0.934272 0.905587
1.000000 0.954465 0.936559
0.000000 0.469226 0.000000
0.000000 0.474202 0.000000
0.000000 0.481221 0.000000
0.000000 0.489030 0.000000
0.000000 0.495211 0.000000
0.000000 0.504525 0.000000
0.000000 0.511588 0.000000
0.000000 0.519406 0.000000
0.000000 0.519845 0.000000
0.000000 0.525011 0.000000
0.324430 0.518869 0.000000
0.509076 0.513369 0.000000
0.648045 0.470931 0.000000
0.725918 0.447075 0.000000
0.801859 0.420921 0.000000
0.869290 0.391255 0.000000
0.924089 0.336840 0.078174
0.975821 0.284551 0.140196
1.000000 0.278972 0.193507
1.000000 0.302534 0.238128
1.000000 0.354365 0.287984
1.000000 0.414519 0.353978
1.000000 0.474314 0.410771
1.000000 0.553856 0.481384
1.000000 0.634594 0.548942
1.000000 0.700413 0.615875
1.000000 0.757667 0.681487
1.000000 0.805916 0.736901
1.000000 0.852510 0.795582
1.000000 0.886489 0.836829
1.000000 0.912191 0.872840
1.000000 0.934353 0.906543
1.000000 0.954531 0.937319
0.000000 0.549337 0.000000
0.000000 0.551511 0.000000
0.000000 0.557612 0.000000
0.000000 0.564479 0.000000
0.000000 0.570801 0.000000
0.000000 0.580867 0.000000
0.000000 0.584699 0.000000
0.000000 0.596316 0.000000
0.000000 0.599173 0.000000
0.000000 0.599288 0.000000
0.020634 0.603273 0.000000
0.403627 0.596912 0.000000
0.603110 0.585695 0.000000
0.713114 0.552341 0.000000
0.800363 0.524782 0.000000
0.872455 0.498000 0.000000
0.928178 0.466923 0.000000
0.972681 0.427927 0.135180
1.000000 0.392460 0.201566
1.000000 0.378362 0.241070
1.000000 0.404102 0.294411
1.000000 0.447531 0.360924
1.000000 0.498029 0.412723
1.000000 0.570573 0.484112
1.000000 0.643724 0.554671
1.000000 0.707721 0.618640
1.000000 0.761304 0.681377
1.000000 0.807495 0.739251
1.000000 0.853704 0.797352
1.000000 0.886489 0.836829
1.000000 0.912819 0.872829
1.000000 0.935475 0.906521
1.000000 0.954531 0.937319
0.000000 0.627216 0.000000
0.000000 0.631943 0.000000
0.000000 0.637667 0.000000
0.000000 0.640877 0.000000
0.000000 0.648461 0.000000
0.000000 0.653600 0.000000
0.000000 0.659889 0.000000
0.000000 0.667327 0.000000
0.000000 0.674625 0.000000
0.000000 0.680704 0.000000
0.000000 0.680001 0.000000
0.240849 0.680613 0.000000
0.496391 0.672493 0.000000
0.677041 0.662809 0.000000
0.792816 0.625115 0.000000
0.870330 0.595350 0.000000
0.922001 0.578279 0.000000
0.964595 0.550298 0.108364
1.000000 0.513986 0.197454
1.000000 0.471960 0.245630
1.000000 0.466731 0.300019
1.000000 0.489604 0.361520
1.000000 0.535313 0.419794
1.000000 0.599377 0.489008
1.000000 0.658524 0.557350
1.000000 0.714933 0.621424
1.000000 0.765607 0.684457
1.000000 0.810279 0.739185
1.000000 0.855788 0.797305
1.000000 0.887247 0.836818
1.000000 0.912819 0.872829
1.000000 0.935475 0.906521
1.000000 0.954531 0.937319
0.000000 0.712657 0.000000
0.000000 0.714175 0.000000
0.000000 0.715447 0.000000
0.000000 0.720440 0.000000
0.000000 0.725656 0.000000
0.000000 0.729216 0.000000
0.000000 0.733545 0.000000
0.000000 0.738882 0.000000
0.000000 0.743637 0.000000
0.000000 0.749712 0.000000
0.000000 0.754755 0.000000
0.000000 0.752822 0.000000
0.381435 0.751210 0.000000
0.582846 0.743615 0.000000
0.745290 0.733511 0.000000
0.853495 0.698594 0.000000
0.907989 0.681121 0.000000
0.950901 0.663881 0.082095
0.991022 0.632827 0.204449
1.000000 0.598754 0.258443
1.000000 0.559945 0.308221
1.000000 0.559899 0.372211
1.000000 0.582546 0.429328
1.000000 0.628470 0.496967
1.000000 0.679049 0.563165
1.000000 0.727693 0.627703
1.000000 0.773040 0.689899
1.000000 0.815510 0.742183
1.000000 0.857998 0.799047
1.000000 0.889552 0.838867
1.000000 0.913446 0.872819
1.000000 0.936589 0.906501
1.000000 0.955014 0.937306
0.000000 0.776672 0.131239
0.000000 0.777801 0.132041
0.000000 0.781019 0.121804
0.000000 0.782363 0.122854
0.000000 0.786868 0.118039
0.000000 0.788865 0.103562
0.000000 0.794156 0.092115
0.000000 0.797818 0.096632
0.000000 0.801809 0.101846
0.000000 0.806417 0.069925
0.000000 0.808986 0.000000
0.000000 0.810230 0.000000
0.182513 0.806650 0.000000
0.499043 0.806009 0.000000
0.675395 0.798104 0.000000
0.814117 0.788925 0.000000
0.895861 0.760643 0.000000
0.936425 0.746059 0.080678
0.974576 0.727267 0.205499
1.000000 0.705834 0.256701
1.000000 0.677879 0.327439
1.000000 0.653426 0.393670
1.000000 0.643085 0.441701
1.000000 0.665464 0.498688
1.000000 0.703497 0.568607
1.000000 0.741463 0.630614
1.000000 0.782573 0.693154
1.000000 0.822443 0.744383
1.000000 0.862435 0.799274
1.000000 0.891046 0.838848
1.000000 0.914890 0.875070
1.000000 0.937143 0.906491
1.000000 0.955494 0.937294
0.000000 0.832808 0.227239
0.000000 0.832989 0.227443
0.000000 0.833535 0.224623
0.000000 0.834075 0.225245
0.000000 0.837134 0.219182
0.000000 0.838189 0.216973
0.000000 0.843756 0.211373
0.000000 0.847806 0.210448
0.000000 0.852362 0.210635
0.000000 0.854872 0.214936
0.000000 0.853618 0.204328
0.000000 0.854829 0.192753
0.000000 0.854475 0.181559
0.391258 0.851757 0.167004
0.587723 0.846473 0.143358
0.758048 0.841794 0.147440
0.863882 0.830362 0.137934
0.917195 0.813578 0.116912
0.961038 0.796826 0.222002
0.992987 0.779840 0.282855
1.000000 0.763416 0.339200
1.000000 0.737983 0.411768
1.000000 0.713608 0.457527
1.000000 0.706468 0.509961
1.000000 0.729564 0.580359
1.000000 0.761512 0.639848
1.000000 0.794300 0.695688
1.000000 0.831334 0.747280
1.000000 0.865565 0.800995
1.000000 0.893393 0.840249
1.000000 0.916759 0.875042
1.000000 0.938865 0.907415
1.000000 0.956924 0.937261
0.000000 0.876379 0.335325
0.000000 0.876529 0.332216
0.000000 0.877102 0.333227
0.000000 0.879162 0.333909
0.000000 0.879730 0.328207
0.000000 0.880552 0.329763
0.000000 0.884671 0.328128
0.000000 0.885822 0.320419
0.000000 0.888326 0.322586
0.000000 0.891054 0.325651
0.000000 0.893874 0.326313
0.000000 0.893049 0.318004
0.000000 0.891455 0.311624
0.245793 0.891157 0.298653
0.523559 0.886200 0.286577
0.694709 0.883104 0.276487
0.812409 0.876718 0.275699
0.897026 0.870702 0.271384
0.943627 0.853257 0.252853
0.977059 0.837859 0.296804
1.000000 0.826397 0.364635
1.000000 0.811402 0.428881
1.000000 0.788283 0.485211
1.000000 0.769261 0.527380
1.000000 0.766939 0.589493
1.000000 0.783648 0.651999
1.000000 0.809405 0.701279
1.000000 0.841888 0.751715
1.000000 0.872271 0.805021
1.000000 0.897910 0.843641
1.000000 0.918591 0.876602
1.000000 0.940209 0.907623
1.000000 0.957592 0.938073
0.000000 0.917821 0.413683
0.000000 0.917911 0.413961
0.000000 0.918089 0.414518
0.000000 0.918176 0.414797
0.000000 0.918442 0.412392
0.000000 0.919906 0.413337
0.000000 0.920230 0.411231
0.000000 0.920690 0.406472
0.000000 0.922340 0.405397
0.000000 0.925025 0.407754
0.000000 0.926626 0.408006
0.000000 0.928123 0.409291
0.000000 0.925778 0.400508
0.000000 0.923871 0.394464
0.437553 0.923479 0.393279
0.638893 0.917839 0.385629
0.759092 0.913113 0.379196
0.851980 0.908758 0.375379
0.915401 0.903646 0.376709
0.961262 0.890867 0.355881
0.988098 0.880928 0.404791
1.000000 0.868950 0.462336
1.000000 0.853053 0.505943
1.000000 0.834226 0.558375
1.000000 0.818089 0.612150
1.000000 0.816276 0.661872
1.000000 0.832107 0.710495
1.000000 0.856327 0.763058
1.000000 0.877977 0.806714
1.000000 0.901658 0.845006
1.000000 0.921721 0.877666
1.000000 0.942418 0.908536
1.000000 0.958523 0.938054
0.000000 0.943356 0.498122
0.000000 0.943356 0.498122
0.000000 0.943418 0.492053
0.000000 0.943502 0.492643
0.000000 0.943502 0.492643
0.000000 0.944597 0.493698
0.000000 0.944679 0.491120
0.000000 0.944782 0.492017
0.000000 0.946831 0.490427
0.000000 0.947007 0.489397
0.000000 0.948087 0.492684
0.000000 0.949005 0.496988
0.000000 0.949520 0.495444
0.081770 0.946723 0.485625
0.399594 0.944147 0.479748
0.589724 0.942210 0.472203
0.728746 0.937069 0.461719
0.815710 0.934422 0.465820
0.887313 0.929965 0.458583
0.941766 0.926625 0.467389
0.977255 0.916846 0.440499
0.998673 0.908021 0.498416
1.000000 0.899024 0.542510
1.000000 0.886405 0.581923
1.000000 0.873692 0.635930
1.000000 0.858397 0.678639
1.000000 0.857802 0.726602
1.000000 0.870059 0.770731
1.000000 0.887794 0.812402
1.000000 0.907869 0.848027
1.000000 0.926211 0.878944
1.000000 0.945197 0.910370
1.000000 0.960027 0.939503
0.000000 0.964959 0.588100
0.000000 0.964959 0.588100
0.000000 0.964959 0.588100
0.000000 0.964963 0.588406
0.000000 0.964979 0.585903
0.000000 0.964979 0.586210
0.000000 0.965760 0.587013
0.000000 0.965751 0.585143
0.000000 0.965712 0.586387
0.000000 0.967132 0.585900
0.000000 0.966968 0.581952
0.000000 0.967420 0.584756
0.000000 0.967609 0.585527
0.227654 0.968146 0.587288
0.417823 0.965218 0.580953
0.543274 0.962514 0.571789
0.667426 0.960775 0.567641
0.776194 0.956432 0.563707
0.854340 0.953293 0.552018
0.912548 0.949805 0.554392
0.957555 0.947008 0.562676
0.988748 0.938419 0.538571
1.000000 0.930652 0.580095
1.000000 0.922164 0.619346
1.000000 0.911281 0.668558
1.000000 0.900365 0.704292
1.000000 0.888671 0.739328
1.000000 0.888836 0.777600
1.000000 0.899944 0.818320
1.000000 0.914904 0.852629
1.000000 0.931043 0.881067
1.000000 0.947959 0.911379
1.000000 0.962442 0.940258
0.000000 0.983931 0.660487
0.000000 0.983931 0.660487
0.000000 0.983931 0.660487
0.000000 0.983888 0.660791
0.000000 0.983888 0.660791
0.000000 0.983799 0.661399
0.000000 0.983763 0.658810
0.000000 0.983666 0.659423
0.000000 0.984102 0.657711
0.000000 0.983935 0.658640
0.000000 0.983577 0.657624
0.000000 0.983814 0.656593
0.134450 0.984396 0.659396
0.330397 0.983967 0.660389
0.459807 0.982926 0.661791
0.562764 0.981557 0.650675
0.648553 0.978558 0.648100
0.735903 0.975423 0.646454
0.815927 0.972977 0.640411
0.883965 0.969654 0.638427
0.930602 0.966705 0.634520
0.968460 0.964278 0.639849
0.998193 0.957303 0.621254
1.000000 0.951081 0.657527
1.000000 0.944096 0.702363
1.000000 0.936850 0.734363
1.000000 0.926120 0.764994
1.000000 0.914531 0.791771
1.000000 0.915240 0.825651
1.000000 0.926122 0.855935
1.000000 0.938769 0.883612
1.000000 0.952793 0.913396
1.000000 0.965536 0.940936
0.000000 0.995805 0.724070
0.000000 0.995805 0.724070
0.000000 0.995805 0.724070
0.000000 0.995726 0.724336
0.000000 0.995726 0.724336
0.000000 0.995565 0.724868
0.000000 0.995565 0.724868
0.094091 0.995409 0.722980
0.142199 0.995774 0.723501
0.194191 0.995599 0.724038
0.263589 0.995234 0.725114
0.317296 0.995302 0.724053
0.389074 0.994590 0.723569
0.463697 0.994919 0.726889
0.535960 0.994121 0.730240
0.603896 0.993252 0.725633
0.653379 0.992216 0.718696
0.719118 0.989530 0.716566
0.789470 0.987497 0.716041
0.857318 0.984667 0.711022
0.911039 0.981875 0.707035
0.946934 0.980004 0.706761
0.980906 0.977807 0.712384
1.000000 0.972495 0.699877
1.000000 0.967756 0.733941
1.000000 0.961453 0.760771
1.000000 0.954464 0.783878
1.000000 0.946109 0.809441
1.000000 0.940211 0.839073
1.000000 0.939714 0.863416
1.000000 0.946778 0.888348
1.000000 0.958332 0.915423
1.000000 0.969452 0.943046
0.417248 1.000000 0.785352
0.417248 1.000000 0.785352
0.417248 1.000000 0.785352
0.424742 1.000000 0.785560
0.424742 1.000000 0.785560
0.424742 1.000000 0.785560
0.432078 1.000000 0.785767
0.446307 1.000000 0.786183
0.460240 1.000000 0.784780
0.473432 1.000000 0.785201
0.486181 1.000000 0.785623
0.510689 1.000000 0.784652
0.539061 1.000000 0.785723
0.575790 1.000000 0.785427
0.609573 1.000000 0.787178
0.644812 1.000000 0.787629
0.679270 1.000000 0.786120
0.725307 0.999885 0.783119
0.781056 0.997328 0.781497
0.836150 0.995752 0.779463
0.889997 0.993319 0.775706
0.927341 0.991308 0.770255
0.962995 0.989635 0.771224
0.991155 0.987226 0.777291
1.000000 0.985243 0.773737
1.000000 0.979043 0.789558
1.000000 0.974509 0.809328
1.000000 0.969578 0.828500
1.000000 0.962683 0.851792
1.000000 0.956957 0.872163
1.000000 0.956576 0.892956
1.000000 0.965382 0.919972
1.000000 0.974204 0.944490
0.588207 1.000000 0.827727
0.588207 1.000000 0.827727
0.588207 1.000000 0.827727
0.588207 1.000000 0.827727
0.588207 1.000000 0.827727
0.588207 1.000000 0.827727
0.596690 1.000000 0.828087
0.596690 1.000000 0.828087
