Assets/Lutify-Free-LUTs-Pack/Lutify Free LUTs Pack/Colour Film Boost Pro - Film Boost 10/Lutify.me-FilmBoost10-FLog2-to-Rec709.cube
# Created with: fylm.ai - Colour Grading and Collaboration Software in Cloud 
# Website: https://fylm.ai 
# META
# Option: Gamut compress
# Block 1: IDT | Fujifilm F-Gamut F-Log2
# Block 2: colourMatch | Blending Mode: Normal | {"ColorSpace":0,"CrossCovarianceLimit":50,"ReshapingIterations":1,"PercentSaturationShift":100,"PercentShadingShift":100,"ExtraShading":true,"PercentTint":100,"PercentModified":100}
# Block 3: subtractiveColour | Blending Mode: Normal | {"sliders":{"gainY":0.55,"C":0.3,"M":0.3,"Y":0.3}}
# Block 4: LUT | Filmic Curve Response: Low Contrast 2 (100%)
# Block 5: logPrimaries | Blending Mode: Normal | {"wheels":{"shadows":{"Y":"0","R":"1","G":"1","B":"1"},"midtones":{"Y":"0","R":"1","G":"1","B":"1"},"highlights":{"Y":"0","R":"1","G":"1","B":"1"},"offset":{"Y":"0","R":"1","G":"1","B":"1"}},"sliders":{"shadows":{"Y":0,"R":-0.085,"G":0.024,"B":0.134},"midtones":{"Y":0,"R":0,"G":-0.023,"B":0},"highlights":{"Y":0,"R":0,"G":0,"B":0},"offset":{"Y":0,"R":0.012,"G":-0.012,"B":0}}}
# Block 6: HSL | Blending Mode: Normal | {"hue":{"Reds":0,"Yellows":0,"Greens":0,"Cyans":0,"Blues":0,"Magentas":0},"saturation":{"Reds":1,"Yellows":1,"Greens":1,"Cyans":1,"Blues":1,"Magentas":1},"luminance":{"Reds":0.9,"Yellows":0.9,"Greens":0.9,"Cyans":0.9,"Blues":0.9,"Magentas":0.9},"lum_sat":{"Blacks":1,"Shadows":1,"Midtones":1,"Highlights":1,"Whites":1},"sat_sat":{"10":1,"20":1,"30":1,"40":1,"50":1}}
# Block 7: ODT | Rec709
TITLE "Lutify.me-FilmBoost10-FLog2-to-Rec709" 
LUT_3D_SIZE 9
0.000000 0.000000 0.000000
0.000000 0.000000 0.000000
0.115635 0.000000 0.000000
0.261777 0.000000 0.000000
0.497057 0.000000 0.000000
0.808981 0.000000 0.067644
1.000000 0.047535 0.202584
1.000000 0.496560 0.409163
1.000000 0.766238 0.661124
0.000000 0.000000 0.000000
0.000000 0.000000 0.000000
0.127066 0.000000 0.000000
0.275371 0.000000 0.000000
0.500798 0.000000 0.000000
0.809500 0.000000 0.068689
1.000000 0.085199 0.205735
1.000000 0.496560 0.409163
1.000000 0.766238 0.661124
0.000000 0.092890 0.000000
0.000000 0.099088 0.000000
0.145037 0.090556 0.000000
0.308565 0.000000 0.000000
0.521140 0.000000 0.000000
0.813921 0.000000 0.069892
1.000000 0.126648 0.204974
1.000000 0.500917 0.412332
1.000000 0.766238 0.661124
0.000000 0.229401 0.000000
0.000000 0.241497 0.000000
0.000000 0.255718 0.000000
0.343386 0.223719 0.000000
0.569325 0.133424 0.000000
0.834230 0.000000 0.073956
1.000000 0.198415 0.209721
1.000000 0.510776 0.411811
1.000000 0.768133 0.661079
0.000000 0.453076 0.000000
0.000000 0.463451 0.000000
0.000000 0.478707 0.000000
0.000000 0.492457 0.000000
0.611570 0.445295 0.000000
0.871460 0.370556 0.000000
1.000000 0.342857 0.223677
1.000000 0.548102 0.418854
1.000000 0.776430 0.664540
0.000000 0.727469 0.122753
0.000000 0.730299 0.124109
0.000000 0.735426 0.117912
0.000000 0.746929 0.098703
0.345745 0.752442 0.000000
0.854853 0.714904 0.000000
1.000000 0.653377 0.255447
1.000000 0.646706 0.447441
1.000000 0.791548 0.670863
0.000000 0.900272 0.433807
0.000000 0.900444 0.434380
0.000000 0.902254 0.432477
0.000000 0.905994 0.430247
0.000000 0.905125 0.430624
0.722697 0.897995 0.397647
0.953212 0.879481 0.380423
1.000000 0.839659 0.525909
1.000000 0.842022 0.700574
0.232004 0.980925 0.706915
0.249977 0.980848 0.704526
0.265764 0.980757 0.704816
0.331659 0.980282 0.706269
0.456021 0.980080 0.705083
0.657565 0.976424 0.701454
0.873663 0.968938 0.683876
0.995576 0.959261 0.674480
1.000000 0.940340 0.768226
0.730280 1.000000 0.869488
0.733089 1.000000 0.869635
0.733089 1.000000 0.869635
0.735876 1.000000 0.869781
0.749497 1.000000 0.870516
0.783119 1.000000 0.868096
0.855110 1.000000 0.867206
0.953465 1.000000 0.858688
1.000000 0.996597 0.862319
0.000000 0.000000 0.010233
0.000000 0.000000 0.006462
0.114253 0.000000 0.000000
0.257732 0.000000 0.000000
0.501429 0.000000 0.022378
0.812589 0.000000 0.078113
1.000000 0.051799 0.207687
1.000000 0.496858 0.412076
1.000000 0.766238 0.661124
0.000000 0.000000 0.024825
0.000000 0.000000 0.020885
0.125543 0.000000 0.000000
0.272381 0.000000 0.000000
0.505402 0.000000 0.024339
0.813108 0.000000 0.079305
1.000000 0.085903 0.207448
1.000000 0.496858 0.412076
1.000000 0.766238 0.661124
0.000000 0.092984 0.009353
0.000000 0.099040 0.000000
0.130461 0.104878 0.000000
0.306428 0.000000 0.000000
0.520267 0.000000 0.025800
0.816904 0.000000 0.079054
1.000000 0.127990 0.210167
1.000000 0.500917 0.412332
1.000000 0.766238 0.661124
0.000000 0.229041 0.000000
0.000000 0.245921 0.000000
0.000000 0.266805 0.000000
0.336493 0.241227 0.000000
0.576135 0.137729 0.000000
0.836821 0.000000 0.083795
1.000000 0.204958 0.216693
1.000000 0.511074 0.414730
1.000000 0.768133 0.661079
0.000000 0.453075 0.000000
0.000000 0.466109 0.000000
0.000000 0.486176 0.000000
0.000000 0.500335 0.000000
0.613916 0.463292 0.000000
0.873635 0.372720 0.051040
1.000000 0.343676 0.229720
1.000000 0.548400 0.421812
1.000000 0.776430 0.664540
0.000000 0.727454 0.153855
0.000000 0.730285 0.155204
0.000000 0.738270 0.145360
0.000000 0.748562 0.128977
0.339563 0.754881 0.040625
0.855100 0.720039 0.000000
1.000000 0.653669 0.258248
1.000000 0.646706 0.447441
1.000000 0.791548 0.670863
0.000000 0.900264 0.437117
0.000000 0.900350 0.437403
0.000000 0.902238 0.439090
0.000000 0.905978 0.436842
0.000000 0.905256 0.434194
0.723106 0.898229 0.404555
0.953275 0.879739 0.386820
1.000000 0.839820 0.529108
1.000000 0.842022 0.700574
0.232004 0.980925 0.706915
0.249242 0.980836 0.707202
0.265088 0.980745 0.707490
0.331163 0.980270 0.708932
0.456021 0.980080 0.705083
0.657565 0.976424 0.701454
0.873663 0.968938 0.683876
0.995456 0.959376 0.679902
1.000000 0.940411 0.770309
0.730280 1.000000 0.869488
0.733089 1.000000 0.869635
0.733089 1.000000 0.869635
0.735876 1.000000 0.869781
0.749497 1.000000 0.870516
0.783119 1.000000 0.868096
0.855110 1.000000 0.867206
0.953465 1.000000 0.858688
1.000000 0.996597 0.862319
0.000000 0.000000 0.071990
0.000000 0.000000 0.065313
0.102167 0.000000 0.049823
0.258060 0.000000 0.046913
0.507818 0.000000 0.052770
0.820041 0.000000 0.100314
1.000000 0.060286 0.219932
1.000000 0.497156 0.414997
1.000000 0.766448 0.664129
0.000000 0.000000 0.090766
0.000000 0.000000 0.085936
0.110376 0.000000 0.068141
0.275312 0.000000 0.058530
0.515495 0.000000 0.056377
0.820505 0.000000 0.101644
1.000000 0.103435 0.219435
1.000000 0.497156 0.414997
1.000000 0.766448 0.664129
0.000000 0.086210 0.153177
0.000000 0.096599 0.147633
0.108835 0.124744 0.143276
0.315123 0.000000 0.084525
0.534476 0.000000 0.063577
0.824283 0.000000 0.102339
1.000000 0.138477 0.220635
1.000000 0.501514 0.418170
1.000000 0.766448 0.664129
0.000000 0.234909 0.160504
0.000000 0.250771 0.146137
0.000000 0.284144 0.125153
0.336044 0.280066 0.104555
0.591651 0.147450 0.070284
0.842507 0.000000 0.105366
1.000000 0.206510 0.225921
1.000000 0.511373 0.417658
1.000000 0.768340 0.664084
0.000000 0.452235 0.130566
0.000000 0.464798 0.123426
0.000000 0.495496 0.097079
0.000000 0.525700 0.021337
0.619473 0.493409 0.000000
0.878343 0.377633 0.111127
1.000000 0.345044 0.240017
1.000000 0.548698 0.424779
1.000000 0.776430 0.664540
0.000000 0.727416 0.209504
0.000000 0.730245 0.211010
0.000000 0.740565 0.202366
0.000000 0.753249 0.197603
0.343676 0.758915 0.145936
0.857882 0.724564 0.113789
1.000000 0.658806 0.274843
1.000000 0.647291 0.453598
1.000000 0.791735 0.673798
0.000000 0.900046 0.453112
0.000000 0.900309 0.453972
0.000000 0.902196 0.455646
0.000000 0.905936 0.453357
0.000000 0.908349 0.448521
0.724108 0.898812 0.421861
0.953419 0.880380 0.402871
1.000000 0.839981 0.532313
1.000000 0.842173 0.703330
0.231188 0.980913 0.709579
0.248502 0.980824 0.709864
0.264409 0.980733 0.710150
0.330666 0.980259 0.711581
0.455704 0.980069 0.707733
0.653764 0.976677 0.707262
0.873678 0.968989 0.686787
0.995395 0.959434 0.682600
1.000000 0.940411 0.770309
0.730280 1.000000 0.869488
0.730280 1.000000 0.869488
0.733089 1.000000 0.869635
0.735876 1.000000 0.869781
0.749497 1.000000 0.870516
0.783032 1.000000 0.869253
0.855110 1.000000 0.867206
0.953475 1.000000 0.859981
1.000000 0.996597 0.862319
0.000000 0.000000 0.181702
0.000000 0.000000 0.172312
0.081872 0.000000 0.168046
0.266662 0.000000 0.125689
0.512736 0.000000 0.148563
0.831375 0.000000 0.160154
1.000000 0.103290 0.251547
1.000000 0.498950 0.432724
1.000000 0.766657 0.667125
0.000000 0.000000 0.210380
0.000000 0.000000 0.206017
0.067157 0.000000 0.203042
0.284794 0.000000 0.163914
0.521788 0.000000 0.159274
0.833385 0.000000 0.162920
1.000000 0.113448 0.251408
1.000000 0.498950 0.432724
1.000000 0.766657 0.667125
0.000000 0.065870 0.272815
0.000000 0.076658 0.265736
0.000000 0.094858 0.275502
0.329830 0.000000 0.247566
0.547522 0.000000 0.179144
0.840992 0.000000 0.168508
1.000000 0.146392 0.254927
1.000000 0.503010 0.432931
1.000000 0.766657 0.667125
0.000000 0.211549 0.336641
0.000000 0.234071 0.328536
0.000000 0.283194 0.336803
0.301974 0.322581 0.345848
0.615861 0.184653 0.237674
0.853862 0.000000 0.183949
1.000000 0.216580 0.257209
1.000000 0.513166 0.435421
1.000000 0.768547 0.667079
0.000000 0.459812 0.347198
0.000000 0.472449 0.346132
0.000000 0.499897 0.342276
0.000000 0.556255 0.317922
0.623208 0.544448 0.302231
0.882362 0.406018 0.217395
1.000000 0.353653 0.277148
1.000000 0.550790 0.445795
1.000000 0.776827 0.670485
0.000000 0.727225 0.348298
0.000000 0.730051 0.350530
0.000000 0.740875 0.347129
0.000000 0.763685 0.336123
0.337128 0.776103 0.310881
0.850132 0.750767 0.287591
1.000000 0.667123 0.324946
1.000000 0.648755 0.469129
1.000000 0.791922 0.676724
0.000000 0.899917 0.499704
0.000000 0.900179 0.500572
0.000000 0.902066 0.502219
0.000000 0.905827 0.493165
0.000000 0.911505 0.498800
0.726569 0.900314 0.467195
0.952401 0.882380 0.448354
1.000000 0.840785 0.548421
1.000000 0.842325 0.706074
0.227887 0.980866 0.720085
0.245524 0.980776 0.720362
0.261683 0.980686 0.720639
0.328679 0.980211 0.722027
0.446072 0.980119 0.720484
0.654329 0.976816 0.715884
0.871956 0.969295 0.698207
0.995150 0.959664 0.693304
1.000000 0.940554 0.772145
0.730186 1.000000 0.870652
0.730186 1.000000 0.870652
0.732995 1.000000 0.870797
0.735783 1.000000 0.870941
0.749407 1.000000 0.871668
0.782859 1.000000 0.871543
0.855204 1.000000 0.868487
0.953184 1.000000 0.861682
1.000000 0.996618 0.863446
0.000000 0.035627 0.383046
0.000000 0.039838 0.383618
0.000000 0.043753 0.390373
0.241173 0.000000 0.385482
0.544743 0.000000 0.314814
0.838360 0.000000 0.330080
1.000000 0.147952 0.359322
1.000000 0.503149 0.475373
1.000000 0.767494 0.679015
0.000000 0.047733 0.393560
0.000000 0.052531 0.396845
0.000000 0.058989 0.404929
0.239710 0.000000 0.402610
0.555529 0.000000 0.334537
0.840243 0.000000 0.338256
1.000000 0.162588 0.359520
1.000000 0.506450 0.475225
1.000000 0.767494 0.679015
0.000000 0.079927 0.426301
0.000000 0.086324 0.427001
0.000000 0.091688 0.432804
0.239439 0.073514 0.440445
0.590572 0.000000 0.383974
0.846775 0.000000 0.347443
1.000000 0.182323 0.362435
1.000000 0.507512 0.478585
1.000000 0.767494 0.679015
0.000000 0.203834 0.493974
0.000000 0.212969 0.498128
0.000000 0.231628 0.505792
0.127775 0.269013 0.533691
0.641678 0.200588 0.502966
0.865673 0.000000 0.388417
1.000000 0.243301 0.371451
1.000000 0.520651 0.477988
1.000000 0.769376 0.678966
0.000000 0.438907 0.569582
0.000000 0.451797 0.570574
0.000000 0.481553 0.586031
0.000000 0.555551 0.600116
0.600080 0.588640 0.610995
0.893448 0.448935 0.478854
1.000000 0.381101 0.392539
1.000000 0.554693 0.485956
1.000000 0.777422 0.679332
0.000000 0.731252 0.596362
0.000000 0.733803 0.595538
0.000000 0.743752 0.599112
0.000000 0.769982 0.594285
0.274422 0.797231 0.592869
0.845415 0.782374 0.575191
0.995691 0.689101 0.454564
1.000000 0.655702 0.510251
1.000000 0.792672 0.688327
0.000000 0.903711 0.613270
0.000000 0.903891 0.610504
0.000000 0.905643 0.611815
0.000000 0.906738 0.616953
0.000000 0.912803 0.612117
0.710488 0.907813 0.602404
0.948493 0.893912 0.581351
1.000000 0.845876 0.584582
1.000000 0.843084 0.719604
0.218614 0.980736 0.747641
0.237209 0.980647 0.747893
0.254105 0.980556 0.748145
0.323223 0.980082 0.749407
0.441889 0.979969 0.752549
0.656150 0.977883 0.746157
0.869193 0.971690 0.734369
0.994340 0.960413 0.726912
1.000000 0.940910 0.782289
0.729906 1.000000 0.874088
0.729906 1.000000 0.874088
0.732717 1.000000 0.874228
0.735507 1.000000 0.874368
0.749138 1.000000 0.875071
0.782520 1.000000 0.876018
0.854145 1.000000 0.874720
0.953234 1.000000 0.866690
1.000000 0.996701 0.867897
0.000000 0.142050 0.647564
0.000000 0.145148 0.651343
0.000000 0.153056 0.652091
0.000000 0.159694 0.666999
0.534617 0.046780 0.656179
0.872777 0.000000 0.575144
1.000000 0.185610 0.591867
1.000000 0.529309 0.594840
1.000000 0.772272 0.719125
0.000000 0.148692 0.651010
0.000000 0.151880 0.654280
0.000000 0.158680 0.655053
0.000000 0.169642 0.671630
0.538087 0.076470 0.663668
0.877338 0.000000 0.582683
1.000000 0.197726 0.595524
1.000000 0.529309 0.594840
1.000000 0.772272 0.719125
0.000000 0.167146 0.654173
0.000000 0.169152 0.657218
0.000000 0.177797 0.663858
0.000000 0.186308 0.678997
0.537477 0.125825 0.676152
0.884384 0.000000 0.602148
1.000000 0.220607 0.596139
1.000000 0.532924 0.598089
1.000000 0.772272 0.719125
0.000000 0.224332 0.681590
0.000000 0.230599 0.684269
0.000000 0.238176 0.690977
0.000000 0.251960 0.705609
0.516021 0.235230 0.707273
0.900331 0.000000 0.640916
1.000000 0.276903 0.607871
1.000000 0.547533 0.598621
1.000000 0.774317 0.721834
0.000000 0.431845 0.746225
0.000000 0.443326 0.748609
0.000000 0.450774 0.753673
0.000000 0.472205 0.764815
0.440101 0.524739 0.778278
0.907046 0.471492 0.749486
1.000000 0.408045 0.635522
1.000000 0.584124 0.612424
1.000000 0.780390 0.722012
0.000000 0.708013 0.792823
0.000000 0.710760 0.794926
0.000000 0.721940 0.798168
0.000000 0.758351 0.804204
0.000000 0.799273 0.815402
0.826082 0.812273 0.824084
0.980272 0.731181 0.735247
1.000000 0.678630 0.636542
1.000000 0.795115 0.724716
0.000000 0.908072 0.810962
0.000000 0.908318 0.809443
0.000000 0.908697 0.808297
0.000000 0.909737 0.809451
0.000000 0.916637 0.809609
0.708158 0.916784 0.806716
0.937174 0.908764 0.794282
1.000000 0.858148 0.706232
1.000000 0.846334 0.750595
0.000000 0.982525 0.816012
0.000000 0.982442 0.816197
0.135857 0.982273 0.816567
0.215688 0.982020 0.815266
0.415185 0.980410 0.818261
0.653171 0.978546 0.818148
0.870237 0.973344 0.810297
0.990863 0.965909 0.802200
1.000000 0.942510 0.805353
0.730346 1.000000 0.884122
0.730346 1.000000 0.884122
0.730346 1.000000 0.884122
0.733123 1.000000 0.884249
0.746697 1.000000 0.884886
0.781915 1.000000 0.886695
0.851983 1.000000 0.885285
0.952477 1.000000 0.880920
1.000000 0.996929 0.879593
0.000000 0.334840 0.856443
0.000000 0.337649 0.856685
0.000000 0.343516 0.857508
0.000000 0.347723 0.860646
0.366663 0.358975 0.863232
0.843696 0.315284 0.854490
1.000000 0.215229 0.807346
1.000000 0.544878 0.796710
1.000000 0.784992 0.798771
0.000000 0.337461 0.856341
0.000000 0.342951 0.856476
0.000000 0.346208 0.857401
0.000000 0.350486 0.860538
0.365565 0.362248 0.863308
0.843487 0.319587 0.854586
1.000000 0.220771 0.809654
1.000000 0.548554 0.796787
1.000000 0.784992 0.798771
0.000000 0.348115 0.855917
0.000000 0.348424 0.856434
0.000000 0.351644 0.857184
0.000000 0.358881 0.860206
0.362602 0.368652 0.865217
0.842141 0.336410 0.856736
1.000000 0.238641 0.810076
1.000000 0.548501 0.799093
1.000000 0.784992 0.798771
0.000000 0.372593 0.862473
0.000000 0.375979 0.858927
0.000000 0.379752 0.859988
0.000000 0.384842 0.863051
0.343407 0.399120 0.869273
0.835181 0.365712 0.862584
1.000000 0.290627 0.820319
1.000000 0.559527 0.799310
1.000000 0.786984 0.798885
0.000000 0.460214 0.873248
0.000000 0.463892 0.873561
0.000000 0.464900 0.874489
0.000000 0.477446 0.874999
0.273927 0.499788 0.878642
0.817621 0.489686 0.878853
1.000000 0.429846 0.845346
1.000000 0.596269 0.808671
1.000000 0.793421 0.801202
0.000000 0.707634 0.892428
0.000000 0.708325 0.892794
0.000000 0.712946 0.893317
0.000000 0.720088 0.895286
0.000000 0.741506 0.899026
0.733869 0.772548 0.903833
0.983723 0.745489 0.890726
1.000000 0.701323 0.821732
1.000000 0.810715 0.807969
0.000000 0.897257 0.913311
0.000000 0.897354 0.913409
0.000000 0.901097 0.913881
0.000000 0.902651 0.913417
0.000000 0.910284 0.916647
0.672420 0.919395 0.919993
0.926518 0.924420 0.922672
1.000000 0.874403 0.867055
1.000000 0.857689 0.820435
0.000000 0.983647 0.916955
0.000000 0.983647 0.916955
0.000000 0.983484 0.917142
0.177258 0.983066 0.915584
0.391293 0.981585 0.914970
0.639072 0.979683 0.915214
0.864392 0.978429 0.912647
0.982583 0.973116 0.905270
1.000000 0.947827 0.865760
0.727204 1.000000 0.923081
0.727204 1.000000 0.923081
0.727204 1.000000 0.923081
0.729994 1.000000 0.923175
0.744423 1.000000 0.922799
0.777786 1.000000 0.921537
0.850052 1.000000 0.922741
0.949017 1.000000 0.916170
1.000000 0.999365 0.914811
0.153564 0.591843 0.956621
0.171927 0.591930 0.956686
0.216146 0.592180 0.956880
0.282283 0.592624 0.957262
0.403191 0.593393 0.958182
0.665978 0.606809 0.955199
0.976888 0.607004 0.950642
1.000000 0.568985 0.922572
1.000000 0.793329 0.910104
0.153564 0.591843 0.956621
0.171927 0.591930 0.956686
0.216146 0.592180 0.956880
0.282283 0.592624 0.957262
0.400513 0.596838 0.958004
0.665978 0.606809 0.955199
0.976888 0.607004 0.950642
1.000000 0.568675 0.923721
1.000000 0.793329 0.910104
0.143057 0.595232 0.956440
0.163056 0.595322 0.956505
0.209787 0.595577 0.956699
0.277923 0.596034 0.957082
0.400513 0.596838 0.958004
0.664462 0.610409 0.955937
0.976034 0.611043 0.950561
1.000000 0.572527 0.923679
1.000000 0.793329 0.910104
0.117593 0.602014 0.956075
0.142658 0.602107 0.956141
0.196021 0.602375 0.956335
0.268794 0.602856 0.956719
0.391782 0.606936 0.958289
0.666489 0.617272 0.957355
0.972281 0.618921 0.951241
1.000000 0.583772 0.924685
1.000000 0.795535 0.910030
0.000000 0.635346 0.956787
0.055958 0.635666 0.956977
0.106369 0.635770 0.957040
0.223489 0.636350 0.957412
0.368198 0.641184 0.957305
0.654362 0.651071 0.958825
0.962468 0.657576 0.953567
1.000000 0.624338 0.930706
1.000000 0.799388 0.912221
0.000000 0.717151 0.960010
0.000000 0.717151 0.960010
0.000000 0.717390 0.960123
0.000000 0.717958 0.960403
0.295236 0.726185 0.960243
0.625819 0.737058 0.961205
0.935814 0.743506 0.957304
1.000000 0.717332 0.940825
1.000000 0.816656 0.916372
0.000000 0.878095 0.966769
0.000000 0.878151 0.966867
0.000000 0.878177 0.966916
0.000000 0.879980 0.967034
0.000000 0.885421 0.965584
0.546385 0.889641 0.966594
0.878393 0.900187 0.968475
1.000000 0.892015 0.960988
1.000000 0.866013 0.926380
0.000000 0.979739 0.974725
0.000000 0.979739 0.974725
0.000000 0.980807 0.974745
0.000000 0.981196 0.974398
0.294648 0.981184 0.974860
0.584196 0.978577 0.976173
0.855433 0.979539 0.976444
0.975155 0.982495 0.975714
1.000000 0.958790 0.950767
0.715768 1.000000 0.973896
0.715768 1.000000 0.973896
0.718551 1.000000 0.973940
0.721315 1.000000 0.973985
0.732633 1.000000 0.974115
0.763848 1.000000 0.974113
0.844946 1.000000 0.973306
0.949312 1.000000 0.973945
1.000000 1.000000 0.971178
0.573187 0.804349 0.997080
0.579523 0.804306 0.997090
0.579523 0.804306 0.997090
0.591938 0.804219 0.997111
0.627270 0.803959 0.997176
0.698676 0.805667 0.997189
0.858608 0.810755 0.996329
1.000000 0.815279 0.992927
1.000000 0.805633 0.980164
0.573187 0.804349 0.997080
0.579523 0.804306 0.997090
0.579523 0.804306 0.997090
0.591938 0.804219 0.997111
0.627270 0.803959 0.997176
0.698676 0.805667 0.997189
0.858608 0.810755 0.996329
1.000000 0.815279 0.992927
1.000000 0.805633 0.980164
0.573187 0.804349 0.997080
0.579523 0.804306 0.997090
0.579523 0.804306 0.997090
0.591938 0.804219 0.997111
0.627270 0.803959 0.997176
0.698676 0.805667 0.997189
0.858608 0.810755 0.996329
1.000000 0.815279 0.992927
1.000000 0.805633 0.980164
0.577723 0.806426 0.997310
0.577723 0.806426 0.997310
0.577723 0.806426 0.997310
0.590182 0.806336 0.997330
0.625624 0.806067 0.997393
0.697235 0.807724 0.997405
0.857849 0.813080 0.996230
1.000000 0.817463 0.992843
1.000000 0.807617 0.980105
0.574727 0.810907 0.997017
0.574727 0.810907 0.997017
0.574727 0.810907 0.997017
0.587268 0.810811 0.997039
0.622921 0.810522 0.997104
0.694890 0.812093 0.997125
0.855420 0.819776 0.996285
1.000000 0.821433 0.993388
1.000000 0.813161 0.980985
0.560208 0.829263 0.997539
0.566708 0.829209 0.997549
0.566708 0.829209 0.997549
0.585651 0.829049 0.997580
0.616063 0.829086 0.996932
0.688596 0.830457 0.996963
0.849622 0.834477 0.996982
1.000000 0.839214 0.994031
1.000000 0.829534 0.982507
0.548711 0.877019 0.997838
0.555301 0.876947 0.997849
0.555301 0.876947 0.997849
0.568172 0.876805 0.997869
0.592757 0.876521 0.997912
0.666822 0.878868 0.997535
0.823190 0.885060 0.996770
0.985979 0.887895 0.995319
1.000000 0.878111 0.985939
0.566630 0.964070 0.999589
0.566630 0.964070 0.999589
0.572302 0.963966 0.999599
0.577888 0.963861 0.999608
0.604540 0.964063 0.999600
0.673752 0.963475 0.999249
0.799404 0.964936 0.998778
0.953525 0.970493 0.999213
1.000000 0.966612 0.996278
0.692120 1.000000 1.000000
0.695051 1.000000 1.000000
0.696818 1.000000 1.000000
0.699695 1.000000 1.000000
0.711019 1.000000 1.000000
0.747599 1.000000 1.000000
0.839333 1.000000 1.000000
0.941700 1.000000 1.000000
1.000000 1.000000 1.000000
