Assets/Lutify-Free-LUTs-Pack/Lutify Free LUTs Pack/Colour Film Boost Pro - Film Boost 10/Lutify.me-FilmBoost10-SLog3Venice-to-Rec709.cube
# Created with: fylm.ai - Colour Grading and Collaboration Software in Cloud 
# Website: https://fylm.ai 
# META
# Option: Gamut compress
# Block 1: IDT | Sony Venice S-Log3 S-Gamut3
# Block 2: colourMatch | Blending Mode: Normal | {"ColorSpace":0,"CrossCovarianceLimit":50,"ReshapingIterations":1,"PercentSaturationShift":100,"PercentShadingShift":100,"ExtraShading":true,"PercentTint":100,"PercentModified":100}
# Block 3: subtractiveColour | Blending Mode: Normal | {"sliders":{"gainY":0.55,"C":0.3,"M":0.3,"Y":0.3}}
# Block 4: LUT | Filmic Curve Response: Low Contrast 2 (100%)
# Block 5: logPrimaries | Blending Mode: Normal | {"wheels":{"shadows":{"Y":"0","R":"1","G":"1","B":"1"},"midtones":{"Y":"0","R":"1","G":"1","B":"1"},"highlights":{"Y":"0","R":"1","G":"1","B":"1"},"offset":{"Y":"0","R":"1","G":"1","B":"1"}},"sliders":{"shadows":{"Y":0,"R":-0.085,"G":0.024,"B":0.134},"midtones":{"Y":0,"R":0,"G":-0.023,"B":0},"highlights":{"Y":0,"R":0,"G":0,"B":0},"offset":{"Y":0,"R":0.012,"G":-0.012,"B":0}}}
# Block 6: HSL | Blending Mode: Normal | {"hue":{"Reds":0,"Yellows":0,"Greens":0,"Cyans":0,"Blues":0,"Magentas":0},"saturation":{"Reds":1,"Yellows":1,"Greens":1,"Cyans":1,"Blues":1,"Magentas":1},"luminance":{"Reds":0.9,"Yellows":0.9,"Greens":0.9,"Cyans":0.9,"Blues":0.9,"Magentas":0.9},"lum_sat":{"Blacks":1,"Shadows":1,"Midtones":1,"Highlights":1,"Whites":1},"sat_sat":{"10":1,"20":1,"30":1,"40":1,"50":1}}
# Block 7: ODT | Rec709
TITLE "Lutify.me-FilmBoost10-SLog3Venice-to-Rec709" 
LUT_3D_SIZE 5
0.000000 0.000000 0.000000
0.124818 0.000000 0.000000
0.465072 0.000000 0.000000
1.000000 0.000000 0.146716
1.000000 0.678251 0.559284
0.000000 0.096961 0.000000
0.139764 0.100732 0.000000
0.493540 0.000000 0.000000
1.000000 0.000000 0.146836
1.000000 0.680786 0.559172
0.000000 0.368970 0.000000
0.000000 0.436635 0.000000
0.563850 0.423422 0.000000
1.000000 0.228568 0.159398
1.000000 0.691100 0.561715
0.000000 0.765015 0.442962
0.000000 0.810649 0.368052
0.000000 0.881399 0.348305
0.934275 0.854136 0.238326
1.000000 0.781969 0.594318
0.000000 0.998050 0.822673
0.000000 1.000000 0.818246
0.000000 1.000000 0.820962
0.637239 1.000000 0.823563
1.000000 0.991288 0.803287
0.000000 0.000000 0.062471
0.108963 0.000000 0.038627
0.465727 0.000000 0.038935
1.000000 0.000000 0.167348
1.000000 0.678527 0.562260
0.000000 0.074662 0.149061
0.096417 0.112429 0.130154
0.504726 0.000000 0.047249
1.000000 0.000000 0.167671
1.000000 0.681060 0.562149
0.000000 0.370844 0.174315
0.000000 0.429508 0.093830
0.564091 0.468420 0.000000
1.000000 0.232707 0.184333
1.000000 0.691368 0.564701
0.000000 0.759643 0.462915
0.000000 0.809799 0.399604
0.000000 0.881348 0.375036
0.934311 0.857526 0.275175
1.000000 0.782352 0.600375
0.000000 0.997908 0.824000
0.000000 1.000000 0.819763
0.000000 1.000000 0.822647
0.637098 1.000000 0.825105
1.000000 0.991315 0.804785
0.000000 0.000000 0.203990
0.034669 0.000000 0.183029
0.406810 0.000000 0.092229
1.000000 0.000000 0.277475
1.000000 0.680182 0.580268
0.000000 0.000000 0.333609
0.000000 0.000000 0.318213
0.462992 0.000000 0.233840
1.000000 0.000000 0.284339
1.000000 0.680182 0.580268
0.000000 0.295952 0.548984
0.000000 0.353865 0.521714
0.541670 0.536056 0.561282
1.000000 0.248733 0.318191
1.000000 0.693241 0.585796
0.000000 0.753662 0.629865
0.000000 0.798222 0.562778
0.000000 0.884281 0.538796
0.927386 0.875309 0.476541
1.000000 0.783500 0.618686
0.000000 0.995940 0.833438
0.000000 1.000000 0.829540
0.000000 1.000000 0.833450
0.632929 1.000000 0.834171
1.000000 0.991447 0.812226
0.000000 0.000000 0.658947
0.000000 0.000000 0.652193
0.329232 0.000000 0.630194
0.898191 0.000000 0.397997
1.000000 0.672731 0.717529
0.000000 0.000000 0.705264
0.000000 0.000000 0.701598
0.323503 0.000000 0.680006
0.937482 0.000000 0.498794
1.000000 0.675602 0.717664
0.000000 0.212011 0.787585
0.000000 0.219820 0.794868
0.204952 0.238852 0.812215
1.000000 0.000000 0.706871
1.000000 0.693044 0.721225
0.000000 0.645824 0.901790
0.000000 0.645824 0.901790
0.000000 0.832427 0.884251
0.904518 0.898857 0.900592
1.000000 0.790134 0.754345
0.000000 0.976433 0.930090
0.000000 0.976433 0.930090
0.000000 1.000000 0.895508
0.611288 1.000000 0.890003
1.000000 0.993483 0.874905
0.425615 0.279313 0.969761
0.439992 0.277741 0.969639
0.519659 0.264496 0.968045
0.906533 0.097823 0.958903
1.000000 0.000000 0.861933
0.423115 0.293635 0.970647
0.437655 0.292167 0.970528
0.517974 0.276498 0.969778
0.905891 0.134806 0.960795
1.000000 0.000000 0.866508
0.393752 0.364539 0.977535
0.404334 0.363836 0.977467
0.483651 0.364277 0.976825
0.891608 0.283942 0.968032
1.000000 0.168501 0.897733
0.000000 0.666522 0.987654
0.000000 0.666917 0.987757
0.000000 0.675708 0.987951
0.768525 0.701439 0.984641
1.000000 0.652885 0.953887
0.000000 0.923566 1.000000
0.000000 0.923566 1.000000
0.000000 0.923566 1.000000
0.094330 1.000000 0.995694
0.994443 0.999594 0.995848
