Assets/Lutify-Free-LUTs-Pack/Lutify Free LUTs Pack/Colour Film Boost Pro - Film Boost 10/Lutify.me-FilmBoost10-NLog-to-Rec709.cube
# Created with: fylm.ai - Colour Grading and Collaboration Software in Cloud 
# Website: https://fylm.ai 
# META
# Option: Gamut compress
# Block 1: IDT | Nikon BT2020 N-Log
# Block 2: colourMatch | Blending Mode: Normal | {"ColorSpace":0,"CrossCovarianceLimit":50,"ReshapingIterations":1,"PercentSaturationShift":100,"PercentShadingShift":100,"ExtraShading":true,"PercentTint":100,"PercentModified":100}
# Block 3: subtractiveColour | Blending Mode: Normal | {"sliders":{"gainY":0.55,"C":0.3,"M":0.3,"Y":0.3}}
# Block 4: LUT | Filmic Curve Response: Low Contrast 2 (100%)
# Block 5: logPrimaries | Blending Mode: Normal | {"wheels":{"shadows":{"Y":"0","R":"1","G":"1","B":"1"},"midtones":{"Y":"0","R":"1","G":"1","B":"1"},"highlights":{"Y":"0","R":"1","G":"1","B":"1"},"offset":{"Y":"0","R":"1","G":"1","B":"1"}},"sliders":{"shadows":{"Y":0,"R":-0.085,"G":0.024,"B":0.134},"midtones":{"Y":0,"R":0,"G":-0.023,"B":0},"highlights":{"Y":0,"R":0,"G":0,"B":0},"offset":{"Y":0,"R":0.012,"G":-0.012,"B":0}}}
# Block 6: HSL | Blending Mode: Normal | {"hue":{"Reds":0,"Yellows":0,"Greens":0,"Cyans":0,"Blues":0,"Magentas":0},"saturation":{"Reds":1,"Yellows":1,"Greens":1,"Cyans":1,"Blues":1,"Magentas":1},"luminance":{"Reds":0.9,"Yellows":0.9,"Greens":0.9,"Cyans":0.9,"Blues":0.9,"Magentas":0.9},"lum_sat":{"Blacks":1,"Shadows":1,"Midtones":1,"Highlights":1,"Whites":1},"sat_sat":{"10":1,"20":1,"30":1,"40":1,"50":1}}
# Block 7: ODT | Rec709
TITLE "Lutify.me-FilmBoost10-NLog-to-Rec709" 
LUT_3D_SIZE 9
0.000000 0.000000 0.000000
0.000000 0.000000 0.000000
0.140628 0.000000 0.000000
0.302481 0.000000 0.000000
0.482455 0.000000 0.000000
0.694144 0.000000 0.045164
0.917829 0.000000 0.108189
1.000000 0.163097 0.224440
1.000000 0.447877 0.379419
0.000000 0.000000 0.000000
0.000000 0.000000 0.000000
0.148853 0.000000 0.000000
0.310337 0.000000 0.000000
0.482702 0.000000 0.000000
0.698144 0.000000 0.045869
0.918037 0.000000 0.109152
1.000000 0.163097 0.224440
1.000000 0.447877 0.379419
0.000000 0.118330 0.000000
0.000000 0.120738 0.000000
0.184048 0.117077 0.000000
0.351921 0.000000 0.000000
0.515976 0.000000 0.000000
0.710949 0.000000 0.047545
0.924420 0.000000 0.113933
1.000000 0.198385 0.225193
1.000000 0.455041 0.381926
0.000000 0.269676 0.000000
0.000000 0.274496 0.000000
0.000000 0.301185 0.000000
0.401970 0.260075 0.000000
0.572142 0.207922 0.000000
0.751386 0.080111 0.025941
0.931989 0.000000 0.117031
1.000000 0.258135 0.230306
1.000000 0.469337 0.386969
0.000000 0.441753 0.000000
0.000000 0.448245 0.000000
0.000000 0.468457 0.000000
0.199697 0.476613 0.000000
0.599335 0.434288 0.000000
0.786311 0.378390 0.000000
0.943952 0.310186 0.121361
1.000000 0.347702 0.240795
1.000000 0.500815 0.388564
0.000000 0.634693 0.000000
0.000000 0.640082 0.000000
0.000000 0.652742 0.000000
0.000000 0.668484 0.000000
0.446530 0.667545 0.000000
0.787176 0.627345 0.000000
0.940220 0.565704 0.110521
1.000000 0.528220 0.258332
1.000000 0.573831 0.402474
0.000000 0.808499 0.243095
0.000000 0.809308 0.243903
0.000000 0.815279 0.240695
0.000000 0.821507 0.229568
0.000000 0.826032 0.203360
0.670606 0.815037 0.190387
0.902326 0.791163 0.169710
0.994618 0.749980 0.301468
1.000000 0.723635 0.441548
0.000000 0.914214 0.465913
0.000000 0.914335 0.466502
0.000000 0.917084 0.468009
0.000000 0.919020 0.460393
0.000000 0.918526 0.459545
0.551184 0.914428 0.440976
0.826231 0.903973 0.437556
0.961540 0.890568 0.410691
1.000000 0.865894 0.515552
0.000000 0.970660 0.667051
0.000000 0.970660 0.667051
0.000000 0.970457 0.667989
0.201091 0.971286 0.670436
0.371428 0.970886 0.668515
0.552620 0.969969 0.663881
0.757565 0.962930 0.649981
0.911031 0.956228 0.644965
0.989361 0.949654 0.635792
0.000000 0.000000 0.000000
0.000000 0.000000 0.000000
0.140733 0.000000 0.000000
0.302774 0.000000 0.000000
0.484593 0.000000 0.014784
0.696386 0.000000 0.051229
0.918618 0.000000 0.111567
1.000000 0.163830 0.226146
1.000000 0.447877 0.379419
0.000000 0.000000 0.000000
0.000000 0.000000 0.000000
0.145836 0.000000 0.000000
0.312033 0.000000 0.000000
0.485045 0.000000 0.016881
0.700108 0.000000 0.051215
0.919031 0.000000 0.113541
1.000000 0.163476 0.226267
1.000000 0.447877 0.379419
0.000000 0.118339 0.000000
0.000000 0.122467 0.000000
0.178944 0.125158 0.000000
0.354174 0.000000 0.000000
0.515495 0.000000 0.003416
0.713485 0.000000 0.055084
0.925048 0.000000 0.117152
1.000000 0.198965 0.226919
1.000000 0.455041 0.381926
0.000000 0.269344 0.000000
0.000000 0.277822 0.000000
0.000000 0.305255 0.000000
0.390532 0.280480 0.000000
0.575895 0.209396 0.000000
0.753586 0.088048 0.042824
0.932712 0.000000 0.121045
1.000000 0.258740 0.234156
1.000000 0.469337 0.386969
0.000000 0.441753 0.000000
0.000000 0.451085 0.000000
0.000000 0.473005 0.000000
0.201344 0.481078 0.000000
0.602042 0.444508 0.000000
0.788293 0.379997 0.000000
0.944714 0.311116 0.128631
1.000000 0.347982 0.242876
1.000000 0.500815 0.388564
0.000000 0.634687 0.053503
0.000000 0.640076 0.048355
0.000000 0.652736 0.000000
0.000000 0.670178 0.000000
0.448068 0.669463 0.000000
0.787519 0.632438 0.000000
0.940574 0.566522 0.120342
1.000000 0.528794 0.263305
1.000000 0.573831 0.402474
0.000000 0.808488 0.253018
0.000000 0.809297 0.253834
0.000000 0.815272 0.247389
0.000000 0.822224 0.240383
0.000000 0.826625 0.214645
0.671167 0.815411 0.198047
0.902671 0.791760 0.181034
0.994626 0.750216 0.304596
1.000000 0.723887 0.444707
0.000000 0.914205 0.469203
0.000000 0.914326 0.469792
0.000000 0.917084 0.468009
0.000000 0.919011 0.463664
0.000000 0.919666 0.459621
0.551184 0.914428 0.440976
0.826350 0.904081 0.440947
0.961561 0.890683 0.413844
1.000000 0.865894 0.515552
0.000000 0.970660 0.667051
0.000000 0.970660 0.667051
0.000000 0.970457 0.667989
0.201091 0.971286 0.670436
0.371428 0.970886 0.668515
0.552882 0.970022 0.667108
0.757565 0.962930 0.649981
0.909479 0.956322 0.644811
0.989361 0.949654 0.635792
0.000000 0.000000 0.089393
0.000000 0.000000 0.085649
0.135082 0.000000 0.063513
0.304556 0.000000 0.063895
0.493639 0.000000 0.064565
0.713757 0.000000 0.087670
0.921199 0.000000 0.136195
1.000000 0.166459 0.239253
1.000000 0.448766 0.388026
0.000000 0.000000 0.103881
0.000000 0.000000 0.098147
0.139608 0.000000 0.073716
0.308631 0.000000 0.070716
0.498930 0.000000 0.066894
0.714324 0.000000 0.089116
0.924149 0.000000 0.137266
1.000000 0.166129 0.239363
1.000000 0.449063 0.390915
0.000000 0.110074 0.194402
0.000000 0.118832 0.191013
0.131521 0.165548 0.186178
0.373653 0.037406 0.113652
0.532754 0.000000 0.084161
0.726797 0.000000 0.093842
0.929971 0.000000 0.142030
1.000000 0.201609 0.242133
1.000000 0.455930 0.390571
0.000000 0.274654 0.195671
0.000000 0.286937 0.189639
0.000000 0.335723 0.164963
0.389363 0.338975 0.143304
0.599603 0.235508 0.097366
0.763952 0.113766 0.106567
0.937778 0.000000 0.152455
1.000000 0.260859 0.248017
1.000000 0.469929 0.392774
0.000000 0.440302 0.165312
0.000000 0.450004 0.159159
0.000000 0.491099 0.141237
0.131798 0.517372 0.100908
0.606527 0.490090 0.071557
0.799058 0.392999 0.101369
0.950260 0.327540 0.166852
1.000000 0.349942 0.257788
1.000000 0.501998 0.400277
0.000000 0.635143 0.195446
0.000000 0.640016 0.195214
0.000000 0.661382 0.174242
0.000000 0.684342 0.150170
0.431406 0.687105 0.115465
0.791128 0.651107 0.083135
0.940397 0.576253 0.178292
1.000000 0.534375 0.280725
1.000000 0.574724 0.411490
0.000000 0.808412 0.309016
0.000000 0.809220 0.309903
0.000000 0.814996 0.310282
0.000000 0.823946 0.299228
0.000000 0.829962 0.276196
0.659149 0.821310 0.258996
0.904538 0.795140 0.240327
0.994652 0.751871 0.326808
1.000000 0.724391 0.451046
0.000000 0.914097 0.485383
0.000000 0.914160 0.485677
0.000000 0.917039 0.484438
0.000000 0.918958 0.483330
0.000000 0.920338 0.480960
0.546730 0.915259 0.461878
0.826008 0.905643 0.454686
0.961676 0.891373 0.432862
1.000000 0.866571 0.528298
0.000000 0.970610 0.678844
0.000000 0.970610 0.678844
0.000000 0.970419 0.676837
0.197964 0.971249 0.679206
0.370555 0.970861 0.674366
0.547614 0.970305 0.673498
0.757870 0.963099 0.659668
0.909472 0.956444 0.651109
0.989254 0.949785 0.641755
0.000000 0.000000 0.222542
0.000000 0.000000 0.216817
0.105173 0.000000 0.211552
0.315010 0.000000 0.168954
0.501340 0.000000 0.182042
0.722764 0.000000 0.184294
0.932335 0.000000 0.208459
1.000000 0.173466 0.278087
1.000000 0.450845 0.408449
0.000000 0.000000 0.236120
0.000000 0.000000 0.230163
0.105211 0.000000 0.224946
0.322326 0.000000 0.185978
0.507198 0.000000 0.186921
0.723672 0.000000 0.187329
0.932910 0.000000 0.210152
1.000000 0.185374 0.277801
1.000000 0.450845 0.408449
0.000000 0.092113 0.311656
0.000000 0.098367 0.309814
0.000000 0.126525 0.324443
0.395354 0.033693 0.299849
0.548016 0.000000 0.229055
0.744108 0.000000 0.202524
0.937207 0.000000 0.215033
1.000000 0.207521 0.279471
1.000000 0.458007 0.411082
0.000000 0.249620 0.378680
0.000000 0.261187 0.382260
0.000000 0.339505 0.397987
0.363670 0.378095 0.402599
0.610729 0.287195 0.317149
0.779890 0.165214 0.241572
0.941468 0.031375 0.230440
1.000000 0.266516 0.286567
1.000000 0.472003 0.413393
0.000000 0.451042 0.406665
0.000000 0.457573 0.406633
0.000000 0.494852 0.400534
0.000000 0.552477 0.388932
0.601112 0.544427 0.376478
0.808534 0.436107 0.284308
0.954933 0.342180 0.247907
1.000000 0.358628 0.296610
1.000000 0.503777 0.418124
0.000000 0.643483 0.394147
0.000000 0.648634 0.388892
0.000000 0.662796 0.390673
0.000000 0.704089 0.387667
0.410703 0.715828 0.364836
0.788171 0.689405 0.337629
0.938977 0.596030 0.287246
1.000000 0.542908 0.326563
1.000000 0.577112 0.435903
0.000000 0.808200 0.416107
0.000000 0.809007 0.417080
0.000000 0.814782 0.417842
0.000000 0.831961 0.406222
0.000000 0.836772 0.403095
0.656590 0.830395 0.387250
0.902746 0.811545 0.366034
0.991973 0.761484 0.384912
1.000000 0.729125 0.476583
0.000000 0.913998 0.538670
0.000000 0.913998 0.538670
0.000000 0.916868 0.540620
0.000000 0.918799 0.536102
0.000000 0.922288 0.532658
0.532108 0.917532 0.518222
0.824122 0.908622 0.509595
0.957690 0.895165 0.488162
1.000000 0.868988 0.551183
0.000000 0.970560 0.690411
0.000000 0.970560 0.690411
0.000000 0.970357 0.691302
0.134134 0.971347 0.692946
0.367912 0.970788 0.691598
0.548948 0.970571 0.689247
0.758474 0.963437 0.678669
0.908989 0.957453 0.669936
0.988920 0.950176 0.659467
0.000000 0.034746 0.371064
0.000000 0.037605 0.371306
0.000000 0.041674 0.382609
0.324525 0.000000 0.371926
0.528415 0.000000 0.308496
0.732605 0.000000 0.319398
0.934940 0.000000 0.320663
1.000000 0.203991 0.354920
1.000000 0.458143 0.447479
0.000000 0.040977 0.381010
0.000000 0.043840 0.381105
0.000000 0.050236 0.389750
0.325206 0.000000 0.379285
0.534770 0.000000 0.314540
0.734457 0.000000 0.324815
0.935328 0.000000 0.320914
1.000000 0.215315 0.355076
1.000000 0.458143 0.447479
0.000000 0.093379 0.423674
0.000000 0.096465 0.424363
0.000000 0.113043 0.435383
0.329680 0.077038 0.441403
0.581485 0.000000 0.390799
0.755127 0.000000 0.356729
0.940394 0.000000 0.332119
1.000000 0.231332 0.360514
1.000000 0.465000 0.447181
0.000000 0.250001 0.499303
0.000000 0.253692 0.503288
0.000000 0.290797 0.522654
0.229244 0.337281 0.546608
0.623749 0.298955 0.526775
0.791418 0.178503 0.422996
0.950878 0.115856 0.355507
1.000000 0.293408 0.368473
1.000000 0.482700 0.452599
0.000000 0.427970 0.554880
0.000000 0.434658 0.555758
0.000000 0.481569 0.573265
0.000000 0.552274 0.592479
0.587587 0.571163 0.600772
0.809252 0.481135 0.502023
0.958624 0.377754 0.409540
1.000000 0.382804 0.380088
1.000000 0.511037 0.457755
0.000000 0.650448 0.589196
0.000000 0.652524 0.587800
0.000000 0.668026 0.585777
0.000000 0.709561 0.586480
0.345187 0.736835 0.580968
0.778065 0.723475 0.570615
0.933279 0.632082 0.467169
1.000000 0.559137 0.418199
1.000000 0.584075 0.473354
0.000000 0.813045 0.579153
0.000000 0.813638 0.579959
0.000000 0.820255 0.579055
0.000000 0.831408 0.586928
0.000000 0.846542 0.578241
0.641392 0.845923 0.569221
0.898246 0.830151 0.546166
0.989173 0.771147 0.485409
1.000000 0.735045 0.519045
0.000000 0.916149 0.614802
0.000000 0.916208 0.615102
0.000000 0.917803 0.617081
0.000000 0.918489 0.622611
0.000000 0.922044 0.614821
0.531339 0.921463 0.611558
0.826127 0.911147 0.593735
0.955492 0.903165 0.582983
1.000000 0.873566 0.594280
0.000000 0.970448 0.715537
0.000000 0.970448 0.715537
0.000000 0.970245 0.716372
0.182386 0.971076 0.718386
0.328989 0.970946 0.720944
0.549364 0.970799 0.715393
0.759582 0.964058 0.712020
0.905366 0.958879 0.699768
0.988276 0.950893 0.691065
0.000000 0.102851 0.555277
0.000000 0.105090 0.557571
0.000000 0.113113 0.568519
0.228198 0.100197 0.568249
0.552266 0.000000 0.564830
0.766792 0.000000 0.499521
0.939972 0.000000 0.502356
1.000000 0.238455 0.497051
1.000000 0.477666 0.519488
0.000000 0.105806 0.558255
0.000000 0.108123 0.561021
0.000000 0.118739 0.571474
0.226742 0.106596 0.572313
0.548411 0.000000 0.568683
0.767921 0.000000 0.503383
0.940080 0.000000 0.502574
1.000000 0.238417 0.500134
1.000000 0.477666 0.519488
0.000000 0.140336 0.580022
0.000000 0.141927 0.582127
0.000000 0.152022 0.590435
0.207701 0.151479 0.597581
0.549212 0.037915 0.597152
0.786956 0.000000 0.528959
0.944409 0.000000 0.515144
1.000000 0.253650 0.506704
1.000000 0.481359 0.525674
0.000000 0.249439 0.629048
0.000000 0.252189 0.631183
0.000000 0.261139 0.640936
0.048931 0.295396 0.666638
0.544801 0.275810 0.660973
0.824157 0.167728 0.611555
0.953211 0.138482 0.546255
1.000000 0.319292 0.515054
1.000000 0.499812 0.529088
0.000000 0.419763 0.687800
0.000000 0.421259 0.689785
0.000000 0.450669 0.689980
0.000000 0.496729 0.710034
0.460705 0.526873 0.727460
0.825307 0.498094 0.707647
0.958088 0.401103 0.607855
1.000000 0.412534 0.536798
1.000000 0.531640 0.537769
0.000000 0.618254 0.728092
0.000000 0.620189 0.726881
0.000000 0.645335 0.737468
0.000000 0.703046 0.749796
0.293196 0.741321 0.758458
0.761942 0.747893 0.763422
0.924573 0.672710 0.680605
1.000000 0.588797 0.584680
1.000000 0.602022 0.558205
0.000000 0.818863 0.750149
0.000000 0.819450 0.748058
0.000000 0.823743 0.750755
0.000000 0.836431 0.754154
0.000000 0.851211 0.746924
0.628105 0.857809 0.749192
0.885636 0.847491 0.741782
0.980457 0.791444 0.651620
1.000000 0.743393 0.596571
0.000000 0.917981 0.747840
0.000000 0.918038 0.748084
0.000000 0.919599 0.746902
0.000000 0.921371 0.748228
0.000000 0.925841 0.749412
0.518880 0.925129 0.748378
0.805821 0.920785 0.738108
0.951191 0.911334 0.722934
1.000000 0.876602 0.670750
0.000000 0.972378 0.776705
0.000000 0.972378 0.776705
0.000000 0.972262 0.774919
0.000000 0.971769 0.776478
0.316962 0.970660 0.779371
0.536546 0.970607 0.778319
0.758686 0.966196 0.776341
0.900179 0.961161 0.761886
0.986353 0.953733 0.750112
0.000000 0.205467 0.739638
0.000000 0.209110 0.740308
0.000000 0.219374 0.743896
0.000000 0.228658 0.757843
0.442927 0.203369 0.753671
0.773758 0.092521 0.746930
0.959406 0.000000 0.677704
1.000000 0.256200 0.681336
1.000000 0.497474 0.677494
0.000000 0.212150 0.745156
0.000000 0.212646 0.740207
0.000000 0.221222 0.743843
0.000000 0.232744 0.757819
0.434281 0.207395 0.753970
0.773885 0.100759 0.747168
0.959544 0.000000 0.678219
1.000000 0.256200 0.681336
1.000000 0.497474 0.677494
0.000000 0.231713 0.752992
0.000000 0.235860 0.750831
0.000000 0.241538 0.754716
0.000000 0.257160 0.767960
0.430713 0.237962 0.762095
0.773482 0.169840 0.758119
0.963244 0.000000 0.694332
1.000000 0.276168 0.685227
1.000000 0.501222 0.680845
0.000000 0.281234 0.768135
0.000000 0.286119 0.769164
0.000000 0.297829 0.772174
0.000000 0.314351 0.782433
0.404320 0.319050 0.785975
0.773948 0.276377 0.781517
0.970351 0.143521 0.726086
1.000000 0.331726 0.697178
1.000000 0.520195 0.684681
0.000000 0.414326 0.796935
0.000000 0.414876 0.797567
0.000000 0.432073 0.800156
0.000000 0.457401 0.808435
0.344840 0.481389 0.819982
0.742184 0.473709 0.815778
0.962880 0.415363 0.787014
1.000000 0.420672 0.725348
1.000000 0.554024 0.695291
0.000000 0.612217 0.826837
0.000000 0.616509 0.825200
0.000000 0.628684 0.828810
0.000000 0.646269 0.836478
0.000000 0.687719 0.839151
0.674899 0.714272 0.845240
0.927497 0.695136 0.830888
1.000000 0.609012 0.767324
1.000000 0.629036 0.712667
0.000000 0.795116 0.848296
0.000000 0.795726 0.848758
0.000000 0.805384 0.851977
0.000000 0.824490 0.853841
0.000000 0.846846 0.859965
0.602056 0.860494 0.866223
0.874610 0.861493 0.867492
0.968395 0.818563 0.817874
1.000000 0.764545 0.751705
0.000000 0.920907 0.859194
0.000000 0.920959 0.859345
0.000000 0.921297 0.860409
0.000000 0.924032 0.860466
0.000000 0.925308 0.856452
0.493806 0.928761 0.856502
0.803379 0.928123 0.858455
0.939034 0.923698 0.850143
1.000000 0.889149 0.797295
0.000000 0.972653 0.857122
0.000000 0.972653 0.857122
0.000000 0.972528 0.857423
0.000000 0.972775 0.858202
0.251957 0.973083 0.858213
0.520494 0.972188 0.852630
0.758338 0.969186 0.854630
0.897769 0.966078 0.847403
0.979676 0.961091 0.844716
0.000000 0.364028 0.870817
0.000000 0.364246 0.871139
0.000000 0.365069 0.872422
0.000000 0.369726 0.875787
0.334405 0.384917 0.877521
0.649546 0.365045 0.873820
0.948241 0.335250 0.866618
1.000000 0.264152 0.822531
1.000000 0.501827 0.820642
0.000000 0.364028 0.870817
0.000000 0.364246 0.871139
0.000000 0.365069 0.872422
0.000000 0.369726 0.875787
0.334405 0.384917 0.877521
0.649120 0.368790 0.873886
0.948241 0.335250 0.866618
1.000000 0.264152 0.822531
1.000000 0.501827 0.820642
0.000000 0.378376 0.872252
0.000000 0.378496 0.872412
0.000000 0.379527 0.873841
0.000000 0.384394 0.876852
0.327268 0.398214 0.879241
0.647282 0.379821 0.875721
0.946041 0.352519 0.871862
1.000000 0.279491 0.825063
1.000000 0.513321 0.820823
0.000000 0.405091 0.876603
0.000000 0.405091 0.876603
0.000000 0.409435 0.876050
0.000000 0.421121 0.878719
0.301382 0.433145 0.882620
0.639367 0.424264 0.881148
0.940666 0.404315 0.877390
1.000000 0.341472 0.834673
1.000000 0.528729 0.822969
0.000000 0.466520 0.885575
0.000000 0.466686 0.885719
0.000000 0.471167 0.886719
0.000000 0.483886 0.887432
0.245680 0.501075 0.890550
0.620571 0.502611 0.890731
0.929116 0.487595 0.885668
1.000000 0.436722 0.853716
1.000000 0.559036 0.829335
0.000000 0.606356 0.895451
0.000000 0.606356 0.895451
0.000000 0.611367 0.896272
0.000000 0.626046 0.897075
0.000000 0.641235 0.900230
0.544311 0.667679 0.902990
0.884769 0.663882 0.902182
1.000000 0.624988 0.883638
1.000000 0.638020 0.841223
0.000000 0.789757 0.909485
0.000000 0.789938 0.909585
0.000000 0.793799 0.910110
0.000000 0.800346 0.909930
0.000000 0.814267 0.912854
0.450631 0.829840 0.913743
0.828639 0.839102 0.918391
0.968177 0.834561 0.908363
1.000000 0.780872 0.866117
0.000000 0.911754 0.922246
0.000000 0.911754 0.922246
0.000000 0.913555 0.922701
0.000000 0.914816 0.923684
0.000000 0.920628 0.925407
0.447881 0.926524 0.928381
0.777776 0.931162 0.928380
0.935359 0.933359 0.930843
0.991599 0.905063 0.897543
0.000000 0.974833 0.927698
0.000000 0.974833 0.927698
0.000000 0.974715 0.926927
0.000000 0.974864 0.927404
0.211802 0.974586 0.928220
0.497653 0.973778 0.924443
0.730191 0.972166 0.923503
0.889631 0.970532 0.922435
0.973448 0.967729 0.920134
0.000000 0.550304 0.944431
0.000000 0.550304 0.944431
0.117665 0.550561 0.944665
0.238851 0.551151 0.945283
0.378060 0.555346 0.946379
0.556451 0.568405 0.945513
0.835906 0.554994 0.941570
1.000000 0.565653 0.936818
1.000000 0.520140 0.910596
0.000000 0.550304 0.944431
0.000000 0.550304 0.944431
0.117665 0.550561 0.944665
0.238851 0.551151 0.945283
0.378060 0.555346 0.946379
0.555095 0.572199 0.945441
0.835906 0.554994 0.941570
1.000000 0.565653 0.936818
1.000000 0.520140 0.910596
0.000000 0.557024 0.944086
0.000000 0.557024 0.944086
0.085450 0.557293 0.944321
0.239823 0.557989 0.945016
0.369920 0.565635 0.945865
0.552901 0.575507 0.947224
0.834358 0.562971 0.941448
1.000000 0.569761 0.936763
1.000000 0.528094 0.910554
0.000000 0.570260 0.944349
0.000000 0.570360 0.944427
0.000000 0.570554 0.944582
0.217657 0.571325 0.945273
0.357836 0.579132 0.946107
0.544468 0.593496 0.947491
0.833504 0.582315 0.942032
1.000000 0.585251 0.939345
1.000000 0.543348 0.914033
0.000000 0.596674 0.945829
0.000000 0.596674 0.945829
0.000000 0.597112 0.946132
0.165577 0.601543 0.945613
0.338884 0.606204 0.946599
0.536521 0.617599 0.948106
0.823653 0.621193 0.944030
1.000000 0.616600 0.942450
1.000000 0.578518 0.916009
0.000000 0.656013 0.948861
0.000000 0.656013 0.948861
0.000000 0.656555 0.949145
0.000000 0.658048 0.948959
0.267778 0.666604 0.948640
0.505914 0.682503 0.949858
0.801914 0.692738 0.948377
0.987450 0.685265 0.945341
1.000000 0.657661 0.925255
0.000000 0.778467 0.953784
0.000000 0.778584 0.953848
0.000000 0.779145 0.953254
0.000000 0.785424 0.953462
0.000000 0.792332 0.952551
0.431127 0.798378 0.954016
0.755297 0.809379 0.954250
0.946436 0.812789 0.952527
1.000000 0.788318 0.940577
0.000000 0.900095 0.959432
0.000000 0.900095 0.959432
0.000000 0.900130 0.959543
0.000000 0.903111 0.959659
0.000000 0.905849 0.960162
0.366145 0.908714 0.960781
0.718177 0.912107 0.961321
0.903713 0.918150 0.962809
0.992599 0.913413 0.957360
0.000000 0.969708 0.967086
0.000000 0.969708 0.967086
0.000000 0.969614 0.967184
0.000000 0.971504 0.966869
0.000000 0.972019 0.966909
0.441052 0.970519 0.966947
0.719079 0.972335 0.967525
0.884541 0.972217 0.968654
0.970806 0.974173 0.968330
