Assets/Lutify-Free-LUTs-Pack/Lutify Free LUTs Pack/Colour Film Boost Pro - Film Boost 10/Lutify.me-FilmBoost10-CanonLog2-to-Rec709.cube
# Created with: fylm.ai - Colour Grading and Collaboration Software in Cloud 
# Website: https://fylm.ai 
# META
# Option: Gamut compress
# Block 1: IDT | CanonLog2 Cinema Gamut Daylight
# Block 2: colourMatch | Blending Mode: Normal | {"ColorSpace":0,"CrossCovarianceLimit":50,"ReshapingIterations":1,"PercentSaturationShift":100,"PercentShadingShift":100,"ExtraShading":true,"PercentTint":100,"PercentModified":100}
# Block 3: subtractiveColour | Blending Mode: Normal | {"sliders":{"gainY":0.55,"C":0.3,"M":0.3,"Y":0.3}}
# Block 4: LUT | Filmic Curve Response: Low Contrast 2 (100%)
# Block 5: logPrimaries | Blending Mode: Normal | {"wheels":{"shadows":{"Y":"0","R":"1","G":"1","B":"1"},"midtones":{"Y":"0","R":"1","G":"1","B":"1"},"highlights":{"Y":"0","R":"1","G":"1","B":"1"},"offset":{"Y":"0","R":"1","G":"1","B":"1"}},"sliders":{"shadows":{"Y":0,"R":-0.085,"G":0.024,"B":0.134},"midtones":{"Y":0,"R":0,"G":-0.023,"B":0},"highlights":{"Y":0,"R":0,"G":0,"B":0},"offset":{"Y":0,"R":0.012,"G":-0.012,"B":0}}}
# Block 6: HSL | Blending Mode: Normal | {"hue":{"Reds":0,"Yellows":0,"Greens":0,"Cyans":0,"Blues":0,"Magentas":0},"saturation":{"Reds":1,"Yellows":1,"Greens":1,"Cyans":1,"Blues":1,"Magentas":1},"luminance":{"Reds":0.9,"Yellows":0.9,"Greens":0.9,"Cyans":0.9,"Blues":0.9,"Magentas":0.9},"lum_sat":{"Blacks":1,"Shadows":1,"Midtones":1,"Highlights":1,"Whites":1},"sat_sat":{"10":1,"20":1,"30":1,"40":1,"50":1}}
# Block 7: ODT | Rec709
TITLE "Lutify.me-FilmBoost10-CanonLog2-to-Rec709" 
LUT_3D_SIZE 9
0.000000 0.000000 0.000000
0.000000 0.000000 0.000000
0.122781 0.000000 0.000000
0.262181 0.000000 0.000000
0.496965 0.000000 0.000000
0.811898 0.000000 0.058815
1.000000 0.000000 0.194915
1.000000 0.440964 0.408175
1.000000 0.741269 0.650920
0.000000 0.017038 0.000000
0.000000 0.021267 0.000000
0.139547 0.000000 0.000000
0.285308 0.000000 0.000000
0.508632 0.000000 0.000000
0.815264 0.000000 0.057354
1.000000 0.000000 0.194931
1.000000 0.444206 0.408026
1.000000 0.743220 0.650857
0.000000 0.110281 0.000000
0.000000 0.119145 0.000000
0.163355 0.105898 0.000000
0.333067 0.000000 0.000000
0.532713 0.000000 0.000000
0.818550 0.000000 0.054778
1.000000 0.000000 0.192939
1.000000 0.446840 0.402229
1.000000 0.743220 0.650857
0.000000 0.250672 0.000000
0.000000 0.263802 0.000000
0.000000 0.270466 0.000000
0.394211 0.215364 0.000000
0.593763 0.061591 0.000000
0.845230 0.000000 0.000000
1.000000 0.000000 0.190559
1.000000 0.459801 0.401603
1.000000 0.743220 0.650857
0.000000 0.456299 0.000000
0.000000 0.461864 0.000000
0.000000 0.467048 0.000000
0.266219 0.459687 0.000000
0.682882 0.383549 0.000000
0.864977 0.318392 0.000000
1.000000 0.292293 0.167856
1.000000 0.495756 0.394679
1.000000 0.750938 0.650622
0.000000 0.678390 0.000000
0.000000 0.678118 0.000000
0.000000 0.677594 0.000000
0.000000 0.677837 0.000000
0.612383 0.663813 0.000000
0.916385 0.579203 0.000000
1.000000 0.604616 0.000000
1.000000 0.619068 0.385527
1.000000 0.770822 0.651386
0.000000 0.857138 0.000000
0.000000 0.856840 0.000000
0.000000 0.856319 0.000000
0.000000 0.854442 0.000000
0.441481 0.847834 0.000000
0.855201 0.834595 0.000000
1.000000 0.771055 0.000000
1.000000 0.818648 0.241352
1.000000 0.826144 0.650615
0.525438 0.946027 0.000000
0.531533 0.945845 0.000000
0.537539 0.945664 0.000000
0.560727 0.944937 0.000000
0.651339 0.941671 0.000000
0.796627 0.934964 0.000000
0.966907 0.925072 0.000000
1.000000 0.890783 0.172850
1.000000 0.934146 0.581538
0.833887 0.991185 0.272528
0.833887 0.991185 0.272528
0.835883 0.991079 0.272876
0.839955 0.990488 0.269457
0.847589 0.990077 0.270947
0.871905 0.988732 0.276647
0.934982 0.984991 0.300758
1.000000 0.978224 0.428440
1.000000 0.960556 0.585439
0.000000 0.000000 0.024575
0.000000 0.000000 0.020214
0.114522 0.000000 0.000000
0.249681 0.000000 0.000000
0.496011 0.000000 0.017645
0.816412 0.000000 0.071182
1.000000 0.000000 0.199695
1.000000 0.440964 0.408175
1.000000 0.741269 0.650920
0.000000 0.000000 0.024862
0.000000 0.000000 0.017768
0.124928 0.000000 0.000000
0.272047 0.000000 0.000000
0.512736 0.000000 0.017118
0.819783 0.000000 0.070274
1.000000 0.000000 0.199712
1.000000 0.440964 0.408175
1.000000 0.741269 0.650920
0.000000 0.102387 0.000000
0.000000 0.110751 0.000000
0.137530 0.109469 0.000000
0.311469 0.000000 0.000000
0.524778 0.000000 0.000000
0.823032 0.000000 0.068335
1.000000 0.000000 0.199175
1.000000 0.447446 0.407875
1.000000 0.743220 0.650857
0.000000 0.245366 0.000000
0.000000 0.263868 0.000000
0.000000 0.271187 0.000000
0.374241 0.226584 0.000000
0.580993 0.110607 0.000000
0.844712 0.000000 0.052467
1.000000 0.000000 0.197406
1.000000 0.460404 0.407258
1.000000 0.743220 0.650857
0.000000 0.453475 0.000000
0.000000 0.461878 0.000000
0.000000 0.467101 0.000000
0.255610 0.459973 0.000000
0.679738 0.380890 0.000000
0.870936 0.330602 0.000000
1.000000 0.294231 0.179911
1.000000 0.496055 0.397489
1.000000 0.750938 0.650622
0.000000 0.678411 0.000000
0.000000 0.678143 0.000000
0.000000 0.677628 0.000000
0.000000 0.677997 0.000000
0.612383 0.663813 0.000000
0.916385 0.579203 0.000000
1.000000 0.608023 0.000000
1.000000 0.616153 0.388591
1.000000 0.770822 0.651386
0.000000 0.857138 0.000000
0.000000 0.856941 0.000000
0.000000 0.856319 0.000000
0.000000 0.854442 0.000000
0.441481 0.847834 0.000000
0.852538 0.834762 0.000000
1.000000 0.771055 0.000000
1.000000 0.819276 0.251513
1.000000 0.826144 0.650615
0.525438 0.946027 0.000000
0.525438 0.946027 0.000000
0.537539 0.945664 0.000000
0.560727 0.944937 0.000000
0.651339 0.941671 0.000000
0.796627 0.934964 0.000000
0.966907 0.925072 0.000000
1.000000 0.888554 0.170219
1.000000 0.934216 0.583736
0.834018 0.990803 0.268378
0.834018 0.990803 0.268378
0.836017 0.990697 0.268733
0.839955 0.990488 0.269457
0.847589 0.990077 0.270947
0.871905 0.988732 0.276647
0.934982 0.984991 0.300758
1.000000 0.978224 0.428440
1.000000 0.960556 0.585439
0.000000 0.000000 0.076662
0.000000 0.000000 0.061637
0.094876 0.000000 0.044901
0.248031 0.000000 0.035791
0.488243 0.000000 0.048229
0.824539 0.000000 0.093494
1.000000 0.000000 0.209736
1.000000 0.441573 0.413856
1.000000 0.741735 0.656804
0.000000 0.000000 0.092135
0.000000 0.000000 0.079290
0.098370 0.000000 0.060704
0.259646 0.000000 0.050969
0.508906 0.000000 0.052209
0.824388 0.000000 0.092937
1.000000 0.000000 0.209389
1.000000 0.441573 0.413856
1.000000 0.741735 0.656804
0.000000 0.078983 0.151153
0.000000 0.091076 0.142530
0.101097 0.116043 0.134412
0.309742 0.000000 0.069307
0.535761 0.000000 0.052533
0.831620 0.000000 0.093454
1.000000 0.000000 0.209021
1.000000 0.444813 0.413708
1.000000 0.743683 0.656741
0.000000 0.242719 0.000000
0.000000 0.260049 0.000000
0.000000 0.291048 0.000000
0.334280 0.270210 0.000000
0.589783 0.122806 0.000000
0.843335 0.000000 0.085023
1.000000 0.000000 0.209066
1.000000 0.460706 0.410101
1.000000 0.743683 0.656741
0.000000 0.456333 0.000000
0.000000 0.461946 0.000000
0.000000 0.473079 0.000000
0.000000 0.474282 0.000000
0.657275 0.400462 0.000000
0.871004 0.350243 0.000000
1.000000 0.292264 0.194397
1.000000 0.496354 0.400308
1.000000 0.751386 0.656505
0.000000 0.678470 0.000000
0.000000 0.678191 0.000000
0.000000 0.677693 0.000000
0.000000 0.678152 0.000000
0.607473 0.664078 0.000000
0.916385 0.579203 0.000000
1.000000 0.619648 0.000000
1.000000 0.616447 0.391447
1.000000 0.771229 0.657226
0.000000 0.857331 0.000000
0.000000 0.856941 0.000000
0.000000 0.856426 0.000000
0.000000 0.854569 0.000000
0.434251 0.848021 0.000000
0.852538 0.834762 0.000000
1.000000 0.771055 0.000000
1.000000 0.821973 0.263024
1.000000 0.826305 0.653471
0.525438 0.946027 0.000000
0.525438 0.946027 0.000000
0.537539 0.945664 0.000000
0.560727 0.944937 0.000000
0.651339 0.941671 0.000000
0.796627 0.934964 0.000000
0.966907 0.925072 0.000000
1.000000 0.888554 0.170219
1.000000 0.934355 0.588158
0.834018 0.990803 0.268378
0.834018 0.990803 0.268378
0.836017 0.990697 0.268733
0.839955 0.990488 0.269457
0.847589 0.990077 0.270947
0.871905 0.988732 0.276647
0.934982 0.984991 0.300758
1.000000 0.978224 0.428440
1.000000 0.960556 0.585439
0.000000 0.000000 0.165255
0.000000 0.000000 0.112050
0.056712 0.000000 0.095870
0.237839 0.000000 0.055288
0.452003 0.000000 0.094677
0.815395 0.000000 0.147190
1.000000 0.000000 0.237846
1.000000 0.438931 0.425256
1.000000 0.741968 0.659753
0.000000 0.000000 0.184351
0.000000 0.000000 0.152479
0.038411 0.000000 0.133735
0.239677 0.000000 0.084517
0.477849 0.000000 0.121169
0.821834 0.000000 0.151117
1.000000 0.000000 0.241354
1.000000 0.442181 0.425114
1.000000 0.741968 0.659753
0.000000 0.000000 0.257516
0.000000 0.000000 0.236661
0.000000 0.020234 0.226047
0.278169 0.000000 0.178818
0.518126 0.000000 0.152848
0.835614 0.000000 0.154414
1.000000 0.000000 0.240974
1.000000 0.445431 0.424971
1.000000 0.743914 0.659690
0.000000 0.179533 0.343265
0.000000 0.200522 0.329167
0.000000 0.255598 0.321820
0.286083 0.305825 0.330499
0.611292 0.102183 0.209063
0.859703 0.000000 0.159552
1.000000 0.000000 0.241450
1.000000 0.455744 0.424758
1.000000 0.743914 0.659690
0.000000 0.458732 0.177491
0.000000 0.478831 0.166671
0.000000 0.510008 0.151677
0.000000 0.557074 0.111219
0.619160 0.538603 0.000000
0.890487 0.372531 0.120717
1.000000 0.298225 0.233758
1.000000 0.494451 0.417347
1.000000 0.751610 0.659452
0.000000 0.689978 0.000000
0.000000 0.689621 0.000000
0.000000 0.698211 0.000000
0.000000 0.704918 0.000000
0.417246 0.695001 0.000000
0.886040 0.613596 0.000000
1.000000 0.640783 0.106792
1.000000 0.618217 0.408760
1.000000 0.771432 0.660144
0.000000 0.857426 0.000000
0.000000 0.857138 0.000000
0.000000 0.856531 0.000000
0.000000 0.854695 0.000000
0.426905 0.848207 0.000000
0.852538 0.834762 0.000000
1.000000 0.771055 0.000000
1.000000 0.829716 0.302725
1.000000 0.826626 0.659164
0.519251 0.946207 0.000000
0.525438 0.946027 0.000000
0.531533 0.945845 0.000000
0.555050 0.945119 0.000000
0.646816 0.941850 0.000000
0.796627 0.934964 0.000000
0.966907 0.925072 0.000000
1.000000 0.888554 0.170219
1.000000 0.935247 0.593231
0.834018 0.990803 0.268378
0.834018 0.990803 0.268378
0.836017 0.990697 0.268733
0.839955 0.990488 0.269457
0.847589 0.990077 0.270947
0.871905 0.988732 0.276647
0.933811 0.985064 0.300114
1.000000 0.978224 0.428440
1.000000 0.960556 0.585439
0.000000 0.000000 0.255778
0.000000 0.000000 0.176817
0.000000 0.000000 0.155707
0.204941 0.000000 0.132483
0.421473 0.000000 0.079838
0.764175 0.000000 0.268743
1.000000 0.000000 0.337401
1.000000 0.437524 0.466231
1.000000 0.741187 0.674462
0.000000 0.000000 0.285494
0.000000 0.000000 0.241250
0.000000 0.000000 0.214343
0.197472 0.000000 0.187423
0.421473 0.000000 0.079838
0.778942 0.000000 0.283292
1.000000 0.000000 0.337645
1.000000 0.438117 0.466377
1.000000 0.741187 0.674462
0.000000 0.000000 0.374880
0.000000 0.000000 0.346765
0.000000 0.000000 0.327062
0.165000 0.000000 0.301116
0.434304 0.000000 0.178570
0.809910 0.000000 0.297518
1.000000 0.000000 0.340780
1.000000 0.441393 0.466249
1.000000 0.743133 0.674395
0.000000 0.051818 0.490149
0.000000 0.075018 0.466841
0.000000 0.093705 0.458861
0.059252 0.115668 0.474112
0.578962 0.000000 0.408386
0.848297 0.000000 0.346442
1.000000 0.000000 0.347526
1.000000 0.452084 0.469052
1.000000 0.745070 0.674330
0.000000 0.320719 0.587402
0.000000 0.355372 0.567720
0.000000 0.422682 0.554862
0.000000 0.517819 0.584424
0.590895 0.574458 0.604085
0.902728 0.368174 0.442151
1.000000 0.292757 0.359847
1.000000 0.496341 0.467894
1.000000 0.748917 0.674203
0.000000 0.736108 0.398272
0.000000 0.743547 0.395099
0.000000 0.755858 0.390163
0.000000 0.773450 0.387190
0.147135 0.804012 0.374944
0.849775 0.780037 0.333388
1.000000 0.666461 0.331514
1.000000 0.616863 0.459805
1.000000 0.772020 0.674263
0.000000 0.892820 0.000000
0.000000 0.892657 0.000000
0.000000 0.892058 0.000000
0.000000 0.890249 0.000000
0.000000 0.889862 0.000000
0.700536 0.874247 0.000000
0.962472 0.824254 0.000000
1.000000 0.836161 0.416357
1.000000 0.827430 0.673276
0.506589 0.946568 0.000000
0.512970 0.946388 0.000000
0.519251 0.946207 0.000000
0.549295 0.945301 0.000000
0.632917 0.942391 0.000000
0.793786 0.935113 0.000000
0.966907 0.925072 0.000000
1.000000 0.888558 0.162654
1.000000 0.936947 0.625874
0.831999 0.990910 0.268026
0.834018 0.990803 0.268378
0.834018 0.990803 0.268378
0.836017 0.990697 0.268733
0.847589 0.990077 0.270947
0.871905 0.988732 0.276647
0.933811 0.985064 0.300114
1.000000 0.978224 0.428440
1.000000 0.960556 0.585439
0.000000 0.000000 0.304585
0.000000 0.000000 0.259062
0.000000 0.000000 0.242743
0.137024 0.000000 0.235290
0.384626 0.000000 0.177431
0.668602 0.000000 0.116660
1.000000 0.000000 0.513492
1.000000 0.418181 0.575018
1.000000 0.739769 0.711335
0.000000 0.000000 0.329224
0.000000 0.000000 0.283632
0.000000 0.000000 0.264157
0.137024 0.000000 0.235290
0.384626 0.000000 0.177431
0.668602 0.000000 0.116660
1.000000 0.000000 0.517867
1.000000 0.421847 0.575167
1.000000 0.739769 0.711335
0.000000 0.000000 0.464349
0.000000 0.000000 0.423932
0.000000 0.000000 0.406074
0.000000 0.000000 0.376795
0.391342 0.000000 0.276114
0.668602 0.000000 0.116660
1.000000 0.000000 0.529003
1.000000 0.425454 0.578368
1.000000 0.739769 0.711335
0.000000 0.000000 0.619052
0.000000 0.000000 0.593278
0.000000 0.000000 0.585468
0.000000 0.030115 0.600422
0.377427 0.000000 0.572041
0.751994 0.000000 0.404740
1.000000 0.000000 0.547642
1.000000 0.440655 0.578959
1.000000 0.741956 0.714030
0.000000 0.159178 0.726861
0.000000 0.183811 0.705285
0.000000 0.216896 0.697012
0.000000 0.255400 0.711979
0.321947 0.292518 0.744000
0.896757 0.000000 0.671596
1.000000 0.169794 0.606937
1.000000 0.484570 0.586803
1.000000 0.748305 0.714035
0.000000 0.515563 0.803889
0.000000 0.544434 0.790874
0.000000 0.602720 0.774022
0.000000 0.700700 0.784481
0.000000 0.781844 0.806527
0.821002 0.803490 0.818037
1.000000 0.671915 0.685987
1.000000 0.623564 0.604768
1.000000 0.771358 0.713742
0.000000 0.914430 0.657019
0.000000 0.914924 0.658430
0.000000 0.916744 0.659959
0.000000 0.919789 0.662847
0.000000 0.925297 0.658138
0.660955 0.923733 0.640763
0.944830 0.909260 0.622287
1.000000 0.847404 0.601611
1.000000 0.828202 0.711623
0.065253 0.980662 0.208294
0.119141 0.980528 0.208385
0.151160 0.980392 0.208477
0.246441 0.979696 0.208954
0.400167 0.977231 0.200277
0.621812 0.973723 0.202986
0.879394 0.961827 0.188446
1.000000 0.936731 0.176133
1.000000 0.939180 0.703765
0.829959 0.991017 0.267677
0.829959 0.991017 0.267677
0.829959 0.991017 0.267677
0.834018 0.990803 0.268378
0.843813 0.990281 0.270194
0.868610 0.988918 0.275785
0.931435 0.985211 0.298843
1.000000 0.978224 0.428440
1.000000 0.960556 0.585439
0.000000 0.000000 0.358268
0.000000 0.000000 0.351380
0.000000 0.000000 0.344554
0.090349 0.000000 0.337398
0.346737 0.000000 0.334462
0.615863 0.000000 0.241499
0.903923 0.000000 0.176644
1.000000 0.206839 0.753109
1.000000 0.724855 0.794004
0.000000 0.000000 0.358268
0.000000 0.000000 0.351380
0.000000 0.000000 0.344555
0.090349 0.000000 0.337398
0.346737 0.000000 0.334462
0.615863 0.000000 0.241499
0.903923 0.000000 0.176644
1.000000 0.211966 0.756041
1.000000 0.724855 0.794004
0.000000 0.000000 0.360605
0.000000 0.000000 0.351380
0.000000 0.000000 0.344555
0.086703 0.000000 0.337418
0.344138 0.000000 0.334497
0.615863 0.000000 0.241499
0.903923 0.000000 0.176644
1.000000 0.232466 0.756733
1.000000 0.727199 0.794093
0.000000 0.000000 0.703996
0.000000 0.000000 0.699170
0.000000 0.000000 0.698140
0.000000 0.000000 0.693329
0.178840 0.000000 0.658842
0.651821 0.000000 0.456465
0.903940 0.000000 0.174093
1.000000 0.275211 0.760816
1.000000 0.729531 0.794183
0.000000 0.119207 0.810652
0.000000 0.122571 0.813526
0.000000 0.134133 0.812621
0.000000 0.155350 0.824249
0.000000 0.171436 0.837163
0.700507 0.000000 0.818502
1.000000 0.000000 0.676775
1.000000 0.374149 0.779663
1.000000 0.739268 0.796590
0.000000 0.342098 0.877411
0.000000 0.364911 0.875267
0.000000 0.389650 0.872281
0.000000 0.436961 0.878031
0.000000 0.498473 0.889783
0.621360 0.546342 0.897629
1.000000 0.437394 0.861328
1.000000 0.546435 0.811470
1.000000 0.766262 0.799767
0.000000 0.697127 0.924036
0.000000 0.706710 0.922359
0.000000 0.768031 0.905498
0.000000 0.834495 0.903940
0.000000 0.892977 0.910956
0.462461 0.919873 0.916862
0.925785 0.921398 0.921785
1.000000 0.849677 0.849432
1.000000 0.830962 0.807702
0.000000 0.989985 0.844254
0.000000 0.989932 0.844412
0.000000 0.989767 0.844884
0.000000 0.989984 0.845606
0.000000 0.989838 0.844789
0.556369 0.987456 0.845023
0.855281 0.981370 0.836918
0.989460 0.975482 0.828143
1.000000 0.945051 0.812135
0.724226 1.000000 0.622756
0.724226 1.000000 0.622756
0.724226 1.000000 0.622756
0.731626 1.000000 0.622911
0.739530 1.000000 0.625321
0.771507 1.000000 0.624539
0.846828 1.000000 0.621504
0.960337 1.000000 0.623199
1.000000 0.990812 0.620901
0.000000 0.000000 0.470203
0.000000 0.000000 0.467297
0.000000 0.000000 0.464354
0.096381 0.000000 0.464006
0.308639 0.000000 0.453806
0.601106 0.000000 0.412724
0.853987 0.000000 0.318783
1.000000 0.000000 0.250522
1.000000 0.616260 0.895335
0.000000 0.000000 0.470203
0.000000 0.000000 0.467297
0.000000 0.000000 0.464363
0.096381 0.000000 0.464006
0.308639 0.000000 0.453806
0.601106 0.000000 0.412724
0.853987 0.000000 0.318783
1.000000 0.000000 0.250522
1.000000 0.616260 0.895335
0.000000 0.000000 0.470203
0.000000 0.000000 0.467297
0.000000 0.000000 0.464363
0.096381 0.000000 0.464006
0.308639 0.000000 0.453806
0.601106 0.000000 0.412724
0.853987 0.000000 0.318783
1.000000 0.000000 0.248907
1.000000 0.619004 0.896637
0.000000 0.000000 0.470208
0.000000 0.000000 0.467300
0.000000 0.000000 0.464363
0.096381 0.000000 0.464006
0.308639 0.000000 0.453806
0.601106 0.000000 0.412724
0.853987 0.000000 0.318783
1.000000 0.000000 0.248907
1.000000 0.624576 0.896633
0.000000 0.038420 0.893147
0.000000 0.038674 0.894737
0.000000 0.044678 0.897455
0.000000 0.056992 0.897582
0.000000 0.019103 0.896909
0.470811 0.000000 0.880371
0.933433 0.000000 0.763701
1.000000 0.000000 0.248907
1.000000 0.648463 0.900172
0.000000 0.299095 0.945564
0.000000 0.300459 0.946594
0.000000 0.307563 0.946182
0.000000 0.326076 0.948349
0.000000 0.361910 0.952811
0.370938 0.389718 0.954985
0.952552 0.284302 0.942780
1.000000 0.000000 0.876641
1.000000 0.703035 0.904422
0.000000 0.588150 0.966979
0.000000 0.604180 0.964831
0.000000 0.618547 0.964872
0.000000 0.648113 0.964486
0.000000 0.700312 0.966625
0.000000 0.758884 0.968362
0.840242 0.780485 0.966808
1.000000 0.722274 0.950406
1.000000 0.796260 0.917796
0.000000 0.860963 0.987324
0.000000 0.860963 0.987324
0.000000 0.860963 0.987324
0.000000 0.931350 0.971017
0.000000 0.968113 0.972268
0.000000 0.980766 0.975584
0.779530 0.982634 0.976470
0.975155 0.982495 0.975714
1.000000 0.947120 0.943786
0.663304 1.000000 0.937046
0.663304 1.000000 0.937046
0.666224 1.000000 0.937122
0.669183 1.000000 0.936479
0.686305 1.000000 0.936940
0.731988 1.000000 0.936116
0.819696 1.000000 0.935122
0.940045 1.000000 0.934269
1.000000 1.000000 0.929831
0.194019 0.000000 0.590703
0.199596 0.000000 0.590663
0.213397 0.000000 0.590559
0.251633 0.000000 0.590237
0.368107 0.000000 0.586019
0.607656 0.000000 0.583559
0.843618 0.000000 0.505263
1.000000 0.000000 0.411788
1.000000 0.000000 0.343720
0.194019 0.000000 0.590703
0.199596 0.000000 0.590663
0.213397 0.000000 0.590559
0.251633 0.000000 0.590237
0.368107 0.000000 0.586019
0.607656 0.000000 0.583559
0.843618 0.000000 0.505263
1.000000 0.000000 0.411788
1.000000 0.000000 0.343720
0.194019 0.000000 0.590703
0.199596 0.000000 0.590663
0.213397 0.000000 0.590559
0.251633 0.000000 0.590237
0.368107 0.000000 0.586019
0.607656 0.000000 0.583559
0.843618 0.000000 0.505263
1.000000 0.000000 0.411788
1.000000 0.000000 0.343720
0.188400 0.000000 0.590742
0.196812 0.000000 0.590683
0.213397 0.000000 0.590559
0.251633 0.000000 0.590237
0.368107 0.000000 0.586019
0.607656 0.000000 0.583559
0.843618 0.000000 0.505263
1.000000 0.000000 0.411788
1.000000 0.000000 0.343720
0.188400 0.000000 0.590742
0.196812 0.000000 0.590683
0.207896 0.000000 0.590601
0.248901 0.000000 0.590261
0.368107 0.000000 0.586019
0.607656 0.000000 0.583559
0.843618 0.000000 0.505263
1.000000 0.000000 0.411788
1.000000 0.000000 0.343720
0.000000 0.231980 0.992799
0.000000 0.234087 0.992973
0.000000 0.234499 0.993370
0.000000 0.241144 0.992966
0.000000 0.244034 0.994831
0.333091 0.235062 0.990927
0.788920 0.000000 0.979340
1.000000 0.000000 0.934720
1.000000 0.000000 0.343720
0.000000 0.549715 1.000000
0.000000 0.549888 1.000000
0.000000 0.551282 1.000000
0.000000 0.561317 1.000000
0.000000 0.582763 1.000000
0.000000 0.617471 1.000000
0.685389 0.641075 1.000000
1.000000 0.606183 0.996494
1.000000 0.483254 0.965978
0.000000 0.829243 1.000000
0.000000 0.830143 1.000000
0.000000 0.831970 1.000000
0.000000 0.842349 1.000000
0.000000 0.863998 1.000000
0.000000 0.889404 1.000000
0.529935 0.903448 1.000000
0.934541 0.906459 1.000000
1.000000 0.882420 0.992157
0.000000 0.957167 1.000000
0.000000 0.957167 1.000000
0.000000 0.957167 1.000000
0.000000 0.957167 1.000000
0.000000 1.000000 1.000000
0.000000 1.000000 1.000000
0.623542 1.000000 1.000000
0.906730 1.000000 1.000000
1.000000 1.000000 1.000000
