Assets/Lutify-Free-LUTs-Pack/Lutify Free LUTs Pack/Colour Film Boost Pro - Film Boost 10/Lutify.me-FilmBoost10-BMDFilmGen4-to-Rec709.cube
# Created with: fylm.ai - Colour Grading and Collaboration Software in Cloud 
# Website: https://fylm.ai 
# META
# Option: Gamut compress
# Block 1: IDT | BMD Wide Gamut BMDFilm Gen 4
# Block 2: colourMatch | Blending Mode: Normal | {"ColorSpace":0,"CrossCovarianceLimit":50,"ReshapingIterations":1,"PercentSaturationShift":100,"PercentShadingShift":100,"ExtraShading":true,"PercentTint":100,"PercentModified":100}
# Block 3: subtractiveColour | Blending Mode: Normal | {"sliders":{"gainY":0.55,"C":0.3,"M":0.3,"Y":0.3}}
# Block 4: LUT | Filmic Curve Response: Low Contrast 2 (100%)
# Block 5: logPrimaries | Blending Mode: Normal | {"wheels":{"shadows":{"Y":"0","R":"1","G":"1","B":"1"},"midtones":{"Y":"0","R":"1","G":"1","B":"1"},"highlights":{"Y":"0","R":"1","G":"1","B":"1"},"offset":{"Y":"0","R":"1","G":"1","B":"1"}},"sliders":{"shadows":{"Y":0,"R":-0.085,"G":0.024,"B":0.134},"midtones":{"Y":0,"R":0,"G":-0.023,"B":0},"highlights":{"Y":0,"R":0,"G":0,"B":0},"offset":{"Y":0,"R":0.012,"G":-0.012,"B":0}}}
# Block 6: HSL | Blending Mode: Normal | {"hue":{"Reds":0,"Yellows":0,"Greens":0,"Cyans":0,"Blues":0,"Magentas":0},"saturation":{"Reds":1,"Yellows":1,"Greens":1,"Cyans":1,"Blues":1,"Magentas":1},"luminance":{"Reds":0.9,"Yellows":0.9,"Greens":0.9,"Cyans":0.9,"Blues":0.9,"Magentas":0.9},"lum_sat":{"Blacks":1,"Shadows":1,"Midtones":1,"Highlights":1,"Whites":1},"sat_sat":{"10":1,"20":1,"30":1,"40":1,"50":1}}
# Block 7: ODT | Rec709
TITLE "Lutify.me-FilmBoost10-BMDFilmGen4-to-Rec709" 
LUT_3D_SIZE 5
0.000000 0.000000 0.000000
0.165598 0.000000 0.000000
0.414907 0.000000 0.000000
0.758402 0.000000 0.000000
1.000000 0.174230 0.146923
0.000000 0.167471 0.000000
0.242988 0.163292 0.000000
0.478420 0.000000 0.000000
0.775737 0.000000 0.000000
1.000000 0.221892 0.146787
0.000000 0.402019 0.000000
0.000000 0.414069 0.000000
0.569695 0.358562 0.000000
0.816152 0.313482 0.000000
1.000000 0.353592 0.132626
0.000000 0.697349 0.000000
0.000000 0.693686 0.000000
0.377981 0.692748 0.000000
0.842124 0.618242 0.000000
1.000000 0.646962 0.000000
0.000000 0.901999 0.000000
0.138271 0.902485 0.000000
0.409258 0.901462 0.000000
0.746660 0.889311 0.000000
0.958105 0.848287 0.000000
0.000000 0.000000 0.096380
0.144592 0.000000 0.063184
0.406727 0.000000 0.078640
0.775655 0.000000 0.093312
1.000000 0.177103 0.186448
0.000000 0.131313 0.226772
0.169867 0.199612 0.224254
0.485672 0.028398 0.116680
0.789046 0.000000 0.088870
1.000000 0.219086 0.186313
0.000000 0.438778 0.112843
0.000000 0.476347 0.000000
0.535949 0.459778 0.000000
0.835173 0.344469 0.000000
1.000000 0.356772 0.183243
0.000000 0.735019 0.000000
0.000000 0.739896 0.000000
0.312818 0.738180 0.000000
0.833125 0.693073 0.000000
1.000000 0.656177 0.108853
0.000000 0.911060 0.000000
0.121560 0.909932 0.000000
0.413922 0.906894 0.000000
0.741717 0.896613 0.000000
0.955549 0.869859 0.000000
0.000000 0.000000 0.182503
0.093585 0.000000 0.168392
0.355451 0.000000 0.120387
0.765198 0.000000 0.260289
1.000000 0.178272 0.286437
0.000000 0.031015 0.350283
0.000000 0.043386 0.358152
0.466050 0.000000 0.314549
0.796889 0.000000 0.291252
1.000000 0.226464 0.287447
0.000000 0.376531 0.499751
0.000000 0.447020 0.526708
0.515132 0.509813 0.538228
0.855198 0.360621 0.372063
1.000000 0.355596 0.293768
0.000000 0.750659 0.429336
0.000000 0.766123 0.425892
0.248813 0.781873 0.407867
0.830428 0.763910 0.349245
1.000000 0.680294 0.296488
0.000000 0.920619 0.376260
0.000000 0.920761 0.369761
0.397943 0.919227 0.364429
0.736031 0.911860 0.337839
0.956753 0.892992 0.272590
0.000000 0.000000 0.269272
0.087564 0.000000 0.268756
0.334738 0.000000 0.275555
0.642025 0.000000 0.277827
1.000000 0.000000 0.549431
0.000000 0.000000 0.511704
0.000000 0.000000 0.510290
0.307468 0.000000 0.508755
0.744736 0.000000 0.453779
1.000000 0.098955 0.557728
0.000000 0.183370 0.657452
0.000000 0.200891 0.669303
0.297037 0.219230 0.688533
0.859957 0.000000 0.647730
1.000000 0.315190 0.583281
0.000000 0.691116 0.781755
0.000000 0.719409 0.785347
0.000000 0.763753 0.794495
0.802514 0.790888 0.803692
0.991592 0.703741 0.667305
0.000000 0.927019 0.732648
0.000000 0.926910 0.731205
0.298799 0.927070 0.725576
0.717981 0.925428 0.715718
0.944920 0.915033 0.677297
0.178657 0.000000 0.336628
0.226105 0.000000 0.342741
0.349264 0.000000 0.372061
0.627572 0.000000 0.448581
0.965261 0.000000 0.577956
0.000000 0.000000 0.643593
0.000000 0.000000 0.647951
0.232906 0.000000 0.649727
0.644230 0.000000 0.676177
0.994872 0.000000 0.657386
0.000000 0.131625 0.815769
0.000000 0.132837 0.820148
0.146648 0.131161 0.820780
0.675629 0.000000 0.816231
1.000000 0.000000 0.764620
0.000000 0.454253 0.882659
0.000000 0.457441 0.885269
0.000000 0.483378 0.888674
0.663133 0.502611 0.891899
1.000000 0.488544 0.869217
0.000000 0.904499 0.917612
0.000000 0.904930 0.918477
0.000000 0.912409 0.920939
0.645347 0.919308 0.923215
0.930356 0.926171 0.926540
