Assets/Lutify-Free-LUTs-Pack/Lutify Free LUTs Pack/Colour Film Boost Pro - Film Boost 10/Lutify.me-FilmBoost10-SLog3Cine-to-Rec709.cube
# Created with: fylm.ai - Colour Grading and Collaboration Software in Cloud 
# Website: https://fylm.ai 
# META
# Option: Gamut compress
# Block 1: IDT | Sony S-Log3 S-Gamut3.Cine
# Block 2: colourMatch | Blending Mode: Normal | {"ColorSpace":0,"CrossCovarianceLimit":50,"ReshapingIterations":1,"PercentSaturationShift":100,"PercentShadingShift":100,"ExtraShading":true,"PercentTint":100,"PercentModified":100}
# Block 3: subtractiveColour | Blending Mode: Normal | {"sliders":{"gainY":0.55,"C":0.3,"M":0.3,"Y":0.3}}
# Block 4: LUT | Filmic Curve Response: Low Contrast 2 (100%)
# Block 5: logPrimaries | Blending Mode: Normal | {"wheels":{"shadows":{"Y":"0","R":"1","G":"1","B":"1"},"midtones":{"Y":"0","R":"1","G":"1","B":"1"},"highlights":{"Y":"0","R":"1","G":"1","B":"1"},"offset":{"Y":"0","R":"1","G":"1","B":"1"}},"sliders":{"shadows":{"Y":0,"R":-0.085,"G":0.024,"B":0.134},"midtones":{"Y":0,"R":0,"G":-0.023,"B":0},"highlights":{"Y":0,"R":0,"G":0,"B":0},"offset":{"Y":0,"R":0.012,"G":-0.012,"B":0}}}
# Block 6: HSL | Blending Mode: Normal | {"hue":{"Reds":0,"Yellows":0,"Greens":0,"Cyans":0,"Blues":0,"Magentas":0},"saturation":{"Reds":1,"Yellows":1,"Greens":1,"Cyans":1,"Blues":1,"Magentas":1},"luminance":{"Reds":0.9,"Yellows":0.9,"Greens":0.9,"Cyans":0.9,"Blues":0.9,"Magentas":0.9},"lum_sat":{"Blacks":1,"Shadows":1,"Midtones":1,"Highlights":1,"Whites":1},"sat_sat":{"10":1,"20":1,"30":1,"40":1,"50":1}}
# Block 7: ODT | Rec709
TITLE "Lutify.me-FilmBoost10-SLog3Cine-to-Rec709" 
LUT_3D_SIZE 33
0.000000 0.000000 0.000000
0.000000 0.000000 0.000000
0.000000 0.000000 0.000000
0.000000 0.000000 0.000000
0.000000 0.000000 0.000000
0.000000 0.000000 0.000000
0.038544 0.000000 0.000000
0.073268 0.000000 0.000000
0.103865 0.000000 0.000000
0.129017 0.000000 0.000000
0.158273 0.000000 0.000000
0.187107 0.000000 0.000000
0.222744 0.000000 0.000000
0.262181 0.000000 0.000000
0.312355 0.000000 0.000000
0.361590 0.000000 0.000000
0.410248 0.000000 0.000000
0.478026 0.000000 0.000000
0.549470 0.000000 0.000000
0.616264 0.000000 0.000000
0.690291 0.000000 0.000000
0.767451 0.000000 0.011362
0.844805 0.000000 0.040276
0.906569 0.000000 0.064604
0.966523 0.000000 0.091061
1.000000 0.000000 0.120884
1.000000 0.000000 0.157497
1.000000 0.055520 0.194091
1.000000 0.237141 0.238404
1.000000 0.339162 0.290044
1.000000 0.427218 0.339306
1.000000 0.504406 0.399162
1.000000 0.581568 0.454792
0.000000 0.000000 0.000000
0.000000 0.000000 0.000000
0.000000 0.000000 0.000000
0.000000 0.000000 0.000000
0.000000 0.000000 0.000000
0.000000 0.000000 0.000000
0.046765 0.000000 0.000000
0.076751 0.000000 0.000000
0.108626 0.000000 0.000000
0.132652 0.000000 0.000000
0.161075 0.000000 0.000000
0.191760 0.000000 0.000000
0.227327 0.000000 0.000000
0.269407 0.000000 0.000000
0.318638 0.000000 0.000000
0.369269 0.000000 0.000000
0.415521 0.000000 0.000000
0.484004 0.000000 0.000000
0.549507 0.000000 0.000000
0.619881 0.000000 0.000000
0.690295 0.000000 0.000000
0.767438 0.000000 0.007718
0.845352 0.000000 0.042193
0.906514 0.000000 0.064236
0.966473 0.000000 0.090887
1.000000 0.000000 0.120884
1.000000 0.000000 0.157125
1.000000 0.075290 0.193888
1.000000 0.237141 0.238404
1.000000 0.339162 0.290044
1.000000 0.430464 0.339116
1.000000 0.507432 0.398995
1.000000 0.581568 0.454792
0.000000 0.000000 0.000000
0.000000 0.000000 0.000000
0.000000 0.000000 0.000000
0.000000 0.000000 0.000000
0.000000 0.000000 0.000000
0.004808 0.000000 0.000000
0.054103 0.000000 0.000000
0.082607 0.000000 0.000000
0.112023 0.000000 0.000000
0.136748 0.000000 0.000000
0.165306 0.000000 0.000000
0.197202 0.000000 0.000000
0.235057 0.000000 0.000000
0.275148 0.000000 0.000000
0.323532 0.000000 0.000000
0.374531 0.000000 0.000000
0.425851 0.000000 0.000000
0.484266 0.000000 0.000000
0.553004 0.000000 0.000000
0.619900 0.000000 0.000000
0.690558 0.000000 0.000000
0.770916 0.000000 0.000000
0.845306 0.000000 0.041380
0.906743 0.000000 0.065026
0.966585 0.000000 0.091576
1.000000 0.000000 0.120517
1.000000 0.000000 0.157125
1.000000 0.075290 0.193888
1.000000 0.241777 0.238184
1.000000 0.342784 0.289841
1.000000 0.430464 0.339116
1.000000 0.507432 0.398995
1.000000 0.581568 0.454792
0.000000 0.000000 0.000000
0.000000 0.000000 0.000000
0.000000 0.000000 0.000000
0.000000 0.000000 0.000000
0.000000 0.000000 0.000000
0.036015 0.000000 0.000000
0.064407 0.000000 0.000000
0.091296 0.000000 0.000000
0.117253 0.000000 0.000000
0.141438 0.000000 0.000000
0.171054 0.000000 0.000000
0.201676 0.000000 0.000000
0.240254 0.000000 0.000000
0.281235 0.000000 0.000000
0.332236 0.000000 0.000000
0.379167 0.000000 0.000000
0.428508 0.000000 0.000000
0.490302 0.000000 0.000000
0.559528 0.000000 0.000000
0.626903 0.000000 0.000000
0.694272 0.000000 0.000000
0.771449 0.000000 0.009132
0.848639 0.000000 0.040813
0.909634 0.000000 0.064664
0.966532 0.000000 0.091395
1.000000 0.000000 0.120136
1.000000 0.000000 0.156934
1.000000 0.075290 0.193888
1.000000 0.241777 0.238184
1.000000 0.343094 0.292007
1.000000 0.430464 0.339116
1.000000 0.507432 0.398995
1.000000 0.581568 0.454792
0.000000 0.019268 0.000000
0.000000 0.019476 0.000000
0.000000 0.019776 0.000000
0.000000 0.021689 0.000000
0.000000 0.024235 0.000000
0.043065 0.010230 0.000000
0.074960 0.000000 0.000000
0.103524 0.000000 0.000000
0.125468 0.000000 0.000000
0.149872 0.000000 0.000000
0.177060 0.000000 0.000000
0.212722 0.000000 0.000000
0.250349 0.000000 0.000000
0.290325 0.000000 0.000000
0.338335 0.000000 0.000000
0.386149 0.000000 0.000000
0.434021 0.000000 0.000000
0.493349 0.000000 0.000000
0.559552 0.000000 0.000000
0.627169 0.000000 0.000000
0.694275 0.000000 0.000000
0.771438 0.000000 0.003261
0.848600 0.000000 0.040109
0.909575 0.000000 0.064267
0.968812 0.000000 0.091135
1.000000 0.000000 0.120136
1.000000 0.000000 0.156934
1.000000 0.090640 0.195263
1.000000 0.241777 0.238184
1.000000 0.343094 0.292007
1.000000 0.430464 0.339116
1.000000 0.507432 0.398995
1.000000 0.581568 0.454792
0.000000 0.046690 0.000000
0.000000 0.045953 0.000000
0.000000 0.047055 0.000000
0.000000 0.048031 0.000000
0.000000 0.048992 0.000000
0.040079 0.048569 0.000000
0.070957 0.038984 0.000000
0.104727 0.015976 0.000000
0.134264 0.000000 0.000000
0.162687 0.000000 0.000000
0.189512 0.000000 0.000000
0.221299 0.000000 0.000000
0.258693 0.000000 0.000000
0.292133 0.000000 0.000000
0.340403 0.000000 0.000000
0.388531 0.000000 0.000000
0.436755 0.000000 0.000000
0.496406 0.000000 0.000000
0.562833 0.000000 0.000000
0.630813 0.000000 0.000000
0.694538 0.000000 0.000000
0.774917 0.000000 0.000000
0.848574 0.000000 0.039609
0.909514 0.000000 0.063853
0.968756 0.000000 0.090945
1.000000 0.000000 0.121662
1.000000 0.000000 0.156934
1.000000 0.090640 0.195263
1.000000 0.241777 0.238184
1.000000 0.343094 0.292007
1.000000 0.430464 0.339116
1.000000 0.507432 0.398995
1.000000 0.581568 0.454792
0.000000 0.060963 0.000000
0.000000 0.061147 0.000000
0.000000 0.062364 0.000000
0.000000 0.066069 0.000000
0.000000 0.067563 0.000000
0.012274 0.067859 0.000000
0.069615 0.062651 0.000000
0.102353 0.053386 0.000000
0.136169 0.034024 0.000000
0.169414 0.000000 0.000000
0.200849 0.000000 0.000000
0.234039 0.000000 0.000000
0.268685 0.000000 0.000000
0.302561 0.000000 0.000000
0.348644 0.000000 0.000000
0.393356 0.000000 0.000000
0.439527 0.000000 0.000000
0.502507 0.000000 0.000000
0.566141 0.000000 0.000000
0.631084 0.000000 0.000000
0.698254 0.000000 0.000000
0.774890 0.000000 0.000000
0.848517 0.000000 0.038521
0.909419 0.000000 0.063197
0.968641 0.000000 0.090551
1.000000 0.000000 0.121268
1.000000 0.000000 0.156738
1.000000 0.112850 0.194842
1.000000 0.246349 0.237962
1.000000 0.343094 0.292007
1.000000 0.430464 0.339116
1.000000 0.507432 0.398995
1.000000 0.581568 0.454792
0.000000 0.082738 0.000000
0.000000 0.082952 0.000000
0.000000 0.084626 0.000000
0.000000 0.089091 0.000000
0.000000 0.090212 0.000000
0.000000 0.092503 0.000000
0.060045 0.089793 0.000000
0.104876 0.083249 0.000000
0.142646 0.065215 0.000000
0.181199 0.045422 0.000000
0.216427 0.000000 0.000000
0.250871 0.000000 0.000000
0.282116 0.000000 0.000000
0.315336 0.000000 0.000000
0.355105 0.000000 0.000000
0.398309 0.000000 0.000000
0.450784 0.000000 0.000000
0.508864 0.000000 0.000000
0.569718 0.000000 0.000000
0.638140 0.000000 0.000000
0.698259 0.000000 0.000000
0.775140 0.000000 0.000000
0.852083 0.000000 0.038695
0.909419 0.000000 0.063197
0.968950 0.000000 0.092286
1.000000 0.000000 0.121065
1.000000 0.000000 0.156741
1.000000 0.113193 0.195068
1.000000 0.246349 0.237962
1.000000 0.346702 0.291803
1.000000 0.433709 0.338925
1.000000 0.507432 0.398995
1.000000 0.581568 0.454792
0.000000 0.108150 0.000000
0.000000 0.106786 0.000000
0.000000 0.110537 0.000000
0.000000 0.115608 0.000000
0.000000 0.117366 0.000000
0.000000 0.119680 0.000000
0.000000 0.117970 0.000000
0.103585 0.115774 0.000000
0.147677 0.104243 0.000000
0.192281 0.085787 0.000000
0.227429 0.062697 0.000000
0.264289 0.000000 0.000000
0.292498 0.000000 0.000000
0.325115 0.000000 0.000000
0.370616 0.000000 0.000000
0.408307 0.000000 0.000000
0.456726 0.000000 0.000000
0.515118 0.000000 0.000000
0.576388 0.000000 0.000000
0.644974 0.000000 0.000000
0.705173 0.000000 0.000000
0.778588 0.000000 0.000000
0.851984 0.000000 0.036717
0.912174 0.000000 0.062028
0.971185 0.000000 0.091993
1.000000 0.000000 0.120647
1.000000 0.000000 0.159331
1.000000 0.122463 0.194852
1.000000 0.255993 0.241210
1.000000 0.346702 0.291803
1.000000 0.433709 0.338925
1.000000 0.510461 0.398827
1.000000 0.587278 0.454485
0.000000 0.135305 0.000000
0.000000 0.137838 0.000000
0.000000 0.142667 0.000000
0.000000 0.146624 0.000000
0.000000 0.150882 0.000000
0.000000 0.154028 0.000000
0.000000 0.151251 0.000000
0.073802 0.149871 0.000000
0.139572 0.149699 0.000000
0.193688 0.130086 0.000000
0.238171 0.112342 0.000000
0.272563 0.089933 0.000000
0.305690 0.061902 0.000000
0.348143 0.000000 0.000000
0.387533 0.000000 0.000000
0.424156 0.000000 0.000000
0.462809 0.000000 0.000000
0.521853 0.000000 0.000000
0.590193 0.000000 0.000000
0.655240 0.000000 0.000000
0.708639 0.000000 0.000000
0.778808 0.000000 0.000000
0.851857 0.000000 0.033864
0.912495 0.000000 0.062842
0.973674 0.000000 0.093433
1.000000 0.000000 0.122672
1.000000 0.000000 0.158924
1.000000 0.130970 0.194632
1.000000 0.260387 0.240984
1.000000 0.353883 0.291389
1.000000 0.433709 0.338925
1.000000 0.510461 0.398827
1.000000 0.587278 0.454485
0.000000 0.166848 0.000000
0.000000 0.171399 0.000000
0.000000 0.178824 0.000000
0.000000 0.178796 0.000000
0.000000 0.182612 0.000000
0.000000 0.186463 0.000000
0.000000 0.186112 0.000000
0.000000 0.185219 0.000000
0.119033 0.183287 0.000000
0.193630 0.177260 0.000000
0.248623 0.155446 0.000000
0.288594 0.136451 0.000000
0.323766 0.114359 0.000000
0.362855 0.088164 0.000000
0.401322 0.027337 0.000000
0.438740 0.000000 0.000000
0.487137 0.000000 0.000000
0.535272 0.000000 0.000000
0.593957 0.000000 0.000000
0.659733 0.000000 0.000000
0.715823 0.000000 0.000000
0.789717 0.000000 0.000000
0.855273 0.000000 0.031060
0.915151 0.000000 0.061147
0.973329 0.000000 0.092284
1.000000 0.000000 0.122188
1.000000 0.000000 0.158695
1.000000 0.147277 0.197392
1.000000 0.265180 0.241000
1.000000 0.357457 0.291178
1.000000 0.436953 0.338732
1.000000 0.513492 0.398657
1.000000 0.587278 0.454485
0.000000 0.204271 0.000000
0.000000 0.212465 0.000000
0.000000 0.215457 0.000000
0.000000 0.215376 0.000000
0.000000 0.219715 0.000000
0.000000 0.220918 0.000000
0.000000 0.220485 0.000000
0.000000 0.219556 0.000000
0.080261 0.217450 0.000000
0.170835 0.217097 0.000000
0.245041 0.205984 0.000000
0.291998 0.183171 0.000000
0.335455 0.162129 0.000000
0.376066 0.144007 0.000000
0.418876 0.115286 0.000000
0.460697 0.075491 0.000000
0.504317 0.000000 0.000000
0.546392 0.000000 0.000000
0.604388 0.000000 0.000000
0.667458 0.000000 0.000000
0.726724 0.000000 0.000000
0.796832 0.000000 0.000000
0.862146 0.000000 0.028157
0.918062 0.000000 0.060087
0.975425 0.000000 0.092622
1.000000 0.000000 0.123763
1.000000 0.000000 0.158249
1.000000 0.167652 0.196922
1.000000 0.273715 0.240532
1.000000 0.361021 0.290964
1.000000 0.440196 0.338538
1.000000 0.513492 0.398657
1.000000 0.590739 0.459888
0.000000 0.250599 0.000000
0.000000 0.253791 0.000000
0.000000 0.253701 0.000000
0.000000 0.253593 0.000000
0.000000 0.256752 0.000000
0.000000 0.259912 0.000000
0.000000 0.259594 0.000000
0.000000 0.258942 0.000000
0.000000 0.257332 0.000000
0.139722 0.254920 0.000000
0.225805 0.252646 0.000000
0.289636 0.239256 0.000000
0.345851 0.212800 0.000000
0.395579 0.194357 0.000000
0.442886 0.169987 0.000000
0.478687 0.151208 0.000000
0.519711 0.116641 0.000000
0.574500 0.000000 0.000000
0.619254 0.000000 0.000000
0.674607 0.000000 0.000000
0.738381 0.000000 0.000000
0.804139 0.000000 0.000000
0.868787 0.000000 0.019601
0.924258 0.000000 0.061879
0.977398 0.000000 0.092767
1.000000 0.000000 0.124823
1.000000 0.000000 0.157515
1.000000 0.191255 0.195931
1.000000 0.286945 0.241942
1.000000 0.365406 0.293236
1.000000 0.443438 0.338341
1.000000 0.519860 0.401020
1.000000 0.593602 0.459734
0.000000 0.292742 0.000000
0.000000 0.292570 0.000000
0.000000 0.296314 0.000000
0.000000 0.298155 0.000000
0.000000 0.299853 0.000000
0.000000 0.303602 0.000000
0.000000 0.305221 0.000000
0.000000 0.302653 0.000000
0.000000 0.303654 0.000000
0.000000 0.302037 0.000000
0.176059 0.301483 0.000000
0.255238 0.295948 0.000000
0.344555 0.279199 0.000000
0.405579 0.255511 0.000000
0.461041 0.235004 0.000000
0.500090 0.216122 0.000000
0.545654 0.192129 0.000000
0.590975 0.165108 0.000000
0.645239 0.113815 0.000000
0.689773 0.000000 0.000000
0.746584 0.000000 0.000000
0.812127 0.000000 0.000000
0.875565 0.000000 0.000000
0.934795 0.000000 0.058096
0.979235 0.000000 0.092679
1.000000 0.000000 0.124660
1.000000 0.053179 0.159073
1.000000 0.207985 0.197012
1.000000 0.295089 0.241448
1.000000 0.375984 0.292583
1.000000 0.447563 0.340982
1.000000 0.522898 0.400849
1.000000 0.596469 0.459580
0.000000 0.345298 0.000000
0.000000 0.345234 0.000000
0.000000 0.345156 0.000000
0.000000 0.345080 0.000000
0.000000 0.349340 0.000000
0.000000 0.349080 0.000000
0.000000 0.351019 0.000000
0.000000 0.352737 0.000000
0.000000 0.351844 0.000000
0.000000 0.350736 0.000000
0.056438 0.351093 0.000000
0.207439 0.345950 0.000000
0.309152 0.340828 0.000000
0.395146 0.330391 0.000000
0.467358 0.298308 0.000000
0.518599 0.275173 0.000000
0.560967 0.260323 0.000000
0.610352 0.236321 0.000000
0.664209 0.205233 0.000000
0.712417 0.167237 0.000000
0.762365 0.115170 0.000000
0.822960 0.000000 0.000000
0.885115 0.000000 0.000000
0.936821 0.000000 0.051756
0.980691 0.000000 0.091453
1.000000 0.000000 0.125056
1.000000 0.120827 0.160838
1.000000 0.234042 0.199407
1.000000 0.312383 0.244768
1.000000 0.386494 0.291907
1.000000 0.457252 0.340385
1.000000 0.530203 0.401295
1.000000 0.599340 0.459425
0.000000 0.395741 0.000000
0.000000 0.395502 0.000000
0.000000 0.395420 0.000000
0.000000 0.395309 0.000000
0.000000 0.395028 0.000000
0.000000 0.394740 0.000000
0.000000 0.399745 0.000000
0.000000 0.401723 0.000000
0.000000 0.401111 0.000000
0.000000 0.400002 0.000000
0.000000 0.400942 0.000000
0.096431 0.401510 0.000000
0.255627 0.395641 0.000000
0.373177 0.387439 0.000000
0.460489 0.374894 0.000000
0.524006 0.342466 0.000000
0.574426 0.323625 0.000000
0.630785 0.301774 0.000000
0.676286 0.281193 0.000000
0.730757 0.258029 0.000000
0.783500 0.225200 0.000000
0.840120 0.169769 0.000000
0.890965 0.058693 0.000000
0.941333 0.000000 0.042753
0.981446 0.000000 0.087038
1.000000 0.114958 0.124009
1.000000 0.189640 0.162459
1.000000 0.271012 0.198884
1.000000 0.331703 0.243443
1.000000 0.404318 0.291034
1.000000 0.464006 0.342489
1.000000 0.536555 0.403657
1.000000 0.603158 0.462487
0.000000 0.455377 0.000000
0.000000 0.455315 0.000000
0.000000 0.455037 0.000000
0.000000 0.454758 0.000000
0.000000 0.454466 0.000000
0.000000 0.456848 0.000000
0.000000 0.456475 0.000000
0.000000 0.458750 0.000000
0.000000 0.460859 0.000000
0.000000 0.462877 0.000000
0.000000 0.467331 0.000000
0.000000 0.460049 0.000000
0.142672 0.462744 0.000000
0.306287 0.458591 0.000000
0.410237 0.453372 0.000000
0.515739 0.433496 0.000000
0.581254 0.404546 0.000000
0.646534 0.373422 0.000000
0.688769 0.357295 0.000000
0.744681 0.339767 0.000000
0.796702 0.311078 0.000000
0.848987 0.280587 0.000000
0.897728 0.238703 0.000000
0.944491 0.188335 0.000000
0.985515 0.171753 0.080453
1.000000 0.198962 0.121368
1.000000 0.246000 0.165365
1.000000 0.300915 0.198493
1.000000 0.362022 0.241409
1.000000 0.418396 0.292294
1.000000 0.474738 0.342601
1.000000 0.545654 0.403128
1.000000 0.608897 0.462176
0.000000 0.526859 0.000000
0.000000 0.526776 0.000000
0.000000 0.526495 0.000000
0.000000 0.526430 0.000000
0.000000 0.526359 0.000000
0.000000 0.525844 0.000000
0.000000 0.525259 0.000000
0.000000 0.524874 0.000000
0.000000 0.526893 0.000000
0.000000 0.528821 0.000000
0.000000 0.530192 0.000000
0.000000 0.531151 0.000000
0.000000 0.529225 0.000000
0.212626 0.525769 0.000000
0.345556 0.521386 0.000000
0.462701 0.511502 0.000000
0.568804 0.500759 0.000000
0.650284 0.457928 0.000000
0.698247 0.435620 0.000000
0.755198 0.423724 0.000000
0.808668 0.404467 0.000000
0.863049 0.379513 0.000000
0.906873 0.353606 0.000000
0.950826 0.321178 0.000000
0.985165 0.283846 0.066671
1.000000 0.283122 0.116696
1.000000 0.303405 0.164845
1.000000 0.341523 0.200365
1.000000 0.388729 0.245508
1.000000 0.439612 0.293342
1.000000 0.491376 0.346648
1.000000 0.555070 0.405320
1.000000 0.614948 0.464666
0.000000 0.592148 0.000000
0.000000 0.592069 0.000000
0.000000 0.592027 0.000000
0.000000 0.591938 0.000000
0.000000 0.591844 0.000000
0.000000 0.591289 0.000000
0.000000 0.591183 0.000000
0.000000 0.591038 0.000000
0.000000 0.587462 0.000000
0.000000 0.589409 0.000000
0.000000 0.591195 0.000000
0.000000 0.592268 0.000000
0.000000 0.593263 0.000000
0.000000 0.590933 0.000000
0.276836 0.586474 0.000000
0.418541 0.580685 0.000000
0.526570 0.570391 0.000000
0.633170 0.557611 0.000000
0.696896 0.525351 0.000000
0.755466 0.502555 0.000000
0.818817 0.479983 0.000000
0.869676 0.461715 0.000000
0.912738 0.444759 0.000000
0.951456 0.420686 0.000000
0.984852 0.397194 0.000000
1.000000 0.367531 0.112686
1.000000 0.367309 0.164015
1.000000 0.388256 0.205004
1.000000 0.418493 0.249361
1.000000 0.460978 0.294678
1.000000 0.511969 0.353554
1.000000 0.571413 0.410303
1.000000 0.626489 0.464036
0.000000 0.652849 0.000000
0.000000 0.652820 0.000000
0.000000 0.652216 0.000000
0.000000 0.652153 0.000000
0.000000 0.652054 0.000000
0.000000 0.651950 0.000000
0.000000 0.651841 0.000000
0.000000 0.651686 0.000000
0.000000 0.650831 0.000000
0.000000 0.650436 0.000000
0.000000 0.649347 0.000000
0.000000 0.650068 0.000000
0.000000 0.654298 0.000000
0.000000 0.655045 0.000000
0.183773 0.652115 0.000000
0.352748 0.647604 0.000000
0.480775 0.643695 0.000000
0.595895 0.633656 0.000000
0.696423 0.618609 0.000000
0.760314 0.586476 0.000000
0.818168 0.563379 0.000000
0.872477 0.536236 0.000000
0.914434 0.525517 0.000000
0.947870 0.509907 0.000000
0.982632 0.494350 0.000000
1.000000 0.468504 0.099169
1.000000 0.431624 0.163492
1.000000 0.437174 0.209776
1.000000 0.461704 0.249984
1.000000 0.495825 0.299271
1.000000 0.538302 0.354850
1.000000 0.587916 0.412945
1.000000 0.639353 0.467080
0.000000 0.722437 0.000000
0.000000 0.722394 0.000000
0.000000 0.722261 0.000000
0.000000 0.721908 0.000000
0.000000 0.721861 0.000000
0.000000 0.721714 0.000000
0.000000 0.721039 0.000000
0.000000 0.720931 0.000000
0.000000 0.720704 0.000000
0.000000 0.720265 0.000000
0.000000 0.719253 0.000000
0.000000 0.718607 0.000000
0.000000 0.720099 0.000000
0.000000 0.717855 0.000000
0.030309 0.717614 0.000000
0.298961 0.714332 0.000000
0.446945 0.705668 0.000000
0.563546 0.702064 0.000000
0.648294 0.694556 0.000000
0.747046 0.679667 0.000000
0.814350 0.653363 0.000000
0.865703 0.627348 0.000000
0.909009 0.614405 0.000000
0.945234 0.597328 0.000000
0.976646 0.583417 0.000000
1.000000 0.560560 0.041447
1.000000 0.532536 0.151038
1.000000 0.505521 0.206967
1.000000 0.511939 0.256387
1.000000 0.537095 0.303384
1.000000 0.571879 0.361483
1.000000 0.610255 0.417602
1.000000 0.654472 0.472409
0.000000 0.774225 0.000000
0.000000 0.774160 0.000000
0.000000 0.774027 0.000000
0.000000 0.773959 0.000000
0.000000 0.775976 0.000000
0.000000 0.775834 0.000000
0.000000 0.775762 0.000000
0.000000 0.775612 0.000000
0.000000 0.775298 0.000000
0.000000 0.775132 0.000000
0.000000 0.774127 0.000000
0.000000 0.773304 0.000000
0.000000 0.771391 0.000000
0.000000 0.769706 0.000000
0.000000 0.773108 0.000000
0.275404 0.772670 0.000000
0.412315 0.768704 0.000000
0.515755 0.764084 0.000000
0.613819 0.760719 0.000000
0.711273 0.753187 0.000000
0.805229 0.739481 0.000000
0.862551 0.709583 0.000000
0.900157 0.691354 0.000000
0.936617 0.678236 0.000000
0.967242 0.665050 0.000000
0.993993 0.652153 0.000000
1.000000 0.634683 0.141414
1.000000 0.607397 0.202331
1.000000 0.585099 0.258180
1.000000 0.591965 0.309652
1.000000 0.611361 0.367373
1.000000 0.638590 0.421928
1.000000 0.673922 0.474262
0.000000 0.821429 0.000000
0.000000 0.821429 0.000000
0.000000 0.821338 0.000000
0.000000 0.821338 0.000000
0.000000 0.823253 0.000000
0.000000 0.822851 0.000000
0.000000 0.822757 0.000000
0.000000 0.822661 0.000000
0.000000 0.822466 0.000000
0.000000 0.821964 0.000000
0.000000 0.821543 0.000000
0.000000 0.820814 0.000000
0.000000 0.819156 0.000000
0.000000 0.817719 0.000000
0.128439 0.815934 0.000000
0.308249 0.815722 0.000000
0.401478 0.815087 0.000000
0.505686 0.811124 0.000000
0.594326 0.806615 0.000000
0.685315 0.803109 0.000000
0.781168 0.796233 0.000000
0.852070 0.783976 0.000000
0.890382 0.764432 0.000000
0.925427 0.744290 0.000000
0.958057 0.732483 0.000000
0.985509 0.718189 0.000000
1.000000 0.703604 0.136029
1.000000 0.691704 0.209376
1.000000 0.672581 0.258624
1.000000 0.652637 0.318197
1.000000 0.657231 0.376573
1.000000 0.674862 0.426338
1.000000 0.699593 0.482999
0.000000 0.857115 0.087906
0.000000 0.857115 0.087906
0.000000 0.856896 0.088171
0.000000 0.856785 0.088309
0.000000 0.858559 0.087523
0.000000 0.858447 0.087662
0.000000 0.858447 0.087662
0.000000 0.858333 0.087802
0.000000 0.857519 0.068949
0.000000 0.857277 0.069359
0.000000 0.856559 0.038675
0.000000 0.856173 0.040096
0.000000 0.855191 0.000000
0.000000 0.854007 0.000000
0.222681 0.852250 0.000000
0.322794 0.850736 0.000000
0.414875 0.851980 0.000000
0.492232 0.851084 0.000000
0.585451 0.847001 0.000000
0.679632 0.842068 0.000000
0.754902 0.838930 0.000000
0.819470 0.834020 0.000000
0.880466 0.824023 0.000000
0.918061 0.804744 0.000000
0.946503 0.790546 0.000000
0.973100 0.781179 0.000000
0.997936 0.766178 0.118395
1.000000 0.754248 0.216635
1.000000 0.743144 0.272725
1.000000 0.721991 0.325676
1.000000 0.705284 0.386229
1.000000 0.711812 0.434325
1.000000 0.727721 0.488079
0.000000 0.889104 0.212370
0.000000 0.888966 0.212435
0.000000 0.888966 0.212435
0.000000 0.888827 0.212501
0.000000 0.888827 0.212501
0.000000 0.888686 0.212566
0.000000 0.888686 0.212566
0.000000 0.888544 0.212634
0.000000 0.888400 0.212702
0.000000 0.888109 0.208878
0.000000 0.887665 0.209093
0.000000 0.888700 0.205436
0.144370 0.888236 0.205669
0.243706 0.887146 0.198152
0.321020 0.884208 0.186392
0.388330 0.882814 0.182978
0.458357 0.882463 0.179983
0.520496 0.880209 0.168344
0.585395 0.880428 0.157064
0.679995 0.874456 0.142024
0.754116 0.869596 0.103277
0.801718 0.870806 0.084649
0.859820 0.863245 0.000000
0.906698 0.855225 0.000000
0.938471 0.842331 0.000000
0.965998 0.826371 0.000000
0.988112 0.817835 0.116746
1.000000 0.805770 0.217078
1.000000 0.797492 0.290619
1.000000 0.784313 0.346606
1.000000 0.769134 0.397278
1.000000 0.754428 0.439497
1.000000 0.760742 0.494328
0.175662 0.918286 0.310665
0.175662 0.918286 0.310665
0.197684 0.918128 0.310723
0.197684 0.918128 0.310723
0.197684 0.918128 0.310723
0.195808 0.917909 0.303661
0.215199 0.917749 0.303720
0.215199 0.917749 0.303720
