Assets/Lutify-Free-LUTs-Pack/Lutify Free LUTs Pack/Colour Film Boost Pro - Film Boost 10/Lutify.me-FilmBoost10-BolexLog-to-Rec709.cube
# Created with: fylm.ai - Colour Grading and Collaboration Software in Cloud 
# Website: https://fylm.ai 
# META
# Option: Gamut compress
# Block 1: IDT | Bolex Wide Gamut RGB Bolex Log
# Block 2: colourMatch | Blending Mode: Normal | {"ColorSpace":0,"CrossCovarianceLimit":50,"ReshapingIterations":1,"PercentSaturationShift":100,"PercentShadingShift":100,"ExtraShading":true,"PercentTint":100,"PercentModified":100}
# Block 3: subtractiveColour | Blending Mode: Normal | {"sliders":{"gainY":0.55,"C":0.3,"M":0.3,"Y":0.3}}
# Block 4: LUT | Filmic Curve Response: Low Contrast 2 (100%)
# Block 5: logPrimaries | Blending Mode: Normal | {"wheels":{"shadows":{"Y":"0","R":"1","G":"1","B":"1"},"midtones":{"Y":"0","R":"1","G":"1","B":"1"},"highlights":{"Y":"0","R":"1","G":"1","B":"1"},"offset":{"Y":"0","R":"1","G":"1","B":"1"}},"sliders":{"shadows":{"Y":0,"R":-0.085,"G":0.024,"B":0.134},"midtones":{"Y":0,"R":0,"G":-0.023,"B":0},"highlights":{"Y":0,"R":0,"G":0,"B":0},"offset":{"Y":0,"R":0.012,"G":-0.012,"B":0}}}
# Block 6: HSL | Blending Mode: Normal | {"hue":{"Reds":0,"Yellows":0,"Greens":0,"Cyans":0,"Blues":0,"Magentas":0},"saturation":{"Reds":1,"Yellows":1,"Greens":1,"Cyans":1,"Blues":1,"Magentas":1},"luminance":{"Reds":0.9,"Yellows":0.9,"Greens":0.9,"Cyans":0.9,"Blues":0.9,"Magentas":0.9},"lum_sat":{"Blacks":1,"Shadows":1,"Midtones":1,"Highlights":1,"Whites":1},"sat_sat":{"10":1,"20":1,"30":1,"40":1,"50":1}}
# Block 7: ODT | Rec709
TITLE "Lutify.me-FilmBoost10-BolexLog-to-Rec709" 
LUT_3D_SIZE 5
0.000000 0.000000 0.000000
0.113766 0.000000 0.000000
0.398904 0.000000 0.000000
0.921830 0.000000 0.112606
1.000000 0.535604 0.462169
0.000000 0.109941 0.000000
0.152010 0.112214 0.000000
0.434184 0.000000 0.000000
0.928363 0.000000 0.118573
1.000000 0.545361 0.464700
0.000000 0.427524 0.000000
0.000000 0.441336 0.000000
0.530150 0.412653 0.000000
0.951617 0.227065 0.136628
1.000000 0.574781 0.469515
0.000000 0.857549 0.319513
0.000000 0.856840 0.319716
0.315583 0.855855 0.295560
0.910552 0.830421 0.275068
1.000000 0.742681 0.519697
0.726067 0.992342 0.786450
0.729008 0.992598 0.786624
0.746660 0.991815 0.786711
0.847032 0.987080 0.779640
0.998858 0.979642 0.779353
0.000000 0.000000 0.070855
0.090684 0.000000 0.048692
0.393281 0.000000 0.050223
0.924496 0.000000 0.137110
1.000000 0.536207 0.468168
0.000000 0.087243 0.163763
0.102733 0.126853 0.156642
0.448368 0.000000 0.070580
0.930663 0.000000 0.143233
1.000000 0.539357 0.468016
0.000000 0.433130 0.133213
0.000000 0.466232 0.114360
0.537368 0.461105 0.059771
0.955032 0.240187 0.166995
1.000000 0.575684 0.478628
0.000000 0.860991 0.358720
0.000000 0.860725 0.359658
0.319611 0.857754 0.335605
0.911494 0.832339 0.312491
1.000000 0.743149 0.526035
0.726234 0.992373 0.788518
0.729174 0.992629 0.788685
0.746813 0.991845 0.788770
0.847086 0.987114 0.781737
0.998806 0.979681 0.781238
0.000000 0.000000 0.210253
0.000000 0.000000 0.194218
0.352937 0.000000 0.116858
0.929289 0.000000 0.268484
1.000000 0.535727 0.504729
0.000000 0.000000 0.328359
0.000000 0.020964 0.322473
0.432175 0.000000 0.264666
0.935896 0.000000 0.282194
1.000000 0.538891 0.504586
0.000000 0.375828 0.505307
0.000000 0.424367 0.521570
0.508651 0.504767 0.553781
0.963489 0.239441 0.333178
1.000000 0.569131 0.512976
0.000000 0.860127 0.540298
0.000000 0.862721 0.539310
0.267517 0.871318 0.535625
0.906065 0.850718 0.513494
1.000000 0.743036 0.558163
0.727250 0.992556 0.800708
0.730270 0.992424 0.800719
0.744871 0.992158 0.800900
0.847484 0.987354 0.795977
0.998657 0.979531 0.793744
0.000000 0.000000 0.616140
0.000000 0.000000 0.616097
0.219697 0.000000 0.600629
0.839494 0.000000 0.464150
1.000000 0.526097 0.687658
0.000000 0.000000 0.661911
0.000000 0.000000 0.662846
0.211010 0.000000 0.654324
0.877929 0.000000 0.534069
1.000000 0.529661 0.687807
0.000000 0.195640 0.754826
0.000000 0.200854 0.762015
0.107966 0.225628 0.779125
0.960984 0.000000 0.703125
1.000000 0.565528 0.698291
0.000000 0.824828 0.867400
0.000000 0.829174 0.867474
0.000000 0.852429 0.875139
0.879454 0.872145 0.883280
1.000000 0.751905 0.751670
0.713293 0.992706 0.876813
0.716727 0.992614 0.876953
0.736760 0.992076 0.876552
0.839231 0.990650 0.876363
0.992708 0.983055 0.868025
0.094593 0.243819 0.946650
0.151767 0.242528 0.946534
0.280805 0.235901 0.945980
0.746319 0.134862 0.936155
1.000000 0.000000 0.873590
0.074768 0.253033 0.948880
0.142748 0.251806 0.948766
0.277386 0.245518 0.948222
0.745927 0.165548 0.938644
1.000000 0.000000 0.878068
0.000000 0.321714 0.956351
0.088751 0.321599 0.956665
0.273816 0.311994 0.956705
0.745868 0.266663 0.949730
1.000000 0.000000 0.897936
0.000000 0.607908 0.972766
0.000000 0.608293 0.972919
0.000000 0.616718 0.973285
0.684259 0.640329 0.972385
1.000000 0.592459 0.947067
0.539001 0.990347 0.985667
0.550359 0.990134 0.985722
0.582436 0.989498 0.985886
0.772839 0.988433 0.985524
0.983810 0.989870 0.988287
