Assets/Lutify-Free-LUTs-Pack/Lutify Free LUTs Pack/Colour Film Boost Pro - Film Boost 10/Lutify.me-FilmBoost10-LogC3-to-Rec709.cube
# Created with: fylm.ai - Colour Grading and Collaboration Software in Cloud 
# Website: https://fylm.ai 
# META
# Option: Gamut compress
# Block 1: IDT | Arri Alexa - LogC3
# Block 2: colourMatch | Blending Mode: Normal | {"ColorSpace":0,"CrossCovarianceLimit":50,"ReshapingIterations":1,"PercentSaturationShift":100,"PercentShadingShift":100,"ExtraShading":true,"PercentTint":100,"PercentModified":100}
# Block 3: subtractiveColour | Blending Mode: Normal | {"sliders":{"gainY":0.55,"C":0.3,"M":0.3,"Y":0.3}}
# Block 4: LUT | Filmic Curve Response: Low Contrast 2 (100%)
# Block 5: logPrimaries | Blending Mode: Normal | {"wheels":{"shadows":{"Y":"0","R":"1","G":"1","B":"1"},"midtones":{"Y":"0","R":"1","G":"1","B":"1"},"highlights":{"Y":"0","R":"1","G":"1","B":"1"},"offset":{"Y":"0","R":"1","G":"1","B":"1"}},"sliders":{"shadows":{"Y":0,"R":-0.085,"G":0.024,"B":0.134},"midtones":{"Y":0,"R":0,"G":-0.023,"B":0},"highlights":{"Y":0,"R":0,"G":0,"B":0},"offset":{"Y":0,"R":0.012,"G":-0.012,"B":0}}}
# Block 6: HSL | Blending Mode: Normal | {"hue":{"Reds":0,"Yellows":0,"Greens":0,"Cyans":0,"Blues":0,"Magentas":0},"saturation":{"Reds":1,"Yellows":1,"Greens":1,"Cyans":1,"Blues":1,"Magentas":1},"luminance":{"Reds":0.9,"Yellows":0.9,"Greens":0.9,"Cyans":0.9,"Blues":0.9,"Magentas":0.9},"lum_sat":{"Blacks":1,"Shadows":1,"Midtones":1,"Highlights":1,"Whites":1},"sat_sat":{"10":1,"20":1,"30":1,"40":1,"50":1}}
# Block 7: ODT | Rec709
TITLE "Lutify.me-FilmBoost10-LogC3-to-Rec709" 
LUT_3D_SIZE 9
0.000000 0.000000 0.000000
0.000000 0.000000 0.000000
0.121445 0.000000 0.000000
0.263412 0.000000 0.000000
0.495027 0.000000 0.000000
0.809162 0.000000 0.065270
1.000000 0.224342 0.208378
1.000000 0.560209 0.417281
1.000000 0.793214 0.668766
0.000000 0.020989 0.000000
0.000000 0.039561 0.000000
0.150307 0.000000 0.000000
0.295563 0.000000 0.000000
0.513555 0.000000 0.000000
0.813590 0.000000 0.066451
1.000000 0.234002 0.207853
1.000000 0.563513 0.417092
1.000000 0.793214 0.668766
0.000000 0.115543 0.000000
0.000000 0.130131 0.000000
0.176179 0.118176 0.000000
0.338272 0.029383 0.000000
0.537147 0.000000 0.000000
0.820799 0.000000 0.064448
1.000000 0.252348 0.206859
1.000000 0.566816 0.416901
1.000000 0.796719 0.668730
0.000000 0.262187 0.000000
0.000000 0.272075 0.000000
0.056632 0.273747 0.000000
0.388673 0.237824 0.000000
0.585472 0.196607 0.000000
0.846933 0.119363 0.030642
1.000000 0.301159 0.210977
1.000000 0.577232 0.419514
1.000000 0.798913 0.669278
0.000000 0.468787 0.000000
0.000000 0.474147 0.000000
0.000000 0.476267 0.000000
0.245113 0.484842 0.000000
0.635003 0.444422 0.000000
0.865020 0.431978 0.000000
1.000000 0.447161 0.203883
1.000000 0.617945 0.426619
1.000000 0.804057 0.669245
0.000000 0.727820 0.000000
0.000000 0.727497 0.000000
0.000000 0.727312 0.000000
0.000000 0.732440 0.000000
0.495147 0.732721 0.000000
0.850283 0.704586 0.000000
0.989912 0.701433 0.174006
1.000000 0.720694 0.443764
1.000000 0.822781 0.675448
0.000000 0.902722 0.000000
0.000000 0.902581 0.000000
0.000000 0.902147 0.000000
0.236234 0.900859 0.000000
0.478627 0.899458 0.000000
0.775137 0.892466 0.000000
0.952911 0.880128 0.083948
1.000000 0.871967 0.470318
1.000000 0.878491 0.699437
0.654903 0.975963 0.460950
0.654903 0.975963 0.460950
0.659092 0.975801 0.461030
0.674854 0.975061 0.455810
0.704780 0.973762 0.453782
0.788543 0.971063 0.461623
0.911788 0.967418 0.474831
1.000000 0.959880 0.509195
1.000000 0.953885 0.738782
0.849004 1.000000 0.754636
0.849004 1.000000 0.754636
0.850593 1.000000 0.754685
0.850450 1.000000 0.751207
0.856727 1.000000 0.751416
0.870213 1.000000 0.751043
0.907580 1.000000 0.756400
0.970055 1.000000 0.767020
1.000000 0.997757 0.797569
0.000000 0.000000 0.021809
0.000000 0.000000 0.019244
0.112202 0.000000 0.000000
0.250817 0.000000 0.000000
0.499970 0.000000 0.027840
0.810477 0.000000 0.080559
1.000000 0.225524 0.215638
1.000000 0.560507 0.420262
1.000000 0.793214 0.668766
0.000000 0.000000 0.034631
0.000000 0.005421 0.033251
0.131431 0.000000 0.000000
0.280134 0.000000 0.000000
0.510810 0.000000 0.028871
0.814926 0.000000 0.082619
1.000000 0.235458 0.216982
1.000000 0.563811 0.420074
1.000000 0.793214 0.668766
0.000000 0.104782 0.000000
0.000000 0.124880 0.000000
0.148297 0.129308 0.000000
0.318268 0.060659 0.000000
0.535041 0.000000 0.014076
0.825519 0.000000 0.081429
1.000000 0.253785 0.216042
1.000000 0.567115 0.419885
1.000000 0.796719 0.668730
0.000000 0.257392 0.000000
0.000000 0.279232 0.000000
0.000000 0.288110 0.000000
0.356719 0.266494 0.000000
0.589277 0.211501 0.000000
0.852323 0.122200 0.070638
1.000000 0.302258 0.218607
1.000000 0.577530 0.422507
1.000000 0.799095 0.672245
0.000000 0.488261 0.000000
0.000000 0.490662 0.000000
0.000000 0.497793 0.000000
0.149256 0.504505 0.000000
0.628438 0.473792 0.000000
0.869541 0.440487 0.000000
1.000000 0.448796 0.216782
1.000000 0.618244 0.429647
1.000000 0.804236 0.672208
0.000000 0.738488 0.000000
0.000000 0.737534 0.000000
0.000000 0.736372 0.000000
0.000000 0.742271 0.000000
0.487166 0.742611 0.000000
0.853326 0.713386 0.000000
0.990209 0.703512 0.198479
1.000000 0.720946 0.446869
1.000000 0.822948 0.678367
0.000000 0.904657 0.000000
0.000000 0.904100 0.000000
0.000000 0.903668 0.000000
0.190505 0.902453 0.000000
0.475229 0.900710 0.000000
0.776551 0.893265 0.000000
0.953531 0.881197 0.133368
1.000000 0.872224 0.476341
1.000000 0.878491 0.699437
0.655412 0.976059 0.466534
0.655412 0.976059 0.466534
0.659592 0.975897 0.466611
0.675562 0.975207 0.464143
0.705397 0.973911 0.462075
0.788978 0.971214 0.469796
0.911889 0.967522 0.479928
1.000000 0.960048 0.516031
1.000000 0.954004 0.743090
0.849004 1.000000 0.754636
0.849004 1.000000 0.754636
0.850593 1.000000 0.754685
0.850593 1.000000 0.754685
0.856823 1.000000 0.755708
0.870273 1.000000 0.752766
0.906441 1.000000 0.759643
0.970055 1.000000 0.767020
1.000000 0.997775 0.798734
0.000000 0.000000 0.076662
0.000000 0.000000 0.059741
0.092985 0.000000 0.045777
0.239426 0.000000 0.045318
0.502810 0.000000 0.060225
0.818594 0.000000 0.106547
1.000000 0.227363 0.224828
1.000000 0.561402 0.429257
1.000000 0.793400 0.671750
0.000000 0.000000 0.092136
0.000000 0.000000 0.081941
0.104806 0.000000 0.068102
0.272104 0.000000 0.066232
0.521734 0.000000 0.065024
0.821755 0.000000 0.105270
1.000000 0.236919 0.226349
1.000000 0.564706 0.429074
1.000000 0.793400 0.671750
0.000000 0.079932 0.161580
0.000000 0.101474 0.152640
0.109942 0.129958 0.149074
0.319965 0.053157 0.094278
0.541378 0.000000 0.071124
0.828771 0.000000 0.105223
1.000000 0.255520 0.225359
1.000000 0.568009 0.428890
1.000000 0.796903 0.671712
0.000000 0.258238 0.118803
0.000000 0.280970 0.096350
0.000000 0.310892 0.079545
0.340532 0.309263 0.051271
0.602863 0.209542 0.045374
0.849508 0.133592 0.105734
1.000000 0.303912 0.230337
1.000000 0.578426 0.431538
1.000000 0.799095 0.672245
0.000000 0.507941 0.000000
0.000000 0.518006 0.000000
0.000000 0.526805 0.000000
0.000000 0.536072 0.000000
0.624752 0.512242 0.000000
0.875193 0.446883 0.000000
1.000000 0.450719 0.232202
1.000000 0.618543 0.432683
1.000000 0.802530 0.672218
0.000000 0.753200 0.000000
0.000000 0.755053 0.000000
0.000000 0.756606 0.000000
0.000000 0.753533 0.000000
0.476506 0.750986 0.000000
0.854726 0.729026 0.000000
0.989700 0.708381 0.218806
1.000000 0.721196 0.449982
1.000000 0.822948 0.678367
0.000000 0.906299 0.115416
0.000000 0.905867 0.122114
0.000000 0.905581 0.122391
0.182864 0.904221 0.123716
0.473500 0.902426 0.091794
0.775845 0.894921 0.104175
0.954328 0.882623 0.179953
1.000000 0.872353 0.479361
1.000000 0.878606 0.702146
0.652201 0.976412 0.477708
0.656417 0.976250 0.477782
0.660336 0.976040 0.475035
0.676492 0.975400 0.475349
0.705300 0.975205 0.472305
0.789547 0.971414 0.480793
0.912900 0.966605 0.488338
1.000000 0.960413 0.522357
1.000000 0.954004 0.743090
0.849077 1.000000 0.756367
0.849077 1.000000 0.756367
0.850664 1.000000 0.756415
0.850664 1.000000 0.756415
0.856892 1.000000 0.757422
0.870394 1.000000 0.756196
0.906478 1.000000 0.761298
0.970048 1.000000 0.768516
1.000000 0.997775 0.798734
0.000000 0.000000 0.160490
0.000000 0.000000 0.101051
0.061140 0.000000 0.093676
0.231093 0.000000 0.067728
0.477466 0.000000 0.139765
0.827923 0.000000 0.175224
1.000000 0.223544 0.263116
1.000000 0.556288 0.444775
1.000000 0.793586 0.674724
0.000000 0.000000 0.173936
0.000000 0.000000 0.147514
0.051049 0.000000 0.139909
0.244214 0.000000 0.117558
0.502980 0.000000 0.163637
0.834435 0.000000 0.179707
1.000000 0.238352 0.266916
1.000000 0.563196 0.447484
1.000000 0.793586 0.674724
0.000000 0.000000 0.249318
0.000000 0.020593 0.230326
0.000000 0.037941 0.236014
0.297370 0.000000 0.216710
0.538232 0.000000 0.189176
0.841473 0.000000 0.182700
1.000000 0.261579 0.265944
1.000000 0.566500 0.447308
1.000000 0.797087 0.674684
0.000000 0.194324 0.333834
0.000000 0.235330 0.328075
0.000000 0.282431 0.338794
0.301974 0.322581 0.345848
0.612165 0.219754 0.246714
0.857620 0.098393 0.195819
1.000000 0.309138 0.268073
1.000000 0.576410 0.446778
1.000000 0.797551 0.675218
0.000000 0.502362 0.288755
0.000000 0.517722 0.285758
0.000000 0.540515 0.274679
0.000000 0.571724 0.272117
0.624135 0.568495 0.242015
0.882028 0.460255 0.192067
1.000000 0.452345 0.277026
1.000000 0.617063 0.451256
1.000000 0.802710 0.675172
0.000000 0.770614 0.165191
0.000000 0.772869 0.164356
0.000000 0.774886 0.163646
0.000000 0.778428 0.136260
0.444507 0.774782 0.101258
0.849992 0.761860 0.099623
0.990162 0.713350 0.275135
1.000000 0.722703 0.468809
1.000000 0.823447 0.687061
0.000000 0.912026 0.264730
0.000000 0.911747 0.264842
0.000000 0.911173 0.265076
0.186675 0.911029 0.265987
0.481327 0.906788 0.254235
0.769388 0.899570 0.250878
0.954322 0.887817 0.280043
1.000000 0.874483 0.497969
1.000000 0.878721 0.704845
0.654674 0.976886 0.506312
0.658851 0.976725 0.506379
0.658851 0.976725 0.506379
0.678956 0.975928 0.506730
0.703924 0.975883 0.503170
0.788175 0.972047 0.508666
0.909517 0.968427 0.516001
1.000000 0.960914 0.543638
1.000000 0.954123 0.747358
0.849369 1.000000 0.763234
0.849369 1.000000 0.763234
0.850953 1.000000 0.763279
0.850953 1.000000 0.763279
0.857099 1.000000 0.762531
0.869105 1.000000 0.761246
0.906588 1.000000 0.766229
0.970023 1.000000 0.774459
1.000000 0.997828 0.802232
0.000000 0.000000 0.220152
0.000000 0.000000 0.161474
0.000000 0.000000 0.147849
0.204976 0.000000 0.130456
0.406674 0.000000 0.121534
0.807566 0.000000 0.331359
1.000000 0.200618 0.381774
1.000000 0.557234 0.491579
1.000000 0.792576 0.686543
0.000000 0.000000 0.250849
0.000000 0.000000 0.221376
0.000000 0.000000 0.211711
0.192999 0.000000 0.217209
0.435479 0.000000 0.197820
0.815635 0.000000 0.343284
1.000000 0.217518 0.382100
1.000000 0.560792 0.491519
1.000000 0.794333 0.686515
0.000000 0.000000 0.342292
0.000000 0.000000 0.323324
0.000000 0.000000 0.315856
0.172647 0.000000 0.320728
0.501159 0.000000 0.301589
0.824039 0.000000 0.356015
1.000000 0.233427 0.388042
1.000000 0.567403 0.491201
1.000000 0.794333 0.686515
0.000000 0.077771 0.453387
0.000000 0.095553 0.446967
0.000000 0.114807 0.456333
0.134160 0.139794 0.481594
0.602819 0.000000 0.460787
0.855882 0.000000 0.396725
1.000000 0.301049 0.394977
1.000000 0.577618 0.493905
1.000000 0.797825 0.686464
0.000000 0.425756 0.562144
0.000000 0.441438 0.566613
0.000000 0.474353 0.582305
0.000000 0.546278 0.594658
0.596767 0.585334 0.607677
0.885711 0.483765 0.488131
1.000000 0.447755 0.411740
1.000000 0.617987 0.498438
1.000000 0.803433 0.686883
0.000000 0.770647 0.539639
0.000000 0.773155 0.539168
0.000000 0.776683 0.536675
0.000000 0.791264 0.535543
0.406168 0.805608 0.534609
0.851817 0.790845 0.500168
0.987260 0.727089 0.435951
1.000000 0.723778 0.517049
1.000000 0.822515 0.698495
0.000000 0.919293 0.470139
0.000000 0.919011 0.470188
0.000000 0.918723 0.470240
0.147309 0.917198 0.470514
0.479696 0.914843 0.454161
0.767761 0.908789 0.452215
0.951242 0.900696 0.454644
1.000000 0.877190 0.556954
1.000000 0.878028 0.715422
0.657289 0.977826 0.592360
0.657289 0.977826 0.592360
0.661124 0.978221 0.592951
0.668803 0.977813 0.586915
0.705375 0.977336 0.585580
0.788710 0.973488 0.587590
0.905845 0.970109 0.593123
0.998295 0.963736 0.605040
1.000000 0.954915 0.754047
0.850117 1.000000 0.779914
0.850117 1.000000 0.779914
0.850117 1.000000 0.779914
0.851692 1.000000 0.779952
0.856292 1.000000 0.778438
0.869796 1.000000 0.779467
0.905760 1.000000 0.782184
0.969106 1.000000 0.789484
1.000000 0.997987 0.812750
0.000000 0.000000 0.252273
0.000000 0.000000 0.238042
0.000000 0.000000 0.233325
0.153670 0.000000 0.225875
0.380123 0.000000 0.165874
0.669509 0.000000 0.291387
1.000000 0.000000 0.591513
1.000000 0.553662 0.611578
1.000000 0.795023 0.723502
0.000000 0.000000 0.250788
0.000000 0.000000 0.238050
0.000000 0.000000 0.230277
0.145333 0.000000 0.239878
0.388974 0.000000 0.268574
0.713809 0.000000 0.367412
1.000000 0.000000 0.595430
1.000000 0.557305 0.614862
1.000000 0.795023 0.723502
0.000000 0.000000 0.377311
0.000000 0.000000 0.374120
0.000000 0.000000 0.374285
0.026082 0.000000 0.380503
0.400477 0.000000 0.426728
0.748637 0.000000 0.438909
1.000000 0.000000 0.599792
1.000000 0.560985 0.614997
1.000000 0.795023 0.723502
0.000000 0.000000 0.568086
0.000000 0.000000 0.565513
0.000000 0.009828 0.576486
0.000000 0.037569 0.589556
0.397130 0.000000 0.592682
0.828065 0.000000 0.550657
1.000000 0.191368 0.612427
1.000000 0.575664 0.618688
1.000000 0.796766 0.723459
0.000000 0.233591 0.685269
0.000000 0.238309 0.693322
0.000000 0.249727 0.700284
0.000000 0.280382 0.718059
0.387597 0.324637 0.743443
0.890308 0.295849 0.723867
1.000000 0.383410 0.648977
1.000000 0.619462 0.629089
1.000000 0.804094 0.723621
0.000000 0.692560 0.789690
0.000000 0.702738 0.792015
0.000000 0.714590 0.795728
0.000000 0.745043 0.799571
0.163973 0.789698 0.810315
0.822163 0.808130 0.820135
0.972114 0.749036 0.738077
1.000000 0.717366 0.648887
1.000000 0.822771 0.728890
0.000000 0.920334 0.769609
0.000000 0.920343 0.770076
0.000000 0.920341 0.771008
0.000000 0.921380 0.765707
0.350385 0.921243 0.767542
0.748637 0.921731 0.763765
0.934096 0.914888 0.751260
1.000000 0.881576 0.695812
1.000000 0.878628 0.753444
0.632374 0.981685 0.733537
0.641045 0.981367 0.733569
0.645296 0.981209 0.733586
0.653634 0.980894 0.733621
0.692162 0.979365 0.733821
0.769802 0.978207 0.721996
0.894647 0.973834 0.716252
0.991715 0.969938 0.730082
1.000000 0.955474 0.789096
0.850437 1.000000 0.817693
0.850437 1.000000 0.817693
0.851997 1.000000 0.817718
0.851997 1.000000 0.817718
0.858149 1.000000 0.817822
0.869862 1.000000 0.815439
0.903896 1.000000 0.815684
0.967612 1.000000 0.817605
1.000000 0.999151 0.835791
0.000000 0.000000 0.329221
0.000000 0.000000 0.327028
0.000000 0.000000 0.320534
0.148825 0.000000 0.319793
0.358477 0.000000 0.308717
0.600618 0.000000 0.225048
0.956447 0.000000 0.577638
1.000000 0.467346 0.793999
1.000000 0.793307 0.808973
0.000000 0.000000 0.329215
0.000000 0.000000 0.327016
0.000000 0.000000 0.320528
0.152068 0.000000 0.319759
0.358477 0.000000 0.308717
0.602081 0.000000 0.233293
0.968180 0.000000 0.611476
1.000000 0.471128 0.794098
1.000000 0.795292 0.809079
0.000000 0.000000 0.329208
0.000000 0.000000 0.327000
0.029425 0.000000 0.320502
0.153697 0.000000 0.319742
0.361001 0.000000 0.308563
0.645421 0.000000 0.442433
0.984415 0.000000 0.633687
1.000000 0.474812 0.796570
1.000000 0.795750 0.809061
0.000000 0.000000 0.630349
0.000000 0.000000 0.637101
0.000000 0.000000 0.637514
0.000000 0.000000 0.639535
0.213383 0.000000 0.659604
0.688924 0.000000 0.698476
1.000000 0.000000 0.699149
1.000000 0.493493 0.801687
1.000000 0.797713 0.809169
0.000000 0.140651 0.797707
0.000000 0.144271 0.801151
0.000000 0.146932 0.803881
0.000000 0.164181 0.812241
0.117778 0.172756 0.822450
0.726341 0.000000 0.820768
1.000000 0.000000 0.790790
1.000000 0.542796 0.811119
1.000000 0.805442 0.811498
0.000000 0.459489 0.871470
0.000000 0.461206 0.872761
0.000000 0.467391 0.874912
0.000000 0.491600 0.876841
0.000000 0.533153 0.884965
0.688997 0.576996 0.891441
1.000000 0.597171 0.876658
1.000000 0.681405 0.826351
1.000000 0.821809 0.815713
0.000000 0.888580 0.907781
0.000000 0.888992 0.908192
0.000000 0.889677 0.908909
0.000000 0.892968 0.908305
0.000000 0.902514 0.912371
0.666969 0.913965 0.917283
0.924844 0.920416 0.920807
1.000000 0.886572 0.867099
1.000000 0.878222 0.829516
0.574226 0.983275 0.891481
0.579893 0.983173 0.890423
0.579893 0.983173 0.890423
0.596034 0.982850 0.890779
0.640337 0.982434 0.889409
0.750580 0.980830 0.890522
0.882467 0.980176 0.888164
0.981100 0.976949 0.884858
1.000000 0.958093 0.856911
0.848511 1.000000 0.880404
0.848511 1.000000 0.880404
0.848511 1.000000 0.880404
0.850133 1.000000 0.880695
0.854671 1.000000 0.880717
0.867844 1.000000 0.880938
0.902658 1.000000 0.877040
0.962431 1.000000 0.874174
1.000000 1.000000 0.883453
0.136039 0.000000 0.438328
0.155569 0.000000 0.438203
0.181949 0.000000 0.435206
0.244926 0.000000 0.434657
0.371518 0.000000 0.433479
0.600118 0.000000 0.384602
0.836523 0.000000 0.299684
1.000000 0.000000 0.827601
1.000000 0.749389 0.910005
0.136039 0.000000 0.438328
0.157720 0.000000 0.438188
0.186188 0.000000 0.435172
0.244926 0.000000 0.434657
0.371518 0.000000 0.433479
0.600118 0.000000 0.384602
0.836523 0.000000 0.299684
1.000000 0.000000 0.830646
1.000000 0.749389 0.910005
0.138234 0.000000 0.438315
0.162010 0.000000 0.438158
0.186188 0.000000 0.435172
0.247187 0.000000 0.434636
0.371518 0.000000 0.433479
0.600118 0.000000 0.384602
0.836233 0.000000 0.295538
1.000000 0.000000 0.833944
1.000000 0.751737 0.909992
0.151261 0.000000 0.438232
0.172682 0.000000 0.438080
0.196821 0.000000 0.435085
0.251733 0.000000 0.434594
0.374419 0.000000 0.433453
0.603347 0.000000 0.384453
0.923741 0.000000 0.741938
1.000000 0.000000 0.850543
1.000000 0.754771 0.909797
0.000000 0.000000 0.863205
0.000000 0.000000 0.863170
0.000000 0.000000 0.863420
0.000000 0.000000 0.865349
0.117074 0.000000 0.863971
0.514142 0.000000 0.871874
0.958616 0.000000 0.887718
1.000000 0.000000 0.879028
1.000000 0.763800 0.910878
0.000000 0.331476 0.939465
0.000000 0.332055 0.939943
0.000000 0.335278 0.940415
0.000000 0.337358 0.942222
0.000000 0.360442 0.944707
0.462422 0.375267 0.945819
0.955028 0.370173 0.940936
1.000000 0.433647 0.919172
1.000000 0.787812 0.913869
0.000000 0.713138 0.962191
0.000000 0.716727 0.962108
0.000000 0.717331 0.962288
0.000000 0.729281 0.961655
0.000000 0.743378 0.961951
0.318058 0.766637 0.963066
0.867516 0.793157 0.962389
1.000000 0.812406 0.954650
1.000000 0.853519 0.927757
0.000000 0.975269 0.972374
0.000000 0.975197 0.972417
0.000000 0.975123 0.972460
0.000000 0.975484 0.972137
0.316492 0.976951 0.972485
0.595912 0.974415 0.973891
0.855318 0.977262 0.974444
0.974294 0.980635 0.974522
1.000000 0.962422 0.950194
0.815204 1.000000 0.960052
0.815204 1.000000 0.960052
0.815204 1.000000 0.960052
0.817097 1.000000 0.960115
0.824530 1.000000 0.960370
0.845965 1.000000 0.961071
0.889338 1.000000 0.961099
0.957717 1.000000 0.961232
1.000000 1.000000 0.956980
0.392361 0.000000 0.555572
0.395573 0.000000 0.555538
0.405312 0.000000 0.555433
0.435523 0.000000 0.555110
0.510813 0.000000 0.554341
0.664435 0.000000 0.542534
0.834147 0.000000 0.466210
1.000000 0.000000 0.377179
1.000000 0.290878 0.939039
0.392361 0.000000 0.555572
0.395573 0.000000 0.555538
0.405312 0.000000 0.555433
0.435523 0.000000 0.555110
0.518153 0.000000 0.554271
0.664435 0.000000 0.542534
0.834147 0.000000 0.466210
1.000000 0.000000 0.377179
1.000000 0.294314 0.939074
0.392361 0.000000 0.555572
0.402048 0.000000 0.555468
0.408595 0.000000 0.555398
0.435523 0.000000 0.555110
0.518153 0.000000 0.554271
0.664435 0.000000 0.542534
0.834147 0.000000 0.466210
1.000000 0.000000 0.377179
1.000000 0.303706 0.940223
0.395573 0.000000 0.555538
0.402048 0.000000 0.555468
0.408595 0.000000 0.555398
0.438976 0.000000 0.555074
0.518153 0.000000 0.554271
0.664435 0.000000 0.542534
0.834147 0.000000 0.466210
1.000000 0.000000 0.377179
1.000000 0.337249 0.942291
0.405312 0.000000 0.555433
0.411895 0.000000 0.555362
0.421907 0.000000 0.555255
0.445943 0.000000 0.555000
0.525516 0.000000 0.554201
0.671664 0.000000 0.542138
0.834147 0.000000 0.466210
1.000000 0.000000 0.917186
1.000000 0.399774 0.951197
0.000000 0.176887 0.975860
0.000000 0.178290 0.975863
0.000000 0.177327 0.975798
0.109905 0.175217 0.975658
0.245526 0.173183 0.976889
0.493068 0.146162 0.973461
0.824272 0.000000 0.972437
1.000000 0.239473 0.976894
1.000000 0.521032 0.965362
0.000000 0.582234 0.999347
0.000000 0.582364 0.999377
0.000000 0.582493 0.999408
0.000000 0.586651 0.998916
0.000000 0.594549 0.999443
0.369949 0.610188 0.999501
0.747251 0.629045 0.996867
1.000000 0.664885 0.992440
1.000000 0.724923 0.977553
0.000000 0.887751 0.999294
0.000000 0.887752 0.999308
0.000000 0.887746 0.999351
0.000000 0.889283 0.999276
0.000000 0.890667 0.999280
0.394558 0.898592 0.998007
0.689190 0.901480 0.998048
0.945040 0.914351 0.997371
1.000000 0.924407 0.993334
0.693246 1.000000 1.000000
0.693246 1.000000 1.000000
0.696265 1.000000 1.000000
0.699262 1.000000 1.000000
0.711743 1.000000 1.000000
0.747088 1.000000 1.000000
0.839847 1.000000 1.000000
0.941531 1.000000 1.000000
0.999819 1.000000 1.000000
