Assets/Lutify-Free-LUTs-Pack/Lutify Free LUTs Pack/Colour Film Boost Pro - Film Boost 10/Lutify.me-FilmBoost10-ProTune-to-Rec709.cube
# Created with: fylm.ai - Colour Grading and Collaboration Software in Cloud 
# Website: https://fylm.ai 
# META
# Option: Gamut compress
# Block 1: IDT | GoPro ProTune Native ProTune Flat
# Block 2: colourMatch | Blending Mode: Normal | {"ColorSpace":0,"CrossCovarianceLimit":50,"ReshapingIterations":1,"PercentSaturationShift":100,"PercentShadingShift":100,"ExtraShading":true,"PercentTint":100,"PercentModified":100}
# Block 3: subtractiveColour | Blending Mode: Normal | {"sliders":{"gainY":0.55,"C":0.3,"M":0.3,"Y":0.3}}
# Block 4: LUT | Filmic Curve Response: Low Contrast 2 (100%)
# Block 5: logPrimaries | Blending Mode: Normal | {"wheels":{"shadows":{"Y":"0","R":"1","G":"1","B":"1"},"midtones":{"Y":"0","R":"1","G":"1","B":"1"},"highlights":{"Y":"0","R":"1","G":"1","B":"1"},"offset":{"Y":"0","R":"1","G":"1","B":"1"}},"sliders":{"shadows":{"Y":0,"R":-0.085,"G":0.024,"B":0.134},"midtones":{"Y":0,"R":0,"G":-0.023,"B":0},"highlights":{"Y":0,"R":0,"G":0,"B":0},"offset":{"Y":0,"R":0.012,"G":-0.012,"B":0}}}
# Block 6: HSL | Blending Mode: Normal | {"hue":{"Reds":0,"Yellows":0,"Greens":0,"Cyans":0,"Blues":0,"Magentas":0},"saturation":{"Reds":1,"Yellows":1,"Greens":1,"Cyans":1,"Blues":1,"Magentas":1},"luminance":{"Reds":0.9,"Yellows":0.9,"Greens":0.9,"Cyans":0.9,"Blues":0.9,"Magentas":0.9},"lum_sat":{"Blacks":1,"Shadows":1,"Midtones":1,"Highlights":1,"Whites":1},"sat_sat":{"10":1,"20":1,"30":1,"40":1,"50":1}}
# Block 7: ODT | Rec709
TITLE "Lutify.me-FilmBoost10-ProTune-to-Rec709" 
LUT_3D_SIZE 9
0.000000 0.000000 0.000000
0.000000 0.000000 0.000000
0.056988 0.000000 0.000000
0.110772 0.000000 0.000000
0.161830 0.000000 0.000000
0.226387 0.000000 0.000000
0.313178 0.000000 0.013719
0.409431 0.000000 0.036094
0.547649 0.000000 0.056834
0.000000 0.022837 0.000000
0.000000 0.022438 0.000000
0.078821 0.000000 0.000000
0.120047 0.000000 0.000000
0.171821 0.000000 0.000000
0.236114 0.000000 0.000000
0.322002 0.000000 0.020289
0.421721 0.000000 0.039820
0.560725 0.000000 0.061253
0.000000 0.074750 0.000000
0.000000 0.076012 0.000000
0.079416 0.067047 0.000000
0.139148 0.036036 0.000000
0.199347 0.000000 0.000000
0.257961 0.000000 0.000000
0.343422 0.000000 0.024661
0.440327 0.000000 0.042438
0.573665 0.000000 0.065465
0.000000 0.135090 0.000000
0.000000 0.138812 0.000000
0.065106 0.133195 0.000000
0.160324 0.117145 0.000000
0.233380 0.075212 0.000000
0.293960 0.000000 0.000000
0.368897 0.000000 0.020141
0.470210 0.000000 0.042850
0.599141 0.000000 0.069710
0.000000 0.203078 0.000000
0.000000 0.204098 0.000000
0.051069 0.201261 0.000000
0.182681 0.200350 0.000000
0.274318 0.169441 0.000000
0.336127 0.127348 0.000000
0.411213 0.050621 0.000000
0.496055 0.000000 0.036882
0.631630 0.000000 0.072967
0.000000 0.284683 0.000000
0.000000 0.283807 0.000000
0.113270 0.280180 0.000000
0.211165 0.276869 0.000000
0.320759 0.259799 0.000000
0.407699 0.214740 0.000000
0.469398 0.191312 0.000000
0.551392 0.132074 0.000000
0.657554 0.000000 0.061305
0.000000 0.372034 0.000000
0.088071 0.371437 0.000000
0.177122 0.370011 0.000000
0.257487 0.367431 0.000000
0.345634 0.363241 0.000000
0.460998 0.329762 0.000000
0.556449 0.291246 0.000000
0.607619 0.260168 0.000000
0.699065 0.233475 0.000000
0.187688 0.478509 0.000000
0.215072 0.478023 0.000000
0.268338 0.476794 0.000000
0.326105 0.474995 0.000000
0.416123 0.474043 0.000000
0.506842 0.464567 0.000000
0.598130 0.431318 0.000000
0.692822 0.385069 0.000000
0.746339 0.362621 0.000000
0.382936 0.582594 0.000000
0.394203 0.582204 0.000000
0.405275 0.581805 0.000000
0.440386 0.583461 0.000000
0.488735 0.578274 0.000000
0.566327 0.574120 0.000000
0.657121 0.558440 0.000000
0.739943 0.521367 0.000000
0.823151 0.472190 0.000000
0.000000 0.000000 0.034024
0.000000 0.000000 0.033597
0.046621 0.000000 0.021994
0.104352 0.000000 0.013289
0.159490 0.000000 0.010852
0.223510 0.000000 0.017717
0.311146 0.000000 0.028470
0.409336 0.000000 0.040957
0.547537 0.000000 0.059079
0.000000 0.018487 0.038935
0.000000 0.018271 0.037742
0.066701 0.000000 0.025499
0.115810 0.000000 0.014728
0.169462 0.000000 0.010711
0.233043 0.000000 0.023123
0.322208 0.000000 0.030284
0.421989 0.000000 0.046151
0.560446 0.000000 0.064781
0.000000 0.072364 0.000000
0.000000 0.074251 0.000000
0.072024 0.070767 0.000000
0.140082 0.033959 0.000000
0.195809 0.000000 0.009605
0.258217 0.000000 0.025305
0.341613 0.000000 0.035991
0.440195 0.000000 0.048388
0.573386 0.000000 0.069777
0.000000 0.134638 0.000000
0.000000 0.137352 0.000000
0.037599 0.134184 0.000000
0.153495 0.119603 0.000000
0.228526 0.079976 0.000000
0.294552 0.000000 0.000000
0.371658 0.000000 0.034163
0.470393 0.000000 0.050307
0.599331 0.000000 0.074967
0.000000 0.207613 0.000000
0.000000 0.210283 0.000000
0.000000 0.206141 0.000000
0.160455 0.201738 0.000000
0.263665 0.172733 0.000000
0.335729 0.138033 0.000000
0.412451 0.053419 0.000000
0.499188 0.000000 0.045620
0.629724 0.000000 0.078951
0.000000 0.284763 0.000000
0.000000 0.281921 0.000000
0.108787 0.280268 0.000000
0.202259 0.277291 0.000000
0.296929 0.272742 0.000000
0.389300 0.233752 0.000000
0.462934 0.200346 0.000000
0.555469 0.132984 0.000000
0.660329 0.000000 0.069983
0.000000 0.372114 0.000000
0.088071 0.371437 0.000000
0.177122 0.370011 0.000000
0.249632 0.367744 0.000000
0.341799 0.363454 0.000000
0.460998 0.329762 0.000000
0.556449 0.291246 0.000000
0.603723 0.278566 0.000000
0.702576 0.238010 0.000000
0.187688 0.478509 0.000000
0.215072 0.478023 0.000000
0.268338 0.476794 0.000000
0.326105 0.474995 0.000000
0.416123 0.474043 0.000000
0.506842 0.464567 0.000000
0.598130 0.431318 0.000000
0.693057 0.381824 0.000000
0.738576 0.376025 0.000000
0.382936 0.582594 0.000000
0.394203 0.582204 0.000000
0.405275 0.581805 0.000000
0.442761 0.580335 0.000000
0.488735 0.578274 0.000000
0.566327 0.574120 0.000000
0.657121 0.558440 0.000000
0.739943 0.521367 0.000000
0.823151 0.472190 0.000000
0.000000 0.000000 0.058313
0.000000 0.000000 0.057653
0.043059 0.000000 0.056114
0.091429 0.000000 0.043749
0.157360 0.000000 0.038675
0.223414 0.000000 0.038315
0.307299 0.000000 0.040858
0.406591 0.000000 0.048951
0.544220 0.000000 0.065503
0.000000 0.000000 0.071082
0.000000 0.000000 0.068324
0.054575 0.000000 0.062948
0.101818 0.000000 0.049232
0.167114 0.000000 0.044256
0.231325 0.000000 0.042547
0.319756 0.000000 0.045383
0.416568 0.000000 0.053960
0.553920 0.000000 0.072195
0.000000 0.067383 0.087382
0.000000 0.073546 0.085544
0.057137 0.072027 0.084955
0.131154 0.038012 0.068880
0.191260 0.000000 0.057966
0.254897 0.000000 0.050766
0.341586 0.000000 0.051573
0.435029 0.000000 0.059850
0.573074 0.000000 0.077459
0.000000 0.135584 0.038986
0.000000 0.140890 0.038196
0.000000 0.145784 0.036858
0.140074 0.137984 0.046078
0.223263 0.093090 0.050644
0.292490 0.000000 0.053950
0.373274 0.000000 0.054103
0.470852 0.000000 0.063896
0.593039 0.000000 0.083331
0.000000 0.212833 0.000000
0.000000 0.212766 0.000000
0.000000 0.213503 0.000000
0.126322 0.208672 0.000000
0.247842 0.188966 0.000000
0.326949 0.152302 0.000000
0.419793 0.044807 0.036466
0.506006 0.000000 0.063959
0.630021 0.000000 0.089515
0.000000 0.289385 0.000000
0.000000 0.288798 0.000000
0.000000 0.287613 0.000000
0.136681 0.285208 0.000000
0.253069 0.282598 0.000000
0.365453 0.252706 0.000000
0.458763 0.216263 0.000000
0.562844 0.129188 0.000000
0.665468 0.000000 0.086185
0.000000 0.372114 0.000000
0.077043 0.371527 0.000000
0.167314 0.370236 0.000000
0.251897 0.365199 0.000000
0.341799 0.363454 0.000000
0.451698 0.338931 0.000000
0.524829 0.315059 0.000000
0.601035 0.295254 0.000000
0.709035 0.241130 0.000000
0.187688 0.478509 0.000000
0.223661 0.472126 0.000000
0.274796 0.470873 0.000000
0.326105 0.474995 0.000000
0.411458 0.474276 0.000000
0.506842 0.464567 0.000000
0.598130 0.431318 0.000000
0.689675 0.382400 0.000000
0.734351 0.395645 0.000000
0.382936 0.582594 0.000000
0.388595 0.582400 0.000000
0.405275 0.581805 0.000000
0.442761 0.580335 0.000000
0.488735 0.578274 0.000000
0.566327 0.574120 0.000000
0.657121 0.558440 0.000000
0.740642 0.517964 0.000000
0.820107 0.472675 0.000000
0.000000 0.000000 0.088174
0.000000 0.000000 0.085846
0.000000 0.000000 0.082334
0.086874 0.000000 0.074293
0.150977 0.000000 0.057314
0.222182 0.000000 0.053322
0.305214 0.000000 0.053156
0.400754 0.000000 0.059403
0.542905 0.000000 0.078363
0.000000 0.000000 0.101072
0.000000 0.000000 0.100105
0.022039 0.000000 0.094755
0.095652 0.000000 0.084479
0.160659 0.000000 0.066272
0.228659 0.000000 0.061185
0.313621 0.000000 0.059519
0.413030 0.000000 0.067953
0.553221 0.000000 0.083877
0.000000 0.046602 0.140109
0.000000 0.049186 0.138649
0.000000 0.047902 0.137360
0.113752 0.026205 0.131945
0.182808 0.000000 0.095968
0.250137 0.000000 0.079067
0.332999 0.000000 0.075523
0.434184 0.000000 0.079575
0.568863 0.000000 0.094325
0.000000 0.129389 0.155337
0.000000 0.135618 0.153115
0.000000 0.141052 0.152425
0.114658 0.137529 0.156362
0.220422 0.091190 0.132059
0.294639 0.000000 0.108571
0.368733 0.000000 0.091291
0.468199 0.000000 0.092476
0.593460 0.000000 0.099922
0.000000 0.219894 0.095266
0.000000 0.222396 0.093979
0.000000 0.228793 0.096580
0.049598 0.230519 0.097059
0.227433 0.224454 0.103871
0.331191 0.170528 0.098842
0.426576 0.067487 0.100087
0.512045 0.000000 0.099484
0.629230 0.000000 0.109526
0.000000 0.306985 0.000000
0.000000 0.306664 0.000000
0.000000 0.306521 0.000000
0.000000 0.311871 0.000000
0.186292 0.309703 0.000000
0.347167 0.292434 0.000000
0.464414 0.233145 0.000000
0.572908 0.139622 0.078335
0.672594 0.000000 0.109011
0.000000 0.384127 0.000000
0.000000 0.383930 0.000000
0.000000 0.385881 0.000000
0.000000 0.384987 0.000000
0.221120 0.382898 0.000000
0.376598 0.377807 0.000000
0.496060 0.353387 0.000000
0.603904 0.315810 0.000000
0.718538 0.243044 0.061925
0.191017 0.472740 0.000000
0.217466 0.472253 0.000000
0.263983 0.471170 0.000000
0.321185 0.469401 0.000000
0.413391 0.471257 0.000000
0.506842 0.464567 0.000000
0.598130 0.431318 0.000000
0.663076 0.409089 0.000000
0.748102 0.416442 0.000000
0.382936 0.582594 0.000000
0.388595 0.582400 0.000000
0.405275 0.581805 0.000000
0.442761 0.580335 0.000000
0.488735 0.578274 0.000000
0.566327 0.574120 0.000000
0.657121 0.558440 0.000000
0.740642 0.517964 0.000000
0.820107 0.472675 0.000000
0.000000 0.000000 0.127185
0.000000 0.000000 0.123942
0.000000 0.000000 0.119085
0.070883 0.000000 0.112651
0.144968 0.000000 0.089410
0.219642 0.000000 0.065196
0.301409 0.000000 0.064180
0.395058 0.000000 0.072005
0.534706 0.000000 0.095717
0.000000 0.000000 0.144306
0.000000 0.000000 0.140721
0.000000 0.000000 0.134718
0.074379 0.000000 0.128436
0.156009 0.000000 0.105347
0.223601 0.000000 0.079756
0.308149 0.000000 0.077794
0.406965 0.000000 0.085751
0.544272 0.000000 0.104621
0.000000 0.000000 0.180272
0.000000 0.000000 0.175055
0.000000 0.000000 0.171024
0.075166 0.000000 0.163096
0.170143 0.000000 0.144132
0.244415 0.000000 0.110985
0.325213 0.000000 0.102900
0.427271 0.000000 0.103683
0.557462 0.000000 0.118383
0.000000 0.091856 0.223561
0.000000 0.094251 0.224662
0.000000 0.100568 0.224242
0.058991 0.097479 0.227114
0.204374 0.072773 0.220250
0.292116 0.000000 0.168920
0.367741 0.000000 0.137441
0.458537 0.000000 0.127372
0.588135 0.000000 0.132385
0.000000 0.211583 0.240628
0.000000 0.214049 0.243738
0.000000 0.219535 0.241001
0.000000 0.229116 0.243614
0.197361 0.227513 0.253218
0.327171 0.172758 0.219499
0.426536 0.036187 0.180092
0.510992 0.000000 0.150668
0.626430 0.000000 0.151710
0.000000 0.325285 0.174505
0.000000 0.323288 0.174850
0.000000 0.331169 0.174153
0.000000 0.336153 0.176964
0.114562 0.341942 0.177936
0.340958 0.329507 0.191760
0.468498 0.255040 0.176429
0.573798 0.154557 0.167332
0.679633 0.000000 0.162099
0.000000 0.426859 0.000000
0.000000 0.426645 0.000000
0.000000 0.426185 0.000000
0.000000 0.426150 0.000000
0.000000 0.428101 0.000000
0.302622 0.428511 0.000000
0.498267 0.403411 0.000000
0.617005 0.346408 0.080024
0.724106 0.258327 0.137996
0.000000 0.504944 0.000000
0.000000 0.504892 0.000000
0.000000 0.507772 0.000000
0.000000 0.507682 0.000000
0.167913 0.510120 0.000000
0.317560 0.509114 0.000000
0.478634 0.507615 0.000000
0.635102 0.479461 0.000000
0.755636 0.439190 0.000000
0.380087 0.579680 0.000000
0.391352 0.579291 0.000000
0.405275 0.581805 0.000000
0.437512 0.580552 0.000000
0.488735 0.578274 0.000000
0.568078 0.570944 0.000000
0.659435 0.551650 0.000000
0.740642 0.517964 0.000000
0.776247 0.516151 0.000000
0.000000 0.000000 0.183762
0.000000 0.000000 0.183252
0.000000 0.000000 0.172431
0.020901 0.000000 0.164898
0.136545 0.000000 0.153312
0.220026 0.000000 0.112401
0.299963 0.000000 0.071935
0.389453 0.000000 0.079250
0.512835 0.000000 0.106563
0.000000 0.000000 0.204328
0.000000 0.000000 0.198776
0.000000 0.000000 0.194512
0.000000 0.000000 0.186175
0.137943 0.000000 0.174690
0.227516 0.000000 0.132311
0.302746 0.000000 0.088129
0.395557 0.000000 0.096965
0.531770 0.000000 0.122576
0.000000 0.000000 0.230844
0.000000 0.000000 0.229074
0.000000 0.000000 0.226339
0.000000 0.000000 0.220832
0.137319 0.000000 0.209350
0.243300 0.000000 0.173315
0.317216 0.000000 0.124393
0.413628 0.000000 0.129022
0.547917 0.000000 0.145936
0.000000 0.053270 0.272905
0.000000 0.055781 0.273394
0.000000 0.057340 0.272730
0.000000 0.053657 0.274951
0.147942 0.020270 0.261006
0.277808 0.000000 0.238036
0.358049 0.000000 0.191521
0.454859 0.000000 0.177298
0.583588 0.000000 0.172615
0.000000 0.157883 0.314576
0.000000 0.160537 0.315793
0.000000 0.167014 0.322355
0.000000 0.180730 0.328200
0.133025 0.178887 0.339344
0.311891 0.145102 0.329722
0.436044 0.000000 0.268378
0.509558 0.000000 0.217004
0.622106 0.000000 0.203901
0.000000 0.311327 0.339797
0.000000 0.313874 0.342883
0.000000 0.320528 0.348124
0.000000 0.326641 0.345231
0.000000 0.337187 0.350754
0.311621 0.332658 0.353833
0.471876 0.260120 0.323094
0.581012 0.136546 0.273279
0.673639 0.000000 0.242189
0.000000 0.446219 0.269385
0.000000 0.451313 0.265627
0.000000 0.453941 0.264954
0.000000 0.458644 0.265728
0.000000 0.466995 0.271661
0.254164 0.472974 0.273484
0.494995 0.455557 0.284819
0.622870 0.378813 0.265677
0.733513 0.271399 0.260517
0.000000 0.567217 0.000000
0.000000 0.570354 0.000000
0.000000 0.570038 0.000000
0.000000 0.569824 0.000000
0.000000 0.568534 0.000000
0.235290 0.566489 0.000000
0.437975 0.565988 0.000000
0.633334 0.552277 0.108942
0.761840 0.478792 0.165633
0.000000 0.624611 0.000000
0.000000 0.624721 0.000000
0.000000 0.624824 0.000000
0.000000 0.624884 0.000000
0.194041 0.625212 0.000000
0.318243 0.631962 0.000000
0.452822 0.632453 0.000000
0.619478 0.631448 0.000000
0.763712 0.606499 0.000000
0.000000 0.000000 0.254922
0.000000 0.000000 0.252644
0.000000 0.000000 0.248752
0.000000 0.000000 0.238859
0.085204 0.000000 0.227429
0.214719 0.000000 0.200323
0.304269 0.000000 0.128240
0.389185 0.000000 0.067443
0.503918 0.000000 0.094674
0.000000 0.000000 0.275971
0.000000 0.000000 0.273537
0.000000 0.000000 0.270635
0.000000 0.000000 0.261620
0.081553 0.000000 0.248974
0.216233 0.000000 0.227354
0.310509 0.000000 0.153970
0.384925 0.000000 0.083180
0.504392 0.000000 0.110507
0.000000 0.000000 0.299039
0.000000 0.000000 0.299057
0.000000 0.000000 0.296353
0.000000 0.000000 0.292075
0.074164 0.000000 0.281850
0.217832 0.000000 0.266738
0.330169 0.000000 0.200691
0.394384 0.000000 0.117337
0.519710 0.000000 0.149202
0.000000 0.035931 0.333989
0.000000 0.038631 0.329925
0.000000 0.038933 0.331495
0.000000 0.037751 0.331774
0.077522 0.015045 0.323190
0.226111 0.000000 0.314698
0.362986 0.000000 0.269103
0.433582 0.000000 0.199409
0.560591 0.000000 0.202999
0.000000 0.103447 0.387477
0.000000 0.105745 0.387776
0.000000 0.109453 0.387669
0.000000 0.114780 0.388716
0.047631 0.109714 0.392347
0.244259 0.065573 0.377972
0.410834 0.000000 0.344542
0.509095 0.000000 0.281630
0.612903 0.000000 0.267221
0.000000 0.242891 0.437105
0.000000 0.246261 0.440358
0.000000 0.249652 0.444575
0.000000 0.258174 0.451962
0.000000 0.271091 0.454650
0.230658 0.268753 0.465976
0.464402 0.228044 0.459236
0.596965 0.044648 0.390388
0.677600 0.000000 0.321260
0.000000 0.436158 0.475385
0.000000 0.441180 0.477411
0.000000 0.447770 0.477941
0.000000 0.456443 0.471001
0.000000 0.459896 0.479719
0.164379 0.468768 0.488720
0.463460 0.468825 0.495998
0.617586 0.392326 0.450577
0.740273 0.256819 0.389260
0.000000 0.585072 0.389532
0.000000 0.589146 0.389951
0.000000 0.591103 0.388607
0.000000 0.600171 0.390402
0.000000 0.607791 0.391457
0.092205 0.612554 0.397638
0.402033 0.610408 0.404047
0.627735 0.595847 0.415161
0.763061 0.514332 0.388812
0.000000 0.697900 0.135902
0.000000 0.700706 0.134380
0.000000 0.700997 0.142126
0.000000 0.700472 0.142342
0.000000 0.699284 0.142803
0.195432 0.697337 0.143532
0.410656 0.694011 0.155793
0.608359 0.691496 0.184181
0.771370 0.677838 0.230363
0.000000 0.000000 0.357057
0.000000 0.000000 0.352032
0.000000 0.000000 0.348743
0.000000 0.000000 0.346301
0.000000 0.000000 0.336247
0.152817 0.000000 0.311024
0.311546 0.000000 0.268298
0.392688 0.000000 0.152012
0.500713 0.000000 0.082187
0.000000 0.000000 0.369655
0.000000 0.000000 0.371362
0.000000 0.000000 0.364827
0.000000 0.000000 0.359762
0.000000 0.000000 0.351895
0.141362 0.000000 0.334295
0.318986 0.000000 0.294181
0.403163 0.000000 0.179522
0.500705 0.000000 0.080879
0.000000 0.000000 0.387840
0.000000 0.000000 0.389497
0.000000 0.000000 0.390863
0.000000 0.000000 0.391737
0.000000 0.000000 0.378097
0.137573 0.000000 0.363960
0.309509 0.000000 0.336029
0.420836 0.000000 0.233340
0.500887 0.000000 0.094728
0.000000 0.030721 0.419478
0.000000 0.028166 0.421701
0.000000 0.030603 0.417331
0.000000 0.032531 0.421785
0.000000 0.027086 0.415914
0.143240 0.000000 0.402556
0.332094 0.000000 0.388224
0.453473 0.000000 0.312962
0.518134 0.000000 0.175789
0.000000 0.078386 0.457839
0.000000 0.079474 0.457356
0.000000 0.080600 0.457936
0.000000 0.080824 0.462007
0.000000 0.080853 0.467987
0.142775 0.061877 0.458953
0.339488 0.000000 0.446674
0.516730 0.000000 0.399000
0.597281 0.000000 0.305210
0.000000 0.182177 0.511503
0.000000 0.182861 0.513942
0.000000 0.181001 0.518107
0.000000 0.182724 0.521418
0.000000 0.188267 0.529568
0.120001 0.185544 0.533664
0.381057 0.131748 0.517326
0.576290 0.000000 0.493258
0.679391 0.000000 0.410211
0.000000 0.354668 0.568733
0.000000 0.361587 0.571011
0.000000 0.366618 0.574455
0.000000 0.367739 0.580561
0.000000 0.378823 0.585821
0.000000 0.398438 0.592508
0.353443 0.392529 0.607441
0.597574 0.353271 0.597510
0.756804 0.190794 0.519073
0.000000 0.574440 0.602980
0.000000 0.579019 0.604195
0.000000 0.581201 0.606741
0.000000 0.587744 0.606835
0.000000 0.592784 0.602595
0.000000 0.598551 0.607432
0.321361 0.609741 0.619659
0.617972 0.601232 0.627457
0.755722 0.524659 0.581753
0.000000 0.715602 0.510239
0.000000 0.716048 0.507370
0.000000 0.719467 0.507437
0.000000 0.720703 0.509108
0.000000 0.725571 0.511440
0.000000 0.730712 0.514687
0.347534 0.734045 0.525556
0.568734 0.729259 0.531918
0.746141 0.716481 0.543473
0.000000 0.000000 0.479940
0.000000 0.000000 0.481752
0.000000 0.000000 0.476109
0.000000 0.000000 0.471897
0.000000 0.000000 0.465445
0.000000 0.000000 0.454960
0.228947 0.000000 0.427395
0.425917 0.000000 0.361330
0.503459 0.000000 0.166548
0.000000 0.000000 0.483636
0.000000 0.000000 0.484849
0.000000 0.000000 0.485647
0.000000 0.000000 0.483116
0.000000 0.000000 0.476186
0.000000 0.000000 0.465789
0.232903 0.000000 0.439273
0.439503 0.000000 0.384342
0.507427 0.000000 0.190561
0.000000 0.000000 0.499240
0.000000 0.000000 0.500481
0.000000 0.000000 0.501327
0.000000 0.000000 0.498931
0.000000 0.000000 0.495060
0.000000 0.000000 0.489909
0.237266 0.000000 0.464081
0.440913 0.000000 0.425625
0.526333 0.000000 0.250488
0.000000 0.037963 0.521500
0.000000 0.038727 0.517905
0.000000 0.040992 0.518179
0.000000 0.044517 0.521895
0.000000 0.036274 0.522512
0.000000 0.000000 0.514475
0.244001 0.000000 0.494448
0.453134 0.000000 0.473304
0.579093 0.000000 0.340147
0.000000 0.079889 0.546897
0.000000 0.079909 0.549138
0.000000 0.080432 0.546066
0.000000 0.081475 0.548626
0.000000 0.082475 0.557321
0.000000 0.073149 0.556529
0.256983 0.000000 0.538755
0.469988 0.000000 0.524631
0.622967 0.000000 0.440795
0.000000 0.137559 0.586654
0.000000 0.137971 0.585264
0.000000 0.140924 0.588342
0.000000 0.145610 0.590118
0.000000 0.146297 0.597995
0.000000 0.145977 0.604263
0.261946 0.122132 0.594028
0.484626 0.000000 0.578378
0.685852 0.000000 0.524474
0.000000 0.278703 0.646882
0.000000 0.275057 0.648317
0.000000 0.276186 0.647555
0.000000 0.278151 0.648931
0.000000 0.280955 0.652840
0.000000 0.291312 0.660928
0.258688 0.284825 0.663812
0.519986 0.223316 0.646884
0.736782 0.000000 0.620625
0.000000 0.485923 0.694182
0.000000 0.486997 0.695554
0.000000 0.491488 0.697049
0.000000 0.494056 0.700370
0.000000 0.505177 0.706193
0.000000 0.519026 0.709489
0.206478 0.528321 0.717258
0.509251 0.523812 0.724034
0.755527 0.473751 0.716416
0.000000 0.704408 0.727461
0.000000 0.704643 0.727731
0.000000 0.709227 0.725794
0.000000 0.711328 0.725146
0.000000 0.717556 0.722306
0.000000 0.721128 0.721079
0.253974 0.724492 0.730940
0.522233 0.734980 0.728591
0.738478 0.728260 0.744540
