Assets/Lutify-Free-LUTs-Pack/Lutify Free LUTs Pack/Colour Film Boost Pro - Film Boost 10/Lutify.me-FilmBoost10-SLog3-to-Rec709.cube
# Created with: fylm.ai - Colour Grading and Collaboration Software in Cloud 
# Website: https://fylm.ai 
# META
# Option: Gamut compress
# Block 1: IDT | Sony S-Log3 S-Gamut3
# Block 2: colourMatch | Blending Mode: Normal | {"ColorSpace":0,"CrossCovarianceLimit":50,"ReshapingIterations":1,"PercentSaturationShift":100,"PercentShadingShift":100,"ExtraShading":true,"PercentTint":100,"PercentModified":100}
# Block 3: subtractiveColour | Blending Mode: Normal | {"sliders":{"gainY":0.55,"C":0.3,"M":0.3,"Y":0.3}}
# Block 4: LUT | Filmic Curve Response: Low Contrast 2 (100%)
# Block 5: logPrimaries | Blending Mode: Normal | {"wheels":{"shadows":{"Y":"0","R":"1","G":"1","B":"1"},"midtones":{"Y":"0","R":"1","G":"1","B":"1"},"highlights":{"Y":"0","R":"1","G":"1","B":"1"},"offset":{"Y":"0","R":"1","G":"1","B":"1"}},"sliders":{"shadows":{"Y":0,"R":-0.085,"G":0.024,"B":0.134},"midtones":{"Y":0,"R":0,"G":-0.023,"B":0},"highlights":{"Y":0,"R":0,"G":0,"B":0},"offset":{"Y":0,"R":0.012,"G":-0.012,"B":0}}}
# Block 6: HSL | Blending Mode: Normal | {"hue":{"Reds":0,"Yellows":0,"Greens":0,"Cyans":0,"Blues":0,"Magentas":0},"saturation":{"Reds":1,"Yellows":1,"Greens":1,"Cyans":1,"Blues":1,"Magentas":1},"luminance":{"Reds":0.9,"Yellows":0.9,"Greens":0.9,"Cyans":0.9,"Blues":0.9,"Magentas":0.9},"lum_sat":{"Blacks":1,"Shadows":1,"Midtones":1,"Highlights":1,"Whites":1},"sat_sat":{"10":1,"20":1,"30":1,"40":1,"50":1}}
# Block 7: ODT | Rec709
TITLE "Lutify.me-FilmBoost10-SLog3-to-Rec709" 
LUT_3D_SIZE 9
0.000000 0.000000 0.000000
0.000000 0.000000 0.000000
0.118823 0.000000 0.000000
0.248090 0.000000 0.000000
0.457105 0.000000 0.000000
0.750279 0.000000 0.044945
1.000000 0.000000 0.153100
1.000000 0.377519 0.337685
1.000000 0.678943 0.566508
0.000000 0.008878 0.000000
0.000000 0.016396 0.000000
0.131578 0.000000 0.000000
0.268499 0.000000 0.000000
0.466212 0.000000 0.000000
0.754273 0.000000 0.044849
1.000000 0.000000 0.155386
1.000000 0.377519 0.337685
1.000000 0.678943 0.566508
0.000000 0.096961 0.000000
0.000000 0.106028 0.000000
0.143402 0.096754 0.000000
0.302972 0.000000 0.000000
0.481998 0.000000 0.000000
0.761980 0.000000 0.043977
1.000000 0.000000 0.157400
1.000000 0.381105 0.337504
1.000000 0.678943 0.566508
0.000000 0.215892 0.000000
0.000000 0.236757 0.000000
0.000000 0.252875 0.000000
0.332398 0.218611 0.000000
0.540844 0.104266 0.000000
0.782573 0.000000 0.041536
1.000000 0.000000 0.161250
1.000000 0.399870 0.341963
1.000000 0.681793 0.569423
0.000000 0.403733 0.000000
0.000000 0.428674 0.000000
0.000000 0.448891 0.000000
0.000000 0.460401 0.000000
0.567903 0.419121 0.000000
0.824160 0.328020 0.000000
1.000000 0.237111 0.169992
1.000000 0.436452 0.350886
1.000000 0.692928 0.569612
0.000000 0.668896 0.000000
0.000000 0.682305 0.000000
0.000000 0.693170 0.000000
0.000000 0.713786 0.000000
0.161818 0.719094 0.000000
0.820515 0.669993 0.000000
0.988364 0.597741 0.164323
1.000000 0.558943 0.360974
1.000000 0.718832 0.581086
0.000000 0.868001 0.333044
0.000000 0.869069 0.331399
0.000000 0.872556 0.327544
0.000000 0.879836 0.321428
0.000000 0.885184 0.310625
0.612274 0.878161 0.273327
0.937096 0.850218 0.234531
1.000000 0.808648 0.419673
1.000000 0.784259 0.608587
0.000000 0.967983 0.610580
0.000000 0.968741 0.611053
0.000000 0.968744 0.609173
0.000000 0.970147 0.609233
0.000000 0.970906 0.607717
0.464946 0.967997 0.602561
0.832926 0.956990 0.577428
0.988613 0.943932 0.552509
1.000000 0.916570 0.681659
0.497587 1.000000 0.814381
0.497587 1.000000 0.814381
0.503260 1.000000 0.814567
0.520003 1.000000 0.813514
0.561225 1.000000 0.813419
0.636819 1.000000 0.815322
0.765982 1.000000 0.810389
0.924012 0.996331 0.803197
1.000000 0.990884 0.799789
0.000000 0.000000 0.012572
0.000000 0.000000 0.006229
0.112095 0.000000 0.000000
0.237829 0.000000 0.000000
0.457682 0.000000 0.005640
0.755205 0.000000 0.058617
1.000000 0.000000 0.161161
1.000000 0.370923 0.343196
1.000000 0.679219 0.569535
0.000000 0.000000 0.031440
0.000000 0.000000 0.026440
0.124028 0.000000 0.000000
0.259299 0.000000 0.000000
0.469785 0.000000 0.017936
0.758904 0.000000 0.058173
1.000000 0.000000 0.163725
1.000000 0.378120 0.342849
1.000000 0.679219 0.569535
0.000000 0.092901 0.014383
0.000000 0.100412 0.000000
0.120813 0.107714 0.000000
0.295099 0.000000 0.000000
0.486252 0.000000 0.018020
0.763708 0.000000 0.060002
1.000000 0.000000 0.163100
1.000000 0.381705 0.342673
1.000000 0.679219 0.569535
0.000000 0.217341 0.000000
0.000000 0.237020 0.000000
0.000000 0.258952 0.000000
0.307983 0.241476 0.000000
0.538903 0.126765 0.000000
0.784006 0.000000 0.060878
1.000000 0.000000 0.168647
1.000000 0.400167 0.344583
1.000000 0.681793 0.569423
0.000000 0.409969 0.000000
0.000000 0.430472 0.000000
0.000000 0.455647 0.000000
0.000000 0.472388 0.000000
0.570714 0.436989 0.000000
0.828680 0.335139 0.000000
1.000000 0.238456 0.178414
1.000000 0.436747 0.353601
1.000000 0.692928 0.569612
0.000000 0.668387 0.059269
0.000000 0.678983 0.030790
0.000000 0.695155 0.000000
0.000000 0.718275 0.000000
0.147032 0.723445 0.000000
0.819708 0.678522 0.000000
0.989408 0.595635 0.178623
1.000000 0.559237 0.363868
1.000000 0.718832 0.581086
0.000000 0.867977 0.346469
0.000000 0.868901 0.341238
0.000000 0.872533 0.341012
0.000000 0.879561 0.334404
0.000000 0.888973 0.325204
0.613495 0.878726 0.287713
0.936624 0.852445 0.244868
1.000000 0.807025 0.425799
1.000000 0.784259 0.608587
0.000000 0.967971 0.613690
0.000000 0.968729 0.614158
0.000000 0.968733 0.612276
0.000000 0.970136 0.612320
0.000000 0.970894 0.610781
0.465295 0.968055 0.605898
0.832926 0.956990 0.577428
0.988555 0.944074 0.558248
1.000000 0.916570 0.681659
0.497587 1.000000 0.814381
0.497587 1.000000 0.814381
0.503260 1.000000 0.814567
0.519816 1.000000 0.815129
0.561054 1.000000 0.815031
0.636819 1.000000 0.815322
0.765982 1.000000 0.810389
0.924012 0.996331 0.803197
1.000000 0.990911 0.801297
0.000000 0.000000 0.063961
0.000000 0.000000 0.055737
0.097968 0.000000 0.040270
0.231604 0.000000 0.032573
0.448883 0.000000 0.042103
0.761799 0.000000 0.075790
1.000000 0.000000 0.174068
1.000000 0.371226 0.345802
1.000000 0.676635 0.569648
0.000000 0.000000 0.084123
0.000000 0.000000 0.074655
0.100301 0.000000 0.057413
0.252495 0.000000 0.048306
0.470943 0.000000 0.046334
0.767027 0.000000 0.079950
1.000000 0.000000 0.176798
1.000000 0.378420 0.345459
1.000000 0.679219 0.569535
0.000000 0.076005 0.145728
0.000000 0.088608 0.135555
0.096417 0.112429 0.130154
0.294124 0.000000 0.072187
0.494204 0.000000 0.051509
0.771512 0.000000 0.081821
1.000000 0.000000 0.177610
1.000000 0.382605 0.350566
1.000000 0.679219 0.569535
0.000000 0.218666 0.150209
0.000000 0.235330 0.130632
0.000000 0.269537 0.104472
0.309942 0.269481 0.076438
0.548937 0.123002 0.048204
0.786999 0.000000 0.082358
1.000000 0.000000 0.178962
1.000000 0.401060 0.352557
1.000000 0.681793 0.569423
0.000000 0.401090 0.111720
0.000000 0.426354 0.078623
0.000000 0.458565 0.000000
0.000000 0.493775 0.000000
0.569048 0.464270 0.000000
0.831936 0.337467 0.052409
1.000000 0.240622 0.192233
1.000000 0.437336 0.359091
1.000000 0.693196 0.572636
0.000000 0.666885 0.147915
0.000000 0.677426 0.142265
0.000000 0.691813 0.123532
0.000000 0.717051 0.088834
0.101919 0.729852 0.000000
0.814751 0.696049 0.000000
0.988471 0.598452 0.202124
1.000000 0.560120 0.372598
1.000000 0.719082 0.584134
0.000000 0.867640 0.362688
0.000000 0.868864 0.361318
0.000000 0.872351 0.360852
0.000000 0.879518 0.357895
0.000000 0.889754 0.343346
0.615587 0.879712 0.312889
0.937118 0.853675 0.271339
1.000000 0.807209 0.428933
1.000000 0.784450 0.611659
0.000000 0.968716 0.616656
0.000000 0.968718 0.617265
0.000000 0.968710 0.618487
0.000000 0.970124 0.615410
0.000000 0.970883 0.613848
0.465641 0.968113 0.609239
0.833142 0.957174 0.587009
0.988494 0.944215 0.564015
1.000000 0.916660 0.684387
0.491627 1.000000 0.815809
0.498836 1.000000 0.816183
0.504467 1.000000 0.816368
0.515690 1.000000 0.815135
0.561054 1.000000 0.815031
0.636819 1.000000 0.815322
0.766135 1.000000 0.812146
0.924012 0.996331 0.803197
1.000000 0.990911 0.801297
0.000000 0.000000 0.130719
0.000000 0.000000 0.106725
0.078088 0.000000 0.097949
0.227873 0.000000 0.060533
0.437972 0.000000 0.097287
0.758881 0.000000 0.122726
1.000000 0.000000 0.202137
1.000000 0.373037 0.361844
1.000000 0.676913 0.572681
0.000000 0.000000 0.172668
0.000000 0.000000 0.147618
0.064560 0.000000 0.136226
0.235405 0.000000 0.094666
0.463199 0.000000 0.115354
0.769334 0.000000 0.124943
1.000000 0.000000 0.203490
1.000000 0.373037 0.361844
1.000000 0.679495 0.572568
0.000000 0.028308 0.245941
0.000000 0.040299 0.226738
0.000000 0.049886 0.222523
0.282655 0.000000 0.181993
0.487966 0.000000 0.141998
0.778753 0.000000 0.131573
1.000000 0.000000 0.204663
1.000000 0.384105 0.364110
1.000000 0.679495 0.572568
0.000000 0.171172 0.323710
0.000000 0.193440 0.309171
0.000000 0.245406 0.304799
0.265068 0.287631 0.315593
0.567097 0.129225 0.203689
0.802234 0.000000 0.148079
1.000000 0.000000 0.211858
1.000000 0.399012 0.366403
1.000000 0.682067 0.572457
0.000000 0.394733 0.331441
0.000000 0.420372 0.306401
0.000000 0.454940 0.291268
0.000000 0.515886 0.278452
0.565815 0.512697 0.253252
0.842414 0.343265 0.173162
1.000000 0.254841 0.222745
1.000000 0.439107 0.376009
1.000000 0.693729 0.578705
0.000000 0.666183 0.270694
0.000000 0.679882 0.270582
0.000000 0.689604 0.267156
0.000000 0.721566 0.248865
0.000000 0.749115 0.220246
0.820677 0.713653 0.174685
0.988227 0.610419 0.246000
1.000000 0.561894 0.390285
1.000000 0.719331 0.587189
0.000000 0.865487 0.415610
0.000000 0.868297 0.413855
0.000000 0.871954 0.410327
0.000000 0.879287 0.407658
0.000000 0.893554 0.394627
0.606361 0.885296 0.369519
0.936134 0.861505 0.331912
1.000000 0.808613 0.450905
1.000000 0.784641 0.614736
0.000000 0.968644 0.635341
0.000000 0.968645 0.635644
0.000000 0.968653 0.633745
0.000000 0.968591 0.633397
0.000000 0.970164 0.628717
0.459630 0.969243 0.626210
0.830528 0.958215 0.600081
0.986383 0.945660 0.582036
1.000000 0.916750 0.687106
0.491425 1.000000 0.817416
0.497188 1.000000 0.817601
0.498638 1.000000 0.817784
0.515312 1.000000 0.818336
0.561708 1.000000 0.818419
0.636531 1.000000 0.818494
0.766442 1.000000 0.815637
0.924044 0.996375 0.806609
1.000000 0.990965 0.804305
0.000000 0.000000 0.231989
0.000000 0.000000 0.211974
0.000000 0.000000 0.202343
0.217349 0.000000 0.175529
0.392844 0.000000 0.099953
0.740898 0.000000 0.248206
1.000000 0.000000 0.285555
1.000000 0.370360 0.404856
1.000000 0.678578 0.591022
0.000000 0.000000 0.285490
0.000000 0.000000 0.266760
0.000000 0.000000 0.260525
0.213252 0.000000 0.246875
0.408617 0.000000 0.154491
0.750494 0.000000 0.261179
1.000000 0.000000 0.287968
1.000000 0.373965 0.404722
1.000000 0.678578 0.591022
0.000000 0.000000 0.346852
0.000000 0.000000 0.330088
0.000000 0.010726 0.332579
0.197923 0.000000 0.314746
0.458505 0.000000 0.245070
0.767378 0.000000 0.272957
1.000000 0.000000 0.290554
1.000000 0.377562 0.404585
1.000000 0.678578 0.591022
0.000000 0.100088 0.449373
0.000000 0.118785 0.432813
0.000000 0.139627 0.433538
0.126657 0.169105 0.456149
0.568164 0.000000 0.395713
0.801825 0.000000 0.313504
1.000000 0.000000 0.302425
1.000000 0.396110 0.406952
1.000000 0.683712 0.590801
0.000000 0.306910 0.545543
0.000000 0.343621 0.524469
0.000000 0.396860 0.521428
0.000000 0.485811 0.552868
0.541670 0.536056 0.561282
0.855819 0.363542 0.419966
1.000000 0.255033 0.325805
1.000000 0.435993 0.414333
1.000000 0.691610 0.593561
0.000000 0.652656 0.535069
0.000000 0.666906 0.528261
0.000000 0.685819 0.532117
0.000000 0.719410 0.533050
0.000000 0.764457 0.520053
0.807134 0.748830 0.499004
0.988378 0.624580 0.382587
1.000000 0.560177 0.442422
1.000000 0.718456 0.605733
0.000000 0.867081 0.529740
0.000000 0.870166 0.531855
0.000000 0.873197 0.534008
0.000000 0.880742 0.528246
0.000000 0.891598 0.524461
0.587826 0.891470 0.504561
0.931742 0.871592 0.472470
1.000000 0.813647 0.502603
1.000000 0.785405 0.627098
0.000000 0.969964 0.674196
0.000000 0.969987 0.672073
0.000000 0.969988 0.672937
0.000000 0.969945 0.672567
0.000000 0.969992 0.671453
0.454361 0.970601 0.668661
0.823644 0.960092 0.645447
0.983633 0.949785 0.629117
1.000000 0.917377 0.702895
0.490228 1.000000 0.826900
0.490228 1.000000 0.826900
0.496009 1.000000 0.827076
0.509070 1.000000 0.824469
0.551205 1.000000 0.824348
0.631980 1.000000 0.824561
0.767062 1.000000 0.822516
0.921871 0.996596 0.813243
1.000000 0.991098 0.811769
0.000000 0.000000 0.429758
0.000000 0.000000 0.432703
0.000000 0.000000 0.424332
0.048078 0.000000 0.410364
0.428388 0.000000 0.374557
0.634601 0.000000 0.210636
0.996084 0.000000 0.469252
1.000000 0.369855 0.507051
1.000000 0.675036 0.638151
0.000000 0.000000 0.469070
0.000000 0.000000 0.467190
0.000000 0.000000 0.470728
0.000000 0.000000 0.459756
0.429379 0.000000 0.430521
0.663849 0.000000 0.282606
0.996589 0.000000 0.473107
1.000000 0.373854 0.507183
1.000000 0.675036 0.638151
0.000000 0.000000 0.506636
0.000000 0.000000 0.501813
0.000000 0.000000 0.508698
0.000000 0.000000 0.506700
0.432225 0.000000 0.483508
0.704474 0.000000 0.354008
0.997564 0.000000 0.483923
1.000000 0.377841 0.507315
1.000000 0.680178 0.637934
0.000000 0.073892 0.561908
0.000000 0.079772 0.563353
0.000000 0.091331 0.571711
0.000000 0.103891 0.583939
0.435084 0.000000 0.575974
0.780583 0.000000 0.477151
1.000000 0.000000 0.503476
1.000000 0.397915 0.510974
1.000000 0.682735 0.637826
0.000000 0.251592 0.658722
0.000000 0.268494 0.663037
0.000000 0.284785 0.662536
0.000000 0.329987 0.682167
0.346834 0.377330 0.711353
0.863710 0.246209 0.650106
1.000000 0.223324 0.550201
1.000000 0.445498 0.524596
1.000000 0.693137 0.640570
0.000000 0.497456 0.750332
0.000000 0.539034 0.735226
0.000000 0.586617 0.733913
0.000000 0.656173 0.751260
0.000000 0.741254 0.777508
0.778768 0.765980 0.785541
0.983677 0.639234 0.652286
1.000000 0.570447 0.556319
1.000000 0.719854 0.652832
0.000000 0.860164 0.757360
0.000000 0.861890 0.759682
0.000000 0.866147 0.757531
0.000000 0.875093 0.757184
0.000000 0.889792 0.756474
0.559642 0.899726 0.761504
0.916849 0.890731 0.738808
1.000000 0.820759 0.630647
1.000000 0.786206 0.670805
0.000000 0.969500 0.759278
0.000000 0.969532 0.759953
0.000000 0.969567 0.758214
0.000000 0.970323 0.758016
0.000000 0.971227 0.761516
0.387534 0.970153 0.762638
0.820818 0.962388 0.749260
0.980641 0.952913 0.729818
1.000000 0.920713 0.741546
0.469927 1.000000 0.844481
0.469927 1.000000 0.844481
0.476018 1.000000 0.844640
0.488107 1.000000 0.843503
0.533745 1.000000 0.843444
0.623314 1.000000 0.843924
0.766406 1.000000 0.845071
0.920825 0.997205 0.834547
1.000000 0.991790 0.831102
0.000000 0.000000 0.696517
0.000000 0.000000 0.700910
0.000000 0.000000 0.703863
0.000000 0.000000 0.700558
0.247843 0.000000 0.683758
0.720818 0.000000 0.649369
0.910300 0.000000 0.460800
1.000000 0.283718 0.707834
1.000000 0.672195 0.722811
0.000000 0.032661 0.702567
0.000000 0.030669 0.706971
0.000000 0.038115 0.709917
0.000000 0.028331 0.710492
0.245476 0.000000 0.697302
0.731563 0.000000 0.669378
0.928195 0.000000 0.491705
1.000000 0.297236 0.708405
1.000000 0.672735 0.722840
0.000000 0.059449 0.714630
0.000000 0.058908 0.718968
0.000000 0.059747 0.721881
0.000000 0.063104 0.727048
0.241494 0.000000 0.714430
0.738628 0.000000 0.696953
0.938729 0.000000 0.532147
1.000000 0.301531 0.711672
1.000000 0.675654 0.722971
0.000000 0.111345 0.742986
0.000000 0.111708 0.747079
0.000000 0.112063 0.753106
0.000000 0.123017 0.761092
0.197196 0.106432 0.757616
0.742559 0.000000 0.736011
0.974362 0.000000 0.611258
1.000000 0.327381 0.715834
1.000000 0.681421 0.725912
0.000000 0.211454 0.787781
0.000000 0.214499 0.791289
0.000000 0.224025 0.791793
0.000000 0.239710 0.800791
0.041651 0.257780 0.817792
0.746855 0.160421 0.802670
1.000000 0.000000 0.715960
1.000000 0.401654 0.733300
1.000000 0.692825 0.729095
0.000000 0.477953 0.841871
0.000000 0.485321 0.843034
0.000000 0.497173 0.847025
0.000000 0.519369 0.853981
0.000000 0.579071 0.861726
0.643146 0.627168 0.868761
0.997594 0.545001 0.838077
1.000000 0.541215 0.765096
1.000000 0.723661 0.738454
0.000000 0.738867 0.872080
0.000000 0.761357 0.872208
0.000000 0.779920 0.874287
0.000000 0.821436 0.878445
0.000000 0.865352 0.888319
0.438666 0.894132 0.894643
0.904518 0.898857 0.900592
1.000000 0.831973 0.826346
1.000000 0.792084 0.764520
0.000000 0.966646 0.889913
0.000000 0.966772 0.890356
0.000000 0.966887 0.890799
0.000000 0.968672 0.889273
0.000000 0.970985 0.885666
0.226190 0.970418 0.884159
0.807927 0.967276 0.884143
0.970146 0.961999 0.876251
1.000000 0.923725 0.813458
0.420649 1.000000 0.886118
0.427681 1.000000 0.886231
0.434575 1.000000 0.886343
0.454643 1.000000 0.885564
0.500260 1.000000 0.885246
0.602366 1.000000 0.886484
0.755145 1.000000 0.886575
0.920357 0.998458 0.879637
1.000000 0.993325 0.874804
0.000000 0.171284 0.885639
0.000000 0.171234 0.886398
0.000000 0.172833 0.887268
0.000000 0.171716 0.888278
0.155265 0.163424 0.887696
0.543717 0.000000 0.876149
0.976370 0.000000 0.859497
1.000000 0.000000 0.727987
1.000000 0.623809 0.863585
0.000000 0.176171 0.888783
0.000000 0.177981 0.887874
0.000000 0.177909 0.888775
0.000000 0.180856 0.890081
0.142469 0.173932 0.889945
0.543766 0.074477 0.878514
0.976557 0.000000 0.861861
1.000000 0.000000 0.733265
1.000000 0.623809 0.863585
0.000000 0.186323 0.891744
0.000000 0.189983 0.890804
0.000000 0.189990 0.891688
0.000000 0.191502 0.893006
0.134964 0.186223 0.892248
0.539044 0.108492 0.882662
0.976959 0.000000 0.864504
1.000000 0.000000 0.749967
1.000000 0.626987 0.863600
0.000000 0.216574 0.897187
0.000000 0.218555 0.897558
0.000000 0.218902 0.897160
0.000000 0.223126 0.898363
0.007722 0.225018 0.900402
0.533058 0.173408 0.892832
0.979759 0.000000 0.875714
1.000000 0.000000 0.773109
1.000000 0.630769 0.865140
0.000000 0.273933 0.905756
0.000000 0.274169 0.906150
0.000000 0.279164 0.907047
0.000000 0.287314 0.909413
0.000000 0.293474 0.914908
0.520795 0.272777 0.909014
0.976886 0.083528 0.898334
1.000000 0.000000 0.822059
1.000000 0.652490 0.868446
0.000000 0.430937 0.925212
0.000000 0.431802 0.925719
0.000000 0.432835 0.926326
0.000000 0.439462 0.927063
0.000000 0.458735 0.929553
0.433762 0.483948 0.932787
0.959401 0.446145 0.923224
1.000000 0.347981 0.881036
1.000000 0.695328 0.874453
0.000000 0.722601 0.943838
0.000000 0.724525 0.944468
0.000000 0.730181 0.945111
0.000000 0.741784 0.946552
0.000000 0.773474 0.945569
0.000000 0.800704 0.946763
0.837841 0.820562 0.948613
1.000000 0.777614 0.932068
1.000000 0.779904 0.888455
0.000000 0.912670 0.953291
0.000000 0.915937 0.952733
0.000000 0.921928 0.952878
0.000000 0.927872 0.955631
0.000000 0.948938 0.957341
0.000000 0.962912 0.960924
0.755055 0.967249 0.962019
0.964451 0.968263 0.961666
1.000000 0.929811 0.925012
0.110489 1.000000 0.957451
0.110489 1.000000 0.957451
0.143854 1.000000 0.957507
0.224747 1.000000 0.957726
0.346804 1.000000 0.956899
0.536755 1.000000 0.956972
0.721470 1.000000 0.955676
0.912455 1.000000 0.954139
0.998708 0.996823 0.949960
0.000000 0.368364 0.979617
0.080410 0.371292 0.979614
0.106615 0.371502 0.978188
0.178232 0.377403 0.978286
0.305074 0.375734 0.977944
0.497606 0.366406 0.976679
0.831508 0.314696 0.970288
1.000000 0.226599 0.959759
1.000000 0.000000 0.886209
0.000000 0.371278 0.979505
0.080410 0.371292 0.979614
0.085886 0.377198 0.979441
0.178232 0.377403 0.978286
0.303075 0.378893 0.978645
0.497606 0.366406 0.976679
0.831292 0.318866 0.970279
1.000000 0.226091 0.961389
1.000000 0.000000 0.889612
0.000000 0.380127 0.979161
0.000000 0.380164 0.979270
0.074111 0.380177 0.979325
0.172868 0.380190 0.979642
0.303075 0.378893 0.978645
0.496569 0.369733 0.977386
0.830732 0.322915 0.971031
1.000000 0.243989 0.961433
1.000000 0.000000 0.891424
0.000000 0.391929 0.980141
0.000000 0.391991 0.980248
0.000000 0.392018 0.980301
0.148736 0.395277 0.979771
0.293497 0.395028 0.979835
0.492221 0.386736 0.978659
0.828836 0.343237 0.972457
1.000000 0.276697 0.963066
1.000000 0.104498 0.896746
0.000000 0.428020 0.982144
0.000000 0.428140 0.982245
0.000000 0.428324 0.981604
0.000000 0.431722 0.981771
0.247384 0.438426 0.981518
0.478673 0.435200 0.980088
0.815104 0.399913 0.975740
1.000000 0.353202 0.967548
1.000000 0.239754 0.913116
0.000000 0.508533 0.984935
0.000000 0.508647 0.984982
0.000000 0.508977 0.985120
0.000000 0.512717 0.985189
0.085178 0.517405 0.985083
0.440518 0.521607 0.985673
0.781592 0.509498 0.980829
1.000000 0.488080 0.974573
1.000000 0.431053 0.935797
0.000000 0.671108 0.988230
0.000000 0.671283 0.988268
0.000000 0.671631 0.988343
0.000000 0.672810 0.988601
0.000000 0.678903 0.988451
0.242600 0.700106 0.987535
0.716546 0.717312 0.986497
1.000000 0.705219 0.980998
1.000000 0.671160 0.957152
0.000000 0.895610 0.991343
0.000000 0.895923 0.991457
0.000000 0.896150 0.991541
0.000000 0.898233 0.991646
0.000000 0.902110 0.991845
0.000000 0.913035 0.990662
0.597556 0.918510 0.989668
0.929790 0.924645 0.990480
1.000000 0.903282 0.982007
0.000000 0.995272 0.995418
0.000000 0.995948 0.995449
0.000000 0.996139 0.995593
0.000000 0.998242 0.995852
0.000000 1.000000 0.994936
0.000000 1.000000 0.994803
0.581625 1.000000 0.995103
0.894789 1.000000 0.995857
0.994443 0.999594 0.995848
