Assets/Lutify-Free-LUTs-Pack/Lutify Free LUTs Pack/Colour Film Boost Pro - Film Boost 10/Lutify.me-FilmBoost10-ZLog2-to-Rec709.cube
# Created with: fylm.ai - Colour Grading and Collaboration Software in Cloud 
# Website: https://fylm.ai 
# META
# Option: Gamut compress
# Block 1: IDT | Z-Cam Z-Log2 - BETA
# Block 2: colourMatch | Blending Mode: Normal | {"ColorSpace":0,"CrossCovarianceLimit":50,"ReshapingIterations":1,"PercentSaturationShift":100,"PercentShadingShift":100,"ExtraShading":true,"PercentTint":100,"PercentModified":100}
# Block 3: subtractiveColour | Blending Mode: Normal | {"sliders":{"gainY":0.55,"C":0.3,"M":0.3,"Y":0.3}}
# Block 4: LUT | Filmic Curve Response: Low Contrast 2 (100%)
# Block 5: logPrimaries | Blending Mode: Normal | {"wheels":{"shadows":{"Y":"0","R":"1","G":"1","B":"1"},"midtones":{"Y":"0","R":"1","G":"1","B":"1"},"highlights":{"Y":"0","R":"1","G":"1","B":"1"},"offset":{"Y":"0","R":"1","G":"1","B":"1"}},"sliders":{"shadows":{"Y":0,"R":-0.085,"G":0.024,"B":0.134},"midtones":{"Y":0,"R":0,"G":-0.023,"B":0},"highlights":{"Y":0,"R":0,"G":0,"B":0},"offset":{"Y":0,"R":0.012,"G":-0.012,"B":0}}}
# Block 6: HSL | Blending Mode: Normal | {"hue":{"Reds":0,"Yellows":0,"Greens":0,"Cyans":0,"Blues":0,"Magentas":0},"saturation":{"Reds":1,"Yellows":1,"Greens":1,"Cyans":1,"Blues":1,"Magentas":1},"luminance":{"Reds":0.9,"Yellows":0.9,"Greens":0.9,"Cyans":0.9,"Blues":0.9,"Magentas":0.9},"lum_sat":{"Blacks":1,"Shadows":1,"Midtones":1,"Highlights":1,"Whites":1},"sat_sat":{"10":1,"20":1,"30":1,"40":1,"50":1}}
# Block 7: ODT | Rec709
TITLE "Lutify.me-FilmBoost10-ZLog2-to-Rec709" 
LUT_3D_SIZE 5
0.000000 0.000000 0.000000
0.064251 0.000000 0.000000
0.175494 0.000000 0.000000
0.348950 0.000000 0.029014
0.621911 0.000000 0.076160
0.000000 0.069328 0.000000
0.076024 0.067406 0.000000
0.210824 0.000000 0.000000
0.372379 0.000000 0.028376
0.639757 0.000000 0.077366
0.000000 0.196346 0.000000
0.000000 0.198133 0.000000
0.264030 0.171205 0.000000
0.423146 0.089739 0.000000
0.665581 0.000000 0.078524
0.000000 0.365525 0.000000
0.000000 0.363981 0.000000
0.286370 0.353945 0.000000
0.549907 0.292416 0.000000
0.718438 0.265854 0.000000
0.000000 0.568332 0.000000
0.000000 0.567201 0.000000
0.330680 0.566220 0.000000
0.601192 0.555271 0.000000
0.817037 0.473164 0.000000
0.000000 0.000000 0.056050
0.045887 0.000000 0.053023
0.168184 0.000000 0.039124
0.346228 0.000000 0.049566
0.621890 0.000000 0.089105
0.000000 0.057491 0.083945
0.050976 0.066849 0.080978
0.201302 0.000000 0.056031
0.371573 0.000000 0.053182
0.638634 0.000000 0.092344
0.000000 0.196073 0.000000
0.000000 0.202707 0.000000
0.237729 0.190922 0.000000
0.431202 0.085645 0.028278
0.671607 0.000000 0.095881
0.000000 0.363257 0.000000
0.000000 0.361927 0.000000
0.240837 0.360769 0.000000
0.510718 0.319926 0.000000
0.724339 0.271720 0.000000
0.000000 0.568515 0.000000
0.000000 0.567424 0.000000
0.318307 0.566566 0.000000
0.596836 0.555760 0.000000
0.817037 0.473164 0.000000
0.000000 0.000000 0.117018
0.000000 0.000000 0.107915
0.150874 0.000000 0.083083
0.324285 0.000000 0.086476
0.612255 0.000000 0.134855
0.000000 0.000000 0.158394
0.000000 0.000000 0.151594
0.170204 0.000000 0.132928
0.348148 0.000000 0.116946
0.627058 0.000000 0.140334
0.000000 0.167938 0.230496
0.000000 0.195297 0.235337
0.183050 0.215299 0.247397
0.439492 0.077119 0.175910
0.675270 0.000000 0.158470
0.000000 0.402629 0.000000
0.000000 0.409329 0.000000
0.000000 0.418135 0.000000
0.485042 0.403818 0.000000
0.737726 0.286258 0.133577
0.000000 0.568691 0.000000
0.000000 0.567638 0.000000
0.315481 0.563655 0.000000
0.593856 0.552877 0.000000
0.756731 0.545102 0.000000
0.000000 0.000000 0.208873
0.000000 0.000000 0.194182
0.081947 0.000000 0.180466
0.306041 0.000000 0.116947
0.575836 0.000000 0.198344
0.000000 0.000000 0.257615
0.000000 0.000000 0.252551
0.067837 0.000000 0.239191
0.328036 0.000000 0.179160
0.594986 0.000000 0.229574
0.000000 0.056769 0.351559
0.000000 0.066599 0.348862
0.000000 0.074965 0.359992
0.409648 0.000000 0.325393
0.658821 0.000000 0.280686
0.000000 0.354858 0.446776
0.000000 0.376730 0.450531
0.000000 0.430545 0.468094
0.441631 0.452639 0.485907
0.747490 0.283633 0.378174
0.000000 0.672813 0.196764
0.000000 0.675167 0.195005
0.000000 0.681310 0.185185
0.234138 0.691044 0.184786
0.759598 0.674548 0.246967
0.000000 0.000000 0.329045
0.000000 0.000000 0.322024
0.000000 0.000000 0.303800
0.238664 0.000000 0.276699
0.505750 0.000000 0.133638
0.000000 0.000000 0.395492
0.000000 0.000000 0.387756
0.000000 0.000000 0.375877
0.228796 0.000000 0.347636
0.519552 0.000000 0.205147
0.000000 0.000000 0.487971
0.000000 0.000000 0.488341
0.000000 0.015606 0.492446
0.219484 0.000000 0.481170
0.617486 0.000000 0.404873
0.000000 0.174838 0.590765
0.000000 0.178127 0.594236
0.000000 0.198708 0.606137
0.209964 0.217510 0.631465
0.732330 0.000000 0.591220
0.000000 0.620798 0.696696
0.000000 0.635695 0.694543
0.000000 0.649831 0.705675
0.000000 0.697447 0.715250
0.728800 0.708728 0.735695
