Assets/Lutify-Free-LUTs-Pack/Lutify Free LUTs Pack/Colour Film Boost Pro - Film Boost 10/Lutify.me-FilmBoost10-LogC3-to-Rec709.cube
# Created with: fylm.ai - Colour Grading and Collaboration Software in Cloud 
# Website: https://fylm.ai 
# META
# Option: Gamut compress
# Block 1: IDT | Arri Alexa - LogC3
# Block 2: colourMatch | Blending Mode: Normal | {"ColorSpace":0,"CrossCovarianceLimit":50,"ReshapingIterations":1,"PercentSaturationShift":100,"PercentShadingShift":100,"ExtraShading":true,"PercentTint":100,"PercentModified":100}
# Block 3: subtractiveColour | Blending Mode: Normal | {"sliders":{"gainY":0.55,"C":0.3,"M":0.3,"Y":0.3}}
# Block 4: LUT | Filmic Curve Response: Low Contrast 2 (100%)
# Block 5: logPrimaries | Blending Mode: Normal | {"wheels":{"shadows":{"Y":"0","R":"1","G":"1","B":"1"},"midtones":{"Y":"0","R":"1","G":"1","B":"1"},"highlights":{"Y":"0","R":"1","G":"1","B":"1"},"offset":{"Y":"0","R":"1","G":"1","B":"1"}},"sliders":{"shadows":{"Y":0,"R":-0.085,"G":0.024,"B":0.134},"midtones":{"Y":0,"R":0,"G":-0.023,"B":0},"highlights":{"Y":0,"R":0,"G":0,"B":0},"offset":{"Y":0,"R":0.012,"G":-0.012,"B":0}}}
# Block 6: HSL | Blending Mode: Normal | {"hue":{"Reds":0,"Yellows":0,"Greens":0,"Cyans":0,"Blues":0,"Magentas":0},"saturation":{"Reds":1,"Yellows":1,"Greens":1,"Cyans":1,"Blues":1,"Magentas":1},"luminance":{"Reds":0.9,"Yellows":0.9,"Greens":0.9,"Cyans":0.9,"Blues":0.9,"Magentas":0.9},"lum_sat":{"Blacks":1,"Shadows":1,"Midtones":1,"Highlights":1,"Whites":1},"sat_sat":{"10":1,"20":1,"30":1,"40":1,"50":1}}
# Block 7: ODT | Rec709
TITLE "Lutify.me-FilmBoost10-LogC3-to-Rec709" 
LUT_3D_SIZE 5
0.000000 0.000000 0.000000
0.121445 0.000000 0.000000
0.495027 0.000000 0.000000
1.000000 0.224342 0.208378
1.000000 0.793214 0.668766
0.000000 0.115543 0.000000
0.176179 0.118176 0.000000
0.537147 0.000000 0.000000
1.000000 0.252348 0.206859
1.000000 0.796719 0.668730
0.000000 0.468787 0.000000
0.000000 0.476267 0.000000
0.635003 0.444422 0.000000
1.000000 0.447161 0.203883
1.000000 0.804057 0.669245
0.000000 0.902722 0.000000
0.000000 0.902147 0.000000
0.478627 0.899458 0.000000
0.952911 0.880128 0.083948
1.000000 0.878491 0.699437
0.849004 1.000000 0.754636
0.850593 1.000000 0.754685
0.856727 1.000000 0.751416
0.907580 1.000000 0.756400
1.000000 0.997757 0.797569
0.000000 0.000000 0.076662
0.092985 0.000000 0.045777
0.502810 0.000000 0.060225
1.000000 0.227363 0.224828
1.000000 0.793400 0.671750
0.000000 0.079932 0.161580
0.109942 0.129958 0.149074
0.541378 0.000000 0.071124
1.000000 0.255520 0.225359
1.000000 0.796903 0.671712
0.000000 0.507941 0.000000
0.000000 0.526805 0.000000
0.624752 0.512242 0.000000
1.000000 0.450719 0.232202
1.000000 0.802530 0.672218
0.000000 0.906299 0.115416
0.000000 0.905581 0.122391
0.473500 0.902426 0.091794
0.954328 0.882623 0.179953
1.000000 0.878606 0.702146
0.849077 1.000000 0.756367
0.850664 1.000000 0.756415
0.856892 1.000000 0.757422
0.906478 1.000000 0.761298
1.000000 0.997775 0.798734
0.000000 0.000000 0.220152
0.000000 0.000000 0.147849
0.406674 0.000000 0.121534
1.000000 0.200618 0.381774
1.000000 0.792576 0.686543
0.000000 0.000000 0.342292
0.000000 0.000000 0.315856
0.501159 0.000000 0.301589
1.000000 0.233427 0.388042
1.000000 0.794333 0.686515
0.000000 0.425756 0.562144
0.000000 0.474353 0.582305
0.596767 0.585334 0.607677
1.000000 0.447755 0.411740
1.000000 0.803433 0.686883
0.000000 0.919293 0.470139
0.000000 0.918723 0.470240
0.479696 0.914843 0.454161
0.951242 0.900696 0.454644
1.000000 0.878028 0.715422
0.850117 1.000000 0.779914
0.850117 1.000000 0.779914
0.856292 1.000000 0.778438
0.905760 1.000000 0.782184
1.000000 0.997987 0.812750
0.000000 0.000000 0.329221
0.000000 0.000000 0.320534
0.358477 0.000000 0.308717
0.956447 0.000000 0.577638
1.000000 0.793307 0.808973
0.000000 0.000000 0.329208
0.029425 0.000000 0.320502
0.361001 0.000000 0.308563
0.984415 0.000000 0.633687
1.000000 0.795750 0.809061
0.000000 0.140651 0.797707
0.000000 0.146932 0.803881
0.117778 0.172756 0.822450
1.000000 0.000000 0.790790
1.000000 0.805442 0.811498
0.000000 0.888580 0.907781
0.000000 0.889677 0.908909
0.000000 0.902514 0.912371
0.924844 0.920416 0.920807
1.000000 0.878222 0.829516
0.848511 1.000000 0.880404
0.848511 1.000000 0.880404
0.854671 1.000000 0.880717
0.902658 1.000000 0.877040
1.000000 1.000000 0.883453
0.392361 0.000000 0.555572
0.405312 0.000000 0.555433
0.510813 0.000000 0.554341
0.834147 0.000000 0.466210
1.000000 0.290878 0.939039
0.392361 0.000000 0.555572
0.408595 0.000000 0.555398
0.518153 0.000000 0.554271
0.834147 0.000000 0.466210
1.000000 0.303706 0.940223
0.405312 0.000000 0.555433
0.421907 0.000000 0.555255
0.525516 0.000000 0.554201
0.834147 0.000000 0.466210
1.000000 0.399774 0.951197
0.000000 0.582234 0.999347
0.000000 0.582493 0.999408
0.000000 0.594549 0.999443
0.747251 0.629045 0.996867
1.000000 0.724923 0.977553
0.693246 1.000000 1.000000
0.696265 1.000000 1.000000
0.711743 1.000000 1.000000
0.839847 1.000000 1.000000
0.999819 1.000000 1.000000
