Assets/Lutify-Free-LUTs-Pack/Lutify Free LUTs Pack/Colour Film Boost Pro - Film Boost 10/Lutify.me-FilmBoost10-Cineon-to-Rec709.cube
# Created with: fylm.ai - Colour Grading and Collaboration Software in Cloud 
# Website: https://fylm.ai 
# META
# Option: Gamut compress
# Block 1: IDT | ADX10
# Block 2: colourMatch | Blending Mode: Normal | {"ColorSpace":0,"CrossCovarianceLimit":50,"ReshapingIterations":1,"PercentSaturationShift":100,"PercentShadingShift":100,"ExtraShading":true,"PercentTint":100,"PercentModified":100}
# Block 3: subtractiveColour | Blending Mode: Normal | {"sliders":{"gainY":0.55,"C":0.3,"M":0.3,"Y":0.3}}
# Block 4: LUT | Filmic Curve Response: Low Contrast 2 (100%)
# Block 5: logPrimaries | Blending Mode: Normal | {"wheels":{"shadows":{"Y":"0","R":"1","G":"1","B":"1"},"midtones":{"Y":"0","R":"1","G":"1","B":"1"},"highlights":{"Y":"0","R":"1","G":"1","B":"1"},"offset":{"Y":"0","R":"1","G":"1","B":"1"}},"sliders":{"shadows":{"Y":0,"R":-0.085,"G":0.024,"B":0.134},"midtones":{"Y":0,"R":0,"G":-0.023,"B":0},"highlights":{"Y":0,"R":0,"G":0,"B":0},"offset":{"Y":0,"R":0.012,"G":-0.012,"B":0}}}
# Block 6: HSL | Blending Mode: Normal | {"hue":{"Reds":0,"Yellows":0,"Greens":0,"Cyans":0,"Blues":0,"Magentas":0},"saturation":{"Reds":1,"Yellows":1,"Greens":1,"Cyans":1,"Blues":1,"Magentas":1},"luminance":{"Reds":0.9,"Yellows":0.9,"Greens":0.9,"Cyans":0.9,"Blues":0.9,"Magentas":0.9},"lum_sat":{"Blacks":1,"Shadows":1,"Midtones":1,"Highlights":1,"Whites":1},"sat_sat":{"10":1,"20":1,"30":1,"40":1,"50":1}}
# Block 7: ODT | Rec709
TITLE "Lutify.me-FilmBoost10-Cineon-to-Rec709" 
LUT_3D_SIZE 33
0.000000 0.000000 0.000000
0.000000 0.000000 0.000000
0.000000 0.000000 0.000000
0.000000 0.000000 0.000000
0.000000 0.000000 0.000000
0.000000 0.000000 0.000000
0.000000 0.000000 0.000000
0.043409 0.000000 0.000000
0.066045 0.000000 0.000000
0.084914 0.000000 0.000000
0.107483 0.000000 0.000000
0.122599 0.000000 0.000000
0.139593 0.000000 0.000000
0.160623 0.000000 0.000000
0.185200 0.000000 0.000000
0.208655 0.000000 0.000000
0.235459 0.000000 0.000000
0.267295 0.000000 0.000000
0.298281 0.000000 0.000000
0.334563 0.000000 0.000000
0.369940 0.000000 0.000000
0.410228 0.000000 0.021962
0.449366 0.000000 0.026777
0.499993 0.000000 0.032895
0.554259 0.000000 0.037432
0.605623 0.000000 0.046864
0.658162 0.000000 0.056709
0.704136 0.000000 0.066318
0.764420 0.000000 0.077757
0.818789 0.000000 0.094345
0.876332 0.000000 0.111401
0.918720 0.000000 0.132617
0.955244 0.082182 0.156983
0.000000 0.000000 0.000000
0.000000 0.000000 0.000000
0.000000 0.000000 0.000000
0.000000 0.000000 0.000000
0.000000 0.000000 0.000000
0.000000 0.000000 0.000000
0.005347 0.000000 0.000000
0.049798 0.000000 0.000000
0.071495 0.000000 0.000000
0.091620 0.000000 0.000000
0.111857 0.000000 0.000000
0.126623 0.000000 0.000000
0.145940 0.000000 0.000000
0.167292 0.000000 0.000000
0.189836 0.000000 0.000000
0.218197 0.000000 0.000000
0.247625 0.000000 0.000000
0.274262 0.000000 0.000000
0.307489 0.000000 0.000000
0.344983 0.000000 0.000000
0.382117 0.000000 0.014158
0.420798 0.000000 0.022617
0.467264 0.000000 0.027517
0.513159 0.000000 0.033954
0.568830 0.000000 0.040256
0.620932 0.000000 0.050632
0.673524 0.000000 0.060199
0.722855 0.000000 0.069818
0.780037 0.000000 0.082453
0.834088 0.000000 0.099364
0.886940 0.000000 0.117746
0.927950 0.000000 0.139965
0.965579 0.114626 0.167093
0.000000 0.000000 0.000000
0.000000 0.000000 0.000000
0.000000 0.000000 0.000000
0.000000 0.000000 0.000000
0.000000 0.000000 0.000000
0.000000 0.000000 0.000000
0.025136 0.000000 0.000000
0.058614 0.000000 0.000000
0.078478 0.000000 0.000000
0.098593 0.000000 0.000000
0.116643 0.000000 0.000000
0.132274 0.000000 0.000000
0.151809 0.000000 0.000000
0.174484 0.000000 0.000000
0.198422 0.000000 0.000000
0.226710 0.000000 0.000000
0.257270 0.000000 0.000000
0.284451 0.000000 0.000000
0.318792 0.000000 0.000000
0.358359 0.000000 0.000000
0.394601 0.000000 0.018112
0.434920 0.000000 0.025096
0.477612 0.000000 0.030815
0.530717 0.000000 0.036489
0.587135 0.000000 0.043223
0.635547 0.000000 0.052151
0.688950 0.000000 0.063639
0.738405 0.000000 0.073676
0.795928 0.000000 0.088182
0.848365 0.000000 0.102305
0.900374 0.000000 0.125498
0.939514 0.000000 0.148869
0.974502 0.152919 0.173884
0.000000 0.000000 0.000000
0.000000 0.000000 0.000000
0.000000 0.000000 0.000000
0.000000 0.000000 0.000000
0.000000 0.000000 0.000000
0.000000 0.000000 0.000000
0.048528 0.000000 0.000000
0.069723 0.000000 0.000000
0.089223 0.000000 0.000000
0.109244 0.000000 0.000000
0.123275 0.000000 0.000000
0.141375 0.000000 0.000000
0.161910 0.000000 0.000000
0.185741 0.000000 0.000000
0.208982 0.000000 0.000000
0.235508 0.000000 0.000000
0.267541 0.000000 0.000000
0.298555 0.000000 0.000000
0.334825 0.000000 0.000000
0.370250 0.000000 0.008053
0.407737 0.000000 0.021496
0.446833 0.000000 0.026666
0.494204 0.000000 0.033058
0.551548 0.000000 0.038252
0.598967 0.000000 0.046662
0.654753 0.000000 0.056467
0.700678 0.000000 0.066199
0.757463 0.000000 0.077871
0.814698 0.000000 0.092227
0.869458 0.000000 0.108954
0.915653 0.000000 0.131208
0.952506 0.071512 0.154141
0.983511 0.179696 0.184477
0.000000 0.000000 0.000000
0.000000 0.000000 0.000000
0.000000 0.000000 0.000000
0.000000 0.000000 0.000000
0.000000 0.000000 0.000000
0.024825 0.000000 0.000000
0.059722 0.000000 0.000000
0.078056 0.000000 0.000000
0.097630 0.000000 0.000000
0.116101 0.000000 0.000000
0.130643 0.000000 0.000000
0.151503 0.000000 0.000000
0.174554 0.000000 0.000000
0.196161 0.000000 0.000000
0.222436 0.000000 0.000000
0.252530 0.000000 0.000000
0.279583 0.000000 0.000000
0.311453 0.000000 0.000000
0.345671 0.000000 0.000000
0.382466 0.000000 0.015023
0.421210 0.000000 0.022642
0.465288 0.000000 0.028897
0.511303 0.000000 0.035901
0.566131 0.000000 0.040459
0.617607 0.000000 0.049587
0.670094 0.000000 0.059370
0.719345 0.000000 0.068862
0.776491 0.000000 0.081856
0.830646 0.000000 0.099166
0.883173 0.000000 0.114726
0.925227 0.000000 0.139920
0.962835 0.116029 0.163896
0.990060 0.199821 0.193954
0.000000 0.016234 0.000000
0.000000 0.018325 0.000000
0.000000 0.020456 0.000000
0.000000 0.027717 0.000000
0.000000 0.033287 0.000000
0.022872 0.038847 0.000000
0.052867 0.034083 0.000000
0.079324 0.029071 0.000000
0.102118 0.015626 0.000000
0.121911 0.000000 0.000000
0.140932 0.000000 0.000000
0.163763 0.000000 0.000000
0.188192 0.000000 0.000000
0.211130 0.000000 0.000000
0.235516 0.000000 0.000000
0.267721 0.000000 0.000000
0.295038 0.000000 0.000000
0.326960 0.000000 0.000000
0.361434 0.000000 0.000000
0.397918 0.000000 0.020459
0.435987 0.000000 0.025989
0.479077 0.000000 0.032092
0.531808 0.000000 0.037192
0.584431 0.000000 0.043026
0.636128 0.000000 0.052115
0.685489 0.000000 0.062324
0.738940 0.000000 0.074737
0.795846 0.000000 0.087534
0.844950 0.000000 0.101841
0.896787 0.000000 0.122600
0.936429 0.000000 0.145880
0.969873 0.155227 0.172127
0.997917 0.222942 0.201797
0.000000 0.041219 0.000000
0.000000 0.042740 0.000000
0.000000 0.044307 0.000000
0.000000 0.047950 0.000000
0.000000 0.051783 0.000000
0.013896 0.053615 0.000000
0.054011 0.053718 0.000000
0.080159 0.049477 0.000000
0.103869 0.044681 0.000000
0.128472 0.037674 0.000000
0.149414 0.028517 0.000000
0.175532 0.000000 0.000000
0.201500 0.000000 0.000000
0.226560 0.000000 0.000000
0.254530 0.000000 0.000000
0.283095 0.000000 0.000000
0.311705 0.000000 0.000000
0.341889 0.000000 0.000000
0.378253 0.000000 0.012934
0.414177 0.000000 0.022472
0.454057 0.000000 0.026742
0.502014 0.000000 0.034252
0.553208 0.000000 0.039619
0.600138 0.000000 0.047044
0.651656 0.000000 0.055200
0.700927 0.000000 0.065574
0.757952 0.000000 0.078536
0.815076 0.000000 0.092822
0.869205 0.000000 0.107966
0.912512 0.000000 0.130439
0.949886 0.088235 0.153835
0.978837 0.181120 0.180981
1.000000 0.245311 0.209876
0.000000 0.055483 0.000000
0.000000 0.057298 0.000000
0.000000 0.059310 0.000000
0.000000 0.063157 0.000000
0.000000 0.069013 0.000000
0.000000 0.071460 0.000000
0.041014 0.075401 0.000000
0.082541 0.073306 0.000000
0.109594 0.066100 0.000000
0.131738 0.062294 0.000000
0.159064 0.055816 0.000000
0.187333 0.047803 0.000000
0.213258 0.035920 0.000000
0.238689 0.000000 0.000000
0.271574 0.000000 0.000000
0.295579 0.000000 0.000000
0.326016 0.000000 0.000000
0.362414 0.000000 0.000000
0.398745 0.000000 0.014120
0.436693 0.000000 0.021442
0.476389 0.000000 0.028407
0.522261 0.000000 0.034029
0.571144 0.000000 0.040925
0.618281 0.000000 0.047777
0.670664 0.000000 0.058436
0.723890 0.000000 0.070725
0.777553 0.000000 0.084604
0.830397 0.000000 0.097765
0.882872 0.000000 0.113699
0.921633 0.000000 0.136293
0.957174 0.141220 0.159882
0.987509 0.210588 0.193369
1.000000 0.267949 0.220028
0.000000 0.072885 0.000000
0.000000 0.074102 0.000000
0.000000 0.076699 0.000000
0.000000 0.081355 0.000000
0.000000 0.088887 0.000000
0.000000 0.090614 0.000000
0.000000 0.095763 0.000000
0.071229 0.096728 0.000000
0.109268 0.095087 0.000000
0.135877 0.090282 0.000000
0.168704 0.081604 0.000000
0.196457 0.075550 0.000000
0.224591 0.069565 0.000000
0.253448 0.060986 0.000000
0.283680 0.045393 0.000000
0.309116 0.000000 0.000000
0.345405 0.000000 0.000000
0.382226 0.000000 0.000000
0.415832 0.000000 0.015857
0.455594 0.000000 0.022663
0.496464 0.000000 0.027733
0.543387 0.000000 0.034045
0.593168 0.000000 0.042587
0.637889 0.000000 0.052742
0.686879 0.000000 0.063737
0.739676 0.000000 0.075098
0.795897 0.000000 0.086416
0.845129 0.000000 0.102152
0.893272 0.000000 0.121016
0.933258 0.095275 0.144804
0.967238 0.168293 0.171542
0.993095 0.238204 0.200845
1.000000 0.289059 0.230816
0.000000 0.091966 0.000000
0.000000 0.093394 0.000000
0.000000 0.095139 0.000000
0.000000 0.099296 0.000000
0.000000 0.107614 0.000000
0.000000 0.110616 0.000000
0.000000 0.116192 0.000000
0.050186 0.118820 0.000000
0.099004 0.121926 0.000000
0.138905 0.121089 0.000000
0.178982 0.109948 0.000000
0.207244 0.105348 0.000000
0.234860 0.104480 0.000000
0.268666 0.098435 0.000000
0.295325 0.089895 0.000000
0.324062 0.078125 0.000000
0.362309 0.056349 0.000000
0.398701 0.020386 0.000000
0.436901 0.000000 0.013080
0.475695 0.000000 0.019989
0.517785 0.000000 0.026756
0.568483 0.000000 0.032176
0.615201 0.000000 0.042697
0.661046 0.000000 0.057477
0.706587 0.000000 0.068989
0.759495 0.000000 0.081482
0.815897 0.000000 0.094500
0.869228 0.000000 0.108267
0.909128 0.000000 0.129076
0.946461 0.140154 0.152185
0.978352 0.202379 0.183288
1.000000 0.259306 0.208964
1.000000 0.310170 0.237742
0.000000 0.114326 0.000000
0.000000 0.116154 0.000000
0.000000 0.119250 0.000000
0.000000 0.125499 0.000000
0.000000 0.135922 0.000000
0.000000 0.138760 0.000000
0.000000 0.144800 0.000000
0.000000 0.151905 0.000000
0.063191 0.152187 0.000000
0.124297 0.155078 0.000000
0.177303 0.151129 0.000000
0.214832 0.141456 0.000000
0.250810 0.138032 0.000000
0.280648 0.132005 0.000000
0.309749 0.128247 0.000000
0.342682 0.119385 0.000000
0.381160 0.106579 0.000000
0.416493 0.091086 0.000000
0.453398 0.076725 0.000000
0.497101 0.049739 0.015155
0.540146 0.000000 0.025824
0.591397 0.000000 0.033414
0.638523 0.000000 0.045799
0.684374 0.000000 0.061393
0.729476 0.000000 0.072144
0.782332 0.000000 0.085585
0.831403 0.000000 0.100123
0.880158 0.000000 0.116340
0.921135 0.114268 0.136976
0.957132 0.172160 0.164838
0.984181 0.234893 0.191919
1.000000 0.285728 0.218807
1.000000 0.331096 0.249225
0.000000 0.141672 0.000000
0.000000 0.145134 0.000000
0.000000 0.147917 0.000000
0.000000 0.152391 0.000000
0.000000 0.164983 0.000000
0.000000 0.170459 0.000000
0.000000 0.174158 0.000000
0.000000 0.178894 0.000000
0.000000 0.185018 0.000000
0.101768 0.186333 0.000000
0.164298 0.188015 0.000000
0.218172 0.182590 0.000000
0.260478 0.171829 0.000000
0.293687 0.167740 0.000000
0.324188 0.162225 0.000000
0.360330 0.157998 0.000000
0.402243 0.148245 0.000000
0.436895 0.134454 0.000000
0.477920 0.123901 0.000000
0.516484 0.115019 0.000000
0.566299 0.096254 0.020192
0.614929 0.072761 0.035024
0.663117 0.038311 0.053485
0.704943 0.058391 0.066803
0.746849 0.078113 0.079983
0.798979 0.077746 0.093424
0.849992 0.084668 0.108308
0.893766 0.114565 0.126025
0.930236 0.161679 0.148219
0.963701 0.215900 0.173872
0.992064 0.261094 0.203051
1.000000 0.306152 0.229599
1.000000 0.355447 0.261077
0.000000 0.166783 0.000000
0.000000 0.173531 0.000000
0.000000 0.178053 0.000000
0.000000 0.182446 0.000000
0.000000 0.192661 0.000000
0.000000 0.201675 0.000000
0.000000 0.208898 0.000000
0.000000 0.210137 0.000000
0.000000 0.215227 0.000000
0.000000 0.219627 0.000000
0.137244 0.221858 0.000000
0.197721 0.225155 0.000000
0.258233 0.219336 0.000000
0.300833 0.206386 0.000000
0.332285 0.209334 0.000000
0.381518 0.193679 0.000000
0.422087 0.189908 0.000000
0.456702 0.182710 0.000000
0.501522 0.171188 0.000000
0.539807 0.160150 0.000000
0.590177 0.150601 0.000000
0.636769 0.147398 0.038468
0.684431 0.143225 0.057404
0.728414 0.143866 0.069053
0.773290 0.145481 0.083826
0.821888 0.151184 0.100340
0.870342 0.148514 0.114934
0.908914 0.170856 0.134237
0.945426 0.205986 0.156336
0.974589 0.245792 0.185761
0.998908 0.290860 0.212441
1.000000 0.330982 0.240446
1.000000 0.382739 0.268636
0.000000 0.197516 0.000000
0.000000 0.202400 0.000000
0.000000 0.211092 0.000000
0.000000 0.214463 0.000000
0.000000 0.223943 0.000000
0.000000 0.234612 0.000000
0.000000 0.241032 0.000000
0.000000 0.246919 0.000000
0.000000 0.249915 0.000000
0.000000 0.255503 0.000000
0.065422 0.259018 0.000000
0.166864 0.260606 0.000000
0.241793 0.261043 0.000000
0.297731 0.261587 0.000000
0.343420 0.253326 0.000000
0.391248 0.242749 0.000000
0.438864 0.230569 0.000000
0.485148 0.226638 0.000000
0.523396 0.219639 0.000000
0.568081 0.209681 0.000000
0.611854 0.201598 0.000000
0.661518 0.196710 0.040835
0.701876 0.200248 0.059971
0.745506 0.199414 0.074782
0.789758 0.202286 0.090337
0.839922 0.199297 0.105586
0.886838 0.207539 0.125577
0.920024 0.227193 0.143523
0.954759 0.249061 0.167972
0.981684 0.288406 0.197154
1.000000 0.323967 0.223910
1.000000 0.363042 0.248980
1.000000 0.402549 0.279301
0.000000 0.230351 0.000000
0.000000 0.237533 0.000000
0.000000 0.243737 0.000000
0.000000 0.250391 0.000000
0.000000 0.254360 0.000000
0.000000 0.264207 0.000000
0.000000 0.276321 0.000000
0.000000 0.283146 0.000000
0.000000 0.290074 0.000000
0.000000 0.295406 0.000000
0.000000 0.298412 0.000000
0.097690 0.302819 0.000000
0.205130 0.306807 0.000000
0.276907 0.310234 0.000000
0.344464 0.309322 0.000000
0.405401 0.296285 0.000000
0.453105 0.289673 0.000000
0.500578 0.282704 0.000000
0.547645 0.270470 0.000000
0.590852 0.260651 0.000000
0.638563 0.260087 0.000000
0.686366 0.249972 0.039995
0.725785 0.247546 0.063324
0.765975 0.248089 0.082853
0.809517 0.250896 0.099226
0.860712 0.251720 0.116194
0.898484 0.261599 0.133551
0.930474 0.275490 0.156942
0.961872 0.307056 0.180392
0.987919 0.329289 0.209150
1.000000 0.363502 0.237655
1.000000 0.394318 0.262708
1.000000 0.422160 0.290515
0.000000 0.266675 0.000000
0.000000 0.273438 0.000000
0.000000 0.282113 0.000000
0.000000 0.288394 0.000000
0.000000 0.295046 0.000000
0.000000 0.303680 0.000000
0.000000 0.315557 0.000000
0.000000 0.327376 0.000000
0.000000 0.337470 0.000000
0.000000 0.341330 0.000000
0.000000 0.345407 0.000000
0.000000 0.351368 0.000000
0.126370 0.359495 0.000000
0.236365 0.359421 0.000000
0.330246 0.360924 0.000000
0.406131 0.360814 0.000000
0.464392 0.347216 0.000000
0.515614 0.340023 0.000000
0.562413 0.333585 0.000000
0.615333 0.320275 0.000000
0.663785 0.319279 0.000000
0.705198 0.312776 0.046576
0.746235 0.305090 0.065181
0.788992 0.300878 0.088595
0.831240 0.299923 0.108807
0.876516 0.305544 0.127573
0.911529 0.318204 0.144533
0.945500 0.332757 0.168086
0.970006 0.358046 0.194165
0.993767 0.383903 0.222558
1.000000 0.402410 0.249980
1.000000 0.421685 0.277479
1.000000 0.453166 0.306624
0.000000 0.307359 0.015587
0.000000 0.316940 0.000000
0.000000 0.325827 0.000000
0.000000 0.334921 0.000000
0.000000 0.339891 0.000000
0.000000 0.345009 0.000000
0.000000 0.355884 0.000000
0.000000 0.367765 0.000000
0.000000 0.380666 0.000000
0.000000 0.385199 0.000000
0.000000 0.394634 0.000000
0.000000 0.401720 0.000000
0.000000 0.403904 0.000000
0.171076 0.410513 0.000000
0.286390 0.413964 0.000000
0.382904 0.412955 0.000000
0.469832 0.415421 0.000000
0.522913 0.405205 0.000000
0.581023 0.397492 0.000000
0.630364 0.384463 0.000000
0.680206 0.374046 0.000000
0.725359 0.367703 0.056646
0.766645 0.361454 0.079303
0.804601 0.355523 0.097545
0.847517 0.359543 0.117397
0.889889 0.363817 0.137062
0.919748 0.378411 0.155686
0.951160 0.394288 0.183459
0.976487 0.411630 0.210778
0.997656 0.426242 0.238198
1.000000 0.444612 0.265163
1.000000 0.463310 0.289336
1.000000 0.490834 0.320132
0.000000 0.352311 0.050420
0.000000 0.359332 0.045307
0.000000 0.366881 0.038669
0.000000 0.376290 0.023334
0.000000 0.383828 0.000000
0.000000 0.392678 0.000000
0.000000 0.399399 0.000000
0.000000 0.406945 0.000000
0.000000 0.421378 0.000000
0.000000 0.434432 0.000000
0.000000 0.442403 0.000000
0.000000 0.452895 0.000000
0.000000 0.457946 0.000000
0.000000 0.463082 0.000000
0.241410 0.469488 0.000000
0.352262 0.469880 0.000000
0.437193 0.473050 0.000000
0.523880 0.475695 0.000000
0.587103 0.467718 0.000000
0.639234 0.456698 0.000000
0.692883 0.442193 0.000000
0.739676 0.439354 0.055924
0.788418 0.429309 0.087052
0.824885 0.421149 0.109501
0.867429 0.422286 0.128487
0.903504 0.424716 0.146954
0.933336 0.436801 0.172581
0.958406 0.443252 0.202245
0.982318 0.457093 0.230031
1.000000 0.474557 0.252182
1.000000 0.492842 0.278474
1.000000 0.507988 0.304455
1.000000 0.532090 0.339992
0.000000 0.398248 0.086555
0.000000 0.403000 0.085248
0.000000 0.413200 0.080710
0.000000 0.420476 0.079823
0.000000 0.431730 0.077109
0.000000 0.441489 0.070216
0.000000 0.453859 0.062842
0.000000 0.464894 0.052159
0.000000 0.476607 0.043111
0.000000 0.486037 0.050040
0.000000 0.496618 0.034832
0.000000 0.504606 0.000000
0.000000 0.516360 0.000000
0.000000 0.521137 0.000000
0.140795 0.521799 0.000000
0.298023 0.531981 0.000000
0.397236 0.535520 0.006139
0.492710 0.534123 0.000000
0.581615 0.540811 0.036199
0.657698 0.533812 0.035290
0.703420 0.524231 0.059227
0.746369 0.514618 0.074132
0.797842 0.497660 0.105911
0.839318 0.488826 0.127113
0.876189 0.491357 0.145601
0.907333 0.487335 0.160520
0.937510 0.492310 0.187676
0.963108 0.499202 0.222196
0.983575 0.509242 0.245557
1.000000 0.522359 0.264778
1.000000 0.537103 0.293071
1.000000 0.555618 0.320382
1.000000 0.579994 0.364091
0.000000 0.454475 0.123174
0.000000 0.462221 0.116962
0.000000 0.467584 0.120670
0.000000 0.475257 0.123204
0.000000 0.487003 0.122549
0.000000 0.496418 0.120745
0.000000 0.506658 0.116417
0.000000 0.517530 0.109060
0.000000 0.531076 0.110813
0.000000 0.539984 0.113279
0.000000 0.552252 0.111418
0.000000 0.563720 0.103857
0.000000 0.572325 0.102134
0.000000 0.580442 0.096648
0.000000 0.587577 0.086626
0.197523 0.588441 0.089609
0.347759 0.591965 0.094423
0.448916 0.595147 0.099323
0.553058 0.599519 0.094597
0.646773 0.599195 0.104583
0.714756 0.593204 0.104053
0.760163 0.583618 0.114291
0.801462 0.571012 0.128120
0.842877 0.565425 0.143830
0.881739 0.560905 0.166472
0.910927 0.558010 0.187756
0.939398 0.555863 0.213713
0.963852 0.554563 0.239718
0.988496 0.560059 0.262946
1.000000 0.570275 0.283894
1.000000 0.584565 0.311430
1.000000 0.603905 0.349495
1.000000 0.627401 0.389143
0.000000 0.511257 0.149680
0.000000 0.516190 0.153749
0.000000 0.524582 0.154743
0.000000 0.532590 0.153289
0.000000 0.542297 0.157023
0.000000 0.549113 0.157047
0.000000 0.559037 0.156039
0.000000 0.572100 0.153891
0.000000 0.582487 0.147488
0.000000 0.593208 0.151901
0.000000 0.601956 0.155299
0.000000 0.610194 0.155910
0.000000 0.624872 0.149252
0.000000 0.633260 0.148950
0.000000 0.637956 0.146852
0.000000 0.644883 0.140053
0.257082 0.648865 0.141256
0.400501 0.652174 0.146154
0.524989 0.654236 0.151531
0.627746 0.652127 0.152022
0.704575 0.655812 0.159238
0.765435 0.650558 0.158694
0.810785 0.636998 0.164778
0.854511 0.626479 0.169714
0.887249 0.619657 0.194276
0.916918 0.617264 0.222527
0.940945 0.618733 0.244431
0.964106 0.612996 0.261942
0.985048 0.618321 0.281336
1.000000 0.628548 0.306884
1.000000 0.642951 0.339697
1.000000 0.658138 0.377098
1.000000 0.672471 0.408905
0.000000 0.564631 0.190376
0.000000 0.573025 0.191926
0.000000 0.578444 0.191911
0.000000 0.587180 0.196094
0.000000 0.596722 0.198163
0.000000 0.602528 0.203428
0.000000 0.611690 0.202928
0.000000 0.621683 0.202737
0.000000 0.631480 0.197090
0.000000 0.645188 0.196129
0.000000 0.655594 0.201652
0.000000 0.663723 0.205883
0.000000 0.672061 0.207589
0.000000 0.679901 0.198394
0.000000 0.688168 0.202188
0.000000 0.698953 0.201969
0.121083 0.702000 0.191013
0.351762 0.702381 0.197349
0.481118 0.705057 0.202992
0.596069 0.706115 0.202720
0.680484 0.707525 0.202579
0.753032 0.710858 0.207824
0.810011 0.709688 0.216227
0.852018 0.696702 0.217869
0.886485 0.688661 0.231225
0.913530 0.685772 0.252737
0.938015 0.680104 0.274451
0.959263 0.677948 0.292793
0.978513 0.682809 0.313991
0.997333 0.684635 0.336215
1.000000 0.691246 0.371533
1.000000 0.697642 0.397462
1.000000 0.704524 0.426876
0.000000 0.626738 0.231813
0.000000 0.632046 0.232075
0.000000 0.637379 0.235029
0.000000 0.642227 0.235107
0.000000 0.647868 0.235552
0.000000 0.656336 0.237895
0.000000 0.662555 0.241446
0.000000 0.671341 0.241259
0.000000 0.684285 0.243740
0.000000 0.693650 0.243915
0.000000 0.703831 0.241629
0.000000 0.713339 0.245056
0.000000 0.720975 0.253288
0.000000 0.732236 0.255746
0.000000 0.738491 0.246648
0.000000 0.745435 0.248314
0.000000 0.752218 0.253449
0.278164 0.754121 0.246263
0.437883 0.756341 0.252695
0.547655 0.758005 0.256008
0.645174 0.759297 0.263074
0.730022 0.760062 0.267304
0.792079 0.760700 0.271217
0.845950 0.762052 0.286537
0.878965 0.751411 0.286850
0.909043 0.743744 0.290358
0.935854 0.734940 0.310337
0.957512 0.732752 0.333222
0.974289 0.733935 0.352767
0.992413 0.731938 0.369247
1.000000 0.731599 0.398870
1.000000 0.737080 0.425196
1.000000 0.745222 0.451744
0.000000 0.688820 0.269629
0.000000 0.693175 0.269669
0.000000 0.698053 0.275873
0.000000 0.702949 0.276258
0.000000 0.708350 0.279957
0.000000 0.713190 0.283420
0.000000 0.721465 0.292760
0.000000 0.727236 0.300229
0.000000 0.735316 0.303808
0.000000 0.741204 0.302341
0.000000 0.750028 0.303720
0.000000 0.761810 0.305102
0.000000 0.770094 0.310040
0.000000 0.776148 0.322976
0.000000 0.782457 0.327023
0.000000 0.788596 0.322560
0.000000 0.793884 0.321719
0.188486 0.800724 0.328030
0.392083 0.801510 0.320908
0.511482 0.800270 0.321522
0.611189 0.801412 0.332819
0.696757 0.801814 0.337264
0.775383 0.801649 0.338888
0.839338 0.800663 0.343360
0.877493 0.804286 0.352724
0.905637 0.795117 0.345331
0.930150 0.787149 0.355257
0.951877 0.782051 0.371796
0.969593 0.780059 0.391536
0.986773 0.778011 0.407931
1.000000 0.774597 0.431076
1.000000 0.774554 0.464341
1.000000 0.783423 0.487905
0.000000 0.739406 0.334812
0.000000 0.743454 0.338492
0.000000 0.747721 0.339164
0.000000 0.752188 0.343337
0.000000 0.756358 0.353928
0.000000 0.760740 0.358210
0.000000 0.765310 0.362751
0.000000 0.772433 0.366898
0.000000 0.776860 0.368235
0.000000 0.784405 0.369871
0.000000 0.794373 0.374773
0.000000 0.799058 0.373665
0.000000 0.806291 0.376094
0.000000 0.813194 0.375290
0.000000 0.818003 0.382485
0.000000 0.824683 0.390087
0.000000 0.829226 0.389288
0.000000 0.832098 0.389074
0.369954 0.834691 0.392657
0.487330 0.837051 0.389060
0.588498 0.835346 0.389758
0.679128 0.833398 0.394379
0.753429 0.836982 0.398854
0.819002 0.835014 0.401057
0.867631 0.834695 0.405641
0.901266 0.835657 0.411574
0.924672 0.830019 0.410724
0.948007 0.822527 0.416664
0.965976 0.818254 0.432903
0.981320 0.816365 0.449197
0.995131 0.815166 0.472242
1.000000 0.813909 0.492079
1.000000 0.815919 0.522202
0.000000 0.787863 0.392050
0.000000 0.790975 0.392323
0.000000 0.794472 0.399702
0.000000 0.797931 0.403790
0.000000 0.801143 0.404341
0.000000 0.805134 0.409180
0.000000 0.808657 0.410247
0.000000 0.812514 0.415171
