Assets/Lutify-Free-LUTs-Pack/Lutify Free LUTs Pack/Colour Film Boost Pro - Film Boost 10/Lutify.me-FilmBoost10-FLog-to-Rec709.cube
# Created with: fylm.ai - Colour Grading and Collaboration Software in Cloud 
# Website: https://fylm.ai 
# META
# Option: Gamut compress
# Block 1: IDT | Fujifilm F-Gamut F-Log
# Block 2: colourMatch | Blending Mode: Normal | {"ColorSpace":0,"CrossCovarianceLimit":50,"ReshapingIterations":1,"PercentSaturationShift":100,"PercentShadingShift":100,"ExtraShading":true,"PercentTint":100,"PercentModified":100}
# Block 3: subtractiveColour | Blending Mode: Normal | {"sliders":{"gainY":0.55,"C":0.3,"M":0.3,"Y":0.3}}
# Block 4: LUT | Filmic Curve Response: Low Contrast 2 (100%)
# Block 5: logPrimaries | Blending Mode: Normal | {"wheels":{"shadows":{"Y":"0","R":"1","G":"1","B":"1"},"midtones":{"Y":"0","R":"1","G":"1","B":"1"},"highlights":{"Y":"0","R":"1","G":"1","B":"1"},"offset":{"Y":"0","R":"1","G":"1","B":"1"}},"sliders":{"shadows":{"Y":0,"R":-0.085,"G":0.024,"B":0.134},"midtones":{"Y":0,"R":0,"G":-0.023,"B":0},"highlights":{"Y":0,"R":0,"G":0,"B":0},"offset":{"Y":0,"R":0.012,"G":-0.012,"B":0}}}
# Block 6: HSL | Blending Mode: Normal | {"hue":{"Reds":0,"Yellows":0,"Greens":0,"Cyans":0,"Blues":0,"Magentas":0},"saturation":{"Reds":1,"Yellows":1,"Greens":1,"Cyans":1,"Blues":1,"Magentas":1},"luminance":{"Reds":0.9,"Yellows":0.9,"Greens":0.9,"Cyans":0.9,"Blues":0.9,"Magentas":0.9},"lum_sat":{"Blacks":1,"Shadows":1,"Midtones":1,"Highlights":1,"Whites":1},"sat_sat":{"10":1,"20":1,"30":1,"40":1,"50":1}}
# Block 7: ODT | Rec709
TITLE "Lutify.me-FilmBoost10-FLog-to-Rec709" 
LUT_3D_SIZE 9
0.000000 0.000000 0.000000
0.000000 0.000000 0.000000
0.100733 0.000000 0.000000
0.199558 0.000000 0.000000
0.336978 0.000000 0.000000
0.519829 0.000000 0.000000
0.742879 0.000000 0.052098
0.952474 0.000000 0.121758
1.000000 0.216375 0.244855
0.000000 0.000000 0.000000
0.000000 0.000000 0.000000
0.113225 0.000000 0.000000
0.214113 0.000000 0.000000
0.347529 0.000000 0.000000
0.527169 0.000000 0.000000
0.743398 0.000000 0.052502
0.952712 0.000000 0.123691
1.000000 0.226414 0.244451
0.000000 0.078859 0.000000
0.000000 0.085068 0.000000
0.119378 0.080021 0.000000
0.247775 0.000000 0.000000
0.372153 0.000000 0.000000
0.544324 0.000000 0.000000
0.748216 0.000000 0.054344
0.955328 0.000000 0.126254
1.000000 0.236165 0.244030
0.000000 0.169672 0.000000
0.000000 0.182958 0.000000
0.000000 0.197214 0.000000
0.271154 0.165592 0.000000
0.411315 0.108832 0.000000
0.574287 0.000000 0.000000
0.765002 0.000000 0.057626
0.957644 0.000000 0.129274
1.000000 0.260177 0.247021
0.000000 0.299737 0.000000
0.000000 0.312478 0.000000
0.000000 0.326209 0.000000
0.070626 0.334342 0.000000
0.436472 0.293622 0.000000
0.617915 0.241394 0.000000
0.793350 0.134101 0.040855
0.961413 0.073156 0.134811
1.000000 0.304488 0.253070
0.000000 0.475837 0.000000
0.000000 0.488804 0.000000
0.000000 0.500060 0.000000
0.000000 0.507804 0.000000
0.257682 0.517058 0.000000
0.642864 0.469448 0.000000
0.826244 0.418886 0.000000
0.966668 0.362294 0.140573
1.000000 0.388540 0.263022
0.000000 0.675598 0.041931
0.000000 0.679307 0.043964
0.000000 0.685197 0.032118
0.000000 0.698325 0.000000
0.000000 0.704713 0.000000
0.499072 0.700229 0.000000
0.818784 0.667215 0.000000
0.954035 0.608838 0.144118
1.000000 0.569365 0.286369
0.000000 0.832931 0.285705
0.000000 0.833451 0.286404
0.000000 0.836786 0.287993
0.000000 0.839650 0.282292
0.000000 0.844991 0.273107
0.259058 0.845720 0.252669
0.716118 0.834275 0.240972
0.916309 0.812831 0.220505
0.997893 0.773606 0.336886
0.000000 0.927501 0.495412
0.000000 0.927546 0.492457
0.000000 0.928763 0.493732
0.000000 0.928942 0.495875
0.000000 0.931258 0.494539
0.068876 0.928698 0.489052
0.616906 0.924472 0.471196
0.845841 0.914121 0.464473
0.968626 0.901995 0.444626
0.000000 0.000000 0.010233
0.000000 0.000000 0.006470
0.098657 0.000000 0.000000
0.194050 0.000000 0.000000
0.337996 0.000000 0.000000
0.527644 0.000000 0.024883
0.746942 0.000000 0.063167
0.954124 0.000000 0.130394
1.000000 0.217052 0.248783
0.000000 0.000000 0.023917
0.000000 0.000000 0.020885
0.111983 0.000000 0.000000
0.208048 0.000000 0.000000
0.350825 0.000000 0.000000
0.531132 0.000000 0.023526
0.747474 0.000000 0.064026
0.953724 0.000000 0.129598
1.000000 0.227075 0.248388
0.000000 0.079020 0.017966
0.000000 0.086411 0.000000
0.109624 0.088942 0.000000
0.243521 0.000000 0.000000
0.367483 0.000000 0.000000
0.547011 0.000000 0.028509
0.751991 0.000000 0.065320
0.956624 0.000000 0.133792
1.000000 0.237139 0.249970
0.000000 0.169620 0.000000
0.000000 0.185356 0.000000
0.000000 0.203946 0.000000
0.257449 0.184582 0.000000
0.412312 0.116243 0.000000
0.580854 0.000000 0.000000
0.767909 0.000000 0.067130
0.958889 0.000000 0.137119
1.000000 0.261113 0.253071
0.000000 0.299105 0.000000
0.000000 0.314215 0.000000
0.000000 0.342234 0.000000
0.000000 0.350781 0.000000
0.436127 0.316320 0.000000
0.624152 0.244351 0.000000
0.797213 0.149475 0.063294
0.962161 0.099243 0.141519
1.000000 0.304783 0.255150
0.000000 0.475835 0.000000
0.000000 0.491278 0.000000
0.000000 0.505686 0.000000
0.000000 0.523737 0.000000
0.255094 0.524300 0.000000
0.644876 0.487453 0.000000
0.828975 0.421515 0.000000
0.967285 0.367562 0.151489
1.000000 0.388824 0.265256
0.000000 0.675585 0.107321
0.000000 0.679295 0.108508
0.000000 0.688254 0.094017
0.000000 0.701251 0.077697
0.000000 0.707805 0.000000
0.495330 0.702892 0.000000
0.809785 0.674907 0.000000
0.954596 0.610532 0.161759
1.000000 0.573163 0.288676
0.000000 0.832902 0.305827
0.000000 0.833604 0.300053
0.000000 0.836766 0.301446
0.000000 0.839322 0.298654
0.000000 0.845848 0.287568
0.261299 0.846624 0.270762
0.717093 0.834975 0.255287
0.916687 0.813564 0.234165
0.997888 0.774038 0.343289
0.000000 0.927482 0.501933
0.000000 0.927518 0.502234
0.000000 0.928734 0.503496
0.000000 0.928933 0.499127
0.000000 0.931249 0.497777
0.039156 0.931097 0.499838
0.617169 0.924568 0.474643
0.846127 0.914426 0.474545
0.967527 0.902499 0.453938
0.000000 0.000000 0.063466
0.000000 0.000000 0.058485
0.085851 0.000000 0.045979
0.193888 0.000000 0.039287
0.339298 0.000000 0.041365
0.535013 0.000000 0.049662
0.754454 0.000000 0.083509
0.953747 0.000000 0.142812
1.000000 0.218067 0.254774
0.000000 0.000000 0.080345
0.000000 0.000000 0.075351
0.092764 0.000000 0.063205
0.208093 0.000000 0.052204
0.354239 0.000000 0.046944
0.541693 0.000000 0.051357
0.754643 0.000000 0.083650
0.956374 0.000000 0.144993
1.000000 0.228066 0.254392
0.000000 0.074043 0.130351
0.000000 0.084444 0.126432
0.088825 0.103714 0.121133
0.245407 0.032612 0.081291
0.378921 0.000000 0.055577
0.557257 0.000000 0.055401
0.758536 0.000000 0.083973
0.956521 0.000000 0.148185
1.000000 0.238114 0.256027
0.000000 0.175696 0.145802
0.000000 0.193045 0.128246
0.000000 0.219479 0.115305
0.244103 0.226920 0.093499
0.423746 0.132780 0.059477
0.583713 0.000000 0.063646
0.774394 0.000000 0.087497
0.961142 0.000000 0.152079
1.000000 0.261739 0.257170
0.000000 0.306455 0.115250
0.000000 0.319732 0.105301
0.000000 0.347151 0.083642
0.000000 0.370213 0.042597
0.439342 0.347910 0.000000
0.636403 0.253410 0.036155
0.802819 0.160426 0.090878
0.964107 0.112194 0.156249
1.000000 0.305667 0.261469
0.000000 0.475391 0.107529
0.000000 0.489928 0.101364
0.000000 0.511123 0.070822
0.000000 0.536242 0.000000
0.227095 0.539943 0.000000
0.644169 0.507785 0.000000
0.833656 0.426266 0.068031
0.968677 0.374093 0.172241
1.000000 0.389676 0.272040
0.000000 0.675556 0.170147
0.000000 0.679265 0.171536
0.000000 0.690753 0.161749
0.000000 0.701274 0.149296
0.000000 0.715370 0.112130
0.487712 0.713514 0.057138
0.813675 0.680020 0.000000
0.955398 0.613100 0.186927
1.000000 0.574335 0.299475
0.000000 0.832863 0.329502
0.000000 0.833555 0.330481
0.000000 0.836723 0.328549
0.000000 0.841211 0.322155
0.000000 0.847417 0.320222
0.264280 0.847889 0.296069
0.708472 0.838505 0.279715
0.917414 0.815032 0.261102
0.997873 0.774686 0.352910
0.000000 0.927453 0.511728
0.000000 0.927488 0.512030
0.000000 0.928705 0.513279
0.000000 0.928894 0.512159
0.000000 0.931230 0.504261
0.044662 0.931198 0.503365
0.612887 0.925151 0.488405
0.844838 0.916710 0.481629
0.967545 0.902821 0.463366
0.000000 0.000000 0.128813
0.000000 0.000000 0.119719
0.077973 0.000000 0.114561
0.196877 0.000000 0.085642
0.335416 0.000000 0.100293
0.539115 0.000000 0.099538
0.764425 0.000000 0.117157
0.956687 0.000000 0.176243
1.000000 0.220433 0.269234
0.000000 0.000000 0.158160
0.000000 0.000000 0.149366
0.070019 0.000000 0.147222
0.214338 0.000000 0.117809
0.354825 0.000000 0.114033
0.547423 0.000000 0.106590
0.767132 0.000000 0.121180
0.956394 0.000000 0.175907
1.000000 0.230382 0.268881
0.000000 0.057116 0.224017
0.000000 0.067621 0.214570
0.000000 0.082837 0.217814
0.250451 0.037968 0.196808
0.384389 0.000000 0.139616
0.570729 0.000000 0.119123
0.771649 0.000000 0.124756
0.958816 0.000000 0.178408
1.000000 0.240388 0.270644
0.000000 0.156746 0.269426
0.000000 0.180667 0.256303
0.000000 0.214850 0.264693
0.214366 0.243427 0.273043
0.434691 0.164609 0.191682
0.603288 0.000000 0.143799
0.784197 0.000000 0.133043
0.963043 0.000000 0.181695
1.000000 0.263925 0.271953
0.000000 0.314172 0.278081
0.000000 0.325950 0.270987
0.000000 0.352772 0.264004
0.000000 0.392078 0.252969
0.439943 0.393617 0.237747
0.644701 0.282307 0.170183
0.815239 0.169891 0.151249
0.968371 0.134944 0.191094
1.000000 0.307734 0.276703
0.000000 0.485579 0.253004
0.000000 0.492726 0.247356
0.000000 0.510998 0.245295
0.000000 0.551101 0.231157
0.185656 0.569411 0.217519
0.642158 0.546978 0.197582
0.838862 0.439965 0.165829
0.970871 0.386493 0.209386
1.000000 0.391384 0.285991
0.000000 0.675477 0.256312
0.000000 0.679188 0.255404
0.000000 0.690669 0.256847
0.000000 0.709537 0.242369
0.000000 0.725421 0.236778
0.483377 0.723239 0.207460
0.818141 0.696059 0.186409
0.950231 0.626950 0.240336
1.000000 0.579902 0.318631
0.000000 0.832781 0.373271
0.000000 0.833472 0.374264
0.000000 0.836634 0.375751
0.000000 0.841123 0.369515
0.000000 0.849187 0.370893
0.270023 0.850590 0.350623
0.701540 0.843370 0.332994
0.918562 0.817607 0.308280
0.997809 0.776196 0.375466
0.000000 0.927382 0.534650
0.000000 0.927417 0.534953
0.000000 0.928634 0.536174
0.000000 0.928823 0.535043
0.000000 0.931161 0.527022
0.068946 0.931904 0.528142
0.614418 0.925722 0.509248
0.845540 0.917505 0.508656
0.967553 0.903571 0.485558
0.000000 0.000000 0.250426
0.000000 0.000000 0.245823
0.000000 0.000000 0.239414
0.193682 0.000000 0.233402
0.350250 0.000000 0.190888
0.546598 0.000000 0.203810
0.768946 0.000000 0.208385
0.963635 0.000000 0.235950
1.000000 0.240156 0.302251
0.000000 0.000000 0.270656
0.000000 0.023099 0.267606
0.000000 0.028888 0.270079
0.199787 0.000000 0.262341
0.373291 0.000000 0.220171
0.555774 0.000000 0.214832
0.771727 0.000000 0.213787
0.964019 0.000000 0.236062
1.000000 0.240156 0.302251
0.000000 0.049193 0.306056
0.000000 0.057990 0.304781
0.000000 0.066744 0.308875
0.191675 0.048441 0.305001
0.406778 0.000000 0.263099
0.579831 0.000000 0.239771
0.779567 0.000000 0.221256
0.966999 0.000000 0.239800
1.000000 0.250288 0.306692
0.000000 0.144116 0.368626
0.000000 0.154791 0.367599
0.000000 0.179018 0.372632
0.113641 0.209907 0.395578
0.445981 0.171938 0.373613
0.618709 0.000000 0.283675
0.797826 0.000000 0.236594
0.969295 0.000000 0.246852
1.000000 0.273342 0.308377
0.000000 0.282739 0.415767
0.000000 0.305628 0.418385
0.000000 0.340481 0.424625
0.000000 0.397352 0.445001
0.412203 0.422492 0.448461
0.652475 0.329988 0.352261
0.828629 0.210234 0.274814
0.971290 0.154846 0.258496
1.000000 0.316546 0.314176
0.000000 0.487927 0.444517
0.000000 0.497574 0.447243
0.000000 0.521657 0.444151
0.000000 0.553648 0.441594
0.033580 0.595985 0.428540
0.645763 0.583474 0.418779
0.841865 0.479805 0.320332
0.972980 0.398850 0.278435
1.000000 0.399704 0.325748
0.000000 0.680988 0.430649
0.000000 0.687499 0.429702
0.000000 0.698722 0.426341
0.000000 0.707857 0.430780
0.000000 0.740105 0.422698
0.479865 0.748115 0.406215
0.818605 0.723522 0.384908
0.951887 0.636018 0.328138
1.000000 0.588172 0.365913
0.000000 0.832581 0.457258
0.000000 0.833272 0.458298
0.000000 0.836432 0.459851
0.000000 0.840917 0.457098
0.000000 0.850865 0.444892
0.273763 0.857012 0.444738
0.707217 0.847809 0.425742
0.913702 0.831456 0.404188
0.995672 0.786088 0.421303
0.000000 0.927225 0.580736
0.000000 0.927328 0.581649
0.000000 0.928489 0.578913
0.000000 0.928667 0.581064
0.000000 0.931008 0.573156
0.000000 0.933504 0.575338
0.601820 0.927736 0.561775
0.843301 0.919942 0.553101
0.964266 0.907846 0.534876
0.000000 0.040584 0.405525
0.000000 0.045246 0.403175
0.000000 0.049122 0.411043
0.101823 0.035490 0.409495
0.374629 0.000000 0.409184
0.573054 0.000000 0.341961
0.780112 0.000000 0.356987
0.964897 0.000000 0.361561
1.000000 0.266232 0.382721
0.000000 0.053075 0.419178
0.000000 0.058010 0.417173
0.000000 0.062933 0.424841
0.086594 0.055986 0.424179
0.373031 0.000000 0.421362
0.582536 0.000000 0.357764
0.782092 0.000000 0.360774
0.965158 0.000000 0.361860
1.000000 0.270979 0.388366
0.000000 0.077655 0.439025
0.000000 0.082324 0.439855
0.000000 0.087960 0.447993
0.056292 0.091082 0.454489
0.373262 0.000000 0.454271
0.615996 0.000000 0.390053
0.789842 0.000000 0.373745
0.968181 0.000000 0.365305
1.000000 0.280607 0.388560
0.000000 0.142483 0.481715
0.000000 0.149096 0.482821
0.000000 0.158014 0.494076
0.000000 0.179375 0.508271
0.368606 0.158659 0.510998
0.652785 0.000000 0.461540
0.811148 0.000000 0.403418
0.971275 0.000000 0.377529
1.000000 0.303615 0.391788
0.000000 0.280432 0.539447
0.000000 0.284023 0.543251
0.000000 0.306344 0.552840
0.000000 0.336394 0.566382
0.277453 0.377844 0.590542
0.677145 0.342073 0.569244
0.838306 0.225085 0.466310
0.976223 0.186741 0.397706
1.000000 0.341261 0.396923
0.000000 0.461109 0.589548
0.000000 0.473559 0.593084
0.000000 0.497056 0.604786
0.000000 0.541037 0.617436
0.000000 0.592577 0.632934
0.631258 0.614496 0.640745
0.839226 0.525310 0.540569
0.974970 0.430538 0.452198
1.000000 0.423506 0.415395
0.000000 0.687872 0.628598
0.000000 0.691048 0.628284
0.000000 0.696670 0.626971
0.000000 0.716174 0.629282
0.000000 0.742039 0.627604
0.426020 0.768116 0.625980
0.808629 0.751273 0.611150
0.943613 0.674880 0.512695
1.000000 0.596788 0.455177
0.000000 0.837101 0.621571
0.000000 0.837941 0.622977
0.000000 0.841180 0.624918
0.000000 0.845928 0.616115
0.000000 0.850271 0.622470
0.047063 0.864636 0.616920
0.688975 0.862465 0.611720
0.909696 0.850103 0.584876
0.992774 0.794469 0.519310
0.000000 0.928045 0.650064
0.000000 0.928145 0.650978
0.000000 0.928207 0.651590
0.000000 0.928398 0.650447
0.000000 0.930691 0.655504
0.000000 0.933305 0.650128
0.601126 0.929971 0.640162
0.844580 0.922159 0.633192
0.962277 0.913682 0.615593
0.000000 0.116163 0.592273
0.000000 0.121112 0.596570
0.000000 0.125009 0.603269
0.000000 0.136337 0.609697
0.273046 0.110533 0.611437
0.596930 0.000000 0.601801
0.812185 0.000000 0.531823
0.967866 0.000000 0.535227
1.000000 0.282170 0.534753
0.000000 0.126346 0.598684
0.000000 0.129330 0.599478
0.000000 0.136108 0.606126
0.000000 0.145791 0.612864
0.264966 0.124575 0.616367
0.597023 0.000000 0.609535
0.817910 0.000000 0.536956
0.968187 0.000000 0.539103
1.000000 0.291522 0.535089
0.000000 0.140671 0.607580
0.000000 0.144042 0.608867
0.000000 0.150388 0.612482
0.000000 0.161236 0.621797
0.260727 0.148284 0.625885
0.601410 0.000000 0.621663
0.828484 0.000000 0.552334
0.970953 0.000000 0.549673
1.000000 0.300723 0.538331
0.000000 0.173012 0.626204
0.000000 0.180037 0.626926
0.000000 0.184878 0.627538
0.000000 0.196564 0.640015
0.243000 0.197852 0.648032
0.601954 0.125332 0.643477
0.842266 0.000000 0.580958
0.973403 0.000000 0.558151
1.000000 0.318648 0.542142
0.000000 0.276882 0.669046
0.000000 0.284423 0.671586
0.000000 0.293992 0.674696
0.000000 0.302129 0.681333
0.144593 0.337025 0.701860
0.590291 0.320003 0.698867
0.864174 0.232233 0.652782
0.976384 0.216368 0.579581
1.000000 0.365922 0.553295
0.000000 0.457266 0.717282
0.000000 0.460271 0.720917
0.000000 0.475045 0.720546
0.000000 0.497394 0.728239
0.000000 0.543348 0.741128
0.502593 0.573215 0.759110
0.848353 0.548312 0.738396
0.973737 0.445888 0.644313
1.000000 0.451949 0.575376
0.000000 0.656400 0.754330
0.000000 0.658871 0.756510
0.000000 0.671297 0.761173
0.000000 0.698846 0.766794
0.000000 0.732724 0.779533
0.382665 0.769222 0.786708
0.784983 0.776569 0.792590
0.931573 0.712310 0.715196
1.000000 0.633289 0.623909
0.000000 0.840237 0.777633
0.000000 0.841063 0.778716
0.000000 0.842373 0.777956
0.000000 0.848904 0.778763
0.000000 0.856572 0.780050
0.000000 0.868923 0.776173
0.681233 0.874758 0.780501
0.897489 0.865588 0.768412
0.984918 0.812861 0.688213
0.000000 0.929615 0.773821
0.000000 0.929649 0.774043
0.000000 0.931867 0.774321
0.000000 0.932037 0.775873
0.000000 0.933248 0.776645
0.000000 0.935799 0.772708
0.584724 0.935839 0.776749
0.829304 0.930010 0.770382
0.955788 0.923663 0.754403
0.000000 0.235572 0.769905
0.000000 0.236040 0.771831
0.000000 0.238589 0.774664
0.000000 0.247426 0.780206
0.120442 0.255175 0.789416
0.494904 0.225692 0.782483
0.823171 0.137428 0.775991
0.983791 0.000000 0.711232
1.000000 0.298902 0.709997
0.000000 0.239421 0.769785
0.000000 0.243825 0.771587
0.000000 0.246492 0.774417
0.000000 0.253602 0.780013
0.114749 0.259776 0.789618
0.494331 0.236907 0.783285
0.823323 0.149648 0.776414
0.984369 0.000000 0.718586
1.000000 0.308506 0.709939
0.000000 0.251047 0.772058
0.000000 0.251608 0.773969
0.000000 0.254393 0.776774
0.000000 0.261835 0.782315
0.087794 0.273203 0.791690
0.492796 0.250930 0.786772
0.822656 0.181608 0.782657
0.986690 0.000000 0.725333
1.000000 0.313110 0.710127
0.000000 0.269005 0.782300
0.000000 0.271798 0.784079
0.000000 0.274993 0.784023
0.000000 0.283339 0.789632
0.000000 0.293933 0.798561
0.484822 0.283461 0.791312
0.821788 0.223579 0.789297
0.988461 0.000000 0.730749
1.000000 0.335249 0.717299
0.000000 0.313176 0.796043
0.000000 0.318947 0.797611
0.000000 0.322858 0.797532
0.000000 0.336068 0.800518
0.000000 0.350402 0.806396
0.465532 0.348565 0.811046
0.820857 0.311111 0.806722
0.990748 0.215779 0.750263
1.000000 0.382682 0.725148
0.000000 0.455142 0.820907
0.000000 0.459431 0.821891
0.000000 0.464713 0.823819
0.000000 0.472305 0.827997
0.000000 0.486590 0.829192
0.400509 0.519991 0.840544
0.777985 0.513732 0.836135
0.978251 0.465056 0.808198
1.000000 0.456458 0.748182
0.000000 0.652894 0.843637
0.000000 0.654597 0.844765
0.000000 0.660614 0.846339
0.000000 0.672169 0.849167
0.000000 0.687412 0.852675
0.164528 0.723627 0.855191
0.720190 0.746001 0.863855
0.935399 0.732857 0.848878
1.000000 0.653320 0.791337
0.000000 0.823148 0.865272
0.000000 0.826475 0.865974
0.000000 0.830236 0.867109
0.000000 0.835344 0.867889
0.000000 0.848274 0.868689
0.000000 0.864948 0.875513
0.656159 0.877868 0.876842
0.887502 0.878305 0.881981
0.972364 0.837748 0.834976
0.000000 0.933252 0.871096
0.000000 0.933316 0.871376
0.000000 0.933404 0.871794
0.000000 0.934580 0.872433
0.000000 0.935764 0.872825
0.000000 0.936271 0.871921
0.573049 0.937186 0.873749
0.826589 0.937565 0.873669
0.946635 0.932616 0.864572
0.000000 0.389645 0.887981
0.000000 0.389763 0.888127
0.000000 0.390332 0.888853
0.000000 0.391162 0.890005
0.000000 0.402051 0.892578
0.383384 0.410352 0.893277
0.699472 0.393278 0.889627
0.969028 0.372933 0.883034
1.000000 0.307462 0.842323
0.000000 0.392655 0.887852
0.000000 0.392775 0.887998
0.000000 0.393358 0.888724
0.000000 0.394211 0.889876
0.000000 0.405173 0.892447
0.380612 0.417347 0.893334
0.698563 0.396902 0.891159
0.968369 0.377105 0.884594
1.000000 0.312332 0.842419
0.000000 0.401562 0.889015
0.000000 0.401937 0.889448
0.000000 0.402301 0.889878
0.000000 0.403202 0.891020
0.000000 0.408095 0.893821
0.377117 0.424153 0.894868
0.698112 0.400736 0.891198
0.967609 0.385943 0.884697
1.000000 0.321498 0.844610
0.000000 0.416810 0.890025
0.000000 0.417077 0.890311
0.000000 0.417596 0.890879
0.000000 0.418678 0.892150
0.000000 0.423687 0.894776
0.367956 0.440969 0.896015
0.699805 0.419166 0.892807
0.965001 0.407260 0.887882
1.000000 0.344161 0.849005
0.000000 0.441339 0.893712
0.000000 0.441771 0.894127
0.000000 0.442403 0.893051
0.000000 0.452844 0.893579
0.000000 0.458390 0.896145
0.347144 0.470243 0.899030
0.693269 0.457213 0.895916
0.960489 0.440862 0.892451
1.000000 0.393181 0.853536
0.000000 0.494653 0.900186
0.000000 0.495152 0.900573
0.000000 0.499112 0.899397
0.000000 0.503486 0.900139
0.000000 0.520000 0.899248
0.297647 0.533265 0.903042
0.670248 0.537717 0.902708
0.938504 0.520346 0.899474
1.000000 0.476879 0.869079
0.000000 0.642285 0.908754
0.000000 0.642915 0.909082
0.000000 0.646897 0.909208
0.000000 0.652091 0.909977
0.000000 0.662512 0.910284
0.000000 0.681032 0.912692
0.603408 0.703203 0.913906
0.892821 0.700861 0.912879
1.000000 0.668745 0.894793
0.000000 0.814323 0.920629
0.000000 0.814475 0.920722
0.000000 0.817719 0.921117
0.000000 0.818834 0.921861
0.000000 0.825629 0.923290
0.000000 0.834981 0.922490
0.526708 0.849566 0.925529
0.844054 0.856299 0.927733
0.974510 0.848399 0.917499
0.000000 0.924011 0.932136
0.000000 0.924108 0.932304
0.000000 0.926706 0.932468
0.000000 0.927045 0.933221
0.000000 0.927786 0.931984
0.000000 0.931103 0.934155
0.530806 0.935364 0.936249
0.798928 0.939642 0.936077
0.942588 0.943251 0.940062
