Assets/Lutify-Free-LUTs-Pack/Lutify Free LUTs Pack/Colour Film Boost Pro - Film Boost 10/Lutify.me-FilmBoost10-SLog3CineVenice-to-Rec709.cube
# Created with: fylm.ai - Colour Grading and Collaboration Software in Cloud 
# Website: https://fylm.ai 
# META
# Option: Gamut compress
# Block 1: IDT | Sony Venice S-Log3 S-Gamut3.Cine
# Block 2: colourMatch | Blending Mode: Normal | {"ColorSpace":0,"CrossCovarianceLimit":50,"ReshapingIterations":1,"PercentSaturationShift":100,"PercentShadingShift":100,"ExtraShading":true,"PercentTint":100,"PercentModified":100}
# Block 3: subtractiveColour | Blending Mode: Normal | {"sliders":{"gainY":0.55,"C":0.3,"M":0.3,"Y":0.3}}
# Block 4: LUT | Filmic Curve Response: Low Contrast 2 (100%)
# Block 5: logPrimaries | Blending Mode: Normal | {"wheels":{"shadows":{"Y":"0","R":"1","G":"1","B":"1"},"midtones":{"Y":"0","R":"1","G":"1","B":"1"},"highlights":{"Y":"0","R":"1","G":"1","B":"1"},"offset":{"Y":"0","R":"1","G":"1","B":"1"}},"sliders":{"shadows":{"Y":0,"R":-0.085,"G":0.024,"B":0.134},"midtones":{"Y":0,"R":0,"G":-0.023,"B":0},"highlights":{"Y":0,"R":0,"G":0,"B":0},"offset":{"Y":0,"R":0.012,"G":-0.012,"B":0}}}
# Block 6: HSL | Blending Mode: Normal | {"hue":{"Reds":0,"Yellows":0,"Greens":0,"Cyans":0,"Blues":0,"Magentas":0},"saturation":{"Reds":1,"Yellows":1,"Greens":1,"Cyans":1,"Blues":1,"Magentas":1},"luminance":{"Reds":0.9,"Yellows":0.9,"Greens":0.9,"Cyans":0.9,"Blues":0.9,"Magentas":0.9},"lum_sat":{"Blacks":1,"Shadows":1,"Midtones":1,"Highlights":1,"Whites":1},"sat_sat":{"10":1,"20":1,"30":1,"40":1,"50":1}}
# Block 7: ODT | Rec709
TITLE "Lutify.me-FilmBoost10-SLog3CineVenice-to-Rec709" 
LUT_3D_SIZE 9
0.000000 0.000000 0.000000
0.000000 0.000000 0.000000
0.110120 0.000000 0.000000
0.229840 0.000000 0.000000
0.422983 0.000000 0.000000
0.699360 0.000000 0.000000
0.972157 0.000000 0.084198
1.000000 0.237587 0.230453
1.000000 0.582971 0.442966
0.000000 0.021150 0.000000
0.000000 0.025987 0.000000
0.127435 0.000000 0.000000
0.258191 0.000000 0.000000
0.441735 0.000000 0.000000
0.703606 0.000000 0.000000
0.974278 0.000000 0.083526
1.000000 0.242181 0.230223
1.000000 0.582971 0.442966
0.000000 0.107913 0.000000
0.000000 0.117402 0.000000
0.141097 0.108761 0.000000
0.297700 0.000000 0.000000
0.462014 0.000000 0.000000
0.714514 0.000000 0.000000
0.976874 0.000000 0.085919
1.000000 0.255941 0.231294
1.000000 0.588604 0.442652
0.000000 0.242624 0.000000
0.000000 0.255380 0.000000
0.000000 0.260500 0.000000
0.342611 0.216957 0.000000
0.525183 0.107860 0.000000
0.746946 0.000000 0.000000
0.982644 0.000000 0.084357
1.000000 0.282228 0.231883
1.000000 0.591427 0.442495
0.000000 0.456645 0.000000
0.000000 0.461013 0.000000
0.000000 0.461850 0.000000
0.000000 0.469842 0.000000
0.577018 0.408447 0.000000
0.801317 0.305007 0.000000
0.988831 0.162315 0.071382
1.000000 0.361207 0.229099
1.000000 0.607161 0.450325
0.000000 0.722842 0.000000
0.000000 0.724494 0.000000
0.000000 0.725979 0.000000
0.000000 0.727029 0.000000
0.327155 0.716312 0.000000
0.811269 0.658886 0.000000
0.979853 0.577346 0.000000
1.000000 0.500006 0.242920
1.000000 0.652116 0.462689
0.000000 0.891434 0.270241
0.000000 0.891190 0.266602
0.000000 0.892399 0.266765
0.000000 0.892428 0.256177
0.000000 0.889850 0.236011
0.687013 0.879209 0.166496
0.933540 0.845789 0.000000
1.000000 0.796170 0.273840
1.000000 0.756172 0.484383
0.412849 0.971836 0.574352
0.412849 0.971836 0.574352
0.421155 0.971664 0.574378
0.452123 0.970918 0.571226
0.526392 0.969635 0.571961
0.665590 0.966966 0.552527
0.861543 0.957867 0.517377
0.989661 0.942704 0.429971
1.000000 0.912223 0.568503
0.751040 1.000000 0.801545
0.751040 1.000000 0.801545
0.753535 1.000000 0.801558
0.755850 1.000000 0.799802
0.763179 1.000000 0.799844
0.788255 1.000000 0.794691
0.849290 1.000000 0.793102
0.939367 0.996483 0.773916
1.000000 0.989907 0.734338
0.000000 0.000000 0.014794
0.000000 0.000000 0.011699
0.102696 0.000000 0.000000
0.218691 0.000000 0.000000
0.415721 0.000000 0.000000
0.704592 0.000000 0.000000
0.973835 0.000000 0.092446
1.000000 0.238303 0.234004
1.000000 0.580160 0.443121
0.000000 0.000000 0.034842
0.000000 0.000000 0.026440
0.116909 0.000000 0.000000
0.241109 0.000000 0.000000
0.438929 0.000000 0.000000
0.708846 0.000000 0.000000
0.973931 0.000000 0.093483
1.000000 0.242887 0.233778
1.000000 0.582971 0.442966
0.000000 0.099437 0.000000
0.000000 0.109662 0.000000
0.121761 0.113847 0.000000
0.283692 0.000000 0.000000
0.459141 0.000000 0.000000
0.717362 0.000000 0.000000
0.978504 0.000000 0.094530
1.000000 0.256281 0.233085
1.000000 0.582971 0.442966
0.000000 0.240214 0.000000
0.000000 0.258724 0.000000
0.000000 0.267160 0.000000
0.313145 0.240746 0.000000
0.523793 0.120045 0.000000
0.750298 0.000000 0.000000
0.984589 0.000000 0.096171
1.000000 0.282549 0.233700
1.000000 0.592025 0.447913
0.000000 0.463236 0.000000
0.000000 0.472815 0.000000
0.000000 0.478717 0.000000
0.000000 0.485997 0.000000
0.564383 0.436057 0.000000
0.799298 0.312161 0.000000
0.990241 0.164531 0.085027
1.000000 0.355012 0.237320
1.000000 0.607161 0.450325
0.000000 0.727799 0.000000
0.000000 0.726781 0.000000
0.000000 0.728268 0.000000
0.000000 0.732805 0.000000
0.319098 0.724687 0.000000
0.806729 0.671965 0.000000
0.979251 0.580427 0.000000
1.000000 0.504006 0.246900
1.000000 0.652116 0.462689
0.000000 0.892531 0.292173
0.000000 0.891956 0.284935
0.000000 0.893156 0.285090
0.000000 0.893025 0.270871
0.000000 0.890710 0.258172
0.684323 0.880364 0.195260
0.934129 0.846833 0.000000
1.000000 0.796716 0.282559
1.000000 0.756172 0.484383
0.413702 0.971946 0.580891
0.413702 0.971946 0.580891
0.421989 0.971775 0.580916
0.453273 0.971083 0.581021
0.526392 0.969635 0.571961
0.666213 0.967130 0.562048
0.861677 0.957989 0.523389
0.989670 0.942846 0.434939
1.000000 0.912223 0.568503
0.751040 1.000000 0.801545
0.751040 1.000000 0.801545
0.753535 1.000000 0.801558
0.756011 1.000000 0.801571
0.763179 1.000000 0.799844
0.788255 1.000000 0.794691
0.849290 1.000000 0.793102
0.939367 0.996483 0.773916
1.000000 0.989907 0.734338
0.000000 0.000000 0.063961
0.000000 0.000000 0.054827
0.086583 0.000000 0.039416
0.218961 0.000000 0.024070
0.410039 0.000000 0.025300
0.710164 0.000000 0.044829
0.974374 0.000000 0.106263
1.000000 0.238224 0.238901
1.000000 0.580761 0.448530
0.000000 0.000000 0.082843
0.000000 0.000000 0.073479
0.092626 0.000000 0.056095
0.231545 0.000000 0.041229
0.432897 0.000000 0.033479
0.719619 0.000000 0.050095
0.976413 0.000000 0.105684
1.000000 0.244652 0.242869
1.000000 0.583571 0.448377
0.000000 0.081724 0.146625
0.000000 0.094711 0.138071
0.096417 0.112429 0.130154
0.282906 0.000000 0.066606
0.467255 0.000000 0.038930
0.726771 0.000000 0.048619
0.978779 0.000000 0.107694
1.000000 0.249151 0.242653
1.000000 0.583571 0.448377
0.000000 0.235505 0.130926
0.000000 0.256470 0.112339
0.000000 0.282419 0.088686
0.298247 0.276937 0.047178
0.533320 0.126158 0.000000
0.754992 0.000000 0.049505
0.986747 0.000000 0.109212
1.000000 0.284155 0.242956
1.000000 0.592325 0.450636
0.000000 0.466209 0.000000
0.000000 0.481160 0.000000
0.000000 0.493330 0.000000
0.000000 0.500872 0.000000
0.562643 0.467422 0.000000
0.810448 0.333676 0.000000
0.992541 0.168162 0.105347
1.000000 0.356187 0.245075
1.000000 0.607460 0.453057
0.000000 0.728648 0.000000
0.000000 0.731227 0.000000
0.000000 0.734840 0.000000
0.000000 0.740057 0.000000
0.317714 0.732488 0.000000
0.814005 0.685784 0.000000
0.978210 0.587597 0.000000
1.000000 0.505417 0.258071
1.000000 0.652400 0.465471
0.000000 0.895389 0.321464
0.000000 0.895064 0.317877
0.000000 0.894609 0.318018
0.000000 0.892905 0.303751
0.000000 0.891710 0.283693
0.675977 0.883305 0.225596
0.935030 0.848480 0.000000
1.000000 0.797445 0.294277
1.000000 0.758547 0.487180
0.414546 0.972056 0.587448
0.414546 0.972056 0.587448
0.422813 0.971884 0.587472
0.453652 0.971138 0.584296
0.527338 0.969799 0.581721
0.662404 0.967407 0.568366
0.861324 0.958764 0.529981
0.989679 0.943130 0.444969
1.000000 0.912314 0.571199
0.751206 1.000000 0.803308
0.751206 1.000000 0.803308
0.753699 1.000000 0.803320
0.756011 1.000000 0.801571
0.763335 1.000000 0.801611
0.788514 1.000000 0.798250
0.849361 1.000000 0.794859
0.939170 0.996760 0.776187
1.000000 0.989934 0.735991
0.000000 0.000000 0.118759
0.000000 0.000000 0.096085
0.071485 0.000000 0.084728
0.216406 0.000000 0.048423
0.389722 0.000000 0.061566
0.705586 0.000000 0.092457
0.979077 0.000000 0.142161
1.000000 0.237897 0.261880
1.000000 0.581664 0.456717
0.000000 0.000000 0.152479
0.000000 0.000000 0.132314
0.060152 0.000000 0.119611
0.220058 0.000000 0.073593
0.412335 0.000000 0.090220
0.716726 0.000000 0.096903
0.981382 0.000000 0.144198
1.000000 0.242506 0.261692
1.000000 0.581664 0.456717
0.000000 0.000000 0.232051
0.000000 0.024170 0.215817
0.000000 0.031612 0.209596
0.259067 0.000000 0.160888
0.451225 0.000000 0.125865
0.733399 0.000000 0.104966
0.983473 0.000000 0.146033
1.000000 0.252981 0.263757
1.000000 0.584473 0.456566
0.000000 0.188180 0.314562
0.000000 0.217978 0.306468
0.000000 0.260675 0.312245
0.265068 0.287631 0.315593
0.549603 0.128602 0.196070
0.767149 0.000000 0.121786
0.989356 0.000000 0.152578
1.000000 0.279811 0.266825
1.000000 0.592924 0.456111
0.000000 0.458736 0.291910
0.000000 0.471143 0.289972
0.000000 0.491058 0.282715
0.000000 0.535891 0.266249
0.555520 0.516814 0.219665
0.827819 0.336808 0.131249
0.999911 0.167723 0.165692
1.000000 0.355362 0.269242
1.000000 0.608656 0.464078
0.000000 0.730160 0.234913
0.000000 0.735607 0.229538
0.000000 0.741988 0.224747
0.000000 0.752068 0.222399
0.284015 0.748161 0.170618
0.816642 0.712787 0.000000
0.981286 0.596828 0.143679
1.000000 0.504541 0.279235
1.000000 0.652968 0.471061
0.000000 0.897249 0.378365
0.000000 0.897541 0.376224
0.000000 0.897868 0.377703
0.000000 0.897280 0.372429
0.000000 0.894840 0.359388
0.683550 0.885064 0.311683
0.934707 0.857293 0.205900
1.000000 0.799274 0.324115
1.000000 0.759180 0.495737
0.399769 0.973361 0.607490
0.416790 0.973020 0.607533
0.424988 0.972849 0.607556
0.448102 0.972278 0.604328
0.522059 0.970834 0.595115
0.659162 0.967846 0.584339
0.855531 0.959472 0.547749
0.988182 0.945444 0.469720
1.000000 0.912678 0.582057
0.751541 1.000000 0.806813
0.751541 1.000000 0.806813
0.753864 1.000000 0.805076
0.756336 1.000000 0.805088
0.763490 1.000000 0.803373
0.788645 1.000000 0.800020
0.849563 1.000000 0.794104
0.938190 0.996862 0.779590
1.000000 0.990013 0.740941
0.000000 0.000000 0.160490
0.000000 0.000000 0.140508
0.045396 0.000000 0.132301
0.204826 0.000000 0.103444
0.382190 0.000000 0.068154
0.662763 0.000000 0.182721
0.979402 0.000000 0.228194
1.000000 0.233120 0.320819
1.000000 0.583332 0.478554
0.000000 0.000000 0.214444
0.000000 0.000000 0.202105
0.000000 0.000000 0.192546
0.204225 0.000000 0.154585
0.382190 0.000000 0.068154
0.679443 0.000000 0.206635
0.980397 0.000000 0.230270
1.000000 0.247581 0.320580
1.000000 0.586149 0.478410
0.000000 0.000000 0.304809
0.000000 0.000000 0.295251
0.000000 0.000000 0.287730
0.193730 0.000000 0.267533
0.393071 0.000000 0.147912
0.707773 0.000000 0.228594
0.984069 0.000000 0.237690
1.000000 0.256839 0.322704
1.000000 0.587192 0.481640
0.000000 0.095520 0.426353
0.000000 0.108934 0.422535
0.000000 0.120628 0.422639
0.150690 0.128331 0.435726
0.534066 0.000000 0.362750
0.757784 0.000000 0.284462
0.992092 0.000000 0.255612
1.000000 0.284057 0.327046
1.000000 0.595636 0.481208
0.000000 0.388841 0.524865
0.000000 0.407282 0.526705
0.000000 0.444196 0.537264
0.000000 0.508464 0.559916
0.541670 0.536056 0.561282
0.836933 0.352352 0.405438
1.000000 0.173503 0.286388
1.000000 0.360047 0.334505
1.000000 0.613229 0.486013
0.000000 0.725888 0.529435
0.000000 0.731116 0.527839
0.000000 0.737557 0.527535
0.000000 0.749130 0.522830
0.194135 0.777094 0.513317
0.805877 0.754799 0.465597
0.986155 0.612237 0.323218
1.000000 0.508916 0.348747
1.000000 0.658265 0.496520
0.000000 0.895315 0.510960
0.000000 0.896912 0.511421
0.000000 0.897341 0.509851
0.000000 0.899436 0.499650
0.000000 0.902342 0.502836
0.678596 0.892636 0.462457
0.929524 0.876091 0.403396
1.000000 0.808082 0.403605
1.000000 0.759156 0.524795
0.392354 0.974576 0.655531
0.392354 0.974576 0.655531
0.402328 0.974482 0.652909
0.445683 0.973873 0.654216
0.519726 0.972379 0.641527
0.657966 0.968865 0.636337
0.854390 0.960590 0.600431
0.986717 0.948155 0.542992
1.000000 0.913404 0.604117
0.752383 1.000000 0.815448
0.752383 1.000000 0.815448
0.752383 1.000000 0.815448
0.754693 1.000000 0.813746
0.761862 1.000000 0.812061
0.787152 1.000000 0.809066
0.850053 1.000000 0.806338
0.937237 0.997046 0.789779
1.000000 0.990278 0.757259
0.000000 0.000000 0.211496
0.000000 0.000000 0.209992
0.059616 0.000000 0.209697
0.185230 0.000000 0.203710
0.371845 0.000000 0.144929
0.590696 0.000000 0.101283
0.950442 0.000000 0.386519
1.000000 0.183045 0.434527
1.000000 0.586050 0.545385
0.000000 0.000000 0.250798
0.000000 0.000000 0.242682
0.012843 0.000000 0.237784
0.179663 0.000000 0.209404
0.373947 0.000000 0.144844
0.590696 0.000000 0.101283
0.955261 0.000000 0.393851
1.000000 0.201141 0.434940
1.000000 0.589184 0.548288
0.000000 0.000000 0.378683
0.000000 0.000000 0.366404
0.000000 0.000000 0.361476
0.105489 0.000000 0.337451
0.381151 0.000000 0.231704
0.590696 0.000000 0.101283
0.961054 0.000000 0.407923
1.000000 0.212499 0.435209
1.000000 0.589184 0.548288
0.000000 0.028828 0.535309
0.000000 0.037421 0.534915
0.000000 0.043412 0.541752
0.000000 0.022134 0.544319
0.402195 0.000000 0.515705
0.676363 0.000000 0.337566
0.975585 0.000000 0.438580
1.000000 0.259213 0.444938
1.000000 0.599105 0.548436
0.000000 0.253227 0.654446
0.000000 0.257902 0.661247
0.000000 0.267771 0.670681
0.000000 0.287323 0.678531
0.382140 0.303152 0.696996
0.843010 0.000000 0.622105
0.998187 0.000000 0.513778
1.000000 0.351796 0.462000
1.000000 0.617066 0.550952
0.000000 0.653603 0.754453
0.000000 0.661796 0.752854
0.000000 0.671841 0.758549
0.000000 0.708364 0.766151
0.000000 0.759860 0.778897
0.778768 0.765980 0.785541
0.976451 0.629354 0.643133
1.000000 0.516069 0.498528
1.000000 0.664799 0.564940
0.000000 0.893482 0.753475
0.000000 0.893757 0.751513
0.000000 0.895542 0.752219
0.000000 0.897965 0.752695
0.000000 0.903254 0.757683
0.654995 0.906959 0.746023
0.915905 0.892265 0.711158
1.000000 0.816583 0.579413
1.000000 0.757233 0.591011
0.322478 0.974032 0.749125
0.334494 0.973934 0.749380
0.357143 0.973734 0.749889
0.378685 0.973541 0.747963
0.467549 0.973726 0.748152
0.655239 0.971580 0.739915
0.845571 0.965662 0.717825
0.980002 0.955260 0.682559
1.000000 0.918446 0.672835
0.751528 1.000000 0.838003
0.751528 1.000000 0.838003
0.754280 1.000000 0.838191
0.757009 1.000000 0.838380
0.764300 1.000000 0.836965
0.789199 1.000000 0.834074
0.849235 1.000000 0.830216
0.937358 0.997351 0.814693
1.000000 0.992497 0.795788
0.112684 0.000000 0.292233
0.128603 0.000000 0.292081
0.154045 0.000000 0.291801
0.218383 0.000000 0.290960
0.371309 0.000000 0.267644
0.584363 0.000000 0.200567
0.832435 0.000000 0.148360
1.000000 0.000000 0.630295
1.000000 0.561033 0.666119
0.112684 0.000000 0.292233
0.128603 0.000000 0.292081
0.154045 0.000000 0.291801
0.218383 0.000000 0.290960
0.371309 0.000000 0.267644
0.583953 0.000000 0.197643
0.832435 0.000000 0.148360
1.000000 0.000000 0.634155
1.000000 0.564214 0.666272
0.094912 0.000000 0.316111
0.116756 0.000000 0.311858
0.147671 0.000000 0.305520
0.218383 0.000000 0.290960
0.371468 0.000000 0.263897
0.583953 0.000000 0.197643
0.832435 0.000000 0.148360
1.000000 0.000000 0.638330
1.000000 0.564214 0.666272
0.000000 0.000000 0.641356
0.000000 0.000000 0.638260
0.000000 0.000000 0.637752
0.000000 0.000000 0.627376
0.272107 0.000000 0.594413
0.624489 0.000000 0.379859
0.832435 0.000000 0.148360
1.000000 0.000000 0.650918
1.000000 0.577717 0.666937
0.000000 0.155769 0.774516
0.000000 0.157598 0.776515
0.000000 0.161188 0.780313
0.000000 0.168213 0.786592
0.191673 0.153962 0.782125
0.709914 0.000000 0.763034
0.958462 0.000000 0.598685
1.000000 0.171226 0.679777
1.000000 0.601365 0.677049
0.000000 0.478835 0.850666
0.000000 0.480845 0.850257
0.000000 0.486413 0.852017
0.000000 0.503697 0.857654
0.000000 0.536688 0.862133
0.665929 0.549204 0.867159
1.000000 0.411623 0.820397
1.000000 0.451564 0.741748
1.000000 0.660370 0.691508
0.000000 0.863601 0.889661
0.000000 0.864306 0.890251
0.000000 0.866883 0.890711
0.000000 0.871009 0.891231
0.000000 0.884959 0.894074
0.573539 0.897086 0.897575
0.904518 0.898857 0.900592
1.000000 0.822747 0.821039
1.000000 0.763818 0.721362
0.000000 0.974322 0.882540
0.000000 0.974243 0.882662
0.000000 0.974088 0.881608
0.181144 0.973833 0.881980
0.385844 0.973099 0.883577
0.612131 0.972141 0.879408
0.840028 0.970587 0.880418
0.968862 0.962866 0.864464
1.000000 0.920854 0.782798
0.742561 1.000000 0.880686
0.742561 1.000000 0.880686
0.742561 1.000000 0.880686
0.745378 1.000000 0.880818
0.756409 1.000000 0.881351
0.784775 1.000000 0.882824
0.845583 1.000000 0.878992
0.934434 0.998964 0.868150
1.000000 0.993698 0.854708
0.306765 0.000000 0.400999
0.316742 0.000000 0.400910
0.332148 0.000000 0.400775
0.364654 0.000000 0.400500
0.451303 0.000000 0.394519
0.595313 0.000000 0.338605
0.813848 0.000000 0.259124
1.000000 0.000000 0.204635
1.000000 0.407764 0.825290
0.311725 0.000000 0.400955
0.316742 0.000000 0.400910
0.332148 0.000000 0.400775
0.364654 0.000000 0.400500
0.451303 0.000000 0.394519
0.598323 0.000000 0.338479
0.813848 0.000000 0.259124
1.000000 0.000000 0.204635
1.000000 0.407764 0.825290
0.311725 0.000000 0.400955
0.316742 0.000000 0.400910
0.332148 0.000000 0.400775
0.364654 0.000000 0.400500
0.451303 0.000000 0.394519
0.598323 0.000000 0.338479
0.813848 0.000000 0.259124
1.000000 0.000000 0.204635
1.000000 0.414060 0.827462
0.311725 0.000000 0.400955
0.316742 0.000000 0.400910
0.332148 0.000000 0.400775
0.364654 0.000000 0.400500
0.451643 0.000000 0.391875
0.598323 0.000000 0.338479
0.813848 0.000000 0.259124
1.000000 0.000000 0.204635
1.000000 0.427962 0.829669
0.000000 0.061273 0.857053
0.000000 0.058428 0.856997
0.000000 0.047806 0.856602
0.000000 0.000000 0.856040
0.271856 0.000000 0.848814
0.541522 0.000000 0.829027
0.902091 0.000000 0.671312
1.000000 0.000000 0.204635
1.000000 0.463927 0.834329
0.000000 0.340876 0.923236
0.000000 0.341163 0.923571
0.000000 0.344425 0.922803
0.000000 0.351090 0.921364
0.027959 0.361598 0.923646
0.508190 0.341936 0.921643
0.956446 0.231498 0.906752
1.000000 0.000000 0.816389
1.000000 0.554350 0.848399
0.000000 0.736643 0.945633
0.000000 0.737042 0.945781
0.000000 0.737832 0.946077
0.000000 0.739933 0.946885
0.000000 0.744258 0.947747
0.269475 0.770682 0.948345
0.855102 0.769627 0.947413
1.000000 0.697507 0.926065
1.000000 0.727033 0.879398
0.000000 0.963041 0.960907
0.000000 0.962996 0.961073
0.000000 0.962961 0.961184
0.000000 0.963674 0.961450
0.000000 0.965676 0.961496
0.427729 0.965687 0.961775
0.807681 0.966599 0.964169
0.964451 0.968263 0.961666
1.000000 0.927005 0.920149
0.707562 1.000000 0.955136
0.707562 1.000000 0.955136
0.710623 1.000000 0.955200
0.713735 1.000000 0.954018
0.722704 1.000000 0.954211
0.751096 1.000000 0.954239
0.823819 1.000000 0.953088
0.929239 1.000000 0.952642
0.998302 0.997362 0.942613
0.591084 0.000000 0.509155
0.594637 0.000000 0.508953
0.594637 0.000000 0.508953
0.605316 0.000000 0.508352
0.630729 0.000000 0.497705
0.700175 0.000000 0.466778
0.813587 0.000000 0.417189
1.000000 0.000000 0.338191
1.000000 0.000000 0.282533
0.591084 0.000000 0.509155
0.594637 0.000000 0.508953
0.594637 0.000000 0.508953
0.605316 0.000000 0.508352
0.630729 0.000000 0.497705
0.700175 0.000000 0.466778
0.813587 0.000000 0.417189
1.000000 0.000000 0.338191
1.000000 0.000000 0.282533
0.591084 0.000000 0.509155
0.594637 0.000000 0.508953
0.594637 0.000000 0.508953
0.605316 0.000000 0.508352
0.630729 0.000000 0.497705
0.700175 0.000000 0.466778
0.813587 0.000000 0.417189
1.000000 0.000000 0.338191
1.000000 0.000000 0.282533
0.591084 0.000000 0.509155
0.594637 0.000000 0.508953
0.598193 0.000000 0.508752
0.605316 0.000000 0.508352
0.630729 0.000000 0.497705
0.703503 0.000000 0.466613
0.822555 0.000000 0.416819
1.000000 0.000000 0.338191
1.000000 0.000000 0.282533
0.594637 0.000000 0.508953
0.594637 0.000000 0.508953
0.598193 0.000000 0.508752
0.605484 0.000000 0.505248
0.630729 0.000000 0.497705
0.703503 0.000000 0.466613
0.822555 0.000000 0.416819
1.000000 0.000000 0.338191
1.000000 0.000000 0.282533
0.345337 0.235300 0.967421
0.350382 0.234782 0.967384
0.355404 0.234254 0.967346
0.380973 0.226400 0.966207
0.447197 0.217055 0.964733
0.586224 0.176414 0.961298
0.845254 0.000000 0.950379
1.000000 0.000000 0.876178
1.000000 0.000000 0.282533
0.000000 0.588867 0.988412
0.000000 0.589138 0.987866
0.069103 0.589222 0.987902
0.190502 0.589613 0.988076
0.302052 0.590434 0.987831
0.506496 0.601365 0.988196
0.768311 0.580831 0.984483
1.000000 0.547271 0.977970
1.000000 0.368608 0.935757
0.000000 0.893579 0.991452
0.000000 0.893579 0.991452
0.000000 0.893579 0.991474
0.000000 0.895067 0.991474
0.000000 0.897872 0.991449
0.362874 0.899765 0.991349
0.679591 0.900532 0.990494
0.939663 0.900542 0.989861
1.000000 0.856307 0.977057
0.537272 1.000000 0.995660
0.537272 1.000000 0.995660
0.542337 1.000000 0.995676
0.548748 1.000000 0.995663
0.579652 1.000000 0.995704
0.640424 1.000000 0.995633
0.768086 1.000000 0.995594
0.913429 1.000000 0.995580
0.994443 0.999594 0.995848
