Assets/Lutify-Free-LUTs-Pack/Lutify Free LUTs Pack/Colour Film Boost Pro - Film Boost 10/Lutify.me-FilmBoost10-CanonLog1-to-Rec709.cube
# Created with: fylm.ai - Colour Grading and Collaboration Software in Cloud 
# Website: https://fylm.ai 
# META
# Option: Gamut compress
# Block 1: IDT | CanonLog Cinema Gamut Daylight
# Block 2: colourMatch | Blending Mode: Normal | {"ColorSpace":0,"CrossCovarianceLimit":50,"ReshapingIterations":1,"PercentSaturationShift":100,"PercentShadingShift":100,"ExtraShading":true,"PercentTint":100,"PercentModified":100}
# Block 3: subtractiveColour | Blending Mode: Normal | {"sliders":{"gainY":0.55,"C":0.3,"M":0.3,"Y":0.3}}
# Block 4: LUT | Filmic Curve Response: Low Contrast 2 (100%)
# Block 5: logPrimaries | Blending Mode: Normal | {"wheels":{"shadows":{"Y":"0","R":"1","G":"1","B":"1"},"midtones":{"Y":"0","R":"1","G":"1","B":"1"},"highlights":{"Y":"0","R":"1","G":"1","B":"1"},"offset":{"Y":"0","R":"1","G":"1","B":"1"}},"sliders":{"shadows":{"Y":0,"R":-0.085,"G":0.024,"B":0.134},"midtones":{"Y":0,"R":0,"G":-0.023,"B":0},"highlights":{"Y":0,"R":0,"G":0,"B":0},"offset":{"Y":0,"R":0.012,"G":-0.012,"B":0}}}
# Block 6: HSL | Blending Mode: Normal | {"hue":{"Reds":0,"Yellows":0,"Greens":0,"Cyans":0,"Blues":0,"Magentas":0},"saturation":{"Reds":1,"Yellows":1,"Greens":1,"Cyans":1,"Blues":1,"Magentas":1},"luminance":{"Reds":0.9,"Yellows":0.9,"Greens":0.9,"Cyans":0.9,"Blues":0.9,"Magentas":0.9},"lum_sat":{"Blacks":1,"Shadows":1,"Midtones":1,"Highlights":1,"Whites":1},"sat_sat":{"10":1,"20":1,"30":1,"40":1,"50":1}}
# Block 7: ODT | Rec709
TITLE "Lutify.me-FilmBoost10-CanonLog1-to-Rec709" 
LUT_3D_SIZE 33
0.000000 0.000000 0.000000
0.000000 0.000000 0.000000
0.000000 0.000000 0.000000
0.000000 0.000000 0.000000
0.000000 0.000000 0.000000
0.086245 0.000000 0.000000
0.126198 0.000000 0.000000
0.162979 0.000000 0.000000
0.195347 0.000000 0.000000
0.225555 0.000000 0.000000
0.257176 0.000000 0.000000
0.297281 0.000000 0.000000
0.326383 0.000000 0.000000
0.354623 0.000000 0.000000
0.388077 0.000000 0.000000
0.427767 0.000000 0.000000
0.480861 0.000000 0.000000
0.526926 0.000000 0.000000
0.563745 0.000000 0.000000
0.609082 0.000000 0.000000
0.646232 0.000000 0.000000
0.695961 0.000000 0.000000
0.750934 0.000000 0.000000
0.800215 0.000000 0.000000
0.846146 0.000000 0.035060
0.888302 0.000000 0.055639
0.923979 0.000000 0.075978
0.957965 0.000000 0.095662
0.989813 0.000000 0.119142
1.000000 0.000000 0.146044
1.000000 0.000000 0.170415
1.000000 0.000000 0.196098
1.000000 0.000000 0.220577
0.000000 0.000000 0.000000
0.000000 0.000000 0.000000
0.000000 0.000000 0.000000
0.000000 0.000000 0.000000
0.000000 0.000000 0.000000
0.086245 0.000000 0.000000
0.126198 0.000000 0.000000
0.162979 0.000000 0.000000
0.195347 0.000000 0.000000
0.225555 0.000000 0.000000
0.260389 0.000000 0.000000
0.297281 0.000000 0.000000
0.334173 0.000000 0.000000
0.369805 0.000000 0.000000
0.409868 0.000000 0.000000
0.461202 0.000000 0.000000
0.514516 0.000000 0.000000
0.575519 0.000000 0.000000
0.592415 0.000000 0.000000
0.622670 0.000000 0.000000
0.666339 0.000000 0.000000
0.705631 0.000000 0.000000
0.753885 0.000000 0.000000
0.802817 0.000000 0.000000
0.849360 0.000000 0.031396
0.891206 0.000000 0.053914
0.926993 0.000000 0.076517
0.960555 0.000000 0.096709
0.991589 0.000000 0.118463
1.000000 0.000000 0.142911
1.000000 0.000000 0.169713
1.000000 0.000000 0.194243
1.000000 0.000000 0.220112
0.000000 0.000000 0.000000
0.000000 0.000000 0.000000
0.000000 0.000000 0.000000
0.000000 0.000000 0.000000
0.000000 0.000000 0.000000
0.090014 0.000000 0.000000
0.131183 0.000000 0.000000
0.166875 0.000000 0.000000
0.202778 0.000000 0.000000
0.238659 0.000000 0.000000
0.277075 0.000000 0.000000
0.313265 0.000000 0.000000
0.357244 0.000000 0.000000
0.399354 0.000000 0.000000
0.447739 0.000000 0.000000
0.490342 0.000000 0.000000
0.540038 0.000000 0.000000
0.585796 0.000000 0.000000
0.615934 0.000000 0.000000
0.639690 0.000000 0.000000
0.675525 0.000000 0.000000
0.719032 0.000000 0.000000
0.760318 0.000000 0.000000
0.805158 0.000000 0.000000
0.851761 0.000000 0.022179
0.894046 0.000000 0.051709
0.926757 0.000000 0.075369
0.962275 0.000000 0.093798
0.995120 0.000000 0.115691
1.000000 0.000000 0.142618
1.000000 0.000000 0.169573
1.000000 0.000000 0.193786
1.000000 0.073846 0.219621
0.000000 0.000000 0.000000
0.000000 0.000000 0.000000
0.000000 0.000000 0.000000
0.000000 0.000000 0.000000
0.005106 0.000000 0.000000
0.099367 0.000000 0.000000
0.141042 0.000000 0.000000
0.183411 0.000000 0.000000
0.222304 0.000000 0.000000
0.258362 0.000000 0.000000
0.295738 0.000000 0.000000
0.339219 0.000000 0.000000
0.383343 0.000000 0.000000
0.423007 0.000000 0.000000
0.461098 0.000000 0.000000
0.505643 0.000000 0.000000
0.553077 0.000000 0.000000
0.595873 0.000000 0.000000
0.636267 0.000000 0.000000
0.653359 0.000000 0.000000
0.678109 0.000000 0.000000
0.725265 0.000000 0.000000
0.763277 0.000000 0.000000
0.807514 0.000000 0.000000
0.854146 0.000000 0.000000
0.893078 0.000000 0.046363
0.934369 0.000000 0.072607
0.966800 0.000000 0.092950
0.994751 0.000000 0.114852
1.000000 0.000000 0.142130
1.000000 0.000000 0.167662
1.000000 0.000000 0.193304
1.000000 0.088723 0.219451
0.000000 0.060815 0.000000
0.000000 0.059359 0.000000
0.000000 0.056541 0.000000
0.000000 0.056829 0.000000
0.000000 0.062263 0.000000
0.111483 0.040744 0.000000
0.164594 0.000000 0.000000
0.207603 0.000000 0.000000
0.246167 0.000000 0.000000
0.282133 0.000000 0.000000
0.317088 0.000000 0.000000
0.361378 0.000000 0.000000
0.398075 0.000000 0.000000
0.433647 0.000000 0.000000
0.472788 0.000000 0.000000
0.514958 0.000000 0.000000
0.566253 0.000000 0.000000
0.609329 0.000000 0.000000
0.649914 0.000000 0.000000
0.660239 0.000000 0.000000
0.684354 0.000000 0.000000
0.728032 0.000000 0.000000
0.765727 0.000000 0.000000
0.810679 0.000000 0.000000
0.857059 0.000000 0.000000
0.895428 0.000000 0.041480
0.933650 0.000000 0.069243
0.966507 0.000000 0.091968
0.996466 0.000000 0.114075
1.000000 0.000000 0.141950
1.000000 0.000000 0.167491
1.000000 0.000000 0.193136
1.000000 0.101436 0.219646
0.000000 0.095495 0.000000
0.000000 0.094048 0.000000
0.000000 0.091212 0.000000
0.000000 0.094367 0.000000
0.000000 0.102599 0.000000
0.107158 0.096783 0.000000
0.178976 0.070674 0.000000
0.227769 0.027894 0.000000
0.269076 0.000000 0.000000
0.302773 0.000000 0.000000
0.338672 0.000000 0.000000
0.372661 0.000000 0.000000
0.408130 0.000000 0.000000
0.441958 0.000000 0.000000
0.481844 0.000000 0.000000
0.527648 0.000000 0.000000
0.576211 0.000000 0.000000
0.619477 0.000000 0.000000
0.653391 0.000000 0.000000
0.673998 0.000000 0.000000
0.694721 0.000000 0.000000
0.730563 0.000000 0.000000
0.775395 0.000000 0.000000
0.810093 0.000000 0.000000
0.859693 0.000000 0.000000
0.894805 0.000000 0.036944
0.936149 0.000000 0.068056
0.968766 0.000000 0.091662
0.996213 0.000000 0.113481
1.000000 0.000000 0.138784
1.000000 0.000000 0.167317
1.000000 0.000000 0.192794
1.000000 0.121360 0.219290
0.000000 0.129840 0.000000
0.000000 0.127941 0.000000
0.000000 0.126068 0.000000
0.000000 0.133145 0.000000
0.000000 0.143417 0.000000
0.045069 0.147032 0.000000
0.178618 0.132051 0.000000
0.240598 0.101385 0.000000
0.286196 0.072445 0.000000
0.322170 0.000000 0.000000
0.360603 0.000000 0.000000
0.399142 0.000000 0.000000
0.429216 0.000000 0.000000
0.461868 0.000000 0.000000
0.500122 0.000000 0.000000
0.537464 0.000000 0.000000
0.582974 0.000000 0.000000
0.622967 0.000000 0.000000
0.660301 0.000000 0.000000
0.684372 0.000000 0.000000
0.698231 0.000000 0.000000
0.732877 0.000000 0.000000
0.781073 0.000000 0.000000
0.823150 0.000000 0.000000
0.862297 0.000000 0.000000
0.897147 0.000000 0.029939
0.938089 0.000000 0.064198
0.970658 0.000000 0.090175
0.997862 0.000000 0.112563
1.000000 0.000000 0.138369
1.000000 0.000000 0.167130
1.000000 0.000000 0.192614
1.000000 0.137991 0.218921
0.000000 0.161802 0.000000
0.000000 0.159449 0.000000
0.000000 0.159449 0.000000
0.000000 0.164901 0.000000
0.000000 0.176228 0.000000
0.000000 0.184485 0.000000
0.161326 0.177458 0.000000
0.245126 0.154700 0.000000
0.292431 0.135570 0.000000
0.333761 0.109660 0.000000
0.371374 0.073623 0.000000
0.410842 0.000000 0.000000
0.444035 0.000000 0.000000
0.483340 0.000000 0.000000
0.513137 0.000000 0.000000
0.554072 0.000000 0.000000
0.589859 0.000000 0.000000
0.633275 0.000000 0.000000
0.663838 0.000000 0.000000
0.694753 0.000000 0.000000
0.712079 0.000000 0.000000
0.738669 0.000000 0.000000
0.779804 0.000000 0.000000
0.825481 0.000000 0.000000
0.864616 0.000000 0.000000
0.899423 0.000000 0.016860
0.939988 0.000000 0.059855
0.972284 0.000000 0.087021
0.997577 0.000000 0.111872
1.000000 0.000000 0.137751
1.000000 0.000000 0.166567
1.000000 0.000000 0.192054
1.000000 0.152632 0.218538
0.000000 0.189904 0.000000
0.000000 0.187192 0.000000
0.000000 0.189904 0.000000
0.000000 0.196654 0.000000
0.000000 0.210932 0.000000
0.000000 0.219087 0.000000
0.117284 0.215038 0.000000
0.239641 0.203538 0.000000
0.297297 0.177545 0.000000
0.342234 0.157402 0.000000
0.380377 0.132419 0.000000
0.421050 0.106197 0.000000
0.460180 0.053850 0.000000
0.494184 0.000000 0.000000
0.530305 0.000000 0.000000
0.564816 0.000000 0.000000
0.603683 0.000000 0.000000
0.643690 0.000000 0.000000
0.677682 0.000000 0.000000
0.718981 0.000000 0.000000
0.725972 0.000000 0.000000
0.744241 0.000000 0.000000
0.782018 0.000000 0.000000
0.830955 0.000000 0.000000
0.869616 0.000000 0.000000
0.904622 0.000000 0.000000
0.941843 0.000000 0.054848
0.971742 0.000000 0.084938
0.997074 0.000000 0.110622
1.000000 0.000000 0.136868
1.000000 0.000000 0.166147
1.000000 0.056655 0.191460
1.000000 0.172186 0.217935
0.000000 0.217298 0.000000
0.000000 0.217298 0.000000
0.000000 0.223403 0.000000
0.000000 0.231380 0.000000
0.000000 0.242532 0.000000
0.000000 0.249923 0.000000
0.000000 0.247043 0.000000
0.210538 0.245014 0.000000
0.287910 0.230501 0.000000
0.347331 0.203609 0.000000
0.400920 0.174801 0.000000
0.441973 0.152617 0.000000
0.479967 0.121992 0.000000
0.511287 0.081659 0.000000
0.547858 0.000000 0.000000
0.582352 0.000000 0.000000
0.621199 0.000000 0.000000
0.654424 0.000000 0.000000
0.688261 0.000000 0.000000
0.726015 0.000000 0.000000
0.736412 0.000000 0.000000
0.750296 0.000000 0.000000
0.784227 0.000000 0.000000
0.833498 0.000000 0.000000
0.867576 0.000000 0.000000
0.906702 0.000000 0.000000
0.943521 0.000000 0.047575
0.973328 0.000000 0.081817
0.998721 0.000000 0.109686
1.000000 0.000000 0.136334
1.000000 0.000000 0.162553
1.000000 0.112172 0.190798
1.000000 0.195532 0.217267
0.000000 0.249292 0.000000
0.000000 0.246107 0.000000
0.000000 0.252516 0.000000
0.000000 0.264275 0.000000
0.000000 0.275914 0.000000
0.000000 0.279092 0.000000
0.000000 0.282724 0.000000
0.168254 0.278668 0.000000
0.283705 0.272281 0.000000
0.347893 0.250127 0.000000
0.403870 0.227239 0.000000
0.449685 0.206117 0.000000
0.492161 0.181164 0.000000
0.523956 0.156103 0.000000
0.560078 0.128980 0.000000
0.594092 0.082823 0.000000
0.639050 0.000000 0.000000
0.668692 0.000000 0.000000
0.698976 0.000000 0.000000
0.733087 0.000000 0.000000
0.764130 0.000000 0.000000
0.767594 0.000000 0.000000
0.788495 0.000000 0.000000
0.834901 0.000000 0.000000
0.872170 0.000000 0.000000
0.907851 0.000000 0.000000
0.945121 0.000000 0.037440
0.974351 0.000000 0.075284
0.997527 0.000000 0.104980
1.000000 0.000000 0.133418
1.000000 0.000000 0.161613
1.000000 0.128849 0.187338
1.000000 0.206271 0.216813
0.000000 0.272701 0.000000
0.000000 0.270959 0.000000
0.000000 0.280275 0.000000
0.000000 0.300203 0.000000
0.000000 0.307890 0.000000
0.000000 0.313642 0.000000
0.000000 0.316505 0.000000
0.090964 0.313456 0.000000
0.246178 0.308790 0.000000
0.341315 0.303673 0.000000
0.402047 0.273250 0.000000
0.459984 0.252616 0.000000
0.503611 0.230964 0.000000
0.542443 0.206228 0.000000
0.572587 0.188468 0.000000
0.609683 0.165724 0.000000
0.647432 0.119478 0.000000
0.679948 0.041689 0.000000
0.709912 0.000000 0.000000
0.743685 0.000000 0.000000
0.774500 0.000000 0.000000
0.784831 0.000000 0.000000
0.807047 0.000000 0.000000
0.838688 0.000000 0.000000
0.872881 0.000000 0.000000
0.908447 0.000000 0.000000
0.945616 0.000000 0.000000
0.972949 0.000000 0.066596
0.998401 0.000000 0.099423
1.000000 0.000000 0.130756
1.000000 0.062490 0.157838
1.000000 0.164625 0.186507
1.000000 0.226049 0.212535
0.000000 0.298338 0.000000
0.000000 0.298338 0.000000
0.000000 0.315577 0.000000
0.000000 0.332879 0.000000
0.000000 0.341462 0.000000
0.000000 0.347937 0.000000
0.000000 0.347063 0.000000
0.000000 0.344753 0.000000
0.211963 0.340760 0.000000
0.317762 0.337966 0.000000
0.396031 0.327761 0.000000
0.460559 0.299317 0.000000
0.511968 0.278799 0.000000
0.553787 0.256177 0.000000
0.590734 0.233105 0.000000
0.627840 0.210476 0.000000
0.662505 0.185522 0.000000
0.694584 0.149973 0.000000
0.727518 0.103410 0.000000
0.761112 0.000000 0.000000
0.784847 0.000000 0.000000
0.819092 0.000000 0.000000
0.819031 0.000000 0.000000
0.845257 0.000000 0.000000
0.876491 0.000000 0.000000
0.909762 0.000000 0.000000
0.943146 0.000000 0.000000
0.973143 0.000000 0.050671
0.998753 0.000000 0.091057
1.000000 0.061285 0.122950
1.000000 0.138934 0.156001
1.000000 0.193727 0.183752
1.000000 0.250014 0.211402
0.000000 0.330704 0.000000
0.000000 0.326468 0.000000
0.000000 0.350030 0.000000
0.000000 0.362090 0.000000
0.000000 0.373891 0.000000
0.000000 0.376081 0.000000
0.000000 0.375434 0.000000
0.000000 0.373615 0.000000
0.162225 0.370345 0.000000
0.288329 0.366063 0.000000
0.382622 0.363217 0.000000
0.465488 0.339779 0.000000
0.513755 0.322127 0.000000
0.558980 0.304029 0.000000
0.598459 0.283321 0.000000
0.636367 0.261814 0.000000
0.671045 0.242326 0.000000
0.705971 0.211883 0.000000
0.738417 0.177479 0.000000
0.768285 0.147685 0.000000
0.805291 0.084241 0.000000
0.832277 0.000000 0.000000
0.842117 0.000000 0.000000
0.848208 0.000000 0.000000
0.882423 0.000000 0.000000
0.914862 0.000000 0.000000
0.943624 0.000000 0.000000
0.973475 0.000000 0.024968
0.996962 0.051982 0.081140
1.000000 0.120487 0.116594
1.000000 0.171678 0.151339
1.000000 0.219871 0.182463
1.000000 0.272209 0.208395
0.000000 0.357332 0.000000
0.000000 0.366689 0.000000
0.000000 0.386422 0.000000
0.000000 0.396491 0.000000
0.000000 0.404157 0.000000
0.000000 0.403930 0.000000
0.000000 0.411348 0.000000
0.000000 0.412806 0.000000
0.000000 0.407853 0.000000
0.243381 0.404574 0.000000
0.348510 0.403260 0.000000
0.462894 0.385065 0.000000
0.515479 0.366521 0.000000
0.564439 0.347667 0.000000
0.603425 0.329666 0.000000
0.646713 0.307267 0.000000
0.681983 0.288381 0.000000
0.713777 0.263260 0.000000
0.745994 0.239264 0.000000
0.775433 0.213607 0.000000
0.808656 0.186201 0.000000
0.838393 0.139936 0.000000
0.870335 0.040646 0.000000
0.863638 0.138072 0.000000
0.886098 0.139128 0.000000
0.918359 0.100247 0.000000
0.948195 0.115931 0.000000
0.972955 0.125765 0.000000
0.996742 0.144112 0.067241
1.000000 0.179421 0.106204
1.000000 0.213899 0.142300
1.000000 0.252678 0.177022
1.000000 0.293587 0.207044
0.000000 0.388667 0.000000
0.000000 0.401290 0.000000
0.000000 0.431105 0.000000
0.000000 0.436598 0.000000
0.000000 0.439288 0.000000
0.000000 0.439099 0.000000
0.000000 0.444294 0.000000
0.000000 0.443457 0.000000
0.000000 0.441939 0.000000
0.170675 0.439232 0.000000
0.317011 0.435360 0.000000
0.434557 0.435286 0.000000
0.503066 0.422055 0.000000
0.557263 0.402830 0.000000
0.600921 0.381077 0.000000
0.648035 0.357888 0.000000
0.688396 0.341336 0.000000
0.727446 0.318062 0.000000
0.756457 0.295987 0.000000
0.785661 0.272771 0.000000
0.818346 0.250229 0.000000
0.850259 0.221878 0.000000
0.878150 0.182308 0.000000
0.892649 0.184159 0.000000
0.886038 0.227543 0.000000
0.920932 0.200758 0.000000
0.946088 0.188582 0.000000
0.971579 0.203951 0.000000
0.995966 0.193975 0.039327
1.000000 0.219747 0.096150
1.000000 0.251107 0.135718
1.000000 0.287232 0.170507
1.000000 0.313654 0.202234
0.000000 0.419967 0.000000
0.000000 0.444930 0.000000
0.000000 0.456330 0.000000
0.000000 0.470504 0.000000
0.000000 0.470382 0.000000
0.000000 0.473037 0.000000
0.000000 0.478426 0.000000
0.000000 0.477764 0.000000
0.000000 0.476564 0.000000
0.000000 0.471625 0.000000
0.277906 0.467919 0.000000
0.399367 0.471945 0.000000
0.481462 0.467356 0.000000
0.551407 0.449966 0.000000
0.601939 0.430790 0.000000
0.649277 0.408058 0.000000
0.692309 0.391569 0.000000
0.729817 0.372161 0.000000
0.766018 0.345690 0.000000
0.795271 0.326352 0.000000
0.827160 0.309063 0.000000
0.861104 0.283266 0.000000
0.893786 0.248317 0.000000
0.916425 0.220987 0.000000
0.906907 0.263247 0.000000
0.919108 0.280603 0.000000
0.951393 0.268480 0.000000
0.973177 0.257349 0.000000
0.993697 0.257188 0.000000
1.000000 0.268308 0.075908
1.000000 0.285492 0.125952
1.000000 0.315773 0.165847
1.000000 0.340928 0.197800
0.000000 0.457715 0.000000
0.000000 0.487886 0.000000
0.000000 0.493615 0.000000
0.000000 0.505181 0.000000
0.000000 0.505030 0.000000
0.000000 0.507710 0.000000
0.000000 0.510331 0.000000
0.000000 0.512743 0.000000
0.000000 0.511713 0.000000
0.000000 0.510057 0.000000
0.201315 0.507143 0.000000
0.367610 0.502610 0.000000
0.459783 0.498335 0.000000
0.540257 0.492014 0.000000
0.603446 0.481235 0.000000
0.651465 0.455588 0.000000
0.698595 0.429223 0.000000
0.737517 0.413180 0.000000
0.771564 0.387599 0.000000
0.807147 0.371040 0.000000
0.832012 0.359433 0.000000
0.862138 0.339433 0.000000
0.896985 0.306564 0.000000
0.921524 0.285674 0.000000
0.937154 0.270105 0.000000
0.926176 0.328251 0.000000
0.944485 0.336713 0.000000
0.974461 0.325226 0.000000
0.997765 0.315244 0.000000
1.000000 0.312679 0.037984
1.000000 0.325216 0.111387
1.000000 0.346729 0.158415
1.000000 0.370925 0.190994
0.000000 0.508285 0.000000
0.000000 0.519971 0.000000
0.000000 0.531699 0.000000
0.000000 0.534537 0.000000
0.000000 0.534345 0.000000
0.000000 0.537080 0.000000
0.000000 0.539777 0.000000
0.000000 0.542248 0.000000
0.000000 0.541410 0.000000
0.000000 0.540058 0.000000
0.000000 0.537706 0.000000
0.312271 0.533996 0.000000
0.430232 0.529657 0.000000
0.516391 0.525176 0.000000
0.594075 0.520742 0.000000
0.646712 0.504568 0.000000
0.701561 0.477543 0.000000
0.739771 0.458723 0.000000
0.775667 0.436506 0.000000
0.808737 0.414290 0.000000
0.836341 0.402699 0.000000
0.865666 0.387133 0.000000
0.896818 0.360341 0.000000
0.923320 0.340762 0.000000
0.943236 0.325706 0.000000
0.944483 0.340156 0.000000
0.947973 0.369119 0.000000
0.969994 0.375672 0.000000
0.996149 0.372781 0.000000
1.000000 0.368241 0.000000
1.000000 0.361732 0.083875
1.000000 0.376080 0.146773
1.000000 0.392723 0.184387
0.000000 0.552632 0.000000
0.000000 0.558518 0.000000
0.000000 0.564374 0.000000
0.000000 0.564199 0.000000
0.000000 0.567010 0.000000
0.000000 0.569803 0.000000
0.000000 0.569481 0.000000
0.000000 0.568956 0.000000
0.000000 0.568203 0.000000
0.000000 0.567064 0.000000
0.000000 0.565197 0.000000
0.243118 0.562330 0.000000
0.382760 0.564553 0.000000
0.486212 0.560166 0.000000
0.576295 0.554813 0.000000
0.646247 0.543516 0.000000
0.695620 0.520886 0.000000
0.740207 0.501507 0.000000
0.773467 0.489956 0.000000
0.811141 0.470753 0.000000
0.836638 0.449841 0.000000
0.865435 0.438291 0.000000
0.898349 0.415618 0.000000
0.922187 0.390651 0.000000
0.943890 0.376255 0.000000
0.966551 0.358002 0.000000
0.950031 0.403494 0.000000
0.967306 0.424988 0.000000
0.990882 0.422113 0.000000
1.000000 0.420568 0.000000
1.000000 0.412122 0.000000
1.000000 0.403431 0.123303
1.000000 0.421241 0.174576
0.000000 0.582560 0.000000
0.000000 0.594485 0.000000
0.000000 0.594296 0.000000
0.000000 0.597127 0.000000
0.000000 0.599948 0.000000
0.000000 0.602746 0.000000
0.000000 0.602431 0.000000
0.000000 0.601900 0.000000
0.000000 0.601300 0.000000
0.000000 0.600395 0.000000
0.000000 0.598735 0.000000
0.147372 0.596377 0.000000
0.334386 0.596113 0.000000
0.441319 0.595543 0.000000
0.542799 0.590788 0.000000
0.622307 0.585184 0.000000
0.693987 0.566951 0.000000
0.732829 0.552061 0.000000
0.772497 0.536647 0.000000
0.811846 0.517522 0.000000
0.840925 0.499639 0.000000
0.867380 0.482003 0.000000
0.899111 0.466812 0.000000
0.921418 0.453062 0.000000
0.943372 0.428967 0.000000
0.965556 0.411667 0.000000
0.982501 0.398659 0.000000
0.965553 0.449838 0.000000
0.983193 0.471165 0.000000
1.000000 0.465007 0.000000
1.000000 0.466583 0.000000
1.000000 0.452208 0.086813
1.000000 0.452900 0.163134
0.000000 0.627805 0.000000
0.000000 0.627585 0.000000
0.000000 0.630399 0.000000
0.000000 0.633226 0.000000
0.000000 0.633028 0.000000
0.000000 0.632786 0.000000
0.000000 0.632434 0.000000
0.000000 0.635104 0.000000
0.000000 0.637655 0.000000
0.000000 0.636930 0.000000
0.000000 0.635538 0.000000
0.000000 0.633642 0.000000
0.267060 0.630701 0.000000
0.400462 0.630341 0.000000
0.502173 0.623369 0.000000
0.596631 0.618531 0.000000
0.678376 0.611283 0.000000
0.731040 0.598403 0.000000
0.763168 0.590965 0.000000
0.809322 0.568011 0.000000
0.843315 0.546319 0.000000
0.875017 0.531471 0.000000
0.901370 0.514007 0.000000
0.922961 0.500642 0.000000
0.943526 0.484056 0.000000
0.965640 0.463857 0.000000
0.981774 0.454884 0.000000
0.995414 0.446343 0.000000
0.980951 0.501485 0.000000
0.999502 0.517216 0.000000
1.000000 0.511064 0.000000
1.000000 0.517188 0.000000
1.000000 0.500150 0.132871
0.000000 0.654922 0.000000
0.000000 0.657711 0.000000
0.000000 0.660528 0.000000
0.000000 0.663332 0.000000
0.000000 0.663106 0.000000
0.000000 0.662861 0.000000
0.000000 0.662572 0.000000
0.000000 0.662194 0.000000
0.000000 0.664788 0.000000
0.000000 0.667068 0.000000
0.000000 0.665919 0.000000
0.000000 0.664161 0.000000
0.188550 0.658828 0.000000
0.358448 0.658756 0.000000
0.461975 0.655457 0.000000
0.567638 0.650821 0.000000
0.650316 0.646230 0.000000
0.720955 0.638912 0.000000
0.766990 0.626712 0.000000
0.802130 0.612187 0.000000
0.840365 0.593560 0.000000
0.873590 0.575362 0.000000
0.901525 0.564563 0.000000
0.923615 0.544572 0.000000
0.945841 0.527998 0.000000
0.962759 0.515617 0.000000
0.980830 0.503212 0.000000
0.999711 0.490928 0.000000
0.998706 0.497895 0.000000
0.997356 0.545893 0.000000
1.000000 0.563257 0.000000
1.000000 0.560439 0.000000
1.000000 0.563716 0.072911
0.000000 0.681970 0.000000
0.000000 0.684734 0.000000
0.000000 0.690594 0.000000
0.000000 0.690340 0.000000
0.000000 0.690087 0.000000
0.000000 0.689884 0.000000
0.000000 0.689586 0.000000
0.000000 0.689279 0.000000
0.000000 0.691676 0.000000
0.000000 0.690858 0.000000
0.000000 0.689731 0.000000
0.000000 0.688380 0.000000
0.088023 0.686435 0.000000
0.295098 0.684230 0.000000
0.406231 0.684543 0.000000
0.527450 0.680148 0.000000
0.619478 0.675698 0.000000
0.704442 0.670006 0.000000
0.765610 0.662861 0.000000
0.799132 0.645529 0.000000
0.834497 0.630876 0.000000
0.870891 0.615783 0.000000
0.897490 0.601955 0.000000
0.920982 0.588595 0.000000
0.943202 0.572182 0.000000
0.961761 0.559738 0.000000
0.979421 0.547558 0.000000
0.994560 0.535826 0.000000
1.000000 0.517328 0.000000
0.999758 0.552273 0.000000
1.000000 0.595586 0.000000
1.000000 0.602491 0.000000
1.000000 0.606047 0.000000
0.000000 0.711852 0.000000
0.000000 0.714542 0.000000
0.000000 0.717218 0.000000
0.000000 0.717004 0.000000
0.000000 0.716760 0.000000
0.000000 0.716519 0.000000
0.000000 0.716247 0.000000
0.000000 0.715749 0.000000
0.000000 0.718092 0.000000
0.000000 0.714350 0.000000
0.000000 0.713279 0.000000
0.000000 0.712166 0.000000
0.000000 0.710610 0.000000
0.251167 0.708638 0.000000
0.368500 0.712124 0.000000
0.483173 0.708642 0.000000
0.586566 0.704312 0.000000
0.675870 0.699599 0.000000
0.750229 0.693367 0.000000
0.799533 0.684319 0.000000
0.829018 0.670955 0.000000
0.864635 0.653017 0.000000
0.894368 0.638895 0.000000
0.916248 0.625862 0.000000
0.938230 0.612902 0.000000
0.957382 0.597130 0.000000
0.974301 0.588455 0.000000
0.990883 0.576665 0.000000
1.000000 0.561670 0.000000
1.000000 0.543853 0.000000
1.000000 0.601992 0.000000
1.000000 0.634912 0.000000
1.000000 0.640679 0.000000
0.000000 0.743128 0.000000
0.000000 0.742831 0.000000
0.000000 0.742505 0.000000
0.000000 0.742264 0.000000
0.000000 0.742073 0.000000
0.000000 0.741779 0.000000
0.000000 0.744128 0.000000
