Assets/Lutify-Free-LUTs-Pack/Lutify Free LUTs Pack/Colour Film Boost Pro - Film Boost 10/Lutify.me-FilmBoost10-DragonColor2RLF-to-Rec709.cube
# Created with: fylm.ai - Colour Grading and Collaboration Software in Cloud 
# Website: https://fylm.ai 
# META
# Option: Gamut compress
# Block 1: IDT | RED DragonColor2 REDLogFilm
# Block 2: colourMatch | Blending Mode: Normal | {"ColorSpace":0,"CrossCovarianceLimit":50,"ReshapingIterations":1,"PercentSaturationShift":100,"PercentShadingShift":100,"ExtraShading":true,"PercentTint":100,"PercentModified":100}
# Block 3: subtractiveColour | Blending Mode: Normal | {"sliders":{"gainY":0.55,"C":0.3,"M":0.3,"Y":0.3}}
# Block 4: LUT | Filmic Curve Response: Low Contrast 2 (100%)
# Block 5: logPrimaries | Blending Mode: Normal | {"wheels":{"shadows":{"Y":"0","R":"1","G":"1","B":"1"},"midtones":{"Y":"0","R":"1","G":"1","B":"1"},"highlights":{"Y":"0","R":"1","G":"1","B":"1"},"offset":{"Y":"0","R":"1","G":"1","B":"1"}},"sliders":{"shadows":{"Y":0,"R":-0.085,"G":0.024,"B":0.134},"midtones":{"Y":0,"R":0,"G":-0.023,"B":0},"highlights":{"Y":0,"R":0,"G":0,"B":0},"offset":{"Y":0,"R":0.012,"G":-0.012,"B":0}}}
# Block 6: HSL | Blending Mode: Normal | {"hue":{"Reds":0,"Yellows":0,"Greens":0,"Cyans":0,"Blues":0,"Magentas":0},"saturation":{"Reds":1,"Yellows":1,"Greens":1,"Cyans":1,"Blues":1,"Magentas":1},"luminance":{"Reds":0.9,"Yellows":0.9,"Greens":0.9,"Cyans":0.9,"Blues":0.9,"Magentas":0.9},"lum_sat":{"Blacks":1,"Shadows":1,"Midtones":1,"Highlights":1,"Whites":1},"sat_sat":{"10":1,"20":1,"30":1,"40":1,"50":1}}
# Block 7: ODT | Rec709
TITLE "Lutify.me-FilmBoost10-DragonColor2RLF-to-Rec709" 
LUT_3D_SIZE 33
0.000000 0.000000 0.000000
0.000000 0.000000 0.000000
0.000000 0.000000 0.000000
0.000000 0.000000 0.000000
0.000000 0.000000 0.000000
0.000000 0.000000 0.000000
0.000000 0.000000 0.000000
0.022491 0.000000 0.000000
0.060092 0.000000 0.000000
0.082301 0.000000 0.000000
0.108133 0.000000 0.000000
0.129621 0.000000 0.000000
0.157126 0.000000 0.000000
0.187100 0.000000 0.000000
0.217259 0.000000 0.000000
0.254629 0.000000 0.000000
0.297175 0.000000 0.000000
0.340387 0.000000 0.000000
0.386194 0.000000 0.000000
0.433804 0.000000 0.000000
0.487867 0.000000 0.000000
0.547701 0.000000 0.000000
0.605490 0.000000 0.000000
0.661713 0.000000 0.000000
0.726320 0.000000 0.000000
0.788193 0.000000 0.000000
0.846927 0.000000 0.000000
0.897848 0.000000 0.000000
0.949474 0.000000 0.000000
0.986544 0.000000 0.000000
1.000000 0.074609 0.000000
1.000000 0.222430 0.000000
1.000000 0.312560 0.059139
0.000000 0.000000 0.000000
0.000000 0.000000 0.000000
0.000000 0.000000 0.000000
0.000000 0.000000 0.000000
0.000000 0.000000 0.000000
0.000000 0.000000 0.000000
0.000000 0.000000 0.000000
0.027785 0.000000 0.000000
0.062499 0.000000 0.000000
0.084351 0.000000 0.000000
0.109911 0.000000 0.000000
0.130560 0.000000 0.000000
0.159150 0.000000 0.000000
0.188454 0.000000 0.000000
0.220239 0.000000 0.000000
0.258007 0.000000 0.000000
0.297197 0.000000 0.000000
0.344476 0.000000 0.000000
0.386210 0.000000 0.000000
0.433824 0.000000 0.000000
0.487874 0.000000 0.000000
0.547716 0.000000 0.000000
0.605490 0.000000 0.000000
0.661727 0.000000 0.000000
0.726320 0.000000 0.000000
0.788431 0.000000 0.000000
0.846927 0.000000 0.000000
0.897848 0.000000 0.000000
0.949474 0.000000 0.000000
0.986544 0.000000 0.000000
1.000000 0.074609 0.000000
1.000000 0.222430 0.000000
1.000000 0.312560 0.059139
0.000000 0.000000 0.000000
0.000000 0.000000 0.000000
0.000000 0.000000 0.000000
0.000000 0.000000 0.000000
0.000000 0.000000 0.000000
0.000000 0.000000 0.000000
0.000000 0.000000 0.000000
0.037196 0.000000 0.000000
0.065212 0.000000 0.000000
0.088279 0.000000 0.000000
0.112825 0.000000 0.000000
0.133661 0.000000 0.000000
0.162144 0.000000 0.000000
0.190940 0.000000 0.000000
0.223272 0.000000 0.000000
0.259995 0.000000 0.000000
0.300739 0.000000 0.000000
0.344484 0.000000 0.000000
0.388580 0.000000 0.000000
0.433843 0.000000 0.000000
0.487893 0.000000 0.000000
0.547748 0.000000 0.000000
0.605507 0.000000 0.000000
0.665152 0.000000 0.000000
0.726326 0.000000 0.000000
0.788431 0.000000 0.000000
0.846927 0.000000 0.000000
0.897848 0.000000 0.000000
0.949474 0.000000 0.000000
0.986544 0.000000 0.000000
1.000000 0.100042 0.000000
1.000000 0.222430 0.000000
1.000000 0.312560 0.059139
0.000000 0.000000 0.000000
0.000000 0.000000 0.000000
0.000000 0.000000 0.000000
0.000000 0.000000 0.000000
0.000000 0.000000 0.000000
0.000000 0.000000 0.000000
0.000000 0.000000 0.000000
0.043667 0.000000 0.000000
0.069117 0.000000 0.000000
0.092239 0.000000 0.000000
0.115591 0.000000 0.000000
0.137777 0.000000 0.000000
0.166367 0.000000 0.000000
0.193532 0.000000 0.000000
0.224955 0.000000 0.000000
0.263485 0.000000 0.000000
0.302538 0.000000 0.000000
0.346552 0.000000 0.000000
0.388606 0.000000 0.000000
0.436534 0.000000 0.000000
0.487914 0.000000 0.000000
0.554241 0.000000 0.000000
0.608877 0.000000 0.000000
0.665159 0.000000 0.000000
0.726326 0.000000 0.000000
0.788420 0.000000 0.000000
0.846908 0.000000 0.000000
0.897807 0.000000 0.000000
0.949474 0.000000 0.000000
0.986544 0.000000 0.000000
1.000000 0.101003 0.000000
1.000000 0.222430 0.000000
1.000000 0.313082 0.064479
0.000000 0.000000 0.000000
0.000000 0.000000 0.000000
0.000000 0.000000 0.000000
0.000000 0.000000 0.000000
0.000000 0.000000 0.000000
0.000000 0.000000 0.000000
0.021794 0.000000 0.000000
0.057010 0.000000 0.000000
0.078809 0.000000 0.000000
0.099480 0.000000 0.000000
0.119563 0.000000 0.000000
0.142344 0.000000 0.000000
0.169832 0.000000 0.000000
0.197501 0.000000 0.000000
0.229668 0.000000 0.000000
0.265240 0.000000 0.000000
0.304341 0.000000 0.000000
0.348639 0.000000 0.000000
0.393385 0.000000 0.000000
0.436567 0.000000 0.000000
0.490936 0.000000 0.000000
0.554481 0.000000 0.000000
0.609119 0.000000 0.000000
0.665173 0.000000 0.000000
0.726328 0.000000 0.000000
0.788420 0.000000 0.000000
0.850471 0.000000 0.000000
0.900783 0.000000 0.000000
0.949318 0.000000 0.000000
0.986714 0.000000 0.000000
1.000000 0.101003 0.000000
1.000000 0.227271 0.000000
1.000000 0.313082 0.064479
0.000000 0.000000 0.000000
0.000000 0.000000 0.000000
0.000000 0.002770 0.000000
0.000000 0.005660 0.000000
0.000000 0.007299 0.000000
0.000000 0.011982 0.000000
0.038340 0.000000 0.000000
0.066829 0.000000 0.000000
0.088054 0.000000 0.000000
0.109324 0.000000 0.000000
0.128562 0.000000 0.000000
0.151595 0.000000 0.000000
0.176320 0.000000 0.000000
0.202793 0.000000 0.000000
0.234104 0.000000 0.000000
0.270349 0.000000 0.000000
0.307924 0.000000 0.000000
0.352859 0.000000 0.000000
0.395831 0.000000 0.000000
0.439298 0.000000 0.000000
0.490981 0.000000 0.000000
0.554536 0.000000 0.000000
0.609148 0.000000 0.000000
0.665188 0.000000 0.000000
0.726341 0.000000 0.000000
0.788663 0.000000 0.000000
0.850431 0.000000 0.000000
0.901142 0.000000 0.000000
0.952028 0.000000 0.000000
0.986591 0.000000 0.000000
1.000000 0.101003 0.000000
1.000000 0.227271 0.000000
1.000000 0.313082 0.064479
0.000000 0.035305 0.000000
0.000000 0.036014 0.000000
0.000000 0.037459 0.000000
0.000000 0.039663 0.000000
0.000000 0.039945 0.000000
0.000000 0.042281 0.000000
0.041193 0.039836 0.000000
0.063758 0.031023 0.000000
0.090189 0.007425 0.000000
0.111975 0.000000 0.000000
0.134857 0.000000 0.000000
0.159650 0.000000 0.000000
0.185866 0.000000 0.000000
0.213167 0.000000 0.000000
0.241596 0.000000 0.000000
0.277213 0.000000 0.000000
0.315242 0.000000 0.000000
0.355048 0.000000 0.000000
0.398322 0.000000 0.000000
0.439346 0.000000 0.000000
0.494057 0.000000 0.000000
0.558049 0.000000 0.000000
0.612526 0.000000 0.000000
0.665452 0.000000 0.000000
0.730044 0.000000 0.000000
0.792121 0.000000 0.000000
0.850391 0.000000 0.000000
0.901097 0.000000 0.000000
0.951947 0.000000 0.000000
0.986591 0.000000 0.000000
1.000000 0.099712 0.000000
1.000000 0.227271 0.000000
1.000000 0.313082 0.064479
0.000000 0.054254 0.000000
0.000000 0.054354 0.000000
0.000000 0.055945 0.000000
0.000000 0.056123 0.000000
0.000000 0.057299 0.000000
0.000000 0.059975 0.000000
0.039668 0.058902 0.000000
0.066685 0.054284 0.000000
0.092716 0.047090 0.000000
0.118223 0.038146 0.000000
0.142368 0.019260 0.000000
0.167355 0.000000 0.000000
0.196874 0.000000 0.000000
0.225242 0.000000 0.000000
0.258807 0.000000 0.000000
0.288748 0.000000 0.000000
0.320942 0.000000 0.000000
0.361604 0.000000 0.000000
0.400827 0.000000 0.000000
0.450371 0.000000 0.000000
0.500179 0.000000 0.000000
0.558150 0.000000 0.000000
0.612579 0.000000 0.000000
0.668888 0.000000 0.000000
0.730052 0.000000 0.000000
0.792344 0.000000 0.000000
0.850571 0.000000 0.000000
0.901006 0.000000 0.000000
0.951947 0.000000 0.000000
0.988593 0.000000 0.000000
1.000000 0.109846 0.000000
1.000000 0.232591 0.000000
1.000000 0.317039 0.062543
0.000000 0.073295 0.000000
0.000000 0.074574 0.000000
0.000000 0.075939 0.000000
0.000000 0.077463 0.000000
0.000000 0.077477 0.000000
0.000000 0.080149 0.000000
0.023658 0.080823 0.000000
0.067761 0.079516 0.000000
0.098477 0.070953 0.000000
0.123673 0.064572 0.000000
0.152562 0.053007 0.000000
0.183192 0.029297 0.000000
0.209486 0.000000 0.000000
0.236928 0.000000 0.000000
0.268931 0.000000 0.000000
0.297437 0.000000 0.000000
0.332708 0.000000 0.000000
0.370550 0.000000 0.000000
0.410837 0.000000 0.000000
0.456090 0.000000 0.000000
0.506384 0.000000 0.000000
0.561721 0.000000 0.000000
0.619558 0.000000 0.000000
0.669172 0.000000 0.000000
0.730065 0.000000 0.000000
0.792572 0.000000 0.000000
0.850550 0.000000 0.000000
0.901405 0.000000 0.000000
0.952255 0.000000 0.000000
0.988337 0.000000 0.000000
1.000000 0.109846 0.000000
1.000000 0.232591 0.000000
1.000000 0.317039 0.062543
0.000000 0.097282 0.000000
0.000000 0.098249 0.000000
0.000000 0.098285 0.000000
0.000000 0.098236 0.000000
0.000000 0.099508 0.000000
0.000000 0.100696 0.000000
0.000000 0.100152 0.000000
0.068248 0.099133 0.000000
0.103309 0.095557 0.000000
0.128217 0.091185 0.000000
0.159592 0.080700 0.000000
0.191258 0.067453 0.000000
0.217180 0.054341 0.000000
0.247836 0.025408 0.000000
0.277359 0.000000 0.000000
0.308398 0.000000 0.000000
0.345164 0.000000 0.000000
0.384577 0.000000 0.000000
0.421271 0.000000 0.000000
0.462004 0.000000 0.000000
0.512710 0.000000 0.000000
0.568383 0.000000 0.000000
0.619695 0.000000 0.000000
0.672659 0.000000 0.000000
0.733774 0.000000 0.000000
0.792558 0.000000 0.000000
0.854016 0.000000 0.000000
0.901435 0.000000 0.000000
0.952086 0.000000 0.000000
0.988673 0.000000 0.000000
1.000000 0.127670 0.000000
1.000000 0.241954 0.000000
1.000000 0.317039 0.062543
0.000000 0.123975 0.000000
0.000000 0.123934 0.000000
0.000000 0.125712 0.000000
0.000000 0.126501 0.000000
0.000000 0.128218 0.000000
0.000000 0.129867 0.000000
0.000000 0.129425 0.000000
0.055254 0.128650 0.000000
0.097452 0.127364 0.000000
0.134242 0.127221 0.000000
0.171376 0.113668 0.000000
0.202176 0.101622 0.000000
0.232896 0.090809 0.000000
0.264458 0.075263 0.000000
0.291239 0.051677 0.000000
0.318365 0.000000 0.000000
0.356419 0.000000 0.000000
0.394766 0.000000 0.000000
0.429778 0.000000 0.000000
0.474075 0.000000 0.000000
0.519370 0.000000 0.000000
0.578571 0.000000 0.000000
0.623412 0.000000 0.000000
0.679808 0.000000 0.000000
0.734036 0.000000 0.000000
0.796482 0.000000 0.000000
0.854378 0.000000 0.000000
0.904321 0.000000 0.000000
0.952301 0.000000 0.000000
0.988408 0.000000 0.000000
1.000000 0.135410 0.000000
1.000000 0.246559 0.000000
1.000000 0.320975 0.060499
0.000000 0.154601 0.000000
0.000000 0.156857 0.000000
0.000000 0.156755 0.000000
0.000000 0.159001 0.000000
0.000000 0.160019 0.000000
0.000000 0.162240 0.000000
0.000000 0.161832 0.000000
0.000000 0.161188 0.000000
0.081553 0.160251 0.000000
0.138086 0.158165 0.000000
0.179061 0.151116 0.000000
0.211955 0.138276 0.000000
0.248443 0.127033 0.000000
0.275387 0.114360 0.000000
0.302494 0.096864 0.000000
0.333046 0.081351 0.000000
0.366344 0.050147 0.000000
0.403201 0.000000 0.000000
0.441422 0.000000 0.000000
0.486709 0.000000 0.000000
0.536003 0.000000 0.000000
0.585696 0.000000 0.000000
0.630373 0.000000 0.000000
0.683604 0.000000 0.000000
0.737754 0.000000 0.000000
0.800141 0.000000 0.000000
0.854492 0.000000 0.000000
0.904498 0.000000 0.000000
0.954501 0.000000 0.000000
0.988471 0.000000 0.000000
1.000000 0.156161 0.000000
1.000000 0.251583 0.000000
1.000000 0.325405 0.063934
0.000000 0.185716 0.000000
0.000000 0.187034 0.000000
0.000000 0.186968 0.000000
0.000000 0.189645 0.000000
0.000000 0.189432 0.000000
0.000000 0.189224 0.000000
0.000000 0.188827 0.000000
0.000000 0.188235 0.000000
0.085374 0.187232 0.000000
0.144744 0.185352 0.000000
0.183250 0.186581 0.000000
0.219477 0.178013 0.000000
0.258693 0.160620 0.000000
0.289631 0.146099 0.000000
0.317787 0.132269 0.000000
0.348664 0.120506 0.000000
0.388554 0.100689 0.000000
0.420036 0.079637 0.000000
0.456849 0.000000 0.000000
0.497013 0.000000 0.000000
0.543840 0.000000 0.000000
0.589895 0.000000 0.000000
0.637891 0.000000 0.000000
0.687640 0.000000 0.000000
0.741713 0.000000 0.000000
0.800309 0.000000 0.000000
0.857790 0.000000 0.000000
0.904712 0.000000 0.000000
0.954503 0.000000 0.000000
0.990478 0.000000 0.000000
1.000000 0.162768 0.000000
1.000000 0.256097 0.000000
1.000000 0.325532 0.064910
0.000000 0.220214 0.000000
0.000000 0.220122 0.000000
0.000000 0.221397 0.000000
0.000000 0.221304 0.000000
0.000000 0.221019 0.000000
0.000000 0.220667 0.000000
0.000000 0.220111 0.000000
0.000000 0.219243 0.000000
0.091547 0.217855 0.000000
0.142367 0.216114 0.000000
0.183324 0.216903 0.000000
0.223643 0.216950 0.000000
0.266409 0.199853 0.000000
0.299529 0.188253 0.000000
0.332335 0.174120 0.000000
0.366981 0.158238 0.000000
0.404880 0.141048 0.000000
0.435299 0.129072 0.000000
0.473478 0.108376 0.000000
0.511372 0.070609 0.000000
0.558156 0.000000 0.000000
0.607906 0.000000 0.000000
0.649001 0.000000 0.000000
0.691545 0.000000 0.000000
0.749131 0.000000 0.000000
0.803923 0.000000 0.000000
0.861001 0.000000 0.000000
0.913520 0.000000 0.000000
0.954677 0.000000 0.000000
0.990512 0.022190 0.000000
1.000000 0.185971 0.000000
1.000000 0.269864 0.000000
1.000000 0.337136 0.058602
0.000000 0.255983 0.000000
0.000000 0.255824 0.000000
0.000000 0.255737 0.000000
0.000000 0.253869 0.000000
0.000000 0.253672 0.000000
0.000000 0.253280 0.000000
0.000000 0.252890 0.000000
0.000000 0.253956 0.000000
0.044108 0.252999 0.000000
0.118364 0.253427 0.000000
0.164720 0.255102 0.000000
0.222252 0.248594 0.000000
0.272591 0.242170 0.000000
0.305300 0.230129 0.000000
0.344820 0.218412 0.000000
0.379688 0.203067 0.000000
0.419158 0.185467 0.000000
0.451288 0.171687 0.000000
0.490830 0.155921 0.000000
0.526945 0.141296 0.000000
0.570405 0.106692 0.000000
0.622845 0.050463 0.000000
0.663976 0.000000 0.000000
0.706059 0.000000 0.000000
0.759981 0.000000 0.000000
0.818263 0.000000 0.000000
0.867549 0.000000 0.000000
0.916072 0.000000 0.000000
0.956869 0.000000 0.000000
0.990216 0.099628 0.000000
1.000000 0.197197 0.000000
1.000000 0.274184 0.000000
1.000000 0.341224 0.059333
0.000000 0.293949 0.000000
0.000000 0.293890 0.000000
0.000000 0.293797 0.000000
0.000000 0.293547 0.000000
0.000000 0.293368 0.000000
0.000000 0.293053 0.000000
0.000000 0.292578 0.000000
0.000000 0.292044 0.000000
0.000000 0.295126 0.000000
0.088189 0.294055 0.000000
0.155796 0.292419 0.000000
0.205735 0.290382 0.000000
0.259185 0.289367 0.000000
0.308403 0.283114 0.000000
0.351476 0.270705 0.000000
0.397785 0.250514 0.000000
0.437407 0.233224 0.000000
0.473540 0.219908 0.000000
0.512709 0.209412 0.000000
0.552441 0.195259 0.000000
0.589766 0.177071 0.000000
0.635599 0.158267 0.000000
0.676416 0.140341 0.000000
0.727744 0.091313 0.000000
0.774481 0.000000 0.000000
0.825563 0.000000 0.000000
0.870681 0.000000 0.000000
0.918735 0.000000 0.000000
0.958812 0.000000 0.000000
0.991270 0.146095 0.000000
1.000000 0.216925 0.000000
1.000000 0.287324 0.000000
1.000000 0.353128 0.058493
0.000000 0.340695 0.000000
0.000000 0.340622 0.000000
0.000000 0.340362 0.000000
0.000000 0.340239 0.000000
0.000000 0.339965 0.000000
0.000000 0.339684 0.000000
0.000000 0.339100 0.000000
0.000000 0.338769 0.000000
0.000000 0.338193 0.000000
0.045472 0.337033 0.000000
0.139976 0.335814 0.000000
0.191835 0.334212 0.000000
0.239397 0.332025 0.000000
0.293089 0.331171 0.000000
0.352305 0.323492 0.000000
0.408711 0.305867 0.000000
0.457327 0.286033 0.000000
0.494593 0.268059 0.000000
0.530104 0.257050 0.000000
0.571196 0.244135 0.000000
0.609271 0.230766 0.000000
0.651695 0.215085 0.000000
0.691859 0.200696 0.000000
0.736495 0.178848 0.000000
0.782906 0.150991 0.000000
0.833286 0.100465 0.000000
0.877304 0.042487 0.000000
0.921203 0.055521 0.000000
0.960463 0.116598 0.000000
0.996422 0.179251 0.000000
1.000000 0.245198 0.000000
1.000000 0.304042 0.000000
1.000000 0.361258 0.061180
0.000000 0.383785 0.000000
0.000000 0.383694 0.000000
0.000000 0.383477 0.000000
0.000000 0.383282 0.000000
0.000000 0.382957 0.000000
0.000000 0.382624 0.000000
0.000000 0.382451 0.000000
0.000000 0.382077 0.000000
0.000000 0.381493 0.000000
0.000000 0.380532 0.000000
0.105142 0.379409 0.000000
0.179280 0.377492 0.000000
0.233054 0.375289 0.000000
0.292836 0.372168 0.000000
0.345169 0.371404 0.000000
0.411566 0.362212 0.000000
0.457702 0.346805 0.000000
0.502028 0.325633 0.000000
0.547826 0.307643 0.000000
0.585010 0.296162 0.000000
0.624671 0.283800 0.000000
0.664358 0.273647 0.000000
0.703975 0.259385 0.000000
0.748801 0.246290 0.000000
0.794808 0.231401 0.000000
0.843171 0.201268 0.000000
0.886753 0.171879 0.000000
0.926223 0.164510 0.000000
0.961749 0.178411 0.000000
0.999178 0.218911 0.000000
1.000000 0.267581 0.000000
1.000000 0.320277 0.000000
1.000000 0.372938 0.060411
0.000000 0.433624 0.000000
0.000000 0.433576 0.000000
0.000000 0.433477 0.000000
0.000000 0.433227 0.000000
0.000000 0.433123 0.000000
0.000000 0.438493 0.000000
0.000000 0.437928 0.000000
0.000000 0.437494 0.000000
0.000000 0.436845 0.000000
0.000000 0.435694 0.000000
0.000000 0.434435 0.000000
0.167379 0.427509 0.000000
0.217716 0.431527 0.000000
0.265170 0.432501 0.000000
0.329603 0.429054 0.000000
0.391103 0.424598 0.000000
0.463576 0.414341 0.000000
0.508617 0.394167 0.000000
0.554803 0.370394 0.000000
0.599469 0.348489 0.000000
0.641345 0.339182 0.000000
0.678693 0.324055 0.000000
0.722159 0.313450 0.000000
0.760547 0.307474 0.000000
0.805313 0.289073 0.000000
0.854926 0.274603 0.000000
0.896900 0.251002 0.000000
0.935497 0.239065 0.000000
0.968721 0.245995 0.000000
1.000000 0.267379 0.000000
1.000000 0.301202 0.000000
1.000000 0.340292 0.000000
1.000000 0.388268 0.058225
0.000000 0.490431 0.000000
0.000000 0.490431 0.000000
0.000000 0.490372 0.000000
0.000000 0.490031 0.000000
0.000000 0.489905 0.000000
0.000000 0.492795 0.000000
0.000000 0.492158 0.000000
0.000000 0.491947 0.000000
0.000000 0.491583 0.000000
0.000000 0.490674 0.000000
0.000000 0.489309 0.000000
0.153352 0.488051 0.000000
0.229052 0.486193 0.000000
0.282078 0.484047 0.000000
0.329651 0.481476 0.000000
0.379212 0.478249 0.000000
0.443219 0.472364 0.000000
0.515224 0.467698 0.000000
0.565486 0.445502 0.000000
0.611275 0.422934 0.000000
0.660246 0.405998 0.000000
0.693299 0.395180 0.000000
0.736242 0.383429 0.000000
0.777874 0.374698 0.000000
0.824752 0.361054 0.000000
0.866047 0.344338 0.000000
0.905603 0.324420 0.000000
0.941943 0.316858 0.000000
0.971796 0.315238 0.000000
1.000000 0.317610 0.000000
1.000000 0.333738 0.000000
1.000000 0.367847 0.000000
1.000000 0.406725 0.046544
0.000000 0.546108 0.000000
0.000000 0.546108 0.000000
0.000000 0.546027 0.000000
0.000000 0.549068 0.000000
0.000000 0.548820 0.000000
0.000000 0.548262 0.000000
0.000000 0.548087 0.000000
0.000000 0.547905 0.000000
0.000000 0.547384 0.000000
0.000000 0.552718 0.000000
0.000000 0.552297 0.000000
0.144945 0.545141 0.000000
0.215079 0.543311 0.000000
0.274107 0.541213 0.000000
0.318488 0.539361 0.000000
0.379873 0.535714 0.000000
0.435913 0.532012 0.000000
0.492171 0.536468 0.000000
0.561138 0.525611 0.000000
0.624318 0.499749 0.000000
0.665781 0.479726 0.000000
0.705466 0.460631 0.000000
0.748063 0.446378 0.000000
0.787718 0.431700 0.000000
0.833514 0.419065 0.000000
0.872902 0.410850 0.000000
0.910166 0.396551 0.000000
0.943065 0.380671 0.000000
0.973547 0.379786 0.000000
1.000000 0.379827 0.000000
1.000000 0.380381 0.000000
1.000000 0.398415 0.000000
1.000000 0.432212 0.000000
0.000000 0.603197 0.000000
0.000000 0.603197 0.000000
0.000000 0.603197 0.000000
0.000000 0.602587 0.000000
0.000000 0.602587 0.000000
0.000000 0.602477 0.000000
0.000000 0.602251 0.000000
0.000000 0.602017 0.000000
0.000000 0.601397 0.000000
0.100421 0.601023 0.000000
0.128063 0.603367 0.000000
0.186304 0.602326 0.000000
0.218509 0.601401 0.000000
0.278763 0.599835 0.000000
0.338544 0.594869 0.000000
0.381450 0.593077 0.000000
0.433606 0.591766 0.000000
0.488042 0.590524 0.000000
0.561179 0.584556 0.000000
0.633789 0.571999 0.000000
0.674821 0.551700 0.000000
0.722557 0.532437 0.000000
0.759128 0.513799 0.000000
0.800789 0.495941 0.000000
0.843185 0.484502 0.000000
0.881912 0.470705 0.000000
0.913630 0.464400 0.000000
0.943304 0.456210 0.000000
0.971989 0.442306 0.000000
1.000000 0.439105 0.000000
1.000000 0.436808 0.000000
1.000000 0.442760 0.000000
1.000000 0.461749 0.000000
0.000000 0.655303 0.000000
0.000000 0.655303 0.000000
0.000000 0.655303 0.000000
0.044648 0.655169 0.000000
0.043647 0.654905 0.000000
0.122138 0.654633 0.000000
0.122138 0.654633 0.000000
0.143265 0.654494 0.000000
0.160714 0.654090 0.000000
0.202984 0.653657 0.000000
0.206899 0.656103 0.000000
0.229639 0.655804 0.000000
0.277289 0.654501 0.000000
0.309855 0.653321 0.000000
0.353110 0.651238 0.000000
0.398675 0.649153 0.000000
0.451811 0.646038 0.000000
0.505821 0.641774 0.000000
0.562119 0.642690 0.000000
0.625212 0.637198 0.000000
0.682405 0.628689 0.000000
0.729877 0.604606 0.000000
0.771941 0.580793 0.000000
0.815635 0.560401 0.000000
0.856322 0.539676 0.000000
0.885385 0.530752 0.000000
0.920545 0.525177 0.000000
0.945590 0.521118 0.000000
0.973355 0.513660 0.000000
0.998582 0.500728 0.000000
1.000000 0.498751 0.000000
1.000000 0.501566 0.000000
1.000000 0.509060 0.000000
0.192964 0.710152 0.000000
0.207235 0.710001 0.000000
0.207235 0.710001 0.000000
0.207235 0.710001 0.000000
0.207235 0.710001 0.000000
0.232672 0.709694 0.000000
0.232672 0.709694 0.000000
0.244229 0.709538 0.000000
0.254958 0.709116 0.000000
0.259332 0.711962 0.000000
0.288635 0.710949 0.000000
0.306781 0.710615 0.000000
0.331226 0.709053 0.000000
0.350503 0.711269 0.000000
0.397546 0.706629 0.000000
0.429996 0.704612 0.000000
0.473194 0.702645 0.000000
0.513295 0.700071 0.000000
0.565161 0.699495 0.000000
0.616335 0.695429 0.000000
0.673502 0.689118 0.000000
0.733295 0.679550 0.000000
0.775011 0.662228 0.000000
0.819740 0.636483 0.000000
0.858583 0.616449 0.000000
0.891303 0.600482 0.000000
0.918506 0.596882 0.000000
0.944798 0.593039 0.000000
0.970643 0.579312 0.000000
0.993336 0.573095 0.000000
1.000000 0.566453 0.000000
1.000000 0.565293 0.000000
1.000000 0.569702 0.000000
0.309768 0.756456 0.000000
0.304981 0.759135 0.000000
0.314471 0.758964 0.000000
0.314471 0.758964 0.000000
0.314471 0.758964 0.000000
0.323666 0.758791 0.000000
0.323100 0.758307 0.000000
0.349220 0.757779 0.000000
0.357503 0.757599 0.000000
0.365331 0.757177 0.000000
0.373264 0.756993 0.000000
0.388138 0.756140 0.000000
0.410275 0.755569 0.000000
0.420777 0.757382 0.000000
0.441001 0.756312 0.000000
0.473420 0.754811 0.000000
0.504179 0.753267 0.000000
0.538919 0.750980 0.000000
0.578531 0.749097 0.000000
0.620459 0.745703 0.000000
0.673864 0.744159 0.000000
0.727773 0.738667 0.000000
0.784765 0.729674 0.000000
0.825733 0.711049 0.000000
0.857521 0.686941 0.000000
0.888159 0.672546 0.000000
0.917193 0.657774 0.000000
0.941755 0.650700 0.000000
0.964877 0.647291 0.000000
0.989382 0.634193 0.000000
1.000000 0.627606 0.000000
1.000000 0.625322 0.000000
1.000000 0.625788 0.000000
0.402967 0.796091 0.000000
0.399844 0.798403 0.000000
0.407260 0.798000 0.000000
0.407260 0.798000 0.000000
0.407260 0.798000 0.000000
0.407260 0.798000 0.000000
0.422336 0.797613 0.000000
