Assets/Lutify-Free-LUTs-Pack/Lutify Free LUTs Pack/Colour Film Boost Pro - Film Boost 10/Lutify.me-FilmBoost10-BMDFilmGen5-to-Rec709.cube
# Created with: fylm.ai - Colour Grading and Collaboration Software in Cloud 
# Website: https://fylm.ai 
# META
# Option: Gamut compress
# Block 1: IDT | BMD Wide Gamut BMDFilm Gen 5
# Block 2: colourMatch | Blending Mode: Normal | {"ColorSpace":0,"CrossCovarianceLimit":50,"ReshapingIterations":1,"PercentSaturationShift":100,"PercentShadingShift":100,"ExtraShading":true,"PercentTint":100,"PercentModified":100}
# Block 3: subtractiveColour | Blending Mode: Normal | {"sliders":{"gainY":0.55,"C":0.3,"M":0.3,"Y":0.3}}
# Block 4: LUT | Filmic Curve Response: Low Contrast 2 (100%)
# Block 5: logPrimaries | Blending Mode: Normal | {"wheels":{"shadows":{"Y":"0","R":"1","G":"1","B":"1"},"midtones":{"Y":"0","R":"1","G":"1","B":"1"},"highlights":{"Y":"0","R":"1","G":"1","B":"1"},"offset":{"Y":"0","R":"1","G":"1","B":"1"}},"sliders":{"shadows":{"Y":0,"R":-0.085,"G":0.024,"B":0.134},"midtones":{"Y":0,"R":0,"G":-0.023,"B":0},"highlights":{"Y":0,"R":0,"G":0,"B":0},"offset":{"Y":0,"R":0.012,"G":-0.012,"B":0}}}
# Block 6: HSL | Blending Mode: Normal | {"hue":{"Reds":0,"Yellows":0,"Greens":0,"Cyans":0,"Blues":0,"Magentas":0},"saturation":{"Reds":1,"Yellows":1,"Greens":1,"Cyans":1,"Blues":1,"Magentas":1},"luminance":{"Reds":0.9,"Yellows":0.9,"Greens":0.9,"Cyans":0.9,"Blues":0.9,"Magentas":0.9},"lum_sat":{"Blacks":1,"Shadows":1,"Midtones":1,"Highlights":1,"Whites":1},"sat_sat":{"10":1,"20":1,"30":1,"40":1,"50":1}}
# Block 7: ODT | Rec709
TITLE "Lutify.me-FilmBoost10-BMDFilmGen5-to-Rec709" 
LUT_3D_SIZE 33
0.000000 0.000000 0.000000
0.000000 0.000000 0.000000
0.000000 0.000000 0.000000
0.000000 0.000000 0.000000
0.000000 0.000000 0.000000
0.000000 0.000000 0.000000
0.033078 0.000000 0.000000
0.069213 0.000000 0.000000
0.103865 0.000000 0.000000
0.134894 0.000000 0.000000
0.172213 0.000000 0.000000
0.215534 0.000000 0.000000
0.269136 0.000000 0.000000
0.332358 0.000000 0.000000
0.400877 0.000000 0.000000
0.475770 0.000000 0.000000
0.567655 0.000000 0.000000
0.657989 0.000000 0.000000
0.749052 0.000000 0.000000
0.845562 0.000000 0.025762
0.925313 0.000000 0.065765
0.990957 0.000000 0.106808
1.000000 0.196208 0.152313
1.000000 0.329337 0.200292
1.000000 0.430561 0.259004
1.000000 0.524338 0.329105
1.000000 0.618151 0.407421
1.000000 0.698459 0.484192
1.000000 0.760639 0.570971
1.000000 0.813535 0.650001
1.000000 0.859909 0.718536
1.000000 0.893465 0.781050
1.000000 0.922445 0.834407
0.000000 0.000000 0.000000
0.000000 0.000000 0.000000
0.000000 0.000000 0.000000
0.000000 0.000000 0.000000
0.000000 0.000000 0.000000
0.000000 0.000000 0.000000
0.040506 0.000000 0.000000
0.073242 0.000000 0.000000
0.107918 0.000000 0.000000
0.137621 0.000000 0.000000
0.175929 0.000000 0.000000
0.219967 0.000000 0.000000
0.275021 0.000000 0.000000
0.338375 0.000000 0.000000
0.403366 0.000000 0.000000
0.476003 0.000000 0.000000
0.567472 0.000000 0.000000
0.657994 0.000000 0.000000
0.749037 0.000000 0.000000
0.845514 0.000000 0.023699
0.925174 0.000000 0.064800
0.990817 0.000000 0.106420
1.000000 0.196208 0.152313
1.000000 0.333260 0.199911
1.000000 0.430561 0.259004
1.000000 0.527647 0.328851
1.000000 0.618151 0.407421
1.000000 0.698459 0.484192
1.000000 0.760639 0.570971
1.000000 0.813535 0.650001
1.000000 0.859909 0.718536
1.000000 0.893465 0.781050
1.000000 0.922445 0.834407
0.000000 0.000000 0.000000
0.000000 0.000000 0.000000
0.000000 0.000000 0.000000
0.000000 0.000000 0.000000
0.000000 0.000000 0.000000
0.000000 0.000000 0.000000
0.046860 0.000000 0.000000
0.078923 0.000000 0.000000
0.112825 0.000000 0.000000
0.142925 0.000000 0.000000
0.181911 0.000000 0.000000
0.224809 0.000000 0.000000
0.280407 0.000000 0.000000
0.340409 0.000000 0.000000
0.403425 0.000000 0.000000
0.478990 0.000000 0.000000
0.570781 0.000000 0.000000
0.661175 0.000000 0.000000
0.749030 0.000000 0.000000
0.848795 0.000000 0.020929
0.925103 0.000000 0.064298
0.990817 0.000000 0.106420
1.000000 0.196208 0.152313
1.000000 0.333260 0.199911
1.000000 0.430561 0.259004
1.000000 0.527647 0.328851
1.000000 0.618151 0.407421
1.000000 0.698459 0.484192
1.000000 0.760639 0.570971
1.000000 0.813535 0.650001
1.000000 0.859909 0.718536
1.000000 0.893465 0.781050
1.000000 0.922445 0.834407
0.000000 0.000000 0.000000
0.000000 0.000000 0.000000
0.000000 0.000000 0.000000
0.000000 0.000000 0.000000
0.000000 0.000000 0.000000
0.015996 0.000000 0.000000
0.058417 0.000000 0.000000
0.088023 0.000000 0.000000
0.116894 0.000000 0.000000
0.147993 0.000000 0.000000
0.185738 0.000000 0.000000
0.232550 0.000000 0.000000
0.282121 0.000000 0.000000
0.346566 0.000000 0.000000
0.408434 0.000000 0.000000
0.484990 0.000000 0.000000
0.574090 0.000000 0.000000
0.661197 0.000000 0.000000
0.752497 0.000000 0.000000
0.848795 0.000000 0.020929
0.925103 0.000000 0.064298
0.990443 0.000000 0.103737
1.000000 0.201523 0.151932
1.000000 0.333260 0.199911
1.000000 0.430561 0.259004
1.000000 0.527647 0.328851
1.000000 0.621274 0.407223
1.000000 0.698459 0.484192
1.000000 0.760639 0.570971
1.000000 0.813535 0.650001
1.000000 0.859909 0.718536
1.000000 0.893465 0.781050
1.000000 0.922445 0.834407
0.000000 0.000000 0.000000
0.000000 0.000000 0.000000
0.000000 0.001860 0.000000
0.000000 0.005055 0.000000
0.000000 0.011603 0.000000
0.025004 0.000000 0.000000
0.066469 0.000000 0.000000
0.097347 0.000000 0.000000
0.123604 0.000000 0.000000
0.154125 0.000000 0.000000
0.194211 0.000000 0.000000
0.237066 0.000000 0.000000
0.288767 0.000000 0.000000
0.348681 0.000000 0.000000
0.410992 0.000000 0.000000
0.485027 0.000000 0.000000
0.574372 0.000000 0.000000
0.664614 0.000000 0.000000
0.752488 0.000000 0.000000
0.848769 0.000000 0.019477
0.924959 0.000000 0.063252
0.990301 0.000000 0.103326
1.000000 0.201523 0.151932
1.000000 0.333260 0.199911
1.000000 0.430561 0.259004
1.000000 0.527647 0.328851
1.000000 0.621274 0.407223
1.000000 0.698459 0.484192
1.000000 0.760639 0.570971
1.000000 0.813535 0.650001
1.000000 0.861043 0.718573
1.000000 0.893465 0.781050
1.000000 0.922445 0.834407
0.000000 0.032904 0.000000
0.000000 0.033721 0.000000
0.000000 0.035844 0.000000
0.000000 0.038633 0.000000
0.000000 0.041100 0.000000
0.010299 0.042257 0.000000
0.058391 0.035173 0.000000
0.097349 0.005504 0.000000
0.128570 0.000000 0.000000
0.164388 0.000000 0.000000
0.202706 0.000000 0.000000
0.247704 0.000000 0.000000
0.295559 0.000000 0.000000
0.352950 0.000000 0.000000
0.413569 0.000000 0.000000
0.488095 0.000000 0.000000
0.577702 0.000000 0.000000
0.664637 0.000000 0.000000
0.752480 0.000000 0.000000
0.849262 0.000000 0.022690
0.933133 0.000000 0.063496
0.990301 0.000000 0.103326
1.000000 0.201523 0.151932
1.000000 0.333260 0.199911
1.000000 0.434098 0.258681
1.000000 0.527647 0.328851
1.000000 0.621274 0.407223
1.000000 0.698459 0.484192
1.000000 0.760639 0.570971
1.000000 0.813535 0.650001
1.000000 0.861043 0.718573
1.000000 0.893465 0.781050
1.000000 0.922445 0.834407
0.000000 0.052713 0.000000
0.000000 0.053736 0.000000
0.000000 0.055257 0.000000
0.000000 0.057552 0.000000
0.000000 0.059911 0.000000
0.000000 0.062120 0.000000
0.055372 0.061541 0.000000
0.094848 0.050332 0.000000
0.130193 0.036513 0.000000
0.171512 0.000000 0.000000
0.214005 0.000000 0.000000
0.258835 0.000000 0.000000
0.302637 0.000000 0.000000
0.355189 0.000000 0.000000
0.416046 0.000000 0.000000
0.490998 0.000000 0.000000
0.577792 0.000000 0.000000
0.664917 0.000000 0.000000
0.755936 0.000000 0.000000
0.852484 0.000000 0.017711
0.933056 0.000000 0.062952
0.990011 0.000000 0.102474
1.000000 0.211516 0.151347
1.000000 0.337332 0.200005
1.000000 0.434098 0.258681
1.000000 0.527647 0.328851
1.000000 0.621274 0.407223
1.000000 0.698459 0.484192
1.000000 0.760639 0.570971
1.000000 0.813535 0.650001
1.000000 0.861043 0.718573
1.000000 0.893465 0.781050
1.000000 0.922445 0.834407
0.000000 0.072340 0.000000
0.000000 0.073680 0.000000
0.000000 0.076364 0.000000
0.000000 0.079874 0.000000
0.000000 0.081618 0.000000
0.000000 0.085280 0.000000
0.032981 0.084383 0.000000
0.095267 0.080041 0.000000
0.136921 0.066354 0.000000
0.182341 0.046923 0.000000
0.224981 0.000000 0.000000
0.269026 0.000000 0.000000
0.313709 0.000000 0.000000
0.370680 0.000000 0.000000
0.421384 0.000000 0.000000
0.494216 0.000000 0.000000
0.584450 0.000000 0.000000
0.668378 0.000000 0.000000
0.759373 0.000000 0.000000
0.852398 0.000000 0.009099
0.932822 0.000000 0.061227
0.989862 0.000000 0.102033
1.000000 0.216550 0.150942
1.000000 0.337899 0.203645
1.000000 0.434098 0.258681
1.000000 0.530955 0.328596
1.000000 0.621274 0.407223
1.000000 0.698459 0.484192
1.000000 0.764648 0.570894
1.000000 0.813535 0.650001
1.000000 0.861043 0.718573
1.000000 0.893465 0.781050
1.000000 0.922445 0.834407
0.000000 0.099665 0.000000
0.000000 0.099854 0.000000
0.000000 0.103261 0.000000
0.000000 0.107667 0.000000
0.000000 0.111436 0.000000
0.000000 0.113755 0.000000
0.000000 0.114906 0.000000
0.087512 0.112973 0.000000
0.140971 0.105080 0.000000
0.192051 0.087733 0.000000
0.236654 0.067283 0.000000
0.282510 0.026524 0.000000
0.325697 0.000000 0.000000
0.380476 0.000000 0.000000
0.437653 0.000000 0.000000
0.503649 0.000000 0.000000
0.587723 0.000000 0.000000
0.668699 0.000000 0.000000
0.759345 0.000000 0.000000
0.855558 0.000000 0.000000
0.932347 0.000000 0.057832
0.989712 0.000000 0.101581
1.000000 0.221504 0.150528
1.000000 0.341776 0.203265
1.000000 0.437631 0.258352
1.000000 0.531246 0.331188
1.000000 0.621274 0.407223
1.000000 0.698459 0.484192
1.000000 0.764648 0.570894
1.000000 0.813832 0.650509
1.000000 0.861043 0.718573
1.000000 0.893465 0.781050
1.000000 0.922445 0.834407
0.000000 0.133419 0.000000
0.000000 0.135870 0.000000
0.000000 0.140580 0.000000
0.000000 0.144458 0.000000
0.000000 0.146588 0.000000
0.000000 0.151913 0.000000
0.000000 0.153795 0.000000
0.000000 0.152785 0.000000
0.126049 0.152698 0.000000
0.199052 0.135212 0.000000
0.251211 0.117894 0.000000
0.297001 0.096000 0.000000
0.342901 0.064616 0.000000
0.398263 0.000000 0.000000
0.452421 0.000000 0.000000
0.513399 0.000000 0.000000
0.594486 0.000000 0.000000
0.675667 0.000000 0.000000
0.763029 0.000000 0.000000
0.858620 0.000000 0.000000
0.934850 0.000000 0.056524
0.991343 0.030044 0.100336
1.000000 0.226384 0.150105
1.000000 0.345636 0.202880
1.000000 0.437631 0.258352
1.000000 0.531246 0.331188
1.000000 0.625051 0.407759
1.000000 0.701049 0.484076
1.000000 0.764648 0.570894
1.000000 0.813832 0.650509
1.000000 0.861043 0.718573
1.000000 0.893465 0.781050
1.000000 0.922445 0.834407
0.000000 0.173541 0.000000
0.000000 0.178137 0.000000
0.000000 0.182782 0.000000
0.000000 0.182764 0.000000
0.000000 0.185343 0.000000
0.000000 0.189288 0.000000
0.000000 0.193176 0.000000
0.000000 0.192491 0.000000
0.100082 0.190666 0.000000
0.193250 0.189788 0.000000
0.261021 0.167352 0.000000
0.309429 0.143174 0.000000
0.357569 0.129120 0.000000
0.415573 0.098231 0.000000
0.465967 0.055624 0.000000
0.533604 0.000000 0.000000
0.601784 0.000000 0.000000
0.679054 0.000000 0.000000
0.766423 0.000000 0.000000
0.858747 0.000000 0.000000
0.934536 0.000000 0.053365
0.990685 0.100681 0.098279
1.000000 0.245290 0.148320
1.000000 0.353308 0.202093
1.000000 0.441729 0.262393
1.000000 0.534554 0.330935
1.000000 0.625051 0.407759
1.000000 0.701049 0.484076
1.000000 0.764648 0.570894
1.000000 0.813832 0.650509
1.000000 0.861043 0.718573
1.000000 0.893465 0.781050
1.000000 0.922445 0.834407
0.000000 0.221578 0.000000
0.000000 0.227380 0.000000
0.000000 0.227291 0.000000
0.000000 0.227181 0.000000
0.000000 0.231554 0.000000
0.000000 0.232886 0.000000
0.000000 0.235618 0.000000
0.000000 0.234935 0.000000
0.000000 0.233058 0.000000
0.167756 0.232624 0.000000
0.257736 0.224036 0.000000
0.319622 0.199730 0.000000
0.378535 0.179835 0.000000
0.436836 0.158026 0.000000
0.492408 0.135220 0.000000
0.548214 0.104533 0.000000
0.616567 0.053273 0.000000
0.693253 0.000000 0.000000
0.770322 0.000000 0.000000
0.861979 0.000000 0.000000
0.936577 0.000000 0.047495
0.989979 0.149010 0.097819
1.000000 0.263763 0.149845
1.000000 0.360923 0.201284
1.000000 0.448774 0.261737
1.000000 0.537861 0.330679
1.000000 0.628162 0.407561
1.000000 0.703625 0.483963
1.000000 0.764648 0.570894
1.000000 0.815364 0.650523
1.000000 0.861043 0.718573
1.000000 0.893465 0.781050
1.000000 0.922445 0.834407
0.000000 0.272394 0.000000
0.000000 0.272331 0.000000
0.000000 0.275807 0.000000
0.000000 0.277545 0.000000
0.000000 0.279265 0.000000
0.000000 0.282769 0.000000
0.000000 0.282512 0.000000
0.000000 0.283833 0.000000
0.000000 0.284330 0.000000
0.118553 0.281910 0.000000
0.230253 0.277764 0.000000
0.319820 0.269933 0.000000
0.396274 0.242577 0.000000
0.464302 0.217398 0.000000
0.514688 0.203928 0.000000
0.573523 0.191245 0.000000
0.644692 0.170888 0.000000
0.711378 0.146155 0.000000
0.784777 0.109140 0.000000
0.867547 0.000000 0.000000
0.938365 0.087201 0.036084
0.990669 0.188649 0.093382
1.000000 0.285507 0.147275
1.000000 0.376057 0.199850
1.000000 0.452626 0.261945
1.000000 0.544474 0.330164
1.000000 0.631562 0.410192
1.000000 0.703625 0.483963
1.000000 0.766631 0.570860
1.000000 0.815364 0.650523
1.000000 0.861043 0.718573
1.000000 0.893465 0.781050
1.000000 0.923079 0.834436
0.000000 0.330514 0.000000
0.000000 0.330473 0.000000
0.000000 0.332565 0.000000
0.000000 0.336841 0.000000
0.000000 0.336772 0.000000
0.000000 0.338837 0.000000
0.000000 0.338592 0.000000
0.000000 0.338083 0.000000
0.000000 0.337215 0.000000
0.000000 0.335788 0.000000
0.169536 0.337559 0.000000
0.287551 0.337400 0.000000
0.399355 0.317400 0.000000
0.477876 0.294240 0.000000
0.544282 0.270467 0.000000
0.594687 0.252582 0.000000
0.655667 0.243927 0.000000
0.725114 0.230757 0.000000
0.797058 0.213725 0.000000
0.871518 0.192190 0.000000
0.939080 0.190234 0.000000
0.990800 0.236759 0.088810
1.000000 0.310236 0.144108
1.000000 0.387236 0.198529
1.000000 0.466612 0.260586
1.000000 0.554625 0.329708
1.000000 0.637739 0.409803
1.000000 0.706188 0.483853
1.000000 0.768599 0.570829
1.000000 0.816889 0.650540
1.000000 0.862171 0.718613
1.000000 0.894314 0.781085
1.000000 0.923079 0.834436
0.000000 0.388553 0.000000
0.000000 0.388486 0.000000
0.000000 0.390965 0.000000
0.000000 0.390865 0.000000
0.000000 0.395917 0.000000
0.000000 0.395798 0.000000
0.000000 0.395568 0.000000
0.000000 0.395194 0.000000
0.000000 0.394675 0.000000
0.000000 0.398813 0.000000
0.052263 0.396699 0.000000
0.249943 0.393540 0.000000
0.373705 0.388139 0.000000
0.481962 0.371025 0.000000
0.562524 0.336505 0.000000
0.627172 0.313880 0.000000
0.677234 0.308305 0.000000
0.739597 0.310809 0.000000
0.808044 0.300225 0.000000
0.883261 0.291496 0.000000
0.942124 0.290327 0.000000
0.991007 0.300403 0.075886
1.000000 0.354055 0.140825
1.000000 0.409622 0.197660
1.000000 0.484156 0.259097
1.000000 0.564810 0.331550
1.000000 0.646910 0.409231
1.000000 0.708737 0.483745
1.000000 0.770829 0.571242
1.000000 0.816889 0.650540
1.000000 0.862171 0.718613
1.000000 0.894314 0.781085
1.000000 0.923079 0.834436
0.000000 0.462419 0.000000
0.000000 0.465219 0.000000
0.000000 0.465170 0.000000
0.000000 0.465103 0.000000
0.000000 0.467877 0.000000
0.000000 0.467795 0.000000
0.000000 0.467482 0.000000
0.000000 0.467287 0.000000
0.000000 0.466884 0.000000
0.000000 0.468666 0.000000
0.000000 0.470166 0.000000
0.090789 0.468162 0.000000
0.311406 0.463996 0.000000
0.454034 0.454417 0.000000
0.553461 0.443482 0.000000
0.642592 0.405923 0.000000
0.699354 0.387171 0.000000
0.754216 0.389169 0.000000
0.822132 0.390011 0.000000
0.890268 0.381033 0.000000
0.946241 0.382366 0.000000
0.987570 0.389447 0.030402
1.000000 0.399203 0.134363
1.000000 0.439258 0.197892
1.000000 0.501758 0.259517
1.000000 0.581291 0.330211
1.000000 0.656499 0.411894
1.000000 0.714331 0.486847
1.000000 0.772759 0.571217
1.000000 0.819921 0.650580
1.000000 0.863292 0.718655
1.000000 0.894314 0.781085
1.000000 0.923079 0.834436
0.000000 0.534799 0.000000
0.000000 0.537540 0.000000
0.000000 0.537482 0.000000
0.000000 0.537401 0.000000
0.000000 0.537161 0.000000
0.000000 0.539876 0.000000
0.000000 0.539806 0.000000
0.000000 0.539458 0.000000
0.000000 0.538840 0.000000
0.000000 0.538066 0.000000
0.000000 0.540205 0.000000
0.000000 0.541349 0.000000
0.211278 0.538199 0.000000
0.391132 0.532922 0.000000
0.501204 0.529692 0.000000
0.630606 0.506635 0.000000
0.721530 0.464786 0.000000
0.770913 0.453842 0.000000
0.825670 0.469800 0.000000
0.889573 0.465055 0.000000
0.945161 0.466000 0.000000
0.988340 0.470590 0.000000
1.000000 0.476054 0.118196
1.000000 0.489850 0.194570
1.000000 0.540012 0.257848
1.000000 0.605238 0.334379
1.000000 0.668341 0.411186
1.000000 0.724233 0.486466
1.000000 0.778265 0.568258
1.000000 0.822925 0.650629
1.000000 0.863292 0.718655
1.000000 0.896006 0.781159
1.000000 0.923711 0.834465
0.000000 0.608858 0.000000
0.000000 0.608829 0.000000
0.000000 0.608772 0.000000
0.000000 0.611507 0.000000
0.000000 0.611445 0.000000
0.000000 0.611413 0.000000
0.000000 0.611100 0.000000
0.000000 0.614002 0.000000
0.000000 0.613268 0.000000
0.000000 0.615491 0.000000
0.000000 0.614370 0.000000
0.000000 0.612678 0.000000
0.000000 0.613177 0.000000
0.285523 0.612173 0.000000
0.443263 0.603614 0.000000
0.585875 0.598064 0.000000
0.696516 0.578192 0.000000
0.776039 0.536141 0.000000
0.830993 0.530947 0.000000
0.891639 0.537106 0.000000
0.940899 0.546570 0.000000
0.982928 0.550269 0.000000
1.000000 0.556125 0.068965
1.000000 0.563335 0.181955
1.000000 0.588493 0.257754
1.000000 0.635124 0.335026
1.000000 0.683280 0.413595
1.000000 0.734361 0.489454
1.000000 0.784021 0.571137
1.000000 0.826063 0.653496
1.000000 0.865514 0.718745
1.000000 0.897254 0.782121
1.000000 0.924341 0.834496
0.000000 0.693254 0.000000
0.000000 0.692980 0.000000
0.000000 0.692936 0.000000
0.000000 0.692387 0.000000
0.000000 0.692341 0.000000
0.000000 0.692245 0.000000
0.000000 0.691918 0.000000
0.000000 0.694584 0.000000
0.000000 0.693739 0.000000
0.000000 0.693430 0.000000
0.000000 0.692650 0.000000
0.000000 0.691120 0.000000
0.000000 0.688321 0.000000
0.130964 0.688284 0.000000
0.370966 0.686269 0.000000
0.514277 0.679489 0.000000
0.644807 0.670466 0.000000
0.764250 0.656100 0.000000
0.839813 0.615043 0.000000
0.886899 0.614123 0.000000
0.929623 0.631931 0.000000
0.973861 0.636491 0.000000
1.000000 0.641155 0.000000
1.000000 0.645841 0.165948
1.000000 0.655589 0.249522
1.000000 0.670071 0.332933
1.000000 0.703151 0.413334
1.000000 0.745813 0.486208
1.000000 0.791730 0.572046
1.000000 0.830943 0.654615
1.000000 0.868152 0.719908
1.000000 0.898086 0.782161
1.000000 0.924970 0.834528
0.000000 0.761168 0.000000
0.000000 0.761103 0.000000
0.000000 0.760971 0.000000
0.000000 0.760971 0.000000
0.000000 0.760690 0.000000
0.000000 0.760690 0.000000
0.000000 0.763271 0.000000
0.000000 0.762846 0.000000
0.000000 0.762275 0.000000
0.000000 0.761882 0.000000
0.000000 0.763884 0.000000
0.000000 0.762807 0.000000
0.000000 0.761328 0.000000
0.000000 0.758303 0.000000
0.324763 0.759587 0.000000
0.468549 0.754278 0.000000
0.580349 0.750617 0.000000
0.712076 0.740541 0.000000
0.816051 0.727069 0.000000
0.883202 0.681273 0.000000
0.926864 0.683942 0.000000
0.961754 0.704202 0.000000
0.997296 0.705286 0.000000
1.000000 0.714239 0.145517
1.000000 0.716549 0.245941
1.000000 0.722216 0.330507
1.000000 0.734690 0.412372
1.000000 0.766069 0.486694
1.000000 0.802546 0.572598
1.000000 0.839492 0.654883
1.000000 0.870296 0.720014
1.000000 0.899745 0.782244
1.000000 0.926221 0.834594
0.000000 0.823149 0.000000
0.000000 0.822956 0.000000
0.000000 0.822956 0.000000
0.000000 0.822858 0.000000
0.000000 0.822858 0.000000
0.000000 0.822858 0.000000
0.000000 0.822759 0.000000
0.000000 0.822658 0.000000
0.000000 0.822098 0.000000
0.000000 0.821888 0.000000
0.000000 0.823302 0.000000
0.000000 0.822367 0.000000
0.000000 0.823075 0.000000
0.114744 0.822281 0.000000
0.289998 0.821262 0.000000
0.457121 0.817302 0.000000
0.561007 0.811783 0.000000
0.675834 0.804696 0.000000
0.789777 0.796040 0.000000
0.863567 0.784462 0.000000
0.916415 0.750859 0.000000
0.950416 0.752490 0.000000
0.984714 0.767121 0.000000
1.000000 0.771598 0.049650
1.000000 0.775012 0.240234
1.000000 0.776392 0.330625
1.000000 0.778991 0.416233
1.000000 0.790739 0.490976
1.000000 0.819973 0.576798
1.000000 0.848073 0.658515
1.000000 0.876851 0.723196
1.000000 0.903035 0.782428
1.000000 0.927804 0.835511
0.000000 0.867448 0.000000
0.000000 0.867448 0.000000
0.000000 0.867316 0.000000
0.000000 0.867316 0.000000
0.000000 0.867316 0.000000
0.000000 0.868854 0.000000
0.000000 0.868854 0.000000
0.000000 0.868720 0.000000
0.000000 0.868585 0.000000
0.000000 0.868029 0.000000
0.000000 0.867447 0.000000
0.000000 0.868380 0.000000
0.177513 0.867621 0.000000
0.268733 0.868175 0.000000
0.359345 0.867584 0.000000
0.461822 0.864465 0.000000
0.546437 0.861105 0.000000
0.659010 0.856924 0.000000
0.767163 0.849759 0.000000
0.843842 0.843254 0.000000
0.901570 0.834830 0.000000
0.938418 0.811478 0.000000
0.970895 0.808201 0.000000
0.999579 0.819128 0.000000
1.000000 0.823974 0.216560
1.000000 0.825453 0.327304
1.000000 0.827168 0.426562
1.000000 0.832498 0.502796
1.000000 0.845074 0.578624
1.000000 0.861234 0.657652
1.000000 0.883812 0.723721
1.000000 0.905815 0.783511
1.000000 0.930237 0.835664
0.223770 0.908737 0.000000
0.223770 0.908737 0.000000
0.223770 0.908737 0.000000
0.223770 0.908737 0.000000
0.223770 0.908737 0.000000
0.239921 0.908578 0.000000
0.239096 0.908465 0.000000
0.239096 0.908465 0.000000
0.250926 0.909545 0.000000
0.265052 0.909383 0.000000
0.277605 0.909109 0.000000
0.312284 0.908390 0.000000
0.352833 0.907486 0.000000
0.395664 0.907624 0.000000
0.441480 0.907430 0.000000
0.502211 0.907706 0.000000
0.589638 0.904848 0.000000
0.669337 0.900743 0.000000
0.741614 0.897521 0.000000
0.815538 0.892788 0.000000
0.880065 0.887032 0.000000
0.925099 0.881811 0.000000
0.959592 0.862134 0.000000
0.989069 0.858213 0.000000
1.000000 0.867191 0.180526
1.000000 0.867583 0.319397
1.000000 0.869161 0.435885
1.000000 0.869944 0.515400
1.000000 0.872837 0.592650
1.000000 0.879239 0.663768
1.000000 0.893820 0.727913
1.000000 0.911758 0.786523
1.000000 0.934754 0.838099
0.417702 0.934716 0.120248
0.417702 0.934716 0.120248
0.417702 0.934716 0.120248
0.417702 0.934716 0.120248
0.417702 0.934716 0.120248
0.417702 0.934716 0.120248
0.425874 0.934536 0.120475
0.425874 0.934536 0.120475
0.425874 0.934536 0.120475
0.433889 0.934355 0.120705
0.441273 0.934084 0.115222
0.456628 0.933715 0.115726
0.476728 0.935119 0.120781
0.497555 0.934459 0.115924
0.535903 0.933042 0.099028
0.581184 0.932126 0.073842
0.632960 0.931081 0.074933
0.694570 0.928989 0.009119
0.750650 0.925985 0.000000
0.802155 0.923617 0.000000
0.866432 0.918353 0.000000
0.908904 0.914527 0.000000
0.954812 0.908994 0.000000
0.980099 0.894037 0.000000
1.000000 0.893040 0.000000
1.000000 0.899126 0.303187
1.000000 0.897107 0.423610
1.000000 0.897999 0.523668
1.000000 0.898747 0.602858
1.000000 0.901419 0.677335
1.000000 0.907082 0.735378
1.000000 0.920314 0.789368
1.000000 0.939310 0.838514
0.584460 0.957130 0.290826
0.584460 0.957130 0.290826
0.584460 0.957130 0.290826
0.584460 0.957130 0.290826
0.584460 0.957130 0.290826
0.584460 0.957130 0.290826
0.589830 0.956948 0.290947
0.589830 0.956948 0.290947
0.589830 0.956948 0.290947
0.595129 0.956766 0.291071
0.600359 0.956584 0.291195
0.604854 0.956269 0.285391
0.614995 0.955905 0.285656
0.624304 0.956311 0.287214
0.638352 0.955705 0.284691
0.656383 0.954926 0.282345
0.689272 0.954163 0.279141
0.718462 0.953317 0.270405
0.753964 0.952828 0.264290
0.804174 0.950078 0.260432
0.848031 0.947893 0.248951
0.898901 0.943265 0.227857
0.937308 0.940052 0.217361
0.971821 0.937068 0.198855
0.994933 0.925145 0.106601
1.000000 0.921692 0.235696
1.000000 0.926090 0.407791
1.000000 0.925385 0.519544
1.000000 0.926655 0.610110
1.000000 0.926643 0.691903
1.000000 0.929439 0.745779
1.000000 0.933245 0.793480
1.000000 0.945601 0.841281
0.684999 0.974609 0.404665
0.684999 0.974609 0.404665
0.684999 0.974609 0.404665
0.684757 0.974560 0.402062
0.684757 0.974560 0.402062
0.684757 0.974560 0.402062
0.684757 0.974560 0.402062
