Assets/Lutify-Free-LUTs-Pack/Lutify Free LUTs Pack/Colour Film Boost Pro - Film Boost 10/Lutify.me-FilmBoost10-BMDFilmGen4-to-Rec709.cube
# Created with: fylm.ai - Colour Grading and Collaboration Software in Cloud 
# Website: https://fylm.ai 
# META
# Option: Gamut compress
# Block 1: IDT | BMD Wide Gamut BMDFilm Gen 4
# Block 2: colourMatch | Blending Mode: Normal | {"ColorSpace":0,"CrossCovarianceLimit":50,"ReshapingIterations":1,"PercentSaturationShift":100,"PercentShadingShift":100,"ExtraShading":true,"PercentTint":100,"PercentModified":100}
# Block 3: subtractiveColour | Blending Mode: Normal | {"sliders":{"gainY":0.55,"C":0.3,"M":0.3,"Y":0.3}}
# Block 4: LUT | Filmic Curve Response: Low Contrast 2 (100%)
# Block 5: logPrimaries | Blending Mode: Normal | {"wheels":{"shadows":{"Y":"0","R":"1","G":"1","B":"1"},"midtones":{"Y":"0","R":"1","G":"1","B":"1"},"highlights":{"Y":"0","R":"1","G":"1","B":"1"},"offset":{"Y":"0","R":"1","G":"1","B":"1"}},"sliders":{"shadows":{"Y":0,"R":-0.085,"G":0.024,"B":0.134},"midtones":{"Y":0,"R":0,"G":-0.023,"B":0},"highlights":{"Y":0,"R":0,"G":0,"B":0},"offset":{"Y":0,"R":0.012,"G":-0.012,"B":0}}}
# Block 6: HSL | Blending Mode: Normal | {"hue":{"Reds":0,"Yellows":0,"Greens":0,"Cyans":0,"Blues":0,"Magentas":0},"saturation":{"Reds":1,"Yellows":1,"Greens":1,"Cyans":1,"Blues":1,"Magentas":1},"luminance":{"Reds":0.9,"Yellows":0.9,"Greens":0.9,"Cyans":0.9,"Blues":0.9,"Magentas":0.9},"lum_sat":{"Blacks":1,"Shadows":1,"Midtones":1,"Highlights":1,"Whites":1},"sat_sat":{"10":1,"20":1,"30":1,"40":1,"50":1}}
# Block 7: ODT | Rec709
TITLE "Lutify.me-FilmBoost10-BMDFilmGen4-to-Rec709" 
LUT_3D_SIZE 33
0.000000 0.000000 0.000000
0.000000 0.000000 0.000000
0.000000 0.000000 0.000000
0.019235 0.000000 0.000000
0.065092 0.000000 0.000000
0.093858 0.000000 0.000000
0.117509 0.000000 0.000000
0.140837 0.000000 0.000000
0.165598 0.000000 0.000000
0.192919 0.000000 0.000000
0.219967 0.000000 0.000000
0.251299 0.000000 0.000000
0.280353 0.000000 0.000000
0.309696 0.000000 0.000000
0.346546 0.000000 0.000000
0.384661 0.000000 0.000000
0.414907 0.000000 0.000000
0.453364 0.000000 0.000000
0.490157 0.000000 0.000000
0.538449 0.000000 0.000000
0.586936 0.000000 0.000000
0.623317 0.000000 0.000000
0.667111 0.000000 0.000000
0.708842 0.000000 0.000000
0.758402 0.000000 0.000000
0.804953 0.000000 0.015378
0.850489 0.000000 0.035163
0.889997 0.000000 0.051524
0.925792 0.000000 0.068313
0.957383 0.000000 0.086096
0.984460 0.000000 0.104450
1.000000 0.067505 0.124637
1.000000 0.174230 0.146923
0.000000 0.000000 0.000000
0.000000 0.000000 0.000000
0.000000 0.000000 0.000000
0.037296 0.000000 0.000000
0.071965 0.000000 0.000000
0.103666 0.000000 0.000000
0.124511 0.000000 0.000000
0.150827 0.000000 0.000000
0.175770 0.000000 0.000000
0.201010 0.000000 0.000000
0.229423 0.000000 0.000000
0.260232 0.000000 0.000000
0.288754 0.000000 0.000000
0.317089 0.000000 0.000000
0.352844 0.000000 0.000000
0.387060 0.000000 0.000000
0.417512 0.000000 0.000000
0.456201 0.000000 0.000000
0.493405 0.000000 0.000000
0.541500 0.000000 0.000000
0.590064 0.000000 0.000000
0.629823 0.000000 0.000000
0.670544 0.000000 0.000000
0.712298 0.000000 0.000000
0.758385 0.000000 0.000000
0.804925 0.000000 0.011469
0.850436 0.000000 0.033822
0.889952 0.000000 0.051013
0.925652 0.000000 0.067400
0.957184 0.000000 0.085270
0.984460 0.000000 0.104450
1.000000 0.082849 0.124263
1.000000 0.174230 0.146923
0.000000 0.001479 0.000000
0.000000 0.007622 0.000000
0.000000 0.015300 0.000000
0.054007 0.000000 0.000000
0.087189 0.000000 0.000000
0.114633 0.000000 0.000000
0.134688 0.000000 0.000000
0.161371 0.000000 0.000000
0.186086 0.000000 0.000000
0.210523 0.000000 0.000000
0.237066 0.000000 0.000000
0.265339 0.000000 0.000000
0.295574 0.000000 0.000000
0.324663 0.000000 0.000000
0.359328 0.000000 0.000000
0.394257 0.000000 0.000000
0.425319 0.000000 0.000000
0.459299 0.000000 0.000000
0.496512 0.000000 0.000000
0.548029 0.000000 0.000000
0.593431 0.000000 0.000000
0.633245 0.000000 0.000000
0.673740 0.000000 0.000000
0.712303 0.000000 0.000000
0.761834 0.000000 0.000000
0.808340 0.000000 0.000000
0.854201 0.000000 0.034940
0.889861 0.000000 0.049943
0.925581 0.000000 0.066924
0.959512 0.000000 0.084963
0.984190 0.000000 0.103667
1.000000 0.082849 0.124263
1.000000 0.185723 0.146168
0.000000 0.046114 0.000000
0.000000 0.048242 0.000000
0.000000 0.051139 0.000000
0.045591 0.051379 0.000000
0.082139 0.042133 0.000000
0.119106 0.026254 0.000000
0.143877 0.000000 0.000000
0.172491 0.000000 0.000000
0.200933 0.000000 0.000000
0.225308 0.000000 0.000000
0.252366 0.000000 0.000000
0.275534 0.000000 0.000000
0.300822 0.000000 0.000000
0.332548 0.000000 0.000000
0.363791 0.000000 0.000000
0.396773 0.000000 0.000000
0.428032 0.000000 0.000000
0.464928 0.000000 0.000000
0.505524 0.000000 0.000000
0.551357 0.000000 0.000000
0.593513 0.000000 0.000000
0.636675 0.000000 0.000000
0.677188 0.000000 0.000000
0.715497 0.000000 0.000000
0.761815 0.000000 0.000000
0.808325 0.000000 0.000000
0.854114 0.000000 0.032681
0.889720 0.000000 0.048203
0.925435 0.000000 0.065937
0.959408 0.000000 0.084524
0.984051 0.000000 0.103263
1.000000 0.095163 0.123879
1.000000 0.185723 0.146168
0.000000 0.066442 0.000000
0.000000 0.069715 0.000000
0.000000 0.074892 0.000000
0.000000 0.077760 0.000000
0.081786 0.072789 0.000000
0.118116 0.062849 0.000000
0.153039 0.049766 0.000000
0.183289 0.026200 0.000000
0.212282 0.000000 0.000000
0.236929 0.000000 0.000000
0.263896 0.000000 0.000000
0.288843 0.000000 0.000000
0.309938 0.000000 0.000000
0.340752 0.000000 0.000000
0.370599 0.000000 0.000000
0.401635 0.000000 0.000000
0.435990 0.000000 0.000000
0.470906 0.000000 0.000000
0.511559 0.000000 0.000000
0.554748 0.000000 0.000000
0.597144 0.000000 0.000000
0.640114 0.000000 0.000000
0.677226 0.000000 0.000000
0.718955 0.000000 0.000000
0.765259 0.000000 0.000000
0.811750 0.000000 0.000000
0.857300 0.000000 0.029876
0.892609 0.000000 0.046272
0.924810 0.000000 0.062145
0.959194 0.000000 0.083614
0.983911 0.000000 0.102849
1.000000 0.115138 0.123086
1.000000 0.191243 0.145778
0.000000 0.090435 0.000000
0.000000 0.095177 0.000000
0.000000 0.098798 0.000000
0.000000 0.102086 0.000000
0.069083 0.100516 0.000000
0.121162 0.095288 0.000000
0.157963 0.082655 0.000000
0.193833 0.069523 0.000000
0.219984 0.059957 0.000000
0.247849 0.035278 0.000000
0.272502 0.000000 0.000000
0.297752 0.000000 0.000000
0.323423 0.000000 0.000000
0.360044 0.000000 0.000000
0.387082 0.000000 0.000000
0.412006 0.000000 0.000000
0.439066 0.000000 0.000000
0.476912 0.000000 0.000000
0.514866 0.000000 0.000000
0.561388 0.000000 0.000000
0.600816 0.000000 0.000000
0.640444 0.000000 0.000000
0.680944 0.000000 0.000000
0.719224 0.000000 0.000000
0.768706 0.000000 0.000000
0.815137 0.000000 0.000000
0.857204 0.000000 0.026665
0.892455 0.000000 0.044115
0.932822 0.000000 0.061227
0.959085 0.000000 0.083142
0.985768 0.000000 0.102148
1.000000 0.123706 0.122678
1.000000 0.196634 0.145380
0.000000 0.114287 0.000000
0.000000 0.119382 0.000000
0.000000 0.123701 0.000000
0.000000 0.131864 0.000000
0.000000 0.130871 0.000000
0.107830 0.130793 0.000000
0.157872 0.120514 0.000000
0.198231 0.107508 0.000000
0.232682 0.095290 0.000000
0.261183 0.080312 0.000000
0.286140 0.065037 0.000000
0.311019 0.043064 0.000000
0.337969 0.000000 0.000000
0.365293 0.000000 0.000000
0.397378 0.000000 0.000000
0.425465 0.000000 0.000000
0.456008 0.000000 0.000000
0.480191 0.000000 0.000000
0.521534 0.000000 0.000000
0.564669 0.000000 0.000000
0.604329 0.000000 0.000000
0.647551 0.000000 0.000000
0.681260 0.000000 0.000000
0.722682 0.000000 0.000000
0.768923 0.000000 0.000000
0.815050 0.000000 0.000000
0.860322 0.000000 0.020640
0.895248 0.000000 0.040799
0.932577 0.000000 0.059339
0.958862 0.000000 0.082162
0.985245 0.000000 0.098947
1.000000 0.130902 0.119339
1.000000 0.202503 0.148063
0.000000 0.139882 0.000000
0.000000 0.148505 0.000000
0.000000 0.152101 0.000000
0.000000 0.158659 0.000000
0.000000 0.158000 0.000000
0.088331 0.157546 0.000000
0.152390 0.157315 0.000000
0.199572 0.146165 0.000000
0.237987 0.129225 0.000000
0.268334 0.116180 0.000000
0.293389 0.103973 0.000000
0.319438 0.092044 0.000000
0.347406 0.077567 0.000000
0.375457 0.052990 0.000000
0.403464 0.000000 0.000000
0.431564 0.000000 0.000000
0.465544 0.000000 0.000000
0.495800 0.000000 0.000000
0.525022 0.000000 0.000000
0.571602 0.000000 0.000000
0.607685 0.000000 0.000000
0.651093 0.000000 0.000000
0.684775 0.000000 0.000000
0.729844 0.000000 0.000000
0.772340 0.000000 0.000000
0.818959 0.000000 0.000000
0.860109 0.000000 0.000000
0.898001 0.000000 0.036791
0.932409 0.000000 0.057974
0.963108 0.000000 0.079176
0.984791 0.000000 0.097497
1.000000 0.145416 0.118443
1.000000 0.211956 0.147635
0.000000 0.167471 0.000000
0.000000 0.174941 0.000000
0.000000 0.176149 0.000000
0.000000 0.185138 0.000000
0.000000 0.186021 0.000000
0.000000 0.184867 0.000000
0.138048 0.185337 0.000000
0.198860 0.177968 0.000000
0.242988 0.163292 0.000000
0.277254 0.152915 0.000000
0.303683 0.140096 0.000000
0.327894 0.126595 0.000000
0.359422 0.117048 0.000000
0.390974 0.101539 0.000000
0.415161 0.087421 0.000000
0.443834 0.067454 0.000000
0.478420 0.000000 0.000000
0.508987 0.000000 0.000000
0.545121 0.000000 0.000000
0.578770 0.000000 0.000000
0.614612 0.000000 0.000000
0.654506 0.000000 0.000000
0.691707 0.000000 0.000000
0.730375 0.000000 0.000000
0.775737 0.000000 0.000000
0.818823 0.000000 0.000000
0.863364 0.000000 0.000000
0.898006 0.000000 0.034192
0.932514 0.000000 0.058187
0.963162 0.000000 0.080318
0.984316 0.084052 0.095936
1.000000 0.162159 0.117600
1.000000 0.221892 0.146787
0.000000 0.196389 0.000000
0.000000 0.200729 0.000000
0.000000 0.200617 0.000000
0.000000 0.210653 0.000000
0.000000 0.211760 0.000000
0.000000 0.210395 0.000000
0.118225 0.207888 0.000000
0.186728 0.207274 0.000000
0.242137 0.196998 0.000000
0.276730 0.185701 0.000000
0.313041 0.171484 0.000000
0.339884 0.161162 0.000000
0.369225 0.149224 0.000000
0.402114 0.134589 0.000000
0.429581 0.121135 0.000000
0.459076 0.108334 0.000000
0.488425 0.092755 0.000000
0.516330 0.068424 0.000000
0.555565 0.000000 0.000000
0.586158 0.000000 0.000000
0.621475 0.000000 0.000000
0.661379 0.000000 0.000000
0.695042 0.000000 0.000000
0.733332 0.000000 0.000000
0.776210 0.000000 0.000000
0.822100 0.000000 0.000000
0.863072 0.000000 0.000000
0.900632 0.000000 0.026003
0.934892 0.000000 0.055919
0.962660 0.000000 0.077966
0.984357 0.106644 0.097752
1.000000 0.174117 0.116602
1.000000 0.236273 0.145443
0.000000 0.227398 0.000000
0.000000 0.228802 0.000000
0.000000 0.228611 0.000000
0.000000 0.235884 0.000000
0.000000 0.236902 0.000000
0.000000 0.235815 0.000000
0.084253 0.233757 0.000000
0.164872 0.235931 0.000000
0.232501 0.233579 0.000000
0.274559 0.221841 0.000000
0.311335 0.206195 0.000000
0.351541 0.188840 0.000000
0.385933 0.178216 0.000000
0.416036 0.165563 0.000000
0.442288 0.158409 0.000000
0.466973 0.148773 0.000000
0.496086 0.138777 0.000000
0.524501 0.128447 0.000000
0.566248 0.101824 0.000000
0.596934 0.078930 0.000000
0.632288 0.000000 0.000000
0.665431 0.000000 0.000000
0.702444 0.000000 0.000000
0.740816 0.000000 0.000000
0.779568 0.000000 0.000000
0.825805 0.000000 0.000000
0.865892 0.000000 0.000000
0.900698 0.000000 0.018434
0.934393 0.000000 0.051284
0.964464 0.000000 0.075492
0.988072 0.128581 0.096412
1.000000 0.190775 0.115013
1.000000 0.245576 0.144497
0.000000 0.255455 0.000000
0.000000 0.255358 0.000000
0.000000 0.256867 0.000000
0.000000 0.261663 0.000000
0.000000 0.261223 0.000000
0.000000 0.262058 0.000000
0.000000 0.260434 0.000000
0.142911 0.259919 0.000000
0.213924 0.258588 0.000000
0.268422 0.254764 0.000000
0.310504 0.243863 0.000000
0.358394 0.227322 0.000000
0.394211 0.215364 0.000000
0.429978 0.206337 0.000000
0.452369 0.197418 0.000000
0.483856 0.189747 0.000000
0.510223 0.180670 0.000000
0.544694 0.166909 0.000000
0.574276 0.157929 0.000000
0.614393 0.139869 0.000000
0.646431 0.128476 0.000000
0.676397 0.112272 0.000000
0.706506 0.100682 0.000000
0.748131 0.062704 0.000000
0.790030 0.000000 0.000000
0.835588 0.000000 0.000000
0.869203 0.000000 0.000000
0.903224 0.000000 0.000000
0.936921 0.000000 0.049888
0.964141 0.099048 0.074974
0.987342 0.155930 0.093947
1.000000 0.201783 0.117007
1.000000 0.254411 0.143716
0.000000 0.279476 0.000000
0.000000 0.283035 0.000000
0.000000 0.286594 0.000000
0.000000 0.290126 0.000000
0.000000 0.289769 0.000000
0.000000 0.290862 0.000000
0.000000 0.293413 0.000000
0.099412 0.291635 0.000000
0.186673 0.291257 0.000000
0.245605 0.288500 0.000000
0.311746 0.283301 0.000000
0.360529 0.264452 0.000000
0.399983 0.254316 0.000000
0.436929 0.239582 0.000000
0.470159 0.228888 0.000000
0.497304 0.223339 0.000000
0.521538 0.218081 0.000000
0.555734 0.208138 0.000000
0.588190 0.195747 0.000000
0.618994 0.188043 0.000000
0.656531 0.173474 0.000000
0.690448 0.162498 0.000000
0.720284 0.150496 0.000000
0.751810 0.140510 0.000000
0.793905 0.115269 0.000000
0.838018 0.068144 0.000000
0.871741 0.051504 0.000000
0.905893 0.052536 0.000000
0.938672 0.098114 0.040055
0.965658 0.137465 0.071000
0.989009 0.178767 0.094596
1.000000 0.225804 0.114269
1.000000 0.272206 0.141608
0.000000 0.307842 0.000000
0.000000 0.313808 0.000000
0.000000 0.317791 0.000000
0.000000 0.319674 0.000000
0.000000 0.319312 0.000000
0.000000 0.324986 0.000000
0.000000 0.324103 0.000000
0.000000 0.322772 0.000000
0.148653 0.322851 0.000000
0.220646 0.320559 0.000000
0.287630 0.317200 0.000000
0.350344 0.311727 0.000000
0.396772 0.294175 0.000000
0.441584 0.275991 0.000000
0.481020 0.264938 0.000000
0.513010 0.252133 0.000000
0.541084 0.246571 0.000000
0.566025 0.243729 0.000000
0.598949 0.235076 0.000000
0.629567 0.229158 0.000000
0.663872 0.218790 0.000000
0.697183 0.211528 0.000000
0.730545 0.196628 0.000000
0.764649 0.193178 0.000000
0.799847 0.182105 0.000000
0.840666 0.165603 0.000000
0.873432 0.151229 0.000000
0.907273 0.140011 0.000000
0.938022 0.155436 0.027895
0.964454 0.178962 0.063784
0.987961 0.204692 0.090896
1.000000 0.248837 0.110932
1.000000 0.289352 0.139335
0.000000 0.339181 0.000000
0.000000 0.341309 0.000000
0.000000 0.347916 0.000000
0.000000 0.349996 0.000000
0.000000 0.351939 0.000000
0.000000 0.351361 0.000000
0.000000 0.350718 0.000000
0.000000 0.349574 0.000000
0.097520 0.347873 0.000000
0.192419 0.348255 0.000000
0.266262 0.347784 0.000000
0.334947 0.343969 0.000000
0.396881 0.335278 0.000000
0.450550 0.315722 0.000000
0.482289 0.308618 0.000000
0.520642 0.292335 0.000000
0.550371 0.281994 0.000000
0.579269 0.273903 0.000000
0.605552 0.271853 0.000000
0.645743 0.264776 0.000000
0.667842 0.261986 0.000000
0.703561 0.252944 0.000000
0.740286 0.239952 0.000000
0.770898 0.233865 0.000000
0.805978 0.226316 0.000000
0.846898 0.215832 0.000000
0.875377 0.208235 0.000000
0.908398 0.207657 0.000000
0.938589 0.204346 0.000000
0.965530 0.217648 0.057561
0.988169 0.241357 0.083920
1.000000 0.270964 0.110854
1.000000 0.305726 0.137121
0.000000 0.368955 0.000000
0.000000 0.373706 0.000000
0.000000 0.376004 0.000000
0.000000 0.375818 0.000000
0.000000 0.377974 0.000000
0.000000 0.377503 0.000000
0.000000 0.376953 0.000000
0.000000 0.381075 0.000000
0.000000 0.379603 0.000000
0.150146 0.380446 0.000000
0.239946 0.378074 0.000000
0.315826 0.375115 0.000000
0.382720 0.371403 0.000000
0.446813 0.355782 0.000000
0.488779 0.344757 0.000000
0.525927 0.331095 0.000000
0.568188 0.313267 0.000000
0.594732 0.308572 0.000000
0.617700 0.298711 0.000000
0.655010 0.295675 0.000000
0.677078 0.296312 0.000000
0.709147 0.288922 0.000000
0.746125 0.283976 0.000000
0.779612 0.275702 0.000000
0.811379 0.271667 0.000000
0.848132 0.265565 0.000000
0.883291 0.256152 0.000000
0.909376 0.255812 0.000000
0.941323 0.254314 0.000000
0.965728 0.256435 0.038289
0.988430 0.275921 0.079048
1.000000 0.300122 0.105190
1.000000 0.329864 0.133105
0.000000 0.402019 0.000000
0.000000 0.404558 0.000000
0.000000 0.406897 0.000000
0.000000 0.406702 0.000000
0.000000 0.411590 0.000000
0.000000 0.411220 0.000000
0.000000 0.410515 0.000000
0.000000 0.412319 0.000000
0.000000 0.414069 0.000000
0.017542 0.412881 0.000000
0.199256 0.413866 0.000000
0.286907 0.408632 0.000000
0.359344 0.405496 0.000000
0.434714 0.400114 0.000000
0.485960 0.382187 0.000000
0.535474 0.372540 0.000000
0.569695 0.358562 0.000000
0.606128 0.337923 0.000000
0.636172 0.335631 0.000000
0.659934 0.322684 0.000000
0.691585 0.330993 0.000000
0.714447 0.329561 0.000000
0.748292 0.326769 0.000000
0.784972 0.319293 0.000000
0.816152 0.313482 0.000000
0.851906 0.309395 0.000000
0.886556 0.306452 0.000000
0.912129 0.308303 0.000000
0.941131 0.306118 0.000000
0.964950 0.309795 0.000000
0.987918 0.312680 0.068251
1.000000 0.332454 0.099146
1.000000 0.353592 0.132626
0.000000 0.440321 0.000000
0.000000 0.440243 0.000000
0.000000 0.442938 0.000000
0.000000 0.445432 0.000000
0.000000 0.445039 0.000000
0.000000 0.444764 0.000000
0.000000 0.444353 0.000000
0.000000 0.446390 0.000000
0.000000 0.448162 0.000000
0.000000 0.449923 0.000000
0.092656 0.448446 0.000000
0.245757 0.446082 0.000000
0.330834 0.440469 0.000000
0.408079 0.436806 0.000000
0.480590 0.430775 0.000000
0.525816 0.422290 0.000000
0.562489 0.411334 0.000000
0.606565 0.389506 0.000000
0.650070 0.373202 0.000000
0.673927 0.369162 0.000000
0.695089 0.366448 0.000000
0.731324 0.373048 0.000000
0.754979 0.372474 0.000000
0.786427 0.371570 0.000000
0.829076 0.364381 0.000000
0.860386 0.355323 0.000000
0.888509 0.355451 0.000000
0.919398 0.354514 0.000000
0.939727 0.362928 0.000000
0.964837 0.362711 0.000000
0.985688 0.362937 0.037550
1.000000 0.367105 0.090659
1.000000 0.380067 0.127203
0.000000 0.475149 0.000000
0.000000 0.477759 0.000000
0.000000 0.477665 0.000000
0.000000 0.480394 0.000000
0.000000 0.480055 0.000000
0.000000 0.479783 0.000000
0.000000 0.479258 0.000000
0.000000 0.484536 0.000000
0.000000 0.486734 0.000000
0.000000 0.488519 0.000000
0.000000 0.487280 0.000000
0.176866 0.485170 0.000000
0.284322 0.482702 0.000000
0.378633 0.476203 0.000000
0.448336 0.472331 0.000000
0.509741 0.467339 0.000000
0.559265 0.461491 0.000000
0.603422 0.440026 0.000000
0.650864 0.420521 0.000000
0.687641 0.405175 0.000000
0.711680 0.401223 0.000000
0.733813 0.402752 0.000000
0.760809 0.408599 0.000000
0.789587 0.412569 0.000000
0.829218 0.407350 0.000000
0.865940 0.394767 0.000000
0.892616 0.395273 0.000000
0.920378 0.396269 0.000000
0.944926 0.396977 0.000000
0.963265 0.399153 0.000000
0.983882 0.399939 0.000000
1.000000 0.400799 0.082832
1.000000 0.406537 0.125214
0.000000 0.511170 0.000000
0.000000 0.513841 0.000000
0.000000 0.513544 0.000000
0.000000 0.516203 0.000000
0.000000 0.515863 0.000000
0.000000 0.515479 0.000000
0.000000 0.515171 0.000000
0.000000 0.514643 0.000000
0.000000 0.516833 0.000000
0.000000 0.518894 0.000000
0.000000 0.520710 0.000000
0.057676 0.519069 0.000000
0.244992 0.516813 0.000000
0.334618 0.514016 0.000000
0.419001 0.507535 0.000000
0.478440 0.507083 0.000000
0.529343 0.509197 0.000000
0.600320 0.491197 0.000000
0.648490 0.468853 0.000000
0.689067 0.446870 0.000000
0.728913 0.434193 0.000000
0.745789 0.434765 0.000000
0.769670 0.437862 0.000000
0.797428 0.441548 0.000000
0.830791 0.445346 0.000000
0.867841 0.437992 0.000000
0.893713 0.435390 0.000000
0.920475 0.436964 0.000000
0.944213 0.438391 0.000000
0.966165 0.440432 0.000000
0.982591 0.442923 0.000000
1.000000 0.444570 0.055513
1.000000 0.446698 0.113743
0.000000 0.545106 0.000000
0.000000 0.548038 0.000000
0.000000 0.547514 0.000000
0.000000 0.550418 0.000000
0.000000 0.549897 0.000000
0.000000 0.549685 0.000000
0.000000 0.549209 0.000000
0.000000 0.548769 0.000000
0.000000 0.547978 0.000000
0.000000 0.552928 0.000000
0.000000 0.554774 0.000000
0.000000 0.556367 0.000000
0.169796 0.554321 0.000000
0.283940 0.552136 0.000000
0.381487 0.545826 0.000000
0.458270 0.542402 0.000000
0.508896 0.542214 0.000000
0.579840 0.539265 0.000000
0.641634 0.521396 0.000000
0.686722 0.495954 0.000000
0.730249 0.476607 0.000000
0.763733 0.458288 0.000000
0.780122 0.466068 0.000000
0.806557 0.476677 0.000000
0.830841 0.482876 0.000000
0.864740 0.480015 0.000000
0.891353 0.475285 0.000000
0.920191 0.473546 0.000000
0.943363 0.475758 0.000000
0.965110 0.478764 0.000000
0.984580 0.480649 0.000000
0.999251 0.483525 0.000000
1.000000 0.486035 0.099297
0.000000 0.579947 0.000000
0.000000 0.582856 0.000000
0.000000 0.582576 0.000000
0.000000 0.582241 0.000000
0.000000 0.585098 0.000000
0.000000 0.584707 0.000000
0.000000 0.584430 0.000000
0.000000 0.583948 0.000000
0.000000 0.583187 0.000000
0.000000 0.582360 0.000000
0.000000 0.584166 0.000000
0.000000 0.589054 0.000000
0.000000 0.590360 0.000000
0.226150 0.588066 0.000000
0.329521 0.585446 0.000000
0.405669 0.582619 0.000000
0.485798 0.575410 0.000000
0.556606 0.574336 0.000000
0.622638 0.571170 0.000000
0.672894 0.551057 0.000000
0.720219 0.527400 0.000000
0.756056 0.512451 0.000000
0.796556 0.489756 0.000000
0.812466 0.502334 0.000000
0.834804 0.511097 0.000000
0.863024 0.517301 0.000000
0.894783 0.516660 0.000000
0.918499 0.516913 0.000000
0.941435 0.516107 0.000000
0.962403 0.519077 0.000000
0.981861 0.522325 0.000000
0.999319 0.524854 0.000000
1.000000 0.527898 0.067646
0.000000 0.616011 0.000000
0.000000 0.619026 0.000000
0.000000 0.618664 0.000000
0.000000 0.618570 0.000000
0.000000 0.621233 0.000000
0.000000 0.620875 0.000000
0.000000 0.623475 0.000000
0.000000 0.622746 0.000000
0.000000 0.624873 0.000000
0.000000 0.624005 0.000000
0.000000 0.622942 0.000000
0.000000 0.621984 0.000000
0.000000 0.620157 0.000000
0.139891 0.624229 0.000000
0.279848 0.621721 0.000000
0.369252 0.619098 0.000000
0.455486 0.615903 0.000000
0.517366 0.612148 0.000000
0.595203 0.607184 0.000000
0.652054 0.604381 0.000000
0.705736 0.587096 0.000000
0.750361 0.560466 0.000000
0.787297 0.547839 0.000000
0.823880 0.519052 0.000000
0.840847 0.542884 0.000000
0.862722 0.549969 0.000000
0.891922 0.550173 0.000000
0.916891 0.557941 0.000000
0.938362 0.559628 0.000000
0.959358 0.559477 0.000000
0.978171 0.562834 0.000000
0.995493 0.566699 0.000000
1.000000 0.569264 0.000000
0.000000 0.658938 0.000000
0.000000 0.658872 0.000000
0.000000 0.658545 0.000000
0.000000 0.658138 0.000000
0.000000 0.660849 0.000000
0.000000 0.660461 0.000000
0.000000 0.659967 0.000000
0.000000 0.662332 0.000000
0.000000 0.661448 0.000000
0.000000 0.663779 0.000000
0.000000 0.662681 0.000000
0.000000 0.661691 0.000000
0.000000 0.660354 0.000000
0.000000 0.661613 0.000000
0.220285 0.659340 0.000000
0.320645 0.659714 0.000000
0.407183 0.656541 0.000000
0.481463 0.652836 0.000000
0.559642 0.648506 0.000000
0.623241 0.644477 0.000000
0.690955 0.637467 0.000000
0.733143 0.627659 0.000000
0.780244 0.600312 0.000000
0.815416 0.583798 0.000000
0.855963 0.554500 0.000000
0.868682 0.580442 0.000000
0.888145 0.592611 0.000000
0.912044 0.594566 0.000000
0.933321 0.600758 0.000000
0.952271 0.606030 0.000000
0.973206 0.606407 0.000000
0.989936 0.610554 0.000000
1.000000 0.609979 0.000000
0.000000 0.697349 0.000000
0.000000 0.696761 0.000000
0.000000 0.696674 0.000000
0.000000 0.696077 0.000000
0.000000 0.695703 0.000000
0.000000 0.695041 0.000000
0.000000 0.694539 0.000000
0.000000 0.694073 0.000000
0.000000 0.693686 0.000000
0.000000 0.692726 0.000000
0.000000 0.692155 0.000000
0.000000 0.691284 0.000000
0.000000 0.692393 0.000000
0.000000 0.693414 0.000000
0.104697 0.697583 0.000000
0.266919 0.695538 0.000000
0.377981 0.692748 0.000000
0.450398 0.692248 0.000000
0.518337 0.688839 0.000000
0.580552 0.684539 0.000000
0.654007 0.679369 0.000000
0.712781 0.673358 0.000000
0.768176 0.665395 0.000000
0.804102 0.641945 0.000000
0.842124 0.618242 0.000000
0.880150 0.594464 0.000000
0.884980 0.620202 0.000000
0.905341 0.634257 0.000000
0.928070 0.633586 0.000000
0.951422 0.640465 0.000000
0.968620 0.642134 0.000000
0.986301 0.646022 0.000000
1.000000 0.646962 0.000000
0.000000 0.726467 0.000000
0.000000 0.729301 0.000000
0.000000 0.728868 0.000000
0.000000 0.728813 0.000000
0.000000 0.728197 0.000000
0.000000 0.727796 0.000000
0.000000 0.730105 0.000000
