Assets/Lutify-Free-LUTs-Pack/Lutify Free LUTs Pack/Colour Film Boost Pro - Film Boost 10/Lutify.me-FilmBoost10-BolexLog-to-Rec709.cube
# Created with: fylm.ai - Colour Grading and Collaboration Software in Cloud 
# Website: https://fylm.ai 
# META
# Option: Gamut compress
# Block 1: IDT | Bolex Wide Gamut RGB Bolex Log
# Block 2: colourMatch | Blending Mode: Normal | {"ColorSpace":0,"CrossCovarianceLimit":50,"ReshapingIterations":1,"PercentSaturationShift":100,"PercentShadingShift":100,"ExtraShading":true,"PercentTint":100,"PercentModified":100}
# Block 3: subtractiveColour | Blending Mode: Normal | {"sliders":{"gainY":0.55,"C":0.3,"M":0.3,"Y":0.3}}
# Block 4: LUT | Filmic Curve Response: Low Contrast 2 (100%)
# Block 5: logPrimaries | Blending Mode: Normal | {"wheels":{"shadows":{"Y":"0","R":"1","G":"1","B":"1"},"midtones":{"Y":"0","R":"1","G":"1","B":"1"},"highlights":{"Y":"0","R":"1","G":"1","B":"1"},"offset":{"Y":"0","R":"1","G":"1","B":"1"}},"sliders":{"shadows":{"Y":0,"R":-0.085,"G":0.024,"B":0.134},"midtones":{"Y":0,"R":0,"G":-0.023,"B":0},"highlights":{"Y":0,"R":0,"G":0,"B":0},"offset":{"Y":0,"R":0.012,"G":-0.012,"B":0}}}
# Block 6: HSL | Blending Mode: Normal | {"hue":{"Reds":0,"Yellows":0,"Greens":0,"Cyans":0,"Blues":0,"Magentas":0},"saturation":{"Reds":1,"Yellows":1,"Greens":1,"Cyans":1,"Blues":1,"Magentas":1},"luminance":{"Reds":0.9,"Yellows":0.9,"Greens":0.9,"Cyans":0.9,"Blues":0.9,"Magentas":0.9},"lum_sat":{"Blacks":1,"Shadows":1,"Midtones":1,"Highlights":1,"Whites":1},"sat_sat":{"10":1,"20":1,"30":1,"40":1,"50":1}}
# Block 7: ODT | Rec709
TITLE "Lutify.me-FilmBoost10-BolexLog-to-Rec709" 
LUT_3D_SIZE 9
0.000000 0.000000 0.000000
0.000000 0.000000 0.000000
0.113766 0.000000 0.000000
0.223484 0.000000 0.000000
0.398904 0.000000 0.000000
0.658561 0.000000 0.036460
0.921830 0.000000 0.112606
1.000000 0.218991 0.259362
1.000000 0.535604 0.462169
0.000000 0.041214 0.000000
0.040859 0.045965 0.000000
0.140358 0.000000 0.000000
0.252409 0.000000 0.000000
0.412090 0.000000 0.000000
0.663335 0.000000 0.037956
0.924785 0.000000 0.113930
1.000000 0.229749 0.263235
1.000000 0.538755 0.462014
0.000000 0.109941 0.000000
0.000000 0.125222 0.000000
0.152010 0.112214 0.000000
0.289403 0.038182 0.000000
0.434184 0.000000 0.000000
0.671553 0.000000 0.037883
0.928363 0.000000 0.118573
1.000000 0.239427 0.262857
1.000000 0.545361 0.464700
0.000000 0.234810 0.000000
0.000000 0.245151 0.000000
0.000000 0.249119 0.000000
0.313326 0.224609 0.000000
0.490297 0.153173 0.000000
0.706916 0.000000 0.028985
0.936692 0.000000 0.124348
1.000000 0.272625 0.268032
1.000000 0.551671 0.464386
0.000000 0.427524 0.000000
0.000000 0.435275 0.000000
0.000000 0.441336 0.000000
0.000000 0.448060 0.000000
0.530150 0.412653 0.000000
0.757283 0.333728 0.000000
0.951617 0.227065 0.136628
1.000000 0.347918 0.275331
1.000000 0.574781 0.469515
0.000000 0.671812 0.000000
0.000000 0.674263 0.000000
0.000000 0.675663 0.000000
0.000000 0.681169 0.000000
0.358995 0.681276 0.000000
0.767241 0.657394 0.000000
0.948554 0.570336 0.137931
1.000000 0.509712 0.297750
1.000000 0.627469 0.482560
0.000000 0.857549 0.319513
0.000000 0.857253 0.319598
0.000000 0.856840 0.319716
0.000000 0.856348 0.309032
0.315583 0.855855 0.295560
0.674634 0.847123 0.278302
0.910552 0.830421 0.275068
1.000000 0.783978 0.376172
1.000000 0.742681 0.519697
0.409803 0.947465 0.579734
0.418458 0.947283 0.579758
0.435234 0.946913 0.579809
0.466889 0.946160 0.579915
0.535897 0.944165 0.576735
0.682908 0.941901 0.564791
0.848768 0.935006 0.556321
0.971568 0.928536 0.554610
1.000000 0.899774 0.624618
0.726067 0.992342 0.786450
0.729102 0.992210 0.786464
0.729008 0.992598 0.786624
0.734992 0.992336 0.786652
0.746660 0.991815 0.786711
0.779058 0.990232 0.782766
0.847032 0.987080 0.779640
0.926099 0.984275 0.775346
0.998858 0.979642 0.779353
0.000000 0.000000 0.034501
0.000000 0.000000 0.029206
0.105700 0.000000 0.000000
0.215508 0.000000 0.000000
0.398025 0.000000 0.021756
0.665451 0.000000 0.054542
0.923940 0.000000 0.121712
1.000000 0.220026 0.265536
1.000000 0.535906 0.465165
0.000000 0.023663 0.055817
0.014233 0.038631 0.052438
0.128934 0.000000 0.034705
0.242525 0.000000 0.014627
0.419085 0.000000 0.028944
0.670254 0.000000 0.056771
0.926868 0.000000 0.123233
1.000000 0.229974 0.265175
1.000000 0.539056 0.465011
0.000000 0.106563 0.057223
0.000000 0.123943 0.044117
0.132064 0.129993 0.034663
0.282498 0.048485 0.022765
0.437278 0.000000 0.031694
0.679612 0.000000 0.060946
0.930163 0.000000 0.127007
1.000000 0.240425 0.269135
1.000000 0.545361 0.464700
0.000000 0.236670 0.000000
0.000000 0.257499 0.000000
0.000000 0.266529 0.000000
0.294273 0.255782 0.000000
0.499369 0.159811 0.000000
0.707497 0.000000 0.060848
0.938552 0.000000 0.134672
1.000000 0.272939 0.270165
1.000000 0.551972 0.467395
0.000000 0.434006 0.000000
0.000000 0.447565 0.000000
0.000000 0.454527 0.000000
0.000000 0.461324 0.000000
0.531545 0.438374 0.000000
0.763729 0.338568 0.000000
0.953251 0.228870 0.149541
1.000000 0.348789 0.282117
1.000000 0.575383 0.475582
0.000000 0.675329 0.095500
0.000000 0.679193 0.093580
0.000000 0.680858 0.073435
0.000000 0.689355 0.000000
0.355055 0.686207 0.000000
0.771483 0.662253 0.000000
0.949528 0.572837 0.162916
1.000000 0.507028 0.305886
1.000000 0.627769 0.485638
0.000000 0.860059 0.333994
0.000000 0.859863 0.334048
0.000000 0.859349 0.334186
0.000000 0.857430 0.331004
0.317455 0.856719 0.313785
0.671298 0.848355 0.299677
0.910907 0.831119 0.288614
1.000000 0.784595 0.385812
1.000000 0.742915 0.522863
0.410511 0.947628 0.586718
0.410511 0.947628 0.586718
0.435921 0.947075 0.586791
0.459876 0.946511 0.586867
0.536453 0.944326 0.583698
0.678804 0.942162 0.568162
0.848894 0.935174 0.563021
0.971544 0.928623 0.557744
1.000000 0.899965 0.627671
0.726234 0.992373 0.788518
0.729268 0.992241 0.788531
0.729174 0.992629 0.788685
0.735153 0.992366 0.788712
0.746660 0.991815 0.786711
0.779058 0.990232 0.782766
0.847032 0.987080 0.779640
0.926099 0.984275 0.775346
0.998806 0.979681 0.781238
0.000000 0.000000 0.070855
0.000000 0.000000 0.062750
0.090684 0.000000 0.048692
0.211180 0.000000 0.042697
0.393281 0.000000 0.050223
0.664985 0.000000 0.073999
0.924496 0.000000 0.137110
1.000000 0.215982 0.272007
1.000000 0.536207 0.468168
0.000000 0.000000 0.102339
0.000000 0.000000 0.093605
0.106099 0.000000 0.079204
0.234277 0.000000 0.064327
0.416610 0.000000 0.059057
0.678436 0.000000 0.077586
0.927193 0.000000 0.137771
1.000000 0.231323 0.273623
1.000000 0.539357 0.468016
0.000000 0.087243 0.163763
0.000000 0.110438 0.154925
0.102733 0.126853 0.156642
0.284297 0.046473 0.106864
0.448368 0.000000 0.070580
0.688166 0.000000 0.084189
0.930663 0.000000 0.143233
1.000000 0.241090 0.273392
1.000000 0.539357 0.468016
0.000000 0.233656 0.172190
0.000000 0.257199 0.153589
0.000000 0.280866 0.144327
0.284309 0.280567 0.130970
0.511795 0.170747 0.086915
0.712983 0.000000 0.091822
0.942237 0.000000 0.155499
1.000000 0.274193 0.278844
1.000000 0.552273 0.470413
0.000000 0.433130 0.133213
0.000000 0.454731 0.112172
0.000000 0.466232 0.114360
0.000000 0.480585 0.082507
0.537368 0.461105 0.059771
0.770578 0.344134 0.090588
0.955032 0.240187 0.166995
1.000000 0.349369 0.286715
1.000000 0.575684 0.478628
0.000000 0.677577 0.170592
0.000000 0.681304 0.172219
0.000000 0.687387 0.166223
0.000000 0.695481 0.137206
0.359119 0.692188 0.112453
0.772593 0.668617 0.093048
0.948267 0.580110 0.193607
1.000000 0.511450 0.313569
1.000000 0.628371 0.491816
0.000000 0.860991 0.358720
0.000000 0.861135 0.359559
0.000000 0.860725 0.359658
0.000000 0.858691 0.356474
0.319611 0.857754 0.335605
0.671654 0.851277 0.324749
0.911494 0.832339 0.312491
1.000000 0.785212 0.395491
1.000000 0.743149 0.526035
0.402727 0.948053 0.597195
0.411557 0.947871 0.597217
0.420192 0.947688 0.597240
0.460850 0.946752 0.597359
0.536727 0.944407 0.587184
0.679347 0.942401 0.578468
0.847689 0.936996 0.566749
0.971466 0.928885 0.567178
1.000000 0.900070 0.630802
0.726234 0.992373 0.788518
0.729268 0.992241 0.788531
0.729174 0.992629 0.788685
0.735153 0.992366 0.788712
0.746813 0.991845 0.788770
0.779305 0.990295 0.786921
0.847086 0.987114 0.781737
0.926101 0.984310 0.777414
0.998806 0.979681 0.781238
0.000000 0.000000 0.126925
0.000000 0.000000 0.110923
0.070610 0.000000 0.104184
0.206272 0.000000 0.070321
0.376308 0.000000 0.099710
0.660602 0.000000 0.124764
0.932237 0.000000 0.182493
1.000000 0.213992 0.291862
1.000000 0.536173 0.476842
0.000000 0.000000 0.170161
0.000000 0.000000 0.157611
0.066907 0.000000 0.150378
0.221876 0.000000 0.118555
0.399731 0.000000 0.127967
0.677562 0.000000 0.132593
0.933866 0.000000 0.185517
1.000000 0.224498 0.293828
1.000000 0.537414 0.480273
0.000000 0.042455 0.245799
0.000000 0.053634 0.232284
0.000000 0.063007 0.237044
0.270049 0.000000 0.212773
0.437258 0.000000 0.161623
0.691846 0.000000 0.142131
0.936839 0.000000 0.189644
1.000000 0.239314 0.293464
1.000000 0.540564 0.480124
0.000000 0.187302 0.304593
0.000000 0.218451 0.308349
0.000000 0.256677 0.318080
0.253809 0.284515 0.326853
0.520459 0.169464 0.233032
0.727000 0.000000 0.169849
0.941752 0.000000 0.200298
1.000000 0.272639 0.299443
1.000000 0.550323 0.482723
0.000000 0.435542 0.314123
0.000000 0.450666 0.317432
0.000000 0.465483 0.315158
0.000000 0.500758 0.302238
0.530744 0.494412 0.289582
0.771291 0.364296 0.211373
0.959295 0.234558 0.219663
1.000000 0.348114 0.308390
1.000000 0.573130 0.484901
0.000000 0.678914 0.297148
0.000000 0.681322 0.298739
0.000000 0.695092 0.299958
0.000000 0.706588 0.296652
0.326592 0.712908 0.272602
0.773516 0.690496 0.259372
0.948654 0.588013 0.262419
1.000000 0.514657 0.344121
1.000000 0.629274 0.501143
0.000000 0.862539 0.412127
0.000000 0.862903 0.413276
0.000000 0.863169 0.410778
0.000000 0.865346 0.410488
0.325212 0.860676 0.397008
0.677217 0.852351 0.385511
0.912814 0.835474 0.373760
1.000000 0.786855 0.421510
1.000000 0.741152 0.532467
0.395424 0.948636 0.614728
0.404443 0.948456 0.614749
0.413254 0.948273 0.614769
0.454651 0.947342 0.614876
0.538597 0.944969 0.611668
0.680390 0.942876 0.599171
0.845685 0.937621 0.586791
0.969357 0.929553 0.579894
1.000000 0.900386 0.640221
0.726571 0.992434 0.792622
0.726571 0.992434 0.792622
0.729600 0.992302 0.792634
0.735477 0.992427 0.792804
0.747118 0.991907 0.792857
0.779556 0.990358 0.791019
0.847142 0.987148 0.783814
0.923688 0.984527 0.781346
0.998704 0.979759 0.784966
0.000000 0.000000 0.210253
0.000000 0.000000 0.198321
0.000000 0.000000 0.194218
0.192973 0.000000 0.181762
0.352937 0.000000 0.116858
0.634829 0.000000 0.230569
0.929289 0.000000 0.268484
1.000000 0.226341 0.350577
1.000000 0.535727 0.504729
0.000000 0.000000 0.269833
0.000000 0.000000 0.261573
0.000000 0.000000 0.255752
0.183549 0.000000 0.248238
0.382089 0.000000 0.182059
0.657085 0.000000 0.250417
0.930819 0.000000 0.275072
1.000000 0.231642 0.353170
1.000000 0.535727 0.504729
0.000000 0.000000 0.328359
0.000000 0.010267 0.321403
0.000000 0.020964 0.322473
0.177078 0.000000 0.314153
0.432175 0.000000 0.264666
0.679538 0.000000 0.273483
0.935896 0.000000 0.282194
1.000000 0.247090 0.353258
1.000000 0.538891 0.504586
0.000000 0.124172 0.415604
0.000000 0.136055 0.419219
0.000000 0.151411 0.421709
0.140282 0.167910 0.441406
0.511546 0.066144 0.417192
0.721033 0.000000 0.325323
0.945024 0.000000 0.292863
1.000000 0.279835 0.360701
1.000000 0.549890 0.510712
0.000000 0.375828 0.505307
0.000000 0.397455 0.514150
0.000000 0.424367 0.521570
0.000000 0.480245 0.532758
0.508651 0.504767 0.553781
0.782326 0.375828 0.433723
0.963489 0.239441 0.333178
1.000000 0.358669 0.369631
1.000000 0.569131 0.512976
0.000000 0.674234 0.540591
0.000000 0.680823 0.536678
0.000000 0.691838 0.530214
0.000000 0.707172 0.539297
0.240181 0.732835 0.529459
0.761384 0.722013 0.523117
0.946487 0.607290 0.412837
1.000000 0.517278 0.407815
1.000000 0.628537 0.526498
0.000000 0.860127 0.540298
0.000000 0.860510 0.541488
0.000000 0.862721 0.539310
0.000000 0.865462 0.532758
0.267517 0.871318 0.535625
0.656308 0.864689 0.521954
0.906065 0.850718 0.513494
1.000000 0.793496 0.491504
1.000000 0.743036 0.558163
0.358474 0.950742 0.659417
0.369312 0.950657 0.659747
0.390001 0.950482 0.660407
0.408647 0.951153 0.661078
0.506985 0.949615 0.660658
0.682755 0.944048 0.651302
0.842877 0.937314 0.633998
0.966741 0.931254 0.631572
1.000000 0.902322 0.665441
0.727250 0.992556 0.800708
0.727250 0.992556 0.800708
0.730270 0.992424 0.800719
0.736130 0.992547 0.800865
0.744871 0.992158 0.800900
0.777620 0.990639 0.801071
0.847484 0.987354 0.795977
0.923725 0.984702 0.791291
0.998657 0.979531 0.793744
0.000000 0.000000 0.369963
0.000000 0.000000 0.365352
0.000000 0.000000 0.362945
0.074013 0.000000 0.353471
0.368174 0.000000 0.339434
0.566760 0.000000 0.237265
0.915695 0.000000 0.432217
1.000000 0.193540 0.473325
1.000000 0.542466 0.564681
0.000000 0.000000 0.424636
0.000000 0.000000 0.426755
0.000000 0.000000 0.421551
0.000000 0.000000 0.410613
0.359568 0.000000 0.396364
0.609653 0.000000 0.303698
0.920556 0.000000 0.439789
1.000000 0.199460 0.476484
1.000000 0.545967 0.567825
0.000000 0.000000 0.467923
0.000000 0.000000 0.471047
0.000000 0.000000 0.474608
0.000000 0.000000 0.466133
0.359324 0.000000 0.456425
0.644345 0.000000 0.373976
0.925866 0.000000 0.453659
1.000000 0.216883 0.476948
1.000000 0.546394 0.567881
0.000000 0.078632 0.527061
0.000000 0.081553 0.534373
0.000000 0.085803 0.540444
0.000000 0.090931 0.556528
0.373882 0.000000 0.543848
0.716533 0.000000 0.481152
0.937125 0.000000 0.483691
1.000000 0.253897 0.490045
1.000000 0.559554 0.567643
0.000000 0.272818 0.632107
0.000000 0.282547 0.639695
0.000000 0.295090 0.647811
0.000000 0.312932 0.655878
0.334320 0.346191 0.678209
0.789006 0.273018 0.643190
0.957167 0.164325 0.543397
1.000000 0.354242 0.508395
1.000000 0.583924 0.576708
0.000000 0.611480 0.726181
0.000000 0.622825 0.730441
0.000000 0.638696 0.729443
0.000000 0.669029 0.738918
0.000000 0.713313 0.749003
0.732695 0.733052 0.762842
0.938517 0.621727 0.665527
1.000000 0.523505 0.557348
1.000000 0.637402 0.587918
0.000000 0.858286 0.750399
0.000000 0.860481 0.751071
0.000000 0.860800 0.749056
0.000000 0.863597 0.743137
0.000000 0.870724 0.746755
0.629335 0.875455 0.746631
0.891823 0.864877 0.739975
0.996064 0.802228 0.634351
1.000000 0.747603 0.623809
0.277728 0.948952 0.757365
0.292952 0.948889 0.755110
0.332200 0.948651 0.755868
0.375735 0.950056 0.754134
0.484198 0.949765 0.754599
0.678150 0.948677 0.757047
0.834003 0.944533 0.741450
0.961207 0.936422 0.736543
1.000000 0.903900 0.709993
0.724382 0.992815 0.824408
0.727724 0.992723 0.824610
0.727724 0.992723 0.824610
0.731036 0.992631 0.824813
0.746801 0.992523 0.824013
0.779076 0.990985 0.822271
0.842809 0.988131 0.822832
0.922103 0.986001 0.818039
0.997530 0.980123 0.816887
0.000000 0.000000 0.616140
0.000000 0.000000 0.616126
0.000000 0.000000 0.616097
0.000000 0.000000 0.609796
0.219697 0.000000 0.600629
0.612549 0.000000 0.585940
0.839494 0.000000 0.464150
1.000000 0.000000 0.657520
1.000000 0.526097 0.687658
0.000000 0.000000 0.636471
0.000000 0.000000 0.636626
0.000000 0.000000 0.636598
0.000000 0.000000 0.633855
0.217794 0.000000 0.624907
0.616143 0.000000 0.606826
0.851560 0.000000 0.499914
1.000000 0.000000 0.658206
1.000000 0.529661 0.687807
0.000000 0.000000 0.661911
0.000000 0.000000 0.662525
0.000000 0.000000 0.662846
0.000000 0.000000 0.657555
0.211010 0.000000 0.654324
0.627130 0.000000 0.641698
0.877929 0.000000 0.534069
1.000000 0.000000 0.661917
1.000000 0.529661 0.687807
0.000000 0.085064 0.700527
0.000000 0.086128 0.704517
0.000000 0.091326 0.703970
0.000000 0.098228 0.714892
0.189235 0.066235 0.704721
0.635667 0.000000 0.690617
0.919454 0.000000 0.609351
1.000000 0.076648 0.676810
1.000000 0.540730 0.691232
0.000000 0.195640 0.754826
0.000000 0.199787 0.757770
0.000000 0.200854 0.762015
0.000000 0.213952 0.763479
0.107966 0.225628 0.779125
0.650940 0.137765 0.767928
0.960984 0.000000 0.703125
1.000000 0.261108 0.701214
1.000000 0.565528 0.698291
0.000000 0.487458 0.825560
0.000000 0.489310 0.827162
0.000000 0.498158 0.828972
0.000000 0.514483 0.834157
0.000000 0.536847 0.836564
0.606301 0.576650 0.844867
0.960472 0.525792 0.825873
1.000000 0.468695 0.747313
1.000000 0.633743 0.715240
0.000000 0.824828 0.867400
0.000000 0.828043 0.868118
0.000000 0.829174 0.867474
0.000000 0.835761 0.869517
0.000000 0.852429 0.875139
0.566522 0.864370 0.879434
0.879454 0.872145 0.883280
0.986237 0.815985 0.824133
1.000000 0.751905 0.751670
0.000000 0.950531 0.872042
0.000000 0.950467 0.872181
0.140558 0.950332 0.872459
0.240303 0.950044 0.873014
0.404937 0.950627 0.874470
0.645925 0.948877 0.871900
0.830415 0.949338 0.876301
0.952279 0.944813 0.864957
1.000000 0.910572 0.809054
0.713293 0.992706 0.876813
0.713293 0.992706 0.876813
0.716727 0.992614 0.876953
0.720128 0.992522 0.877093
0.736760 0.992076 0.876552
0.767512 0.991602 0.875463
0.839231 0.990650 0.876363
0.921603 0.987210 0.871569
0.992708 0.983055 0.868025
0.000000 0.090587 0.830572
0.000000 0.089084 0.830516
0.000000 0.087285 0.830451
0.000000 0.081032 0.830245
0.148244 0.047559 0.825215
0.474093 0.000000 0.820951
0.880469 0.000000 0.808143
1.000000 0.000000 0.707064
1.000000 0.442288 0.825586
0.000000 0.103056 0.836201
0.000000 0.101802 0.836145
0.000000 0.100532 0.834002
0.000000 0.095461 0.833798
0.142782 0.071850 0.830981
0.470332 0.000000 0.827004
0.881697 0.000000 0.814341
1.000000 0.000000 0.721591
1.000000 0.445934 0.825663
0.000000 0.118081 0.843955
0.000000 0.117131 0.843905
0.000000 0.115857 0.843840
0.000000 0.111772 0.841645
0.120634 0.100403 0.837308
0.471298 0.000000 0.830930
0.886299 0.000000 0.820331
1.000000 0.000000 0.733864
1.000000 0.445683 0.829719
0.000000 0.148782 0.853839
0.000000 0.148565 0.854884
0.000000 0.151571 0.855865
0.000000 0.149329 0.854837
0.106048 0.146325 0.852918
0.466466 0.063691 0.846825
0.888334 0.000000 0.838697
1.000000 0.000000 0.766458
1.000000 0.456492 0.831945
0.000000 0.231712 0.874776
0.000000 0.231874 0.875412
0.000000 0.232052 0.876207
0.000000 0.234414 0.878839
0.000000 0.246144 0.880847
0.459153 0.215201 0.876926
0.903572 0.000000 0.865550
1.000000 0.000000 0.808858
1.000000 0.485916 0.836283
0.000000 0.383240 0.899967
0.000000 0.383666 0.900368
0.000000 0.384364 0.901034
0.000000 0.389056 0.902627
0.000000 0.401927 0.903195
0.416503 0.419843 0.907315
0.899537 0.372374 0.899350
1.000000 0.287797 0.862916
1.000000 0.562322 0.851930
0.000000 0.719856 0.926979
0.000000 0.720487 0.927247
0.000000 0.721111 0.927515
0.000000 0.726483 0.928287
0.000000 0.737065 0.928885
0.219328 0.758426 0.928920
0.812235 0.777361 0.930146
1.000000 0.753578 0.918842
1.000000 0.719924 0.874752
0.000000 0.936415 0.944179
0.000000 0.936396 0.944251
0.000000 0.936333 0.944464
0.000000 0.937318 0.944670
0.000000 0.938842 0.945565
0.505256 0.942368 0.945439
0.787596 0.944328 0.948643
0.946389 0.950640 0.949780
1.000000 0.916502 0.916388
0.678958 0.993393 0.945050
0.682676 0.993299 0.945122
0.682676 0.993299 0.945122
0.686360 0.993205 0.945195
0.697210 0.992926 0.945412
0.734377 0.992305 0.946135
0.816090 0.991797 0.942286
0.915390 0.990457 0.943350
0.987384 0.987144 0.940581
0.094593 0.243819 0.946650
0.109079 0.243571 0.946628
0.151767 0.242528 0.946534
0.198074 0.240805 0.946384
0.280805 0.235901 0.945980
0.460725 0.211602 0.944474
0.746319 0.134862 0.936155
1.000000 0.000000 0.928218
1.000000 0.000000 0.873590
0.089150 0.246069 0.947726
0.104679 0.245823 0.947704
0.149045 0.244795 0.947611
0.196220 0.243094 0.947461
0.279683 0.238257 0.947059
0.455930 0.217862 0.944629
0.746551 0.150903 0.936348
1.000000 0.000000 0.929366
1.000000 0.000000 0.875773
0.074768 0.253033 0.948880
0.132543 0.252061 0.948790
0.142748 0.251806 0.948766
0.192108 0.250169 0.948619
0.277386 0.245518 0.948222
0.455057 0.226028 0.945817
0.745927 0.165548 0.938644
1.000000 0.000000 0.929654
1.000000 0.000000 0.878068
0.033541 0.271917 0.952169
0.107568 0.271249 0.952103
0.143242 0.270543 0.952034
0.186653 0.269272 0.951913
0.281427 0.264636 0.951494
0.452164 0.253661 0.948307
0.749261 0.199253 0.942133
1.000000 0.000000 0.933409
1.000000 0.000000 0.883755
0.000000 0.321714 0.956351
0.000000 0.321663 0.956509
0.088751 0.321599 0.956665
0.168974 0.321263 0.957093
0.273816 0.311994 0.956705
0.440966 0.320944 0.953802
0.745868 0.266663 0.949730
1.000000 0.194193 0.941356
1.000000 0.000000 0.897936
0.000000 0.431045 0.964252
0.000000 0.431187 0.964389
0.000000 0.431255 0.964457
0.000000 0.431605 0.964862
0.223641 0.431977 0.965698
0.415291 0.446144 0.964527
0.725336 0.419763 0.961328
1.000000 0.396453 0.954567
1.000000 0.346302 0.921300
0.000000 0.607908 0.972766
0.000000 0.608167 0.972868
0.000000 0.608293 0.972919
0.000000 0.608662 0.973070
0.000000 0.616718 0.973285
0.359127 0.629753 0.971904
0.684259 0.640329 0.972385
0.989569 0.627995 0.966440
1.000000 0.592459 0.947067
0.000000 0.873366 0.978850
0.000000 0.873389 0.978887
0.000000 0.873431 0.978962
0.000000 0.873615 0.978524
0.000000 0.877420 0.977578
0.318523 0.880450 0.977659
0.652949 0.882402 0.978817
0.911925 0.892649 0.978465
1.000000 0.881432 0.973536
0.539001 0.990347 0.985667
0.550359 0.990134 0.985722
0.550359 0.990134 0.985722
0.561373 0.989920 0.985776
0.582436 0.989498 0.985886
0.643005 0.988181 0.986250
0.772839 0.988433 0.985524
0.904477 0.988815 0.986446
0.983810 0.989870 0.988287
