Assets/Lutify-Free-LUTs-Pack/Lutify Free LUTs Pack/Colour Film Boost Pro - Film Boost 10/Lutify.me-FilmBoost10-ProTune-to-Rec709.cube
# Created with: fylm.ai - Colour Grading and Collaboration Software in Cloud 
# Website: https://fylm.ai 
# META
# Option: Gamut compress
# Block 1: IDT | GoPro ProTune Native ProTune Flat
# Block 2: colourMatch | Blending Mode: Normal | {"ColorSpace":0,"CrossCovarianceLimit":50,"ReshapingIterations":1,"PercentSaturationShift":100,"PercentShadingShift":100,"ExtraShading":true,"PercentTint":100,"PercentModified":100}
# Block 3: subtractiveColour | Blending Mode: Normal | {"sliders":{"gainY":0.55,"C":0.3,"M":0.3,"Y":0.3}}
# Block 4: LUT | Filmic Curve Response: Low Contrast 2 (100%)
# Block 5: logPrimaries | Blending Mode: Normal | {"wheels":{"shadows":{"Y":"0","R":"1","G":"1","B":"1"},"midtones":{"Y":"0","R":"1","G":"1","B":"1"},"highlights":{"Y":"0","R":"1","G":"1","B":"1"},"offset":{"Y":"0","R":"1","G":"1","B":"1"}},"sliders":{"shadows":{"Y":0,"R":-0.085,"G":0.024,"B":0.134},"midtones":{"Y":0,"R":0,"G":-0.023,"B":0},"highlights":{"Y":0,"R":0,"G":0,"B":0},"offset":{"Y":0,"R":0.012,"G":-0.012,"B":0}}}
# Block 6: HSL | Blending Mode: Normal | {"hue":{"Reds":0,"Yellows":0,"Greens":0,"Cyans":0,"Blues":0,"Magentas":0},"saturation":{"Reds":1,"Yellows":1,"Greens":1,"Cyans":1,"Blues":1,"Magentas":1},"luminance":{"Reds":0.9,"Yellows":0.9,"Greens":0.9,"Cyans":0.9,"Blues":0.9,"Magentas":0.9},"lum_sat":{"Blacks":1,"Shadows":1,"Midtones":1,"Highlights":1,"Whites":1},"sat_sat":{"10":1,"20":1,"30":1,"40":1,"50":1}}
# Block 7: ODT | Rec709
TITLE "Lutify.me-FilmBoost10-ProTune-to-Rec709" 
LUT_3D_SIZE 33
0.000000 0.000000 0.000000
0.000000 0.000000 0.000000
0.000000 0.000000 0.000000
0.000000 0.000000 0.000000
0.000000 0.000000 0.000000
0.000000 0.000000 0.000000
0.009798 0.000000 0.000000
0.039823 0.000000 0.000000
0.056988 0.000000 0.000000
0.070771 0.000000 0.000000
0.082327 0.000000 0.000000
0.097344 0.000000 0.000000
0.110772 0.000000 0.000000
0.122110 0.000000 0.000000
0.133289 0.000000 0.000000
0.148357 0.000000 0.000000
0.161830 0.000000 0.000000
0.175834 0.000000 0.000000
0.192623 0.000000 0.000000
0.208815 0.000000 0.000000
0.226387 0.000000 0.000000
0.245531 0.000000 0.000000
0.268057 0.000000 0.000000
0.290181 0.000000 0.000000
0.313178 0.000000 0.013719
0.336369 0.000000 0.021311
0.359481 0.000000 0.027845
0.384547 0.000000 0.032070
0.409431 0.000000 0.036094
0.441631 0.000000 0.042261
0.482490 0.000000 0.046896
0.513953 0.000000 0.051293
0.547649 0.000000 0.056834
0.000000 0.000000 0.000000
0.000000 0.000000 0.000000
0.000000 0.000000 0.000000
0.000000 0.000000 0.000000
0.000000 0.000000 0.000000
0.000000 0.000000 0.000000
0.019877 0.000000 0.000000
0.044349 0.000000 0.000000
0.060534 0.000000 0.000000
0.072824 0.000000 0.000000
0.086654 0.000000 0.000000
0.099397 0.000000 0.000000
0.112351 0.000000 0.000000
0.123808 0.000000 0.000000
0.137307 0.000000 0.000000
0.150299 0.000000 0.000000
0.163944 0.000000 0.000000
0.179248 0.000000 0.000000
0.194021 0.000000 0.000000
0.211700 0.000000 0.000000
0.228038 0.000000 0.000000
0.248897 0.000000 0.000000
0.268264 0.000000 0.000000
0.293685 0.000000 0.000000
0.313389 0.000000 0.015474
0.336496 0.000000 0.022325
0.359724 0.000000 0.027860
0.387299 0.000000 0.032584
0.412584 0.000000 0.037530
0.450380 0.000000 0.042936
0.482882 0.000000 0.047374
0.514578 0.000000 0.052314
0.551545 0.000000 0.057887
0.000000 0.000000 0.000000
0.000000 0.000000 0.000000
0.000000 0.000000 0.000000
0.000000 0.000000 0.000000
0.000000 0.000000 0.000000
0.005709 0.000000 0.000000
0.037127 0.000000 0.000000
0.051759 0.000000 0.000000
0.065489 0.000000 0.000000
0.078149 0.000000 0.000000
0.090663 0.000000 0.000000
0.103302 0.000000 0.000000
0.114170 0.000000 0.000000
0.125424 0.000000 0.000000
0.138411 0.000000 0.000000
0.151367 0.000000 0.000000
0.166085 0.000000 0.000000
0.181629 0.000000 0.000000
0.196748 0.000000 0.000000
0.213154 0.000000 0.000000
0.231144 0.000000 0.000000
0.249088 0.000000 0.000000
0.270273 0.000000 0.000000
0.293981 0.000000 0.005235
0.315518 0.000000 0.015356
0.338841 0.000000 0.023188
0.362393 0.000000 0.028512
0.387730 0.000000 0.033185
0.415452 0.000000 0.038455
0.450763 0.000000 0.043862
0.486454 0.000000 0.048232
0.518422 0.000000 0.052214
0.552204 0.000000 0.058466
0.000000 0.000000 0.000000
0.000000 0.000000 0.000000
0.000000 0.000000 0.000000
0.000000 0.000000 0.000000
0.000000 0.000000 0.000000
0.030605 0.000000 0.000000
0.051116 0.000000 0.000000
0.063234 0.000000 0.000000
0.073310 0.000000 0.000000
0.084418 0.000000 0.000000
0.094645 0.000000 0.000000
0.107409 0.000000 0.000000
0.116567 0.000000 0.000000
0.127962 0.000000 0.000000
0.140280 0.000000 0.000000
0.153412 0.000000 0.000000
0.168353 0.000000 0.000000
0.184148 0.000000 0.000000
0.198095 0.000000 0.000000
0.216032 0.000000 0.000000
0.232846 0.000000 0.000000
0.251040 0.000000 0.000000
0.274005 0.000000 0.000000
0.295989 0.000000 0.011768
0.319673 0.000000 0.017980
0.343469 0.000000 0.023916
0.367285 0.000000 0.029040
0.393026 0.000000 0.033580
0.416121 0.000000 0.039493
0.454077 0.000000 0.044233
0.487225 0.000000 0.048708
0.519254 0.000000 0.053254
0.553293 0.000000 0.059059
0.000000 0.022837 0.000000
0.000000 0.023267 0.000000
0.000000 0.022989 0.000000
0.000000 0.022219 0.000000
0.000000 0.022438 0.000000
0.029995 0.014328 0.000000
0.049834 0.000000 0.000000
0.066086 0.000000 0.000000
0.078821 0.000000 0.000000
0.091546 0.000000 0.000000
0.102010 0.000000 0.000000
0.112950 0.000000 0.000000
0.120047 0.000000 0.000000
0.131503 0.000000 0.000000
0.144033 0.000000 0.000000
0.158469 0.000000 0.000000
0.171821 0.000000 0.000000
0.185520 0.000000 0.000000
0.200849 0.000000 0.000000
0.217680 0.000000 0.000000
0.236114 0.000000 0.000000
0.257735 0.000000 0.000000
0.276180 0.000000 0.000000
0.301690 0.000000 0.015154
0.322002 0.000000 0.020289
0.346119 0.000000 0.024722
0.370034 0.000000 0.029650
0.396172 0.000000 0.034138
0.421721 0.000000 0.039820
0.457790 0.000000 0.045039
0.491386 0.000000 0.049563
0.523486 0.000000 0.054761
0.560725 0.000000 0.061253
0.000000 0.040654 0.000000
0.000000 0.041981 0.000000
0.000000 0.041975 0.000000
0.000000 0.041117 0.000000
0.000000 0.041185 0.000000
0.033570 0.038554 0.000000
0.047170 0.032732 0.000000
0.062340 0.022759 0.000000
0.079509 0.000000 0.000000
0.094079 0.000000 0.000000
0.106461 0.000000 0.000000
0.115944 0.000000 0.000000
0.126810 0.000000 0.000000
0.137638 0.000000 0.000000
0.148452 0.000000 0.000000
0.161500 0.000000 0.000000
0.176188 0.000000 0.000000
0.189296 0.000000 0.000000
0.204950 0.000000 0.000000
0.223560 0.000000 0.000000
0.239513 0.000000 0.000000
0.259850 0.000000 0.000000
0.281723 0.000000 0.000000
0.303959 0.000000 0.017996
0.324482 0.000000 0.023256
0.348715 0.000000 0.027074
0.372983 0.000000 0.030968
0.399219 0.000000 0.035197
0.425303 0.000000 0.040699
0.459063 0.000000 0.045921
0.495386 0.000000 0.050439
0.524778 0.000000 0.055848
0.562084 0.000000 0.062466
0.000000 0.051659 0.000000
0.000000 0.052151 0.000000
0.000000 0.052282 0.000000
0.000000 0.052032 0.000000
0.000000 0.052397 0.000000
0.022020 0.051761 0.000000
0.046576 0.049638 0.000000
0.061414 0.044442 0.000000
0.077765 0.036228 0.000000
0.095270 0.022833 0.000000
0.109397 0.000000 0.000000
0.121562 0.000000 0.000000
0.130260 0.000000 0.000000
0.142121 0.000000 0.000000
0.154456 0.000000 0.000000
0.167732 0.000000 0.000000
0.180909 0.000000 0.000000
0.195579 0.000000 0.000000
0.210584 0.000000 0.000000
0.228270 0.000000 0.000000
0.246042 0.000000 0.000000
0.265301 0.000000 0.000000
0.285550 0.000000 0.000000
0.308239 0.000000 0.019099
0.332950 0.000000 0.024744
0.353704 0.000000 0.028525
0.376127 0.000000 0.032835
0.402861 0.000000 0.035130
0.429067 0.000000 0.041050
0.462994 0.000000 0.046244
0.496770 0.000000 0.050919
0.535841 0.000000 0.056727
0.566490 0.000000 0.063617
0.000000 0.062153 0.000000
0.000000 0.062322 0.000000
0.000000 0.062549 0.000000
0.000000 0.062604 0.000000
0.000000 0.063437 0.000000
0.000000 0.062915 0.000000
0.043804 0.061253 0.000000
0.064143 0.057605 0.000000
0.079172 0.050930 0.000000
0.094067 0.045030 0.000000
0.107768 0.038635 0.000000
0.120752 0.030063 0.000000
0.135950 0.000000 0.000000
0.150191 0.000000 0.000000
0.164708 0.000000 0.000000
0.176570 0.000000 0.000000
0.189127 0.000000 0.000000
0.202629 0.000000 0.000000
0.218412 0.000000 0.000000
0.233526 0.000000 0.000000
0.251660 0.000000 0.000000
0.271298 0.000000 0.000000
0.291360 0.000000 0.000000
0.314584 0.000000 0.019110
0.338158 0.000000 0.025680
0.361455 0.000000 0.029111
0.386768 0.000000 0.033053
0.406588 0.000000 0.036536
0.433210 0.000000 0.041336
0.467350 0.000000 0.046557
0.501415 0.000000 0.051818
0.540357 0.000000 0.057225
0.571368 0.000000 0.064796
0.000000 0.074750 0.000000
0.000000 0.076194 0.000000
0.000000 0.075089 0.000000
0.000000 0.075089 0.000000
0.000000 0.076012 0.000000
0.000000 0.075642 0.000000
0.036689 0.075163 0.000000
0.061357 0.073153 0.000000
0.079416 0.067047 0.000000
0.096006 0.060925 0.000000
0.110722 0.053771 0.000000
0.125502 0.047400 0.000000
0.139148 0.036036 0.000000
0.156526 0.016144 0.000000
0.172389 0.000000 0.000000
0.187934 0.000000 0.000000
0.199347 0.000000 0.000000
0.208750 0.000000 0.000000
0.225419 0.000000 0.000000
0.238852 0.000000 0.000000
0.257961 0.000000 0.000000
0.277973 0.000000 0.000000
0.297947 0.000000 0.000000
0.319636 0.000000 0.016485
0.343422 0.000000 0.024661
0.364962 0.000000 0.028954
0.390601 0.000000 0.033972
0.413189 0.000000 0.037714
0.440327 0.000000 0.042438
0.474913 0.000000 0.047240
0.509153 0.000000 0.052647
0.542153 0.000000 0.058382
0.573665 0.000000 0.065465
0.000000 0.088276 0.000000
0.000000 0.088308 0.000000
0.000000 0.088330 0.000000
0.000000 0.089593 0.000000
0.000000 0.089338 0.000000
0.000000 0.089755 0.000000
0.015718 0.088703 0.000000
0.053218 0.088057 0.000000
0.079721 0.085657 0.000000
0.099995 0.078273 0.000000
0.113743 0.071668 0.000000
0.129932 0.064892 0.000000
0.142467 0.056591 0.000000
0.161907 0.041774 0.000000
0.177862 0.020351 0.000000
0.193179 0.000000 0.000000
0.207828 0.000000 0.000000
0.221866 0.000000 0.000000
0.233702 0.000000 0.000000
0.247747 0.000000 0.000000
0.266096 0.000000 0.000000
0.283457 0.000000 0.000000
0.304673 0.000000 0.000000
0.327069 0.000000 0.016943
0.349312 0.000000 0.024991
0.373449 0.000000 0.030415
0.394806 0.000000 0.034775
0.420129 0.000000 0.039347
0.444717 0.000000 0.044553
0.480085 0.000000 0.048528
0.514537 0.000000 0.053591
0.547619 0.000000 0.058905
0.578841 0.000000 0.066672
0.000000 0.099610 0.000000
0.000000 0.099619 0.000000
0.000000 0.100999 0.000000
0.000000 0.100863 0.000000
0.000000 0.102226 0.000000
0.000000 0.100456 0.000000
0.000000 0.100031 0.000000
0.052720 0.099464 0.000000
0.079718 0.097086 0.000000
0.102985 0.094074 0.000000
0.116141 0.090254 0.000000
0.132712 0.083457 0.000000
0.151865 0.076431 0.000000
0.170645 0.065900 0.000000
0.188569 0.050422 0.000000
0.199923 0.032565 0.000000
0.214053 0.000000 0.000000
0.230304 0.000000 0.000000
0.247276 0.000000 0.000000
0.261992 0.000000 0.000000
0.274434 0.000000 0.000000
0.288215 0.000000 0.000000
0.308164 0.000000 0.000000
0.330182 0.000000 0.017051
0.355946 0.000000 0.026742
0.378063 0.000000 0.031888
0.404489 0.000000 0.034716
0.425312 0.000000 0.040516
0.453049 0.000000 0.045138
0.485546 0.000000 0.049851
0.520253 0.000000 0.054552
0.553144 0.000000 0.059428
0.584509 0.000000 0.067280
0.000000 0.115665 0.000000
0.000000 0.117322 0.000000
0.000000 0.117237 0.000000
0.000000 0.118893 0.000000
0.000000 0.119663 0.000000
0.000000 0.119469 0.000000
0.000000 0.118239 0.000000
0.036540 0.117752 0.000000
0.076720 0.115126 0.000000
0.099210 0.112437 0.000000
0.119516 0.109268 0.000000
0.136599 0.102897 0.000000
0.156821 0.093968 0.000000
0.178576 0.083986 0.000000
0.194788 0.074877 0.000000
0.211198 0.061099 0.000000
0.224871 0.045740 0.000000
0.237452 0.021325 0.000000
0.253557 0.000000 0.000000
0.272104 0.000000 0.000000
0.287332 0.000000 0.000000
0.303661 0.000000 0.000000
0.317256 0.000000 0.000000
0.341796 0.000000 0.003080
0.362708 0.000000 0.024806
0.384358 0.000000 0.029881
0.409818 0.000000 0.034245
0.433430 0.000000 0.039057
0.464060 0.000000 0.043720
0.491250 0.000000 0.049651
0.525910 0.000000 0.054987
0.558981 0.000000 0.060542
0.590015 0.000000 0.068517
0.000000 0.135090 0.000000
0.000000 0.135028 0.000000
0.000000 0.136963 0.000000
0.000000 0.136877 0.000000
0.000000 0.138812 0.000000
0.000000 0.136535 0.000000
0.000000 0.136249 0.000000
0.000000 0.135822 0.000000
0.065106 0.133195 0.000000
0.093420 0.132384 0.000000
0.116153 0.131403 0.000000
0.140085 0.126633 0.000000
0.160324 0.117145 0.000000
0.181659 0.107123 0.000000
0.199874 0.095950 0.000000
0.218944 0.086702 0.000000
0.233380 0.075212 0.000000
0.251363 0.061509 0.000000
0.266707 0.041973 0.000000
0.276814 0.000000 0.000000
0.293960 0.000000 0.000000
0.310705 0.000000 0.000000
0.326523 0.000000 0.000000
0.345676 0.000000 0.000000
0.368897 0.000000 0.020141
0.393671 0.000000 0.027903
0.415060 0.000000 0.032888
0.440901 0.000000 0.037939
0.470210 0.000000 0.042850
0.503318 0.000000 0.048142
0.531853 0.000000 0.054846
0.565366 0.000000 0.061666
0.599141 0.000000 0.069710
0.000000 0.154189 0.000000
0.000000 0.154138 0.000000
0.000000 0.154080 0.000000
0.000000 0.153975 0.000000
0.000000 0.153830 0.000000
0.000000 0.153659 0.000000
0.000000 0.153418 0.000000
0.000000 0.150702 0.000000
0.057756 0.150165 0.000000
0.091227 0.149427 0.000000
0.113931 0.148630 0.000000
0.143006 0.149509 0.000000
0.167583 0.141434 0.000000
0.188631 0.130766 0.000000
0.210561 0.119596 0.000000
0.226409 0.112296 0.000000
0.245591 0.102574 0.000000
0.260970 0.091327 0.000000
0.276188 0.079769 0.000000
0.292025 0.059281 0.000000
0.302991 0.035275 0.000000
0.318209 0.000000 0.000000
0.342578 0.000000 0.000000
0.358025 0.000000 0.000000
0.375277 0.000000 0.009758
0.398194 0.000000 0.024676
0.422790 0.000000 0.031689
0.449358 0.000000 0.037559
0.477838 0.000000 0.042747
0.509285 0.000000 0.048903
0.541125 0.000000 0.055742
0.571101 0.000000 0.062800
0.605509 0.000000 0.070992
0.000000 0.170862 0.000000
0.000000 0.172071 0.000000
0.000000 0.172005 0.000000
0.000000 0.171915 0.000000
0.000000 0.171777 0.000000
0.000000 0.171635 0.000000
0.000000 0.170127 0.000000
0.000000 0.169799 0.000000
0.028219 0.169295 0.000000
0.086642 0.166037 0.000000
0.114762 0.167723 0.000000
0.147155 0.166352 0.000000
0.173091 0.162070 0.000000
0.197614 0.152796 0.000000
0.219565 0.143485 0.000000
0.237088 0.134277 0.000000
0.257503 0.122544 0.000000
0.270092 0.115733 0.000000
0.282638 0.107201 0.000000
0.299149 0.095554 0.000000
0.316214 0.078880 0.000000
0.334076 0.055783 0.000000
0.351132 0.000000 0.000000
0.373638 0.000000 0.000000
0.391189 0.000000 0.000000
0.407857 0.000000 0.017083
0.427706 0.000000 0.028145
0.452159 0.000000 0.036424
0.480812 0.000000 0.041925
0.517536 0.000000 0.048199
0.554962 0.000000 0.055278
0.585257 0.000000 0.063737
0.612719 0.000000 0.072275
0.000000 0.189155 0.000000
0.000000 0.189097 0.000000
0.000000 0.189018 0.000000
0.000000 0.188927 0.000000
0.000000 0.188790 0.000000
0.000000 0.188588 0.000000
0.000000 0.185607 0.000000
0.000000 0.185219 0.000000
0.032599 0.184788 0.000000
0.086231 0.184141 0.000000
0.116414 0.186091 0.000000
0.148440 0.182158 0.000000
0.179042 0.180169 0.000000
0.205175 0.171687 0.000000
0.224494 0.163493 0.000000
0.248623 0.155446 0.000000
0.265007 0.146942 0.000000
0.279333 0.135785 0.000000
0.296722 0.124790 0.000000
0.306278 0.118045 0.000000
0.323892 0.107107 0.000000
0.344714 0.092238 0.000000
0.364305 0.069574 0.000000
0.381028 0.014334 0.000000
0.403506 0.000000 0.000000
0.423192 0.000000 0.000000
0.438465 0.000000 0.020704
0.457914 0.000000 0.033634
0.489850 0.000000 0.040000
0.523413 0.000000 0.045824
0.563006 0.000000 0.054395
0.593492 0.000000 0.064732
0.621055 0.000000 0.072131
0.000000 0.203078 0.000000
0.000000 0.204469 0.000000
0.000000 0.204392 0.000000
0.000000 0.204290 0.000000
0.000000 0.204098 0.000000
0.000000 0.203930 0.000000
0.000000 0.203622 0.000000
0.000000 0.201792 0.000000
0.051069 0.201261 0.000000
0.092509 0.201808 0.000000
0.126175 0.200656 0.000000
0.149118 0.202351 0.000000
0.182681 0.200350 0.000000
0.212573 0.194789 0.000000
0.236050 0.185790 0.000000
0.253737 0.180226 0.000000
0.274318 0.169441 0.000000
0.290002 0.159144 0.000000
0.304819 0.151650 0.000000
0.319713 0.136245 0.000000
0.336127 0.127348 0.000000
0.353330 0.119365 0.000000
0.375995 0.103558 0.000000
0.395523 0.085638 0.000000
0.411213 0.050621 0.000000
0.433781 0.000000 0.000000
0.455191 0.000000 0.000000
0.474615 0.000000 0.022646
0.496055 0.000000 0.036882
0.529893 0.000000 0.043639
0.566285 0.000000 0.053157
0.597335 0.000000 0.063799
0.631630 0.000000 0.072967
0.000000 0.226315 0.000000
0.000000 0.226171 0.000000
0.000000 0.226057 0.000000
0.000000 0.225878 0.000000
0.000000 0.225611 0.000000
0.000000 0.225297 0.000000
0.000000 0.224972 0.000000
0.000000 0.221469 0.000000
0.059001 0.220679 0.000000
0.108424 0.219678 0.000000
0.138740 0.218625 0.000000
0.170835 0.217097 0.000000
0.196837 0.215523 0.000000
0.224840 0.213270 0.000000
0.245041 0.205984 0.000000
0.263509 0.195532 0.000000
0.282488 0.187895 0.000000
0.299472 0.177155 0.000000
0.317422 0.170632 0.000000
0.335455 0.162129 0.000000
0.348923 0.154230 0.000000
0.373582 0.137864 0.000000
0.385402 0.126036 0.000000
0.407978 0.115275 0.000000
0.424573 0.101268 0.000000
0.439157 0.079999 0.000000
0.466783 0.000000 0.000000
0.489140 0.000000 0.000000
0.513715 0.000000 0.025111
0.536493 0.000000 0.040557
0.572903 0.000000 0.051337
0.603991 0.000000 0.062580
0.635526 0.000000 0.073637
0.000000 0.241148 0.000000
0.000000 0.241007 0.000000
0.000000 0.240820 0.000000
0.000000 0.240648 0.000000
0.000000 0.240338 0.000000
0.000000 0.239931 0.000000
0.000000 0.239450 0.000000
0.065789 0.235584 0.000000
0.110852 0.234711 0.000000
0.140989 0.233755 0.000000
0.167756 0.232624 0.000000
0.188158 0.234769 0.000000
0.210879 0.233422 0.000000
0.233483 0.231863 0.000000
0.257009 0.225827 0.000000
0.272793 0.220372 0.000000
0.292266 0.209147 0.000000
0.310129 0.201304 0.000000
0.330025 0.192839 0.000000
0.347265 0.184521 0.000000
0.366661 0.175399 0.000000
0.381134 0.165179 0.000000
0.405331 0.151857 0.000000
0.418506 0.144952 0.000000
0.434959 0.131028 0.000000
0.461526 0.117891 0.000000
0.475217 0.093247 0.000000
0.502258 0.042834 0.000000
0.529706 0.000000 0.000000
0.558595 0.000000 0.028235
0.582444 0.000000 0.046289
0.614060 0.000000 0.060567
0.645654 0.000000 0.072273
0.000000 0.262123 0.000000
0.000000 0.261956 0.000000
0.000000 0.261773 0.000000
0.000000 0.261444 0.000000
0.000000 0.261212 0.000000
0.000000 0.260792 0.000000
0.000000 0.258564 0.000000
0.077055 0.257991 0.000000
0.116917 0.257243 0.000000
0.143947 0.256475 0.000000
0.165073 0.255712 0.000000
0.190524 0.254590 0.000000
0.211058 0.255249 0.000000
0.235416 0.253784 0.000000
0.268423 0.249209 0.000000
0.288931 0.241172 0.000000
0.303188 0.235617 0.000000
0.325496 0.226929 0.000000
0.345176 0.216533 0.000000
0.364022 0.207812 0.000000
0.379990 0.199335 0.000000
0.403458 0.188969 0.000000
0.421686 0.179184 0.000000
0.434726 0.170195 0.000000
0.446058 0.161889 0.000000
0.469912 0.145938 0.000000
0.495033 0.126980 0.000000
0.510966 0.115057 0.000000
0.536290 0.076252 0.000000
0.567952 0.000000 0.000000
0.597921 0.000000 0.031277
0.619282 0.000000 0.052286
0.648991 0.000000 0.070290
0.000000 0.284683 0.000000
0.000000 0.284557 0.000000
0.000000 0.284330 0.000000
0.000000 0.284080 0.000000
0.000000 0.283807 0.000000
0.000000 0.283442 0.000000
0.000000 0.282965 0.000000
0.076934 0.282587 0.000000
0.113270 0.280180 0.000000
0.137323 0.279621 0.000000
0.165004 0.278781 0.000000
0.190188 0.277821 0.000000
0.211165 0.276869 0.000000
0.243216 0.275135 0.000000
0.269260 0.273464 0.000000
0.298709 0.268526 0.000000
0.320759 0.259799 0.000000
0.340080 0.249295 0.000000
0.361453 0.238311 0.000000
0.387641 0.226202 0.000000
0.407699 0.214740 0.000000
0.424431 0.207492 0.000000
0.435558 0.201186 0.000000
0.452369 0.197418 0.000000
0.469398 0.191312 0.000000
0.481830 0.182794 0.000000
0.504663 0.169834 0.000000
0.524966 0.147028 0.000000
0.551392 0.132074 0.000000
0.580735 0.093190 0.000000
0.610505 0.000000 0.000000
0.638237 0.000000 0.036956
0.657554 0.000000 0.061305
0.000000 0.305293 0.000000
0.000000 0.305137 0.000000
0.000000 0.304971 0.000000
0.000000 0.304737 0.000000
0.000000 0.304419 0.000000
0.000000 0.304215 0.000000
0.031659 0.303851 0.000000
0.086586 0.303454 0.000000
0.115312 0.303022 0.000000
0.146228 0.302352 0.000000
0.168940 0.301711 0.000000
0.193191 0.300877 0.000000
0.220980 0.297708 0.000000
0.249049 0.296293 0.000000
0.273807 0.294841 0.000000
0.307868 0.292228 0.000000
0.326074 0.290079 0.000000
0.350577 0.278405 0.000000
0.374197 0.266654 0.000000
0.397007 0.254794 0.000000
0.418814 0.244908 0.000000
0.443210 0.234212 0.000000
0.467247 0.223099 0.000000
0.479007 0.216314 0.000000
0.487828 0.212233 0.000000
0.499999 0.213941 0.000000
0.519471 0.204037 0.000000
0.534675 0.193582 0.000000
0.562889 0.174026 0.000000
0.589643 0.157746 0.000000
0.620474 0.120108 0.000000
0.651089 0.000000 0.000000
0.677092 0.000000 0.048982
0.000000 0.327498 0.000000
0.000000 0.327438 0.000000
0.000000 0.327187 0.000000
0.000000 0.326987 0.000000
0.000000 0.326776 0.000000
0.000000 0.326554 0.000000
0.080803 0.326075 0.000000
0.102927 0.325816 0.000000
0.131000 0.325355 0.000000
0.161406 0.322536 0.000000
0.181134 0.321973 0.000000
0.206709 0.321103 0.000000
0.230897 0.320125 0.000000
0.257750 0.318855 0.000000
0.284310 0.317396 0.000000
0.310952 0.315724 0.000000
0.332989 0.316084 0.000000
0.353612 0.311332 0.000000
0.382317 0.300744 0.000000
0.404518 0.288506 0.000000
0.429507 0.273411 0.000000
0.459150 0.261700 0.000000
0.481814 0.250975 0.000000
0.503713 0.237738 0.000000
0.515953 0.232968 0.000000
0.525142 0.231033 0.000000
0.540463 0.227689 0.000000
0.557806 0.220556 0.000000
0.577182 0.213819 0.000000
0.601148 0.196120 0.000000
0.629105 0.183136 0.000000
0.657409 0.155739 0.000000
0.686378 0.101887 0.000000
0.000000 0.349193 0.000000
0.000000 0.348987 0.000000
0.000000 0.348770 0.000000
0.000000 0.348542 0.000000
0.000000 0.348463 0.000000
0.079948 0.348049 0.000000
0.105009 0.347783 0.000000
0.130279 0.347407 0.000000
0.146287 0.347108 0.000000
0.181604 0.343985 0.000000
0.197863 0.343503 0.000000
0.217174 0.342853 0.000000
0.243052 0.341843 0.000000
0.268178 0.340703 0.000000
0.292983 0.339416 0.000000
0.316282 0.340401 0.000000
0.337769 0.339027 0.000000
0.362459 0.336652 0.000000
0.391609 0.330808 0.000000
0.415994 0.317790 0.000000
0.438326 0.309878 0.000000
0.467766 0.295784 0.000000
0.495641 0.281572 0.000000
0.518834 0.270227 0.000000
0.544366 0.258061 0.000000
0.553700 0.251266 0.000000
0.566186 0.248646 0.000000
0.572250 0.242362 0.000000
0.593861 0.244565 0.000000
0.614238 0.233090 0.000000
0.639577 0.217860 0.000000
0.668883 0.208327 0.000000
0.694860 0.183214 0.000000
0.000000 0.372034 0.000000
0.000000 0.371871 0.000000
0.000000 0.371787 0.000000
0.044024 0.371702 0.000000
0.088071 0.371437 0.000000
0.113828 0.371159 0.000000
0.140190 0.370766 0.000000
0.151592 0.370559 0.000000
0.177122 0.370011 0.000000
0.195595 0.369536 0.000000
0.212971 0.369027 0.000000
0.229589 0.368482 0.000000
0.257487 0.367431 0.000000
0.273000 0.366770 0.000000
0.299800 0.365557 0.000000
0.318872 0.364653 0.000000
0.345634 0.363241 0.000000
0.372605 0.361589 0.000000
0.407383 0.355063 0.000000
0.432586 0.344026 0.000000
0.460998 0.329762 0.000000
0.486869 0.320864 0.000000
0.508088 0.315044 0.000000
0.529421 0.303762 0.000000
0.556449 0.291246 0.000000
0.576079 0.277132 0.000000
0.598077 0.259616 0.000000
0.598324 0.270048 0.000000
0.607619 0.260168 0.000000
0.630420 0.265991 0.000000
0.655335 0.256591 0.000000
0.675582 0.245983 0.000000
0.699065 0.233475 0.000000
0.070913 0.396609 0.000000
0.084610 0.396516 0.000000
0.105749 0.396348 0.000000
0.114584 0.396263 0.000000
0.130219 0.396088 0.000000
0.144019 0.395906 0.000000
0.162498 0.395620 0.000000
