Assets/Lutify-Free-LUTs-Pack/Lutify Free LUTs Pack/Colour Film Boost Pro - Film Boost 10/Lutify.me-FilmBoost10-NLog-to-Rec709.cube
# Created with: fylm.ai - Colour Grading and Collaboration Software in Cloud 
# Website: https://fylm.ai 
# META
# Option: Gamut compress
# Block 1: IDT | Nikon BT2020 N-Log
# Block 2: colourMatch | Blending Mode: Normal | {"ColorSpace":0,"CrossCovarianceLimit":50,"ReshapingIterations":1,"PercentSaturationShift":100,"PercentShadingShift":100,"ExtraShading":true,"PercentTint":100,"PercentModified":100}
# Block 3: subtractiveColour | Blending Mode: Normal | {"sliders":{"gainY":0.55,"C":0.3,"M":0.3,"Y":0.3}}
# Block 4: LUT | Filmic Curve Response: Low Contrast 2 (100%)
# Block 5: logPrimaries | Blending Mode: Normal | {"wheels":{"shadows":{"Y":"0","R":"1","G":"1","B":"1"},"midtones":{"Y":"0","R":"1","G":"1","B":"1"},"highlights":{"Y":"0","R":"1","G":"1","B":"1"},"offset":{"Y":"0","R":"1","G":"1","B":"1"}},"sliders":{"shadows":{"Y":0,"R":-0.085,"G":0.024,"B":0.134},"midtones":{"Y":0,"R":0,"G":-0.023,"B":0},"highlights":{"Y":0,"R":0,"G":0,"B":0},"offset":{"Y":0,"R":0.012,"G":-0.012,"B":0}}}
# Block 6: HSL | Blending Mode: Normal | {"hue":{"Reds":0,"Yellows":0,"Greens":0,"Cyans":0,"Blues":0,"Magentas":0},"saturation":{"Reds":1,"Yellows":1,"Greens":1,"Cyans":1,"Blues":1,"Magentas":1},"luminance":{"Reds":0.9,"Yellows":0.9,"Greens":0.9,"Cyans":0.9,"Blues":0.9,"Magentas":0.9},"lum_sat":{"Blacks":1,"Shadows":1,"Midtones":1,"Highlights":1,"Whites":1},"sat_sat":{"10":1,"20":1,"30":1,"40":1,"50":1}}
# Block 7: ODT | Rec709
TITLE "Lutify.me-FilmBoost10-NLog-to-Rec709" 
LUT_3D_SIZE 33
0.000000 0.000000 0.000000
0.000000 0.000000 0.000000
0.000000 0.000000 0.000000
0.000000 0.000000 0.000000
0.000000 0.000000 0.000000
0.000000 0.000000 0.000000
0.063413 0.000000 0.000000
0.105903 0.000000 0.000000
0.140628 0.000000 0.000000
0.181000 0.000000 0.000000
0.219701 0.000000 0.000000
0.259163 0.000000 0.000000
0.302481 0.000000 0.000000
0.348222 0.000000 0.000000
0.389651 0.000000 0.000000
0.431501 0.000000 0.000000
0.482455 0.000000 0.000000
0.540627 0.000000 0.000000
0.587500 0.000000 0.019234
0.643849 0.000000 0.033266
0.694144 0.000000 0.045164
0.759384 0.000000 0.058236
0.814229 0.000000 0.072528
0.870755 0.000000 0.089969
0.917829 0.000000 0.108189
0.961420 0.000000 0.132049
0.993552 0.000000 0.161753
1.000000 0.000000 0.194917
1.000000 0.163097 0.224440
1.000000 0.252445 0.255949
1.000000 0.327348 0.289511
1.000000 0.392611 0.335070
1.000000 0.447877 0.379419
0.000000 0.000000 0.000000
0.000000 0.000000 0.000000
0.000000 0.000000 0.000000
0.000000 0.000000 0.000000
0.000000 0.000000 0.000000
0.000000 0.000000 0.000000
0.063413 0.000000 0.000000
0.105903 0.000000 0.000000
0.140628 0.000000 0.000000
0.181000 0.000000 0.000000
0.219701 0.000000 0.000000
0.259163 0.000000 0.000000
0.304365 0.000000 0.000000
0.348222 0.000000 0.000000
0.389651 0.000000 0.000000
0.431501 0.000000 0.000000
0.482458 0.000000 0.000000
0.540627 0.000000 0.000000
0.587500 0.000000 0.019234
0.643849 0.000000 0.033266
0.694144 0.000000 0.045164
0.759384 0.000000 0.058236
0.814229 0.000000 0.072528
0.870755 0.000000 0.089969
0.918092 0.000000 0.109311
0.961420 0.000000 0.132049
0.993552 0.000000 0.161753
1.000000 0.000000 0.194917
1.000000 0.163097 0.224440
1.000000 0.252445 0.255949
1.000000 0.327348 0.289511
1.000000 0.392611 0.335070
1.000000 0.447877 0.379419
0.000000 0.000000 0.000000
0.000000 0.000000 0.000000
0.000000 0.000000 0.000000
0.000000 0.000000 0.000000
0.000000 0.000000 0.000000
0.000000 0.000000 0.000000
0.063774 0.000000 0.000000
0.106128 0.000000 0.000000
0.142323 0.000000 0.000000
0.181101 0.000000 0.000000
0.222506 0.000000 0.000000
0.259254 0.000000 0.000000
0.304478 0.000000 0.000000
0.348226 0.000000 0.000000
0.389652 0.000000 0.000000
0.431507 0.000000 0.000000
0.482458 0.000000 0.000000
0.540634 0.000000 0.000000
0.587500 0.000000 0.019234
0.644114 0.000000 0.034082
0.697599 0.000000 0.045011
0.759367 0.000000 0.057975
0.817714 0.000000 0.072473
0.870755 0.000000 0.089969
0.918092 0.000000 0.109311
0.961420 0.000000 0.132049
0.993552 0.000000 0.161753
1.000000 0.000000 0.194917
1.000000 0.163097 0.224440
1.000000 0.252445 0.255949
1.000000 0.327348 0.289511
1.000000 0.392611 0.335070
1.000000 0.447877 0.379419
0.000000 0.000000 0.000000
0.000000 0.000000 0.000000
0.000000 0.000000 0.000000
0.000000 0.000000 0.000000
0.000000 0.000000 0.000000
0.000000 0.000000 0.000000
0.065449 0.000000 0.000000
0.108133 0.000000 0.000000
0.142528 0.000000 0.000000
0.183615 0.000000 0.000000
0.224166 0.000000 0.000000
0.262881 0.000000 0.000000
0.304743 0.000000 0.000000
0.350313 0.000000 0.000000
0.392036 0.000000 0.000000
0.431517 0.000000 0.000000
0.482678 0.000000 0.000000
0.540871 0.000000 0.000000
0.587512 0.000000 0.018459
0.644115 0.000000 0.033956
0.697595 0.000000 0.044760
0.759367 0.000000 0.057975
0.817679 0.000000 0.072192
0.871043 0.000000 0.090970
0.918092 0.000000 0.109311
0.961333 0.000000 0.131879
0.993552 0.000000 0.161753
1.000000 0.000000 0.194688
1.000000 0.163097 0.224440
1.000000 0.252445 0.255949
1.000000 0.327348 0.289511
1.000000 0.392611 0.335070
1.000000 0.447877 0.379419
0.000000 0.000000 0.000000
0.000000 0.000000 0.000000
0.000000 0.000000 0.000000
0.000000 0.000000 0.000000
0.000000 0.000000 0.000000
0.000000 0.000000 0.000000
0.068485 0.000000 0.000000
0.110691 0.000000 0.000000
0.148853 0.000000 0.000000
0.185361 0.000000 0.000000
0.227622 0.000000 0.000000
0.268460 0.000000 0.000000
0.310337 0.000000 0.000000
0.354673 0.000000 0.000000
0.397020 0.000000 0.000000
0.434213 0.000000 0.000000
0.482702 0.000000 0.000000
0.540901 0.000000 0.000000
0.594411 0.000000 0.017960
0.647525 0.000000 0.033174
0.698144 0.000000 0.045869
0.759358 0.000000 0.057840
0.817642 0.000000 0.071896
0.870975 0.000000 0.090676
0.918037 0.000000 0.109152
0.963746 0.000000 0.131963
0.995522 0.000000 0.161683
1.000000 0.000000 0.194688
1.000000 0.163097 0.224440
1.000000 0.257034 0.255738
1.000000 0.327348 0.289511
1.000000 0.392611 0.335070
1.000000 0.447877 0.379419
0.000000 0.001347 0.000000
0.000000 0.001347 0.000000
0.000000 0.001515 0.000000
0.000000 0.003651 0.000000
0.000000 0.007646 0.000000
0.000000 0.012001 0.000000
0.080532 0.000000 0.000000
0.121482 0.000000 0.000000
0.156897 0.000000 0.000000
0.194226 0.000000 0.000000
0.234059 0.000000 0.000000
0.272273 0.000000 0.000000
0.314250 0.000000 0.000000
0.356976 0.000000 0.000000
0.399511 0.000000 0.000000
0.440004 0.000000 0.000000
0.485942 0.000000 0.000000
0.544627 0.000000 0.000000
0.594933 0.000000 0.019287
0.648064 0.000000 0.033823
0.698137 0.000000 0.045455
0.759597 0.000000 0.057828
0.817585 0.000000 0.071430
0.870941 0.000000 0.090525
0.918505 0.000000 0.111257
0.964015 0.000000 0.134208
0.995917 0.000000 0.164608
1.000000 0.000000 0.194512
1.000000 0.175547 0.224051
1.000000 0.257034 0.255738
1.000000 0.331259 0.289300
1.000000 0.396228 0.334876
1.000000 0.451312 0.379242
0.000000 0.051614 0.000000
0.000000 0.051614 0.000000
0.000000 0.051649 0.000000
0.000000 0.052584 0.000000
0.000000 0.053290 0.000000
0.000000 0.057303 0.000000
0.070266 0.051910 0.000000
0.125644 0.032041 0.000000
0.169937 0.000000 0.000000
0.210070 0.000000 0.000000
0.250786 0.000000 0.000000
0.289062 0.000000 0.000000
0.325848 0.000000 0.000000
0.363979 0.000000 0.000000
0.402678 0.000000 0.000000
0.442995 0.000000 0.000000
0.492451 0.000000 0.000000
0.548633 0.000000 0.000000
0.599055 0.000000 0.020191
0.651747 0.000000 0.033448
0.705873 0.000000 0.046457
0.763620 0.000000 0.058671
0.818110 0.000000 0.072624
0.870761 0.000000 0.089723
0.921164 0.000000 0.110813
0.963734 0.000000 0.133677
0.995655 0.000000 0.164263
1.000000 0.000000 0.194332
1.000000 0.175906 0.225882
1.000000 0.261647 0.255667
1.000000 0.331259 0.289300
1.000000 0.396228 0.334876
1.000000 0.451312 0.379242
0.000000 0.082893 0.000000
0.000000 0.082893 0.000000
0.000000 0.082930 0.000000
0.000000 0.083058 0.000000
0.000000 0.084725 0.000000
0.000000 0.091763 0.000000
0.031114 0.094805 0.000000
0.122718 0.083299 0.000000
0.184029 0.058613 0.000000
0.224845 0.021233 0.000000
0.264179 0.000000 0.000000
0.298203 0.000000 0.000000
0.340190 0.000000 0.000000
0.377871 0.000000 0.000000
0.413144 0.000000 0.000000
0.449594 0.000000 0.000000
0.502521 0.000000 0.000000
0.552693 0.000000 0.000000
0.602950 0.000000 0.018800
0.659127 0.000000 0.032370
0.706410 0.000000 0.046798
0.764130 0.000000 0.059220
0.822089 0.000000 0.073583
0.874122 0.000000 0.090236
0.921371 0.000000 0.112262
0.963861 0.000000 0.134810
0.995386 0.000000 0.163904
1.000000 0.000000 0.195613
1.000000 0.187568 0.225483
1.000000 0.266124 0.255450
1.000000 0.335450 0.291377
1.000000 0.399836 0.334680
1.000000 0.451312 0.379242
0.000000 0.118330 0.000000
0.000000 0.118330 0.000000
0.000000 0.118369 0.000000
0.000000 0.118525 0.000000
0.000000 0.120738 0.000000
0.000000 0.130562 0.000000
0.000000 0.136972 0.000000
0.095207 0.134568 0.000000
0.184048 0.117077 0.000000
0.235923 0.097981 0.000000
0.278082 0.079206 0.000000
0.317720 0.048216 0.000000
0.351921 0.000000 0.000000
0.393416 0.000000 0.000000
0.429655 0.000000 0.000000
0.470779 0.000000 0.000000
0.515976 0.000000 0.000000
0.563611 0.000000 0.000000
0.610764 0.000000 0.015145
0.663382 0.000000 0.031104
0.710949 0.000000 0.047545
0.768674 0.000000 0.060987
0.823134 0.000000 0.076129
0.877607 0.000000 0.091229
0.924420 0.000000 0.113933
0.965837 0.000000 0.134137
0.999442 0.000000 0.165223
1.000000 0.087238 0.195155
1.000000 0.198385 0.225193
1.000000 0.270864 0.257284
1.000000 0.343181 0.290948
1.000000 0.399836 0.334680
1.000000 0.455041 0.381926
0.000000 0.156651 0.000000
0.000000 0.156651 0.000000
0.000000 0.156707 0.000000
0.000000 0.156988 0.000000
0.000000 0.158951 0.000000
0.000000 0.168026 0.000000
0.000000 0.175193 0.000000
0.000000 0.177913 0.000000
0.172914 0.176001 0.000000
0.240833 0.151720 0.000000
0.289493 0.136927 0.000000
0.327175 0.120394 0.000000
0.374277 0.095873 0.000000
0.408347 0.062940 0.000000
0.445883 0.000000 0.000000
0.485369 0.000000 0.000000
0.527475 0.000000 0.000000
0.578378 0.000000 0.000000
0.625907 0.000000 0.000000
0.671613 0.000000 0.030352
0.715477 0.000000 0.047526
0.773168 0.000000 0.062163
0.826954 0.000000 0.076198
0.881546 0.000000 0.094137
0.927188 0.000000 0.115013
0.965628 0.000000 0.134660
0.999390 0.000000 0.167648
1.000000 0.110694 0.198101
1.000000 0.209315 0.226617
1.000000 0.279582 0.256841
1.000000 0.347203 0.290894
1.000000 0.404272 0.339898
1.000000 0.458471 0.381747
0.000000 0.191142 0.000000
0.000000 0.191142 0.000000
0.000000 0.194047 0.000000
0.000000 0.195881 0.000000
0.000000 0.196924 0.000000
0.000000 0.205014 0.000000
0.000000 0.213488 0.000000
0.000000 0.219850 0.000000
0.118039 0.216163 0.000000
0.225510 0.211313 0.000000
0.293272 0.183894 0.000000
0.336966 0.169696 0.000000
0.384036 0.152748 0.000000
0.421943 0.137100 0.000000
0.463636 0.116140 0.000000
0.501079 0.092623 0.000000
0.546740 0.010997 0.000000
0.591150 0.000000 0.000000
0.641102 0.000000 0.000000
0.683575 0.000000 0.027008
0.727181 0.000000 0.047092
0.780513 0.000000 0.060651
0.831242 0.000000 0.077624
0.884631 0.000000 0.093882
0.929610 0.000000 0.114762
0.968375 0.000000 0.139363
0.999155 0.000000 0.169894
1.000000 0.136715 0.199178
1.000000 0.224507 0.225947
1.000000 0.288297 0.256680
1.000000 0.351317 0.292987
1.000000 0.407860 0.339703
1.000000 0.458471 0.381747
0.000000 0.229948 0.000000
0.000000 0.230029 0.000000
0.000000 0.231687 0.000000
0.000000 0.235122 0.000000
0.000000 0.236731 0.000000
0.000000 0.245269 0.000000
0.000000 0.251303 0.000000
0.000000 0.255397 0.000000
0.000000 0.256760 0.000000
0.165393 0.256403 0.000000
0.274473 0.249160 0.000000
0.339926 0.221323 0.000000
0.394267 0.205067 0.000000
0.430493 0.192631 0.000000
0.474077 0.177090 0.000000
0.512057 0.165803 0.000000
0.556985 0.139097 0.000000
0.605103 0.106879 0.000000
0.651081 0.037015 0.000000
0.692076 0.000000 0.000000
0.739418 0.000000 0.045924
0.788927 0.000000 0.061704
0.838726 0.000000 0.078132
0.891161 0.000000 0.095614
0.929629 0.000000 0.116588
0.968053 0.000000 0.140803
1.000000 0.061808 0.171808
1.000000 0.163867 0.200134
1.000000 0.239174 0.227241
1.000000 0.301448 0.260154
1.000000 0.358912 0.292543
1.000000 0.415017 0.339307
1.000000 0.465323 0.381385
0.000000 0.269676 0.000000
0.000000 0.269776 0.000000
0.000000 0.271818 0.000000
0.000000 0.272939 0.000000
0.000000 0.274496 0.000000
0.000000 0.283137 0.000000
0.000000 0.289853 0.000000
0.000000 0.294899 0.000000
0.000000 0.301185 0.000000
0.000000 0.300638 0.000000
0.219661 0.296418 0.000000
0.325952 0.292834 0.000000
0.401970 0.260075 0.000000
0.444520 0.247907 0.000000
0.493298 0.236034 0.000000
0.529408 0.223441 0.000000
0.572142 0.207922 0.000000
0.618936 0.190990 0.000000
0.664630 0.168310 0.000000
0.708854 0.136225 0.000000
0.751386 0.080111 0.025941
0.797674 0.000000 0.060245
0.855876 0.000000 0.077590
0.894441 0.000000 0.097069
0.931989 0.000000 0.117031
0.972264 0.000000 0.143539
1.000000 0.121811 0.173800
1.000000 0.198989 0.202195
1.000000 0.258135 0.230306
1.000000 0.310034 0.261943
1.000000 0.370789 0.296558
1.000000 0.418880 0.341764
1.000000 0.469337 0.386969
0.000000 0.313393 0.000000
0.000000 0.313393 0.000000
0.000000 0.313763 0.000000
0.000000 0.314758 0.000000
0.000000 0.316534 0.000000
0.000000 0.327510 0.000000
0.000000 0.331263 0.000000
0.000000 0.337387 0.000000
0.000000 0.344688 0.000000
0.000000 0.347388 0.000000
0.138465 0.346833 0.000000
0.265323 0.342597 0.000000
0.382947 0.333311 0.000000
0.447159 0.306587 0.000000
0.498561 0.293237 0.000000
0.538668 0.283902 0.000000
0.586701 0.269195 0.000000
0.630216 0.250801 0.000000
0.674951 0.233245 0.000000
0.719024 0.214501 0.000000
0.764515 0.188508 0.000000
0.808586 0.149246 0.046858
0.859459 0.094835 0.075542
0.900506 0.043502 0.098721
0.934513 0.082091 0.120389
0.971242 0.118213 0.143946
1.000000 0.169225 0.173712
1.000000 0.224233 0.202791
1.000000 0.280921 0.232877
1.000000 0.326201 0.261123
1.000000 0.378550 0.298478
1.000000 0.426590 0.346745
1.000000 0.476175 0.386605
0.000000 0.354739 0.000000
0.000000 0.354739 0.000000
0.000000 0.355476 0.000000
0.000000 0.357121 0.000000
0.000000 0.359884 0.000000
0.000000 0.363706 0.000000
0.000000 0.370408 0.000000
0.000000 0.379528 0.000000
0.000000 0.387794 0.000000
0.000000 0.386480 0.000000
0.000000 0.388729 0.000000
0.211035 0.385258 0.000000
0.332728 0.385981 0.000000
0.439048 0.370799 0.000000
0.498050 0.347662 0.000000
0.541974 0.338512 0.000000
0.594401 0.318154 0.000000
0.643434 0.302721 0.000000
0.685309 0.290588 0.000000
0.727997 0.274509 0.000000
0.773588 0.260963 0.000000
0.817632 0.237084 0.033916
0.866278 0.198757 0.073346
0.905841 0.174932 0.099089
0.941800 0.160046 0.123712
0.972591 0.176595 0.147206
1.000000 0.212407 0.178099
1.000000 0.253315 0.206508
1.000000 0.302282 0.233609
1.000000 0.342521 0.264412
1.000000 0.390388 0.302759
1.000000 0.433898 0.346511
1.000000 0.483539 0.386605
0.000000 0.394094 0.000000
0.000000 0.394094 0.000000
0.000000 0.394270 0.000000
0.000000 0.395674 0.000000
0.000000 0.397999 0.000000
0.000000 0.401679 0.000000
0.000000 0.411566 0.000000
0.000000 0.418688 0.000000
0.000000 0.426067 0.000000
0.000000 0.426659 0.000000
0.000000 0.430657 0.000000
0.064149 0.433473 0.000000
0.286194 0.429651 0.000000
0.398282 0.427599 0.000000
0.491810 0.414846 0.000000
0.548894 0.390007 0.000000
0.597335 0.375822 0.000000
0.653997 0.353393 0.000000
0.694357 0.339719 0.000000
0.734291 0.332128 0.000000
0.781220 0.315969 0.000000
0.824429 0.302416 0.000000
0.871863 0.275297 0.064074
0.906902 0.252341 0.093272
0.944918 0.235995 0.124186
0.973288 0.235764 0.152354
1.000000 0.255349 0.182005
1.000000 0.280777 0.212213
1.000000 0.319145 0.236599
1.000000 0.362384 0.267491
1.000000 0.401707 0.304497
1.000000 0.444502 0.345897
1.000000 0.490632 0.389131
0.000000 0.441753 0.000000
0.000000 0.441753 0.000000
0.000000 0.444776 0.000000
0.000000 0.445991 0.000000
0.000000 0.448245 0.000000
0.000000 0.452009 0.000000
0.000000 0.456731 0.000000
0.000000 0.464311 0.000000
0.000000 0.468457 0.000000
0.000000 0.473147 0.000000
0.000000 0.473780 0.000000
0.000000 0.477382 0.000000
0.199697 0.476613 0.000000
0.346427 0.472105 0.000000
0.453075 0.472912 0.000000
0.539842 0.463819 0.000000
0.599335 0.434288 0.000000
0.656712 0.419061 0.000000
0.700193 0.401971 0.000000
0.742942 0.389561 0.000000
0.786311 0.378390 0.000000
0.830596 0.361944 0.000000
0.875854 0.348735 0.033170
0.910646 0.322519 0.093078
0.943952 0.310186 0.121361
0.974064 0.303734 0.153569
0.999413 0.303256 0.186924
1.000000 0.318893 0.215159
1.000000 0.347702 0.240795
1.000000 0.381930 0.270761
1.000000 0.416700 0.306164
1.000000 0.455363 0.348003
1.000000 0.500815 0.388564
0.000000 0.489805 0.000000
0.000000 0.489805 0.000000
0.000000 0.493160 0.000000
0.000000 0.494695 0.000000
0.000000 0.496690 0.000000
0.000000 0.499839 0.000000
0.000000 0.504431 0.000000
0.000000 0.511289 0.000000
0.000000 0.516510 0.000000
0.000000 0.523503 0.000000
0.000000 0.525539 0.000000
0.000000 0.525629 0.000000
0.000000 0.528551 0.000000
0.263002 0.531648 0.000000
0.397329 0.526479 0.000000
0.492001 0.521706 0.000000
0.589904 0.515558 0.000000
0.650793 0.484813 0.000000
0.702643 0.467209 0.000000
0.750688 0.453295 0.000000
0.792496 0.443843 0.000000
0.836096 0.428920 0.000000
0.878623 0.412904 0.000000
0.911871 0.396645 0.079886
0.943868 0.387025 0.120370
0.972443 0.377639 0.149849
0.998111 0.366753 0.187767
1.000000 0.366702 0.216923
1.000000 0.378775 0.240352
1.000000 0.401466 0.276379
1.000000 0.435358 0.309937
1.000000 0.473508 0.350041
1.000000 0.511214 0.388175
0.000000 0.540704 0.000000
0.000000 0.540704 0.000000
0.000000 0.540938 0.000000
0.000000 0.541877 0.000000
0.000000 0.543768 0.000000
0.000000 0.546639 0.000000
0.000000 0.550036 0.000000
0.000000 0.558241 0.000000
0.000000 0.562551 0.000000
0.000000 0.566920 0.000000
0.000000 0.574024 0.000000
0.000000 0.573270 0.000000
0.000000 0.575388 0.000000
0.163383 0.578289 0.000000
0.324210 0.575593 0.000000
0.440161 0.571347 0.000000
0.549166 0.568245 0.000000
0.645745 0.564282 0.000000
0.703813 0.534072 0.000000
0.756138 0.516365 0.000000
0.795973 0.499699 0.000000
0.837141 0.489756 0.000000
0.879406 0.471557 0.000000
0.912096 0.461565 0.055844
0.943566 0.442253 0.116213
0.969666 0.434863 0.155694
0.995645 0.427182 0.187883
1.000000 0.416905 0.222251
1.000000 0.413172 0.244011
1.000000 0.431164 0.276554
1.000000 0.464951 0.315753
1.000000 0.494980 0.354334
1.000000 0.528702 0.393044
0.000000 0.588978 0.000000
0.000000 0.588978 0.000000
0.000000 0.589472 0.000000
0.000000 0.590464 0.000000
0.000000 0.591710 0.000000
0.000000 0.594221 0.000000
0.000000 0.597267 0.000000
0.000000 0.601628 0.000000
0.000000 0.612095 0.000000
0.000000 0.614532 0.000000
0.000000 0.618740 0.000000
0.000000 0.623008 0.000000
0.000000 0.621329 0.000000
0.000000 0.620594 0.000000
0.248127 0.623963 0.000000
0.380709 0.620837 0.000000
0.500191 0.615497 0.000000
0.600307 0.618548 0.000000
0.692090 0.609030 0.000000
0.754226 0.578091 0.000000
0.795465 0.564602 0.000000
0.843998 0.545613 0.000000
0.883154 0.528623 0.000000
0.909742 0.520066 0.038428
0.940549 0.511323 0.107607
0.967087 0.493798 0.156739
0.994189 0.486914 0.196452
1.000000 0.475827 0.222084
1.000000 0.469598 0.252343
1.000000 0.467898 0.278542
1.000000 0.489830 0.314065
1.000000 0.516472 0.358885
1.000000 0.546341 0.398135
0.000000 0.634693 0.000000
0.000000 0.634693 0.000000
0.000000 0.635208 0.000000
0.000000 0.635724 0.000000
0.000000 0.640082 0.000000
0.000000 0.641906 0.000000
0.000000 0.644528 0.000000
0.000000 0.648490 0.000000
0.000000 0.652742 0.000000
0.000000 0.657745 0.000000
0.000000 0.663045 0.000000
0.000000 0.666726 0.000000
0.000000 0.668484 0.000000
0.000000 0.665987 0.000000
0.070638 0.665699 0.000000
0.292406 0.671677 0.000000
0.446530 0.667545 0.000000
0.558536 0.662361 0.000000
0.650192 0.662271 0.000000
0.736258 0.652984 0.000000
0.787176 0.627345 0.000000
0.838086 0.607406 0.000000
0.881696 0.586010 0.000000
0.913163 0.574472 0.055843
0.940220 0.565704 0.110521
0.963816 0.558245 0.150708
0.989316 0.545495 0.201021
1.000000 0.534680 0.228562
1.000000 0.528220 0.258332
1.000000 0.522731 0.286173
1.000000 0.525897 0.319612
1.000000 0.551586 0.362603
1.000000 0.573831 0.402474
0.000000 0.687154 0.079779
0.000000 0.687154 0.079779
0.000000 0.687154 0.079779
0.000000 0.687420 0.079874
0.000000 0.688485 0.080267
0.000000 0.689821 0.080768
0.000000 0.692502 0.081806
0.000000 0.695197 0.069406
0.000000 0.698711 0.053536
0.000000 0.705811 0.000000
0.000000 0.708647 0.000000
0.000000 0.713919 0.000000
0.000000 0.714432 0.000000
0.000000 0.714987 0.000000
0.000000 0.712954 0.000000
0.179488 0.715797 0.000000
0.366442 0.714536 0.000000
0.510431 0.710558 0.000000
0.612603 0.708390 0.000000
0.695493 0.705404 0.000000
0.771949 0.697149 0.000000
0.826363 0.677671 0.000000
0.872400 0.655487 0.000000
0.907430 0.638990 0.000000
0.932672 0.631226 0.113654
0.958113 0.620113 0.159320
0.982496 0.607144 0.208316
1.000000 0.600257 0.237228
1.000000 0.593116 0.263777
1.000000 0.580612 0.296663
1.000000 0.576066 0.329668
1.000000 0.583624 0.372510
1.000000 0.601355 0.407023
0.000000 0.731899 0.138216
0.000000 0.731899 0.138216
0.000000 0.731899 0.138216
0.000000 0.735282 0.136941
0.000000 0.736045 0.137326
0.000000 0.736807 0.137716
0.000000 0.738330 0.138512
0.000000 0.740609 0.131602
0.000000 0.743375 0.124610
0.000000 0.746108 0.121826
0.000000 0.748619 0.119138
0.000000 0.750521 0.112905
0.000000 0.757313 0.096280
0.000000 0.757359 0.052999
0.000000 0.758050 0.032856
0.000000 0.755670 0.039663
0.302190 0.754823 0.000000
0.437311 0.755882 0.000000
0.556197 0.751974 0.000000
0.654405 0.747189 0.000000
0.743900 0.741402 0.000000
0.816158 0.734985 0.000000
0.856325 0.721955 0.000000
0.897594 0.699419 0.054126
0.926259 0.687785 0.124423
0.949016 0.680791 0.170934
0.973440 0.670928 0.216780
0.991676 0.664284 0.247686
1.000000 0.653830 0.276231
1.000000 0.648003 0.307245
1.000000 0.643278 0.345286
1.000000 0.639412 0.384225
1.000000 0.639038 0.414226
0.000000 0.772208 0.191065
0.000000 0.772208 0.191065
0.000000 0.772674 0.191390
0.000000 0.772674 0.191390
0.000000 0.773603 0.192046
0.000000 0.774299 0.192543
0.000000 0.775452 0.193384
0.000000 0.776831 0.190965
0.000000 0.778875 0.189064
0.000000 0.781330 0.184003
0.000000 0.783717 0.182491
0.000000 0.786394 0.175114
0.000000 0.790468 0.173795
0.000000 0.791402 0.165463
0.000000 0.796303 0.150768
0.000000 0.793983 0.142841
0.179503 0.795793 0.137507
0.387307 0.794198 0.123536
0.499955 0.790084 0.103432
0.607521 0.785917 0.107410
0.705415 0.781123 0.112660
0.779664 0.778487 0.100372
0.839186 0.776059 0.091342
0.881596 0.758239 0.067400
0.916650 0.738817 0.138193
0.940628 0.729060 0.182879
0.963946 0.722601 0.226898
0.985574 0.709931 0.260009
1.000000 0.705756 0.282926
1.000000 0.691246 0.318843
1.000000 0.689679 0.357828
1.000000 0.685769 0.397112
1.000000 0.681744 0.427601
0.000000 0.808499 0.243095
0.000000 0.808499 0.243095
0.000000 0.808499 0.243095
0.000000 0.808904 0.243498
0.000000 0.809308 0.243903
0.000000 0.809509 0.244106
0.000000 0.810712 0.242008
0.000000 0.814125 0.242768
0.000000 0.815279 0.240695
0.000000 0.816968 0.235910
0.000000 0.818593 0.234520
0.000000 0.820111 0.229718
0.000000 0.821507 0.229568
0.000000 0.822627 0.229501
0.000000 0.823080 0.222194
0.000000 0.827179 0.214081
0.000000 0.826032 0.203360
0.321595 0.827268 0.203655
0.454665 0.823665 0.193513
0.565324 0.819599 0.187614
0.670606 0.815037 0.190387
0.750697 0.812811 0.193419
0.814470 0.810027 0.178375
0.866906 0.805996 0.181415
0.902326 0.791163 0.169710
0.930719 0.777196 0.209160
0.953961 0.765517 0.241147
0.975127 0.759291 0.277697
0.994618 0.749980 0.301468
1.000000 0.738691 0.328642
1.000000 0.731802 0.371403
1.000000 0.727430 0.408085
1.000000 0.723635 0.441548
0.000000 0.839487 0.309322
0.000000 0.839487 0.309322
0.000000 0.839817 0.309811
0.000000 0.839817 0.309811
0.000000 0.839981 0.310056
0.000000 0.840145 0.310302
0.000000 0.840637 0.307658
0.000000 0.843349 0.308648
