Assets/Lutify-Free-LUTs-Pack/Lutify Free LUTs Pack/Colour Film Boost Pro - Film Boost 10/Lutify.me-FilmBoost10-RWG-to-RWG.cube
# Created with: fylm.ai - Colour Grading and Collaboration Software in Cloud 
# Website: https://fylm.ai 
# META
# Option: Gamut compress
# Block 1: colourMatch | Blending Mode: Normal | {"ColorSpace":0,"CrossCovarianceLimit":50,"ReshapingIterations":1,"PercentSaturationShift":100,"PercentShadingShift":100,"ExtraShading":true,"PercentTint":100,"PercentModified":100}
# Block 2: subtractiveColour | Blending Mode: Normal | {"sliders":{"gainY":0.55,"C":0.3,"M":0.3,"Y":0.3}}
# Block 3: LUT | Filmic Curve Response: Low Contrast 2 (100%)
# Block 4: logPrimaries | Blending Mode: Normal | {"wheels":{"shadows":{"Y":"0","R":"1","G":"1","B":"1"},"midtones":{"Y":"0","R":"1","G":"1","B":"1"},"highlights":{"Y":"0","R":"1","G":"1","B":"1"},"offset":{"Y":"0","R":"1","G":"1","B":"1"}},"sliders":{"shadows":{"Y":0,"R":-0.085,"G":0.024,"B":0.134},"midtones":{"Y":0,"R":0,"G":-0.023,"B":0},"highlights":{"Y":0,"R":0,"G":0,"B":0},"offset":{"Y":0,"R":0.012,"G":-0.012,"B":0}}}
# Block 5: HSL | Blending Mode: Normal | {"hue":{"Reds":0,"Yellows":0,"Greens":0,"Cyans":0,"Blues":0,"Magentas":0},"saturation":{"Reds":1,"Yellows":1,"Greens":1,"Cyans":1,"Blues":1,"Magentas":1},"luminance":{"Reds":0.9,"Yellows":0.9,"Greens":0.9,"Cyans":0.9,"Blues":0.9,"Magentas":0.9},"lum_sat":{"Blacks":1,"Shadows":1,"Midtones":1,"Highlights":1,"Whites":1},"sat_sat":{"10":1,"20":1,"30":1,"40":1,"50":1}}
TITLE "ipp2" 
LUT_3D_SIZE 5
0.059970 0.073048 0.085414
0.202411 0.080769 0.097265
0.401909 0.183027 0.183835
0.595912 0.369757 0.360387
0.844822 0.573061 0.586946
0.082522 0.199105 0.127608
0.250367 0.206928 0.143858
0.407870 0.202793 0.187310
0.595617 0.371292 0.360049
0.844696 0.572924 0.586712
0.197765 0.374411 0.250022
0.241530 0.379482 0.255757
0.449659 0.370304 0.276664
0.596889 0.389089 0.357102
0.844576 0.574181 0.586765
0.379484 0.536721 0.401573
0.384928 0.537738 0.402738
0.436442 0.541122 0.408527
0.643867 0.520730 0.434723
0.849120 0.591905 0.589739
0.579551 0.747467 0.609387
0.579551 0.747467 0.609387
0.583831 0.747491 0.609563
0.643674 0.750965 0.615836
0.851889 0.738896 0.646728
0.070810 0.096958 0.160126
0.190580 0.090181 0.131822
0.405915 0.189924 0.205255
0.597483 0.371429 0.364494
0.844822 0.573061 0.586946
0.104800 0.201225 0.247346
0.233240 0.243567 0.251687
0.409193 0.212847 0.209491
0.597282 0.372452 0.364264
0.844822 0.573061 0.586946
0.192755 0.372499 0.248321
0.237805 0.377536 0.253986
0.448683 0.369354 0.275811
0.598685 0.394817 0.363248
0.844703 0.574314 0.586997
0.378963 0.536718 0.401552
0.384318 0.537733 0.402707
0.436442 0.541122 0.408527
0.643867 0.520730 0.434723
0.849233 0.591452 0.589787
0.579551 0.747467 0.609387
0.579551 0.747467 0.609387
0.583831 0.747491 0.609563
0.643674 0.750965 0.615836
0.851889 0.738896 0.646728
0.125969 0.144689 0.249897
0.175136 0.140646 0.241762
0.367377 0.136587 0.198538
0.604228 0.382150 0.399213
0.844326 0.573660 0.588169
0.155732 0.221857 0.340550
0.185023 0.223096 0.339771
0.378721 0.192707 0.290782
0.605339 0.384387 0.400519
0.844326 0.573660 0.588169
0.225009 0.366994 0.429803
0.231266 0.385052 0.422630
0.456421 0.455728 0.458555
0.611751 0.409082 0.406045
0.845976 0.575689 0.589351
0.370385 0.533723 0.398441
0.377486 0.535728 0.400572
0.433106 0.540107 0.407376
0.643846 0.519811 0.434201
0.851849 0.594554 0.594086
0.579016 0.747464 0.609365
0.579016 0.747464 0.609365
0.583831 0.747491 0.609563
0.642874 0.750956 0.615770
0.851889 0.738896 0.646728
0.290656 0.203468 0.326380
0.300017 0.204244 0.326762
0.364348 0.202394 0.317592
0.519263 0.230093 0.305353
0.852435 0.582327 0.610149
0.283295 0.286811 0.422539
0.290462 0.285843 0.421470
0.354011 0.255748 0.386369
0.519255 0.229682 0.304478
0.852437 0.582774 0.610230
0.326182 0.405139 0.526113
0.331078 0.406693 0.527567
0.382007 0.413515 0.531632
0.576656 0.382088 0.489624
0.852442 0.583668 0.610391
0.388547 0.526742 0.614752
0.388547 0.526742 0.614752
0.421827 0.580494 0.616834
0.651949 0.655372 0.647949
0.858749 0.607793 0.617700
0.571526 0.747421 0.609058
0.572061 0.747424 0.609080
0.577946 0.747458 0.609321
0.637961 0.749908 0.614465
0.851889 0.738896 0.646728
0.454169 0.274657 0.400346
0.455105 0.274815 0.400394
0.462595 0.275408 0.399873
0.512779 0.276863 0.389627
0.705099 0.382759 0.448670
0.454169 0.274657 0.400346
0.455105 0.274815 0.400394
0.462595 0.275408 0.399873
0.512779 0.276863 0.389627
0.705099 0.382759 0.448670
0.476995 0.494104 0.635485
0.477570 0.494118 0.635490
0.484588 0.492411 0.633547
0.531836 0.460138 0.600165
0.705099 0.382759 0.448670
0.540537 0.620251 0.751236
0.540940 0.620379 0.751370
0.545059 0.622032 0.752738
0.582857 0.625084 0.754085
0.817325 0.589680 0.696247
0.601079 0.734147 0.832875
0.601079 0.734147 0.832875
0.601079 0.734147 0.832875
0.665557 0.831588 0.867881
0.914656 0.932630 0.918635
