Assets/Lutify-Free-LUTs-Pack/Lutify Free LUTs Pack/Colour Film Boost Pro - Film Boost 10/Lutify.me-FilmBoost10-RWG-to-RWG.cube
# Created with: fylm.ai - Colour Grading and Collaboration Software in Cloud 
# Website: https://fylm.ai 
# META
# Option: Gamut compress
# Block 1: colourMatch | Blending Mode: Normal | {"ColorSpace":0,"CrossCovarianceLimit":50,"ReshapingIterations":1,"PercentSaturationShift":100,"PercentShadingShift":100,"ExtraShading":true,"PercentTint":100,"PercentModified":100}
# Block 2: subtractiveColour | Blending Mode: Normal | {"sliders":{"gainY":0.55,"C":0.3,"M":0.3,"Y":0.3}}
# Block 3: LUT | Filmic Curve Response: Low Contrast 2 (100%)
# Block 4: logPrimaries | Blending Mode: Normal | {"wheels":{"shadows":{"Y":"0","R":"1","G":"1","B":"1"},"midtones":{"Y":"0","R":"1","G":"1","B":"1"},"highlights":{"Y":"0","R":"1","G":"1","B":"1"},"offset":{"Y":"0","R":"1","G":"1","B":"1"}},"sliders":{"shadows":{"Y":0,"R":-0.085,"G":0.024,"B":0.134},"midtones":{"Y":0,"R":0,"G":-0.023,"B":0},"highlights":{"Y":0,"R":0,"G":0,"B":0},"offset":{"Y":0,"R":0.012,"G":-0.012,"B":0}}}
# Block 5: HSL | Blending Mode: Normal | {"hue":{"Reds":0,"Yellows":0,"Greens":0,"Cyans":0,"Blues":0,"Magentas":0},"saturation":{"Reds":1,"Yellows":1,"Greens":1,"Cyans":1,"Blues":1,"Magentas":1},"luminance":{"Reds":0.9,"Yellows":0.9,"Greens":0.9,"Cyans":0.9,"Blues":0.9,"Magentas":0.9},"lum_sat":{"Blacks":1,"Shadows":1,"Midtones":1,"Highlights":1,"Whites":1},"sat_sat":{"10":1,"20":1,"30":1,"40":1,"50":1}}
TITLE "ipp2" 
LUT_3D_SIZE 33
0.059970 0.073048 0.085414
0.059970 0.073048 0.085414
0.065504 0.073245 0.085705
0.079458 0.081192 0.091599
0.101442 0.076948 0.088100
0.124442 0.075221 0.088819
0.147649 0.076351 0.090593
0.173552 0.078101 0.093268
0.202411 0.080769 0.097265
0.226665 0.085868 0.101994
0.253930 0.093348 0.108709
0.284201 0.104961 0.118236
0.308994 0.117830 0.128057
0.334118 0.133178 0.139746
0.357766 0.147987 0.152045
0.380483 0.164325 0.167233
0.401909 0.183027 0.183835
0.425559 0.202821 0.201815
0.447755 0.225499 0.220617
0.471945 0.249370 0.242058
0.494353 0.273580 0.263012
0.519700 0.296331 0.285929
0.544233 0.320798 0.309534
0.569377 0.345912 0.334908
0.595912 0.369757 0.360387
0.623935 0.392711 0.385883
0.651372 0.419176 0.412776
0.679449 0.442651 0.438866
0.710174 0.464984 0.465900
0.744624 0.491553 0.496493
0.776276 0.518835 0.525895
0.807372 0.543955 0.553894
0.844822 0.573061 0.586946
0.059970 0.073048 0.085414
0.059970 0.073048 0.085414
0.065504 0.073245 0.085705
0.078946 0.081685 0.091679
0.101136 0.077963 0.088321
0.125244 0.076222 0.089074
0.148614 0.076876 0.090775
0.174896 0.078662 0.093518
0.203287 0.082202 0.097696
0.230902 0.088193 0.103268
0.256736 0.095515 0.109772
0.285395 0.106825 0.118929
0.309917 0.119972 0.128773
0.334128 0.134034 0.139941
0.357711 0.148651 0.152000
0.380427 0.165254 0.167252
0.401854 0.184253 0.183938
0.425565 0.203572 0.201997
0.447681 0.225440 0.220472
0.471950 0.249886 0.242193
0.494363 0.274692 0.263305
0.519700 0.296331 0.285929
0.544047 0.320621 0.309123
0.569387 0.347123 0.335218
0.595912 0.369757 0.360387
0.623935 0.392711 0.385883
0.651372 0.419176 0.412776
0.679449 0.442651 0.438866
0.710055 0.464844 0.465589
0.744624 0.491553 0.496493
0.776276 0.518835 0.525895
0.807372 0.543955 0.553894
0.844822 0.573061 0.586946
0.060454 0.078137 0.086528
0.061145 0.078162 0.086564
0.066682 0.078366 0.086857
0.079073 0.082800 0.092313
0.101265 0.079500 0.088678
0.125434 0.078721 0.089651
0.149692 0.078873 0.091304
0.177070 0.081191 0.094295
0.205048 0.085123 0.098585
0.231972 0.090557 0.103968
0.260635 0.099576 0.111526
0.287295 0.109274 0.119967
0.310846 0.122417 0.129561
0.335084 0.136279 0.140780
0.359627 0.150390 0.153194
0.380434 0.165997 0.167424
0.401792 0.184894 0.183899
0.425430 0.204196 0.201826
0.447612 0.225850 0.220449
0.471793 0.249758 0.241905
0.494363 0.274692 0.263305
0.519533 0.297342 0.285854
0.544057 0.321841 0.309448
0.569387 0.347123 0.335218
0.595808 0.369646 0.360115
0.623935 0.392711 0.385883
0.651372 0.419176 0.412776
0.679449 0.442651 0.438866
0.710059 0.465448 0.465731
0.744624 0.491553 0.496493
0.776276 0.518835 0.525895
0.807372 0.543955 0.553894
0.844822 0.573061 0.586946
0.069513 0.091202 0.093675
0.070054 0.091223 0.093707
0.071678 0.091287 0.093803
0.078759 0.091492 0.093817
0.103160 0.088051 0.090717
0.128065 0.084304 0.091056
0.151889 0.083364 0.092479
0.180742 0.085736 0.095715
0.207752 0.090004 0.100038
0.236587 0.096054 0.105988
0.262875 0.103622 0.112896
0.289163 0.113814 0.121485
0.313593 0.125556 0.131052
0.337904 0.139739 0.142531
0.359640 0.151605 0.153477
0.381276 0.168530 0.168024
0.401737 0.186329 0.184049
0.426264 0.204753 0.202110
0.449486 0.227237 0.221592
0.471802 0.250790 0.242174
0.494200 0.275098 0.263088
0.519533 0.297342 0.285854
0.544057 0.321841 0.309448
0.569387 0.347123 0.335218
0.595813 0.370268 0.360274
0.623935 0.392711 0.385883
0.651372 0.419176 0.412776
0.679454 0.443294 0.439031
0.710059 0.465448 0.465731
0.744624 0.491553 0.496493
0.776276 0.518835 0.525895
0.807372 0.543955 0.553894
0.844822 0.573061 0.586946
0.068348 0.111985 0.095573
0.069608 0.111958 0.095257
0.071980 0.111975 0.095003
0.076861 0.113138 0.095532
0.107203 0.115778 0.097773
0.137022 0.108184 0.097370
0.162474 0.104722 0.098346
0.190952 0.101673 0.100515
0.218114 0.100070 0.103770
0.242781 0.104381 0.108952
0.268153 0.111258 0.115790
0.294656 0.120404 0.124477
0.317377 0.130764 0.133429
0.339788 0.142602 0.143842
0.360616 0.154570 0.154544
0.381237 0.171051 0.168430
0.401612 0.187323 0.183898
0.426136 0.206238 0.202144
0.449423 0.228131 0.221695
0.471578 0.251630 0.242013
0.494033 0.274949 0.262732
0.519538 0.297929 0.286009
0.546015 0.323031 0.310819
0.569387 0.347123 0.335218
0.595813 0.370268 0.360274
0.623940 0.393345 0.386046
0.651372 0.419176 0.412776
0.679454 0.443294 0.439031
0.710059 0.465448 0.465731
0.744624 0.491553 0.496493
0.776276 0.518835 0.525895
0.807372 0.543955 0.553894
0.844822 0.573061 0.586946
0.068366 0.131184 0.100309
0.070897 0.131277 0.100443
0.073432 0.131370 0.100577
0.078400 0.133679 0.101513
0.103395 0.137031 0.103783
0.143605 0.137218 0.106203
0.173138 0.130163 0.106229
0.202224 0.127401 0.108486
0.228087 0.124895 0.111371
0.251257 0.123263 0.114965
0.273483 0.122370 0.119556
0.298378 0.128951 0.127515
0.319307 0.136538 0.135363
0.340749 0.145770 0.144908
0.362548 0.157958 0.156145
0.382926 0.174267 0.169286
0.402395 0.190022 0.184390
0.426845 0.208378 0.202487
0.449218 0.229503 0.221675
0.471509 0.252597 0.242139
0.493882 0.276471 0.262856
0.519362 0.297767 0.285624
0.545922 0.322942 0.310613
0.569194 0.347533 0.334858
0.595813 0.370268 0.360274
0.623940 0.393345 0.386046
0.651377 0.419810 0.412939
0.679454 0.443294 0.439031
0.710059 0.465448 0.465731
0.744624 0.491553 0.496493
0.776276 0.518835 0.525895
0.807372 0.543955 0.553894
0.844822 0.573061 0.586946
0.071698 0.153368 0.107844
0.074094 0.153488 0.107982
0.076890 0.152573 0.107774
0.081728 0.154976 0.108843
0.101342 0.158752 0.111208
0.140783 0.161753 0.114442
0.180279 0.157572 0.115823
0.211857 0.150020 0.116649
0.237507 0.145792 0.118926
0.261950 0.141499 0.122068
0.284235 0.141157 0.126798
0.305713 0.139626 0.132153
0.324038 0.143057 0.138558
0.343594 0.151477 0.147253
0.364496 0.162605 0.158071
0.385524 0.177717 0.170461
0.402989 0.193410 0.184515
0.426598 0.211355 0.202739
0.448946 0.231329 0.221569
0.471291 0.254057 0.242147
0.494700 0.277169 0.263294
0.520167 0.298472 0.285973
0.545927 0.323552 0.310776
0.569194 0.347533 0.334858
0.595818 0.370891 0.360434
0.623940 0.393345 0.386046
0.651377 0.419810 0.412939
0.679454 0.443294 0.439031
0.710059 0.465448 0.465731
0.744624 0.491553 0.496493
0.776276 0.518835 0.525895
0.807372 0.543955 0.553894
0.844822 0.573061 0.586946
0.076683 0.176620 0.117230
0.079264 0.178028 0.117943
0.082995 0.179510 0.118731
0.088053 0.179893 0.119106
0.103064 0.183527 0.121354
0.136714 0.188486 0.125089
0.180317 0.190759 0.129015
0.216522 0.184178 0.129792
0.246534 0.175975 0.130579
0.269494 0.169124 0.132216
0.292811 0.166048 0.136215
0.315055 0.161241 0.140555
0.334467 0.160659 0.146549
0.349339 0.163116 0.152210
0.369321 0.171367 0.162193
0.386525 0.181668 0.171880
0.405595 0.198434 0.186407
0.427268 0.215572 0.203694
0.449727 0.234508 0.222479
0.471750 0.256669 0.242432
0.494468 0.278628 0.263289
0.520007 0.300071 0.286068
0.545839 0.324074 0.310733
0.569100 0.348053 0.334792
0.595612 0.370670 0.359890
0.623730 0.393748 0.385654
0.651265 0.419690 0.412652
0.679454 0.443294 0.439031
0.710059 0.465448 0.465731
0.744624 0.491553 0.496493
0.776276 0.518835 0.525895
0.807372 0.543955 0.553894
0.844822 0.573061 0.586946
0.082522 0.199105 0.127608
0.085625 0.200745 0.128536
0.088338 0.200950 0.128733
0.093932 0.202870 0.129905
0.107261 0.206957 0.132489
0.133373 0.212303 0.136236
0.171921 0.213687 0.139119
0.220004 0.216379 0.144539
0.250367 0.206928 0.143858
0.274072 0.202384 0.145655
0.296226 0.193679 0.146680
0.319305 0.189038 0.150579
0.339451 0.183660 0.154852
0.358107 0.181656 0.160638
0.375122 0.182430 0.167433
0.391431 0.190797 0.176569
0.407870 0.202793 0.187310
0.426851 0.221351 0.204143
0.449194 0.238165 0.222399
0.471251 0.260121 0.242456
0.494160 0.280667 0.263331
0.519675 0.301512 0.285801
0.545669 0.325728 0.310818
0.568909 0.348471 0.334501
0.595617 0.371292 0.360049
0.623730 0.393748 0.385654
0.651270 0.420324 0.412815
0.679454 0.443294 0.439031
0.710059 0.465448 0.465731
0.744624 0.491553 0.496493
0.776276 0.518835 0.525895
0.807372 0.543955 0.553894
0.844696 0.572924 0.586712
0.089516 0.220346 0.138572
0.092558 0.222150 0.139657
0.095686 0.223214 0.140364
0.101920 0.225436 0.141849
0.114029 0.230578 0.145215
0.133800 0.233160 0.147432
0.164219 0.237490 0.151314
0.211928 0.238430 0.155185
0.254792 0.240188 0.160642
0.277883 0.230416 0.159008
0.301585 0.221576 0.159260
0.324596 0.216533 0.162425
0.344548 0.209516 0.165200
0.363232 0.207319 0.170598
0.383875 0.200934 0.176193
0.396340 0.200947 0.181559
0.411799 0.212262 0.191711
0.428990 0.225033 0.204679
0.449450 0.244110 0.223135
0.471443 0.263828 0.242815
0.494593 0.282916 0.263611
0.519436 0.303631 0.285950
0.545321 0.327816 0.310670
0.568533 0.349970 0.334141
0.596491 0.372092 0.360519
0.623633 0.394901 0.385703
0.651270 0.420324 0.412815
0.679459 0.443936 0.439196
0.710064 0.466086 0.465886
0.744503 0.491417 0.496226
0.776276 0.518835 0.525895
0.807372 0.543955 0.553894
0.844698 0.573388 0.586807
0.100057 0.245100 0.152937
0.102569 0.246992 0.154147
0.105297 0.247336 0.154444
0.112292 0.249837 0.156189
0.123947 0.252550 0.158318
0.140188 0.256095 0.161150
0.159789 0.258001 0.163184
0.201406 0.261125 0.167489
0.248757 0.262183 0.172216
0.283076 0.261840 0.176295
0.308097 0.251412 0.174756
0.330992 0.245596 0.176810
0.348892 0.237401 0.177611
0.368429 0.233152 0.181850
0.389048 0.227025 0.186820
0.407161 0.223978 0.193285
0.419604 0.223004 0.198423
0.433290 0.235102 0.208778
0.452371 0.251392 0.225323
0.471666 0.268344 0.243456
0.493915 0.286246 0.263527
0.520811 0.306116 0.286758
0.545768 0.329529 0.310639
0.568353 0.351184 0.334140
0.596290 0.372495 0.360145
0.623644 0.396169 0.386028
0.651164 0.420841 0.412693
0.680309 0.444104 0.439504
0.710064 0.466086 0.465886
0.744507 0.491967 0.496347
0.776279 0.519387 0.526016
0.807375 0.544506 0.554015
0.844698 0.573388 0.586807
0.111231 0.267420 0.167314
0.113770 0.269367 0.168633
0.118046 0.270775 0.169671
0.123783 0.272403 0.170899
0.135124 0.275574 0.173322
0.148921 0.278356 0.175651
0.163131 0.282047 0.178702
0.191816 0.283253 0.180895
0.238905 0.284003 0.184587
0.280944 0.285084 0.189676
0.310830 0.284303 0.193414
0.333990 0.274530 0.192176
0.355381 0.266660 0.192973
0.372846 0.261030 0.195156
0.393397 0.255687 0.199481
0.411392 0.252072 0.204811
0.426661 0.246367 0.209203
0.443065 0.244746 0.216535
0.453851 0.259426 0.226466
0.474206 0.275002 0.245194
0.493466 0.290527 0.263276
0.520027 0.310754 0.286880
0.545263 0.332469 0.310611
0.568769 0.352960 0.334095
0.595994 0.373419 0.359747
0.624406 0.396864 0.386230
0.652026 0.421655 0.413170
0.680314 0.444747 0.439669
0.709956 0.467252 0.465919
0.744507 0.491967 0.496347
0.776155 0.519248 0.525745
0.807375 0.544506 0.554015
0.844698 0.573388 0.586807
0.124208 0.289863 0.182838
0.127595 0.292087 0.184506
0.131091 0.292643 0.185009
0.138827 0.295229 0.187067
0.146667 0.295282 0.187346
0.157885 0.297144 0.189025
0.170620 0.300805 0.192055
0.190607 0.301879 0.193660
0.226764 0.304096 0.197217
0.271337 0.304923 0.201439
0.308643 0.306819 0.207081
0.338913 0.301201 0.208414
0.359301 0.295835 0.209454
0.378292 0.287490 0.209592
0.398778 0.282669 0.213383
0.415635 0.275422 0.215935
0.433792 0.272206 0.221854
0.452001 0.266520 0.227878
0.466578 0.266629 0.235401
0.474246 0.280354 0.244636
0.497312 0.297422 0.265714
0.519667 0.315978 0.287019
0.544499 0.335190 0.310197
0.568136 0.355827 0.333689
0.595608 0.375520 0.359519
0.624208 0.398539 0.386211
0.651809 0.422057 0.412764
0.680089 0.445140 0.439249
0.709956 0.467252 0.465919
0.744510 0.492516 0.496467
0.776155 0.519248 0.525745
0.807375 0.544506 0.554015
0.844698 0.573388 0.586807
0.139566 0.310645 0.198052
0.143602 0.312278 0.199376
0.148135 0.314263 0.201016
0.153636 0.317071 0.203320
0.160938 0.317117 0.203575
0.169210 0.318096 0.204589
0.180268 0.321868 0.207839
0.195261 0.321988 0.208513
0.222112 0.324101 0.211398
0.258860 0.324605 0.214156
0.299875 0.325437 0.218570
0.340653 0.327380 0.225345
0.362420 0.322194 0.225740
0.381131 0.313850 0.224762
0.401417 0.308223 0.227136
0.420972 0.300758 0.229468
0.438115 0.298045 0.234531
0.456227 0.291453 0.239150
0.474607 0.288793 0.247004
0.487206 0.287417 0.253009
0.495841 0.303608 0.264654
0.521174 0.319681 0.287145
0.543084 0.340153 0.309513
0.568109 0.358622 0.333168
0.595705 0.377675 0.358979
0.623701 0.400536 0.385701
0.651492 0.423621 0.412403
0.679984 0.446300 0.439286
0.709843 0.467772 0.465794
0.744393 0.492930 0.496322
0.776159 0.519800 0.525866
0.807253 0.544917 0.553863
0.844698 0.573388 0.586807
0.159724 0.333728 0.216225
0.161966 0.334663 0.217004
0.165062 0.335602 0.217808
0.170088 0.335631 0.217976
0.175065 0.336581 0.218851
0.181018 0.337540 0.219771
0.190270 0.339442 0.221533
0.203619 0.339542 0.222113
0.223808 0.342521 0.225294
0.250240 0.343750 0.227677
0.287659 0.344316 0.230879
0.330462 0.346198 0.236767
0.363159 0.346894 0.242078
0.385150 0.340748 0.242121
0.405118 0.333388 0.242275
0.424555 0.326712 0.243965
0.442524 0.323307 0.248237
0.462465 0.315849 0.252358
0.480771 0.314087 0.259631
0.497202 0.309374 0.265893
0.511831 0.309750 0.273998
0.519515 0.326774 0.286025
0.545250 0.342500 0.309284
0.568450 0.361820 0.332648
0.594760 0.381010 0.358121
0.623090 0.401835 0.384852
0.651288 0.425311 0.412375
0.679765 0.447335 0.439031
0.711661 0.469538 0.467163
0.744276 0.493356 0.496188
0.776039 0.520213 0.525717
0.807253 0.544917 0.553863
0.844700 0.573851 0.586902
0.180314 0.355432 0.234045
0.181899 0.355440 0.234094
0.183224 0.353557 0.232598
0.186962 0.355469 0.234265
0.190830 0.356436 0.235171
0.195673 0.357410 0.236115
0.204361 0.359355 0.237985
0.214519 0.359426 0.238410
0.231632 0.360504 0.239987
0.250912 0.363508 0.243325
0.279589 0.361971 0.243857
0.317781 0.362613 0.247559
0.355615 0.366327 0.254792
0.389515 0.366720 0.260469
0.410896 0.357765 0.258883
0.427292 0.351203 0.258707
0.445034 0.345349 0.260706
0.465861 0.339592 0.265029
0.483078 0.335270 0.269942
0.500437 0.332446 0.276467
0.518855 0.327975 0.284142
0.533497 0.327836 0.292298
0.541673 0.347476 0.306268
0.568686 0.363690 0.331040
0.596185 0.386016 0.358666
0.624348 0.405870 0.385757
0.652478 0.427051 0.412484
0.679547 0.448370 0.438784
0.711554 0.470709 0.467242
0.744039 0.493655 0.495796
0.776042 0.520769 0.525842
0.807256 0.545468 0.553984
0.844700 0.573851 0.586902
0.197765 0.374411 0.250022
0.199048 0.374418 0.250064
0.200697 0.374427 0.250119
0.203669 0.375396 0.251009
0.207380 0.376377 0.251944
0.212526 0.377367 0.252930
0.220389 0.377416 0.253236
0.229739 0.377479 0.253631
0.241530 0.379482 0.255757
0.256706 0.379608 0.256541
0.278723 0.380787 0.258688
0.307811 0.381172 0.261012
0.345114 0.382816 0.265853
0.381228 0.384712 0.271965
0.413237 0.382772 0.276092
0.430385 0.377718 0.276380
0.449659 0.370304 0.276664
0.469430 0.366296 0.280431
0.486450 0.358426 0.282461
0.504727 0.355829 0.288882
0.524015 0.350269 0.295508
0.544464 0.347832 0.305434
0.556202 0.347861 0.312306
0.566646 0.370166 0.329091
0.596889 0.389089 0.357102
0.626754 0.410341 0.386549
0.651536 0.429336 0.411270
0.680817 0.450173 0.439067
0.711213 0.471635 0.466813
0.743807 0.494511 0.495533
0.775802 0.521623 0.525571
0.807138 0.546446 0.553970
0.844576 0.574181 0.586765
0.217092 0.394675 0.267823
0.218330 0.394682 0.267867
0.220548 0.395654 0.268766
0.223001 0.395667 0.268848
0.226308 0.395684 0.268961
0.230891 0.395713 0.269139
0.236981 0.395748 0.269368
0.245636 0.396765 0.270554
0.255116 0.397786 0.271780
0.267194 0.398841 0.273207
0.283191 0.398988 0.274127
0.303765 0.401117 0.277097
0.335208 0.401561 0.279819
0.370303 0.403193 0.284673
0.406131 0.403248 0.289649
0.433680 0.403044 0.294521
0.453553 0.395064 0.293541
0.474050 0.390513 0.296230
0.492823 0.383677 0.298185
0.511030 0.380489 0.303620
0.528311 0.375348 0.308605
0.546733 0.372065 0.316135
0.568164 0.369019 0.326533
0.580921 0.370063 0.334605
0.592485 0.394115 0.353029
0.626602 0.413290 0.384425
0.653868 0.433044 0.411668
0.679721 0.451616 0.437343
0.711495 0.473138 0.466439
0.745387 0.497670 0.496754
0.777600 0.523370 0.526924
0.808923 0.547631 0.555192
0.844453 0.574512 0.586629
0.238944 0.413036 0.284242
0.239821 0.413040 0.284271
0.241599 0.413051 0.284338
0.243388 0.413061 0.284405
0.246250 0.413077 0.284513
0.249112 0.413094 0.284621
0.254249 0.413125 0.284824
0.260136 0.413164 0.285079
0.267735 0.415152 0.287088
0.278832 0.416205 0.288480
0.290114 0.416294 0.289061
0.309073 0.416481 0.290252
0.333335 0.416777 0.292116
0.360165 0.417200 0.294739
0.394620 0.419838 0.300673
0.431166 0.420914 0.306904
0.455628 0.417382 0.309150
0.476795 0.411481 0.310374
0.495468 0.406136 0.312455
0.513459 0.401266 0.315675
0.531620 0.396202 0.320075
0.550947 0.392285 0.327089
0.571360 0.389705 0.336389
0.590898 0.387502 0.346569
0.607595 0.388831 0.357212
0.621458 0.416988 0.378840
0.654274 0.435746 0.410263
0.682077 0.453860 0.437323
0.710601 0.475418 0.465287
0.744688 0.498627 0.495615
0.777247 0.525210 0.526648
0.808805 0.548614 0.555183
0.844334 0.575768 0.586682
0.260676 0.429638 0.299616
0.261058 0.429640 0.299630
0.262587 0.429649 0.299686
0.263734 0.429655 0.299728
0.265264 0.429663 0.299785
0.268153 0.430649 0.300755
0.271769 0.430673 0.300911
0.276338 0.431670 0.301960
0.283834 0.433653 0.303985
0.291788 0.433713 0.304375
0.302766 0.433797 0.304933
0.319148 0.434915 0.306761
0.336894 0.436068 0.308815
0.356016 0.436304 0.310339
0.382676 0.436739 0.313063
0.421287 0.437616 0.318363
0.454324 0.439350 0.324997
0.477959 0.435836 0.327203
0.498234 0.429001 0.327719
0.517028 0.423700 0.330157
0.535966 0.416291 0.332655
0.557114 0.411784 0.339147
0.578459 0.409196 0.348139
0.597007 0.407690 0.357659
0.620555 0.407800 0.371703
0.638279 0.409974 0.383637
0.648709 0.438285 0.403496
0.683142 0.457572 0.436210
0.714085 0.478160 0.466430
0.744848 0.500662 0.495161
0.777485 0.526481 0.526143
0.808445 0.550452 0.554901
0.844088 0.576429 0.586411
0.282248 0.449138 0.317625
0.283049 0.449142 0.317654
0.283479 0.449145 0.317671
0.284435 0.449151 0.317711
0.286284 0.450138 0.318663
0.289155 0.450156 0.318785
0.292025 0.450174 0.318907
0.295309 0.451170 0.319920
0.300040 0.452176 0.321005
0.307156 0.452226 0.321345
0.318159 0.452310 0.321906
0.331057 0.452425 0.322662
0.343267 0.452542 0.323431
0.360748 0.453717 0.325625
0.380959 0.456890 0.329890
0.410827 0.457407 0.333155
0.442732 0.458161 0.337756
0.476702 0.458829 0.343917
0.501207 0.452382 0.344414
0.521619 0.446579 0.345853
0.539533 0.440488 0.347940
0.560534 0.435218 0.352860
0.580785 0.430824 0.359447
0.601177 0.427498 0.367949
0.624667 0.426207 0.380569
0.648284 0.427153 0.395604
0.665085 0.430553 0.407831
0.678537 0.461474 0.430859
0.714409 0.483060 0.465419
0.748642 0.505067 0.497643
0.778332 0.527792 0.525823
0.809749 0.552817 0.555682
0.844670 0.577434 0.586657
0.308278 0.471715 0.339000
0.308278 0.471715 0.339000
0.309270 0.471721 0.339042
0.309768 0.471724 0.339062
0.311261 0.471733 0.339125
0.312755 0.471742 0.339188
0.314748 0.471755 0.339272
0.318235 0.471776 0.339419
0.322482 0.471805 0.339615
0.327728 0.471845 0.339882
0.335838 0.472878 0.341167
0.342751 0.473902 0.342392
0.353480 0.475944 0.344789
0.366673 0.476068 0.345622
0.384251 0.476276 0.346998
0.405261 0.476572 0.348915
0.432049 0.477048 0.351943
0.467078 0.478859 0.357978
0.500289 0.482357 0.366341
0.523833 0.473983 0.365313
0.541454 0.468150 0.365977
0.562225 0.462057 0.368890
0.585192 0.456039 0.374376
0.608432 0.453078 0.383435
0.631830 0.449855 0.394160
0.656375 0.448773 0.408114
0.679065 0.449382 0.422856
0.693944 0.453876 0.434403
0.710059 0.487957 0.460389
0.748044 0.510386 0.496272
0.779930 0.530463 0.526263
0.809862 0.554548 0.555327
0.844190 0.579697 0.586378
0.333414 0.493345 0.359663
0.333414 0.493345 0.359663
0.333911 0.493348 0.359684
0.334408 0.493351 0.359705
0.335832 0.494339 0.360669
0.337367 0.494348 0.360733
0.338391 0.494354 0.360775
0.340440 0.494366 0.360861
0.343236 0.494386 0.360993
0.346819 0.494412 0.361175
0.350999 0.494444 0.361387
0.357009 0.494488 0.361692
0.364598 0.494548 0.362102
0.374301 0.494639 0.362715
0.390256 0.495770 0.364650
0.408391 0.496963 0.366979
0.429082 0.497268 0.368973
0.456250 0.497771 0.372191
0.490557 0.498641 0.377547
0.524547 0.500935 0.385420
0.544569 0.494628 0.385179
0.567771 0.485065 0.385159
0.590536 0.477441 0.388406
0.611751 0.474408 0.395519
0.635059 0.470124 0.404651
0.661529 0.469730 0.419057
0.685173 0.469327 0.433384
0.708940 0.471907 0.449977
0.724851 0.476173 0.462251
0.745654 0.512997 0.492048
0.779599 0.534441 0.525075
0.812137 0.556780 0.555885
0.845617 0.582758 0.587554
0.354739 0.512061 0.377713
0.354739 0.512061 0.377713
0.355762 0.512067 0.377756
0.355762 0.512067 0.377756
0.356273 0.512070 0.377777
0.356784 0.512073 0.377799
0.358328 0.512082 0.377864
0.359520 0.512091 0.377925
0.361650 0.513084 0.378927
0.365296 0.513110 0.379111
0.368080 0.514107 0.380146
0.372968 0.514143 0.380394
0.378807 0.515162 0.381584
0.389511 0.515255 0.382216
0.402207 0.515372 0.383019
0.415826 0.515524 0.384039
0.433181 0.515733 0.385447
0.453662 0.516060 0.387586
0.481292 0.516608 0.391091
0.515073 0.519423 0.398213
0.545281 0.521613 0.405451
0.569856 0.511422 0.403744
0.592369 0.504967 0.406064
0.615230 0.498430 0.410291
0.638384 0.493047 0.417286
0.664751 0.491271 0.429686
0.690293 0.488187 0.443147
0.717025 0.491530 0.461333
0.743875 0.494445 0.480797
0.757883 0.501767 0.492973
0.777289 0.538446 0.521441
0.812834 0.561983 0.555921
0.848232 0.586486 0.589235
0.379484 0.536721 0.401573
0.379484 0.536721 0.401573
0.379484 0.536721 0.401573
0.380526 0.536727 0.401617
0.380526 0.536727 0.401617
0.381047 0.536730 0.401638
0.382003 0.537717 0.402596
0.383099 0.537724 0.402645
0.384928 0.537738 0.402738
0.386757 0.537751 0.402830
0.390416 0.537778 0.403016
0.393473 0.537800 0.403170
0.399056 0.537841 0.403452
0.406811 0.537902 0.403877
0.414375 0.539928 0.406151
0.423167 0.540987 0.407604
0.436442 0.541122 0.408527
0.454666 0.541341 0.410007
0.478333 0.541703 0.412400
0.505072 0.542225 0.415771
0.537835 0.544043 0.421898
0.571707 0.544268 0.428358
0.596503 0.536143 0.428374
0.620870 0.526002 0.429128
0.643867 0.520730 0.434723
0.672021 0.516331 0.445228
0.696516 0.513326 0.456870
0.722195 0.514107 0.472449
0.749009 0.515559 0.490521
0.778991 0.521658 0.513558
0.790051 0.528816 0.523548
0.810097 0.567081 0.552697
0.849120 0.591905 0.589739
0.404493 0.561412 0.425614
0.404493 0.561412 0.425614
0.404493 0.561412 0.425614
0.404493 0.561412 0.425614
0.405020 0.561415 0.425636
0.405550 0.561418 0.425658
0.405550 0.561418 0.425658
0.407408 0.561432 0.425752
0.408027 0.561437 0.425784
0.409884 0.561450 0.425877
0.412361 0.561468 0.426003
