Assets/Lutify-Free-LUTs-Pack/Lutify Free LUTs Pack/Print Film Pro - Print Film 2/Lutify.me-PrintFilm2-NLog-to-Rec709.cube
# Created with: fylm.ai - Colour Grading and Collaboration Software in Cloud 
# Website: https://fylm.ai 
# META
# Option: Gamut compress
# Block 1: IDT | Nikon BT2020 N-Log
# Block 2: colourMatch | Blending Mode: Normal | {"ColorSpace":0,"CrossCovarianceLimit":50,"ReshapingIterations":1,"PercentSaturationShift":100,"PercentShadingShift":100,"ExtraShading":true,"PercentTint":100,"PercentModified":100}
# Block 3: HSL | Blending Mode: Normal | {"hue":{"Reds":0,"Yellows":0,"Greens":0,"Cyans":0,"Blues":0,"Magentas":0},"saturation":{"Reds":1,"Yellows":0.9,"Greens":0.95,"Cyans":1,"Blues":1,"Magentas":1},"luminance":{"Reds":0.8,"Yellows":0.95,"Greens":0.9,"Cyans":0.8,"Blues":0.8,"Magentas":0.8},"lum_sat":{"Blacks":1,"Shadows":1,"Midtones":1,"Highlights":1,"Whites":1},"sat_sat":{"10":1,"20":1,"30":1,"40":1,"50":1}}
# Block 4: LUT | Filmic Curve Response: Low Contrast 2 (100%)
# Block 5: ODT | Rec709
TITLE "Lutify.me-PrintFilm2-NLog-to-Rec709" 
LUT_3D_SIZE 9
0.000000 0.000000 0.000000
0.000000 0.000000 0.000000
0.044553 0.000000 0.000000
0.228600 0.000000 0.000000
0.467281 0.000000 0.000000
0.741694 0.000000 0.056414
0.969249 0.101658 0.153218
1.000000 0.443788 0.317163
1.000000 0.699850 0.545409
0.000000 0.000000 0.000000
0.000000 0.000000 0.000000
0.064151 0.000000 0.000000
0.244768 0.000000 0.000000
0.475338 0.000000 0.000000
0.744632 0.000000 0.056558
0.970150 0.117048 0.154144
1.000000 0.445937 0.317321
1.000000 0.700495 0.545637
0.000000 0.063025 0.000000
0.000000 0.070309 0.000000
0.141142 0.095182 0.000000
0.342356 0.063538 0.000000
0.532004 0.000000 0.000000
0.769952 0.000000 0.056368
0.974704 0.196698 0.159157
1.000000 0.462977 0.320072
1.000000 0.704955 0.547227
0.000000 0.244627 0.000000
0.000000 0.260565 0.000000
0.000000 0.311979 0.000000
0.411326 0.316844 0.000000
0.649731 0.316337 0.000000
0.833160 0.281228 0.000000
0.981245 0.331883 0.166703
1.000000 0.514312 0.330412
1.000000 0.718042 0.553310
0.000000 0.489844 0.000000
0.000000 0.501613 0.000000
0.000000 0.530561 0.000000
0.314443 0.576666 0.000000
0.664481 0.568976 0.000000
0.875295 0.570711 0.000000
0.986422 0.541718 0.189668
1.000000 0.599398 0.356566
1.000000 0.741358 0.563886
0.000000 0.739138 0.187538
0.000000 0.741772 0.183562
0.000000 0.754348 0.156612
0.000000 0.777291 0.089549
0.597941 0.789667 0.000000
0.851416 0.783917 0.000000
0.968269 0.780980 0.269715
1.000000 0.759032 0.425561
1.000000 0.790715 0.591520
0.000000 0.893049 0.456439
0.000000 0.893512 0.455386
0.000000 0.897644 0.449014
0.068765 0.901106 0.433063
0.580135 0.903513 0.416177
0.814563 0.903267 0.410270
0.944636 0.900092 0.394221
1.000000 0.896455 0.556725
1.000000 0.883845 0.677596
0.393926 0.965285 0.716285
0.401014 0.965375 0.716011
0.442311 0.965993 0.714046
0.538145 0.966100 0.712149
0.653550 0.964481 0.698685
0.793703 0.963451 0.689158
0.916687 0.964086 0.690366
0.988517 0.962510 0.683430
1.000000 0.958933 0.788711
0.736053 0.997803 0.867627
0.736983 0.997801 0.867580
0.743326 0.997785 0.867255
0.759204 0.997751 0.866899
0.786233 0.997720 0.867242
0.832663 0.996987 0.863297
0.904398 0.995872 0.857355
0.970989 0.995534 0.860532
1.000000 0.993765 0.861027
0.000000 0.000000 0.000000
0.000000 0.000000 0.000000
0.049613 0.000000 0.000000
0.233322 0.000000 0.000000
0.469845 0.000000 0.006755
0.743042 0.000000 0.064560
0.969014 0.104991 0.157947
1.000000 0.444383 0.320247
1.000000 0.700075 0.546899
0.000000 0.000000 0.000000
0.000000 0.000000 0.000000
0.068553 0.000000 0.000000
0.248719 0.000000 0.000000
0.476346 0.000000 0.010039
0.745503 0.000000 0.064738
0.969911 0.119887 0.158903
1.000000 0.446532 0.320408
1.000000 0.700721 0.547127
0.000000 0.064631 0.000000
0.000000 0.073295 0.000000
0.135390 0.104484 0.000000
0.343709 0.071559 0.000000
0.532911 0.000000 0.000000
0.770166 0.000000 0.065769
0.974886 0.195990 0.164330
1.000000 0.462795 0.322625
1.000000 0.705178 0.548717
0.000000 0.246055 0.000000
0.000000 0.264773 0.000000
0.000000 0.319200 0.000000
0.406716 0.324329 0.000000
0.648997 0.321375 0.000000
0.831820 0.281688 0.048654
0.981360 0.331495 0.172205
1.000000 0.514337 0.333298
1.000000 0.718161 0.554635
0.000000 0.490645 0.000000
0.000000 0.501005 0.000000
0.000000 0.532150 0.000000
0.309603 0.579431 0.000000
0.662302 0.572844 0.000000
0.874170 0.571538 0.000000
0.986039 0.541768 0.196832
1.000000 0.599261 0.359404
1.000000 0.741469 0.565149
0.000000 0.739265 0.210300
0.000000 0.741929 0.206514
0.000000 0.755912 0.182524
0.000000 0.778320 0.130123
0.598980 0.790423 0.083441
0.851893 0.785119 0.000000
0.967958 0.781162 0.278399
1.000000 0.759022 0.428579
1.000000 0.790690 0.592589
0.000000 0.893091 0.465809
0.000000 0.893555 0.464754
0.000000 0.897686 0.458349
0.076235 0.901471 0.442146
0.580241 0.903708 0.424253
0.814696 0.903450 0.418838
0.944393 0.900329 0.403014
1.000000 0.896490 0.559559
1.000000 0.883826 0.678663
0.392777 0.965293 0.718585
0.399889 0.965383 0.718311
0.442172 0.965993 0.716382
0.538036 0.966099 0.714480
0.653781 0.964548 0.701312
0.793649 0.963491 0.691883
0.916645 0.964124 0.692952
0.988394 0.962559 0.685621
1.000000 0.958941 0.789360
0.736041 0.997802 0.868098
0.736971 0.997800 0.868051
0.743314 0.997785 0.867727
0.759190 0.997751 0.867370
0.786219 0.997720 0.867708
0.832718 0.997004 0.863832
0.904389 0.995881 0.857881
0.970980 0.995542 0.861017
1.000000 0.993788 0.861447
0.000000 0.000000 0.000000
0.000000 0.000000 0.000000
0.058647 0.000000 0.031190
0.247653 0.000000 0.058029
0.490082 0.000000 0.075743
0.762359 0.000000 0.111157
0.972221 0.135856 0.192643
1.000000 0.448416 0.341709
1.000000 0.701631 0.556983
0.000000 0.000000 0.008326
0.000000 0.000000 0.024839
0.069550 0.000000 0.044381
0.266290 0.000000 0.064482
0.499181 0.000000 0.077977
0.763952 0.000000 0.112095
0.972694 0.146110 0.193231
1.000000 0.450564 0.341893
1.000000 0.702275 0.557194
0.000000 0.059463 0.172388
0.000000 0.069227 0.165178
0.125738 0.126733 0.138182
0.353157 0.085807 0.105896
0.542629 0.000000 0.089826
0.776767 0.000000 0.115992
0.975636 0.203168 0.197147
1.000000 0.465323 0.343167
1.000000 0.706718 0.558666
0.000000 0.229389 0.214631
0.000000 0.249937 0.203870
0.000000 0.343098 0.182405
0.402135 0.366680 0.154793
0.642439 0.333274 0.116868
0.829398 0.285040 0.136324
0.982232 0.328745 0.209635
1.000000 0.513125 0.353948
1.000000 0.718289 0.562626
0.000000 0.474472 0.221460
0.000000 0.487984 0.218655
0.000000 0.549629 0.202591
0.295606 0.594444 0.155080
0.662295 0.596767 0.119744
0.870981 0.574932 0.163912
0.984582 0.541392 0.245474
1.000000 0.598199 0.381038
1.000000 0.742240 0.573887
0.000000 0.734235 0.313196
0.000000 0.738445 0.313921
0.000000 0.760408 0.304834
0.000000 0.784337 0.267595
0.589314 0.795138 0.241538
0.847778 0.792003 0.223357
0.966242 0.782090 0.335606
1.000000 0.758943 0.449122
1.000000 0.791258 0.601129
0.000000 0.892453 0.520206
0.000000 0.893331 0.520351
0.000000 0.897930 0.515194
0.108924 0.903845 0.502119
0.578881 0.905028 0.477374
0.810297 0.906212 0.474520
0.942512 0.901914 0.456322
1.000000 0.896722 0.577859
1.000000 0.883686 0.685977
0.388820 0.965315 0.733998
0.396026 0.965405 0.733727
0.441179 0.965990 0.731908
0.537309 0.966092 0.729989
0.655359 0.965001 0.718797
0.793337 0.963761 0.708071
0.916143 0.964723 0.709983
0.987560 0.962886 0.700378
1.000000 0.958995 0.793823
0.735960 0.997799 0.871337
0.736890 0.997797 0.871289
0.743232 0.997781 0.870957
0.759101 0.997747 0.870574
0.786120 0.997716 0.870871
0.833105 0.997121 0.867477
0.904329 0.995944 0.861384
0.970786 0.995592 0.864085
1.000000 0.993949 0.864325
0.000000 0.000000 0.195980
0.000000 0.000000 0.196429
0.078858 0.000000 0.183646
0.261627 0.000000 0.156960
0.501040 0.000000 0.203295
0.773542 0.000000 0.235674
0.984679 0.166378 0.286105
1.000000 0.458831 0.400582
1.000000 0.705657 0.581933
0.000000 0.000000 0.223423
0.000000 0.000000 0.223996
0.081984 0.000000 0.204251
0.277280 0.000000 0.177631
0.510705 0.000000 0.210456
0.777557 0.000000 0.238163
0.984795 0.176646 0.287350
1.000000 0.461026 0.401073
1.000000 0.706295 0.582144
0.000000 0.056519 0.379633
0.000000 0.069468 0.368059
0.038535 0.114920 0.341241
0.368520 0.086182 0.299223
0.565649 0.000000 0.260221
0.804042 0.000000 0.255629
0.986922 0.229553 0.292735
1.000000 0.475921 0.403224
1.000000 0.710698 0.583620
0.000000 0.198791 0.473707
0.000000 0.221941 0.463040
0.000000 0.318073 0.431570
0.372643 0.394155 0.424190
0.636961 0.356470 0.355421
0.836383 0.292890 0.305523
0.987070 0.338726 0.306764
1.000000 0.518094 0.410458
1.000000 0.722159 0.587590
0.000000 0.450529 0.503880
0.000000 0.463542 0.499771
0.000000 0.525532 0.485219
0.255956 0.613247 0.470846
0.650149 0.632294 0.454073
0.861412 0.590279 0.384373
0.982645 0.550037 0.352362
1.000000 0.599654 0.430328
1.000000 0.743810 0.596182
0.000000 0.706883 0.523003
0.000000 0.711726 0.522022
0.000000 0.739152 0.520927
0.000000 0.796107 0.521946
0.581472 0.808493 0.499227
0.842679 0.805189 0.488514
0.960855 0.786004 0.454157
1.000000 0.758424 0.498618
1.000000 0.792939 0.623741
0.000000 0.885256 0.610159
0.000000 0.886206 0.610681
0.000000 0.893694 0.614407
0.000000 0.905476 0.617290
0.564562 0.908348 0.591458
0.806297 0.909195 0.585683
0.940761 0.905787 0.568864
1.000000 0.897272 0.626064
1.000000 0.883315 0.704229
0.361023 0.963892 0.766286
0.370465 0.964081 0.766410
0.428309 0.965298 0.767270
0.535503 0.966077 0.768452
0.659823 0.966264 0.763815
0.792083 0.964559 0.747666
0.913302 0.965653 0.750247
0.986512 0.963767 0.741996
1.000000 0.959044 0.805656
0.733803 0.997605 0.878689
0.734961 0.997624 0.878738
0.742827 0.997752 0.879079
0.758900 0.997739 0.878347
0.785908 0.997708 0.878118
0.834140 0.997426 0.876652
0.904194 0.996099 0.869537
0.970045 0.995721 0.871404
1.000000 0.994366 0.871623
0.000000 0.000000 0.484300
0.000000 0.000000 0.479782
0.000000 0.025039 0.451039
0.296861 0.000000 0.407302
0.532958 0.000000 0.370250
0.788845 0.000000 0.412017
0.988054 0.175500 0.440998
1.000000 0.487726 0.506336
1.000000 0.712882 0.628133
0.000000 0.000000 0.495548
0.000000 0.000000 0.491274
0.000000 0.037266 0.464723
0.300394 0.000000 0.418070
0.541872 0.000000 0.381781
0.791722 0.000000 0.416822
0.988726 0.185138 0.443005
1.000000 0.489668 0.506837
1.000000 0.713508 0.628346
0.000000 0.071075 0.564236
0.000000 0.078018 0.560440
0.000000 0.104279 0.550142
0.323758 0.095065 0.500123
0.593746 0.000000 0.455456
0.809179 0.000000 0.444721
0.991385 0.249813 0.454450
1.000000 0.503884 0.510262
1.000000 0.717832 0.629823
0.000000 0.228556 0.662457
0.000000 0.238104 0.658947
0.000000 0.289275 0.644540
0.300397 0.365369 0.628807
0.654116 0.369607 0.597781
0.848741 0.314735 0.524866
0.994052 0.370129 0.482506
1.000000 0.540546 0.519215
1.000000 0.729074 0.633789
0.000000 0.412403 0.710584
0.000000 0.421464 0.707717
0.000000 0.489741 0.693182
0.000000 0.588663 0.680932
0.624276 0.645082 0.678786
0.847776 0.609360 0.608834
0.981378 0.562735 0.532938
1.000000 0.611354 0.535123
1.000000 0.749688 0.641598
0.000000 0.688745 0.734603
0.000000 0.693653 0.733855
0.000000 0.720297 0.728014
0.000000 0.776241 0.714455
0.546596 0.815887 0.714133
0.830924 0.821798 0.708213
0.951508 0.791284 0.628668
1.000000 0.764149 0.588148
1.000000 0.794832 0.663805
0.000000 0.870140 0.750285
0.000000 0.871259 0.750453
0.000000 0.879690 0.750346
0.000000 0.895255 0.752834
0.559594 0.911470 0.761163
0.796448 0.914109 0.748552
0.930763 0.912582 0.737468
0.997381 0.900151 0.711457
1.000000 0.883696 0.734815
0.285013 0.960259 0.811650
0.297476 0.960483 0.811728
0.369519 0.961913 0.812281
0.506259 0.963798 0.814237
0.657652 0.966267 0.818671
0.792303 0.966393 0.809585
0.909492 0.966813 0.804931
0.983553 0.965371 0.800106
1.000000 0.959002 0.825083
0.724654 0.996753 0.889423
0.725856 0.996775 0.889467
0.734031 0.996921 0.889771
0.754257 0.997290 0.890576
0.785576 0.997698 0.890999
0.834966 0.997712 0.890854
0.902197 0.996458 0.883472
0.969004 0.995962 0.884305
1.000000 0.995149 0.884352
0.000000 0.098597 0.749321
0.000000 0.101554 0.747509
0.000000 0.113510 0.740419
0.254610 0.117422 0.704957
0.559653 0.000000 0.669836
0.820964 0.000000 0.624192
0.988327 0.181521 0.645099
1.000000 0.494258 0.665727
1.000000 0.728815 0.719795
0.000000 0.103727 0.753267
0.000000 0.106689 0.751505
0.000000 0.119534 0.744591
0.254753 0.126509 0.709626
0.561756 0.000000 0.674834
0.823515 0.000000 0.628029
0.988674 0.192520 0.647396
1.000000 0.496736 0.666428
1.000000 0.729349 0.719985
0.000000 0.139764 0.772533
0.000000 0.142784 0.771628
0.000000 0.159309 0.765682
0.255120 0.174715 0.737974
0.574426 0.122290 0.706024
0.839250 0.000000 0.653168
0.990385 0.258460 0.662912
1.000000 0.513465 0.671275
1.000000 0.733043 0.721301
0.000000 0.254189 0.815406
0.000000 0.259235 0.814490
0.000000 0.284553 0.807937
0.219869 0.333740 0.802994
0.587421 0.340412 0.773132
0.869997 0.319506 0.740995
0.991268 0.375980 0.693872
1.000000 0.558983 0.684416
1.000000 0.743716 0.724607
0.000000 0.441552 0.845723
0.000000 0.447795 0.844068
0.000000 0.476487 0.840757
0.000000 0.550912 0.831365
0.547492 0.608372 0.828462
0.857930 0.615690 0.808954
0.978857 0.584416 0.747235
1.000000 0.639904 0.708248
1.000000 0.763352 0.730963
0.000000 0.648739 0.861094
0.000000 0.655003 0.860518
0.000000 0.681471 0.856721
0.000000 0.747078 0.851552
0.477874 0.794084 0.847705
0.807557 0.827848 0.851003
0.941836 0.803035 0.804985
1.000000 0.774560 0.748183
1.000000 0.802888 0.744546
0.000000 0.860335 0.870288
0.000000 0.861471 0.870255
0.000000 0.870187 0.869633
0.000000 0.886121 0.867984
0.478068 0.901347 0.862154
0.780724 0.916542 0.864060
0.924025 0.920311 0.861419
0.990058 0.902631 0.816440
1.000000 0.886505 0.790871
0.000000 0.951026 0.877447
0.000000 0.951213 0.877463
0.204780 0.952436 0.877587
0.413112 0.955860 0.878241
0.601203 0.960782 0.879884
0.789269 0.967750 0.885088
0.902896 0.969309 0.879700
0.978619 0.968783 0.877233
1.000000 0.960578 0.863623
0.702035 0.994360 0.910893
0.703335 0.994388 0.910926
0.711626 0.994651 0.911109
0.732379 0.995287 0.911621
0.769242 0.996112 0.912842
0.832299 0.997612 0.917244
0.902514 0.997379 0.912690
0.966496 0.996545 0.912156
1.000000 0.995952 0.910794
0.000000 0.242980 0.908442
0.000000 0.244252 0.908307
0.000000 0.253615 0.907074
0.226615 0.266206 0.896655
0.521624 0.262037 0.879554
0.812343 0.223145 0.856621
0.997648 0.178505 0.829320
1.000000 0.502877 0.830817
1.000000 0.739024 0.834182
0.000000 0.246519 0.908961
0.000000 0.247813 0.908825
0.000000 0.257367 0.907585
0.225948 0.270660 0.897598
0.522148 0.266705 0.880551
0.812906 0.229945 0.857732
0.998156 0.189010 0.830586
1.000000 0.504928 0.831183
1.000000 0.739697 0.834341
0.000000 0.270422 0.912530
0.000000 0.271606 0.912325
0.000000 0.280736 0.910992
0.225879 0.301507 0.904977
0.520101 0.303821 0.887330
0.816221 0.274772 0.865015
1.000000 0.251522 0.838918
1.000000 0.519039 0.833679
1.000000 0.744335 0.835443
0.000000 0.326659 0.920991
0.000000 0.328161 0.920816
0.000000 0.339664 0.919033
0.199685 0.373302 0.915694
0.513842 0.394853 0.901334
0.819142 0.383545 0.880970
1.000000 0.375402 0.857276
1.000000 0.563348 0.841199
1.000000 0.756303 0.838365
0.000000 0.467542 0.929767
0.000000 0.470328 0.929579
0.000000 0.486715 0.927892
0.000000 0.520057 0.923708
0.493205 0.569949 0.919700
0.803364 0.586716 0.905394
0.985688 0.584325 0.885989
1.000000 0.644837 0.856667
1.000000 0.777917 0.843986
0.000000 0.664157 0.936770
0.000000 0.666750 0.936582
0.000000 0.680604 0.934878
0.000000 0.716098 0.930536
0.413928 0.759866 0.927282
0.763120 0.799210 0.925218
0.942902 0.807694 0.913846
1.000000 0.789974 0.881334
1.000000 0.820781 0.856658
0.000000 0.833685 0.940597
0.000000 0.835383 0.940333
0.000000 0.843378 0.938581
0.000000 0.861457 0.936130
0.408891 0.884757 0.934051
0.742442 0.903376 0.933298
0.912460 0.923015 0.936265
0.983208 0.910683 0.912605
1.000000 0.891838 0.879564
0.000000 0.944981 0.942674
0.000000 0.945175 0.942659
0.000000 0.946446 0.942534
0.339734 0.950275 0.942313
0.551730 0.955580 0.942281
0.742885 0.960777 0.939619
0.895627 0.970616 0.943933
0.975367 0.973553 0.941785
1.000000 0.961899 0.916782
0.652260 0.989922 0.945532
0.653763 0.989949 0.945543
0.663911 0.990136 0.945626
0.688838 0.990621 0.945859
0.730671 0.991491 0.946358
0.805426 0.993908 0.948114
0.898577 0.997712 0.953327
0.964547 0.998153 0.951106
1.000000 0.997534 0.950412
0.180806 0.443696 0.977872
0.192374 0.444373 0.977816
0.255869 0.448935 0.977439
0.361824 0.461856 0.976278
0.518230 0.480828 0.971618
0.759827 0.483072 0.960075
0.965183 0.485355 0.946829
1.000000 0.496971 0.929595
1.000000 0.741758 0.923933
0.179351 0.445297 0.977899
0.191048 0.445976 0.977843
0.254929 0.450554 0.977466
0.361054 0.463724 0.976336
0.517708 0.483066 0.971720
0.759833 0.485430 0.960198
0.964868 0.487920 0.946979
1.000000 0.499381 0.929850
1.000000 0.742349 0.924005
0.168475 0.456371 0.978077
0.181234 0.457064 0.978020
0.248092 0.461749 0.977642
0.356159 0.475974 0.976622
0.514592 0.498428 0.972485
0.758382 0.500145 0.961019
0.962797 0.504596 0.948028
1.000000 0.515992 0.931584
1.000000 0.746425 0.924508
0.143387 0.488831 0.979066
0.158310 0.489865 0.978991
0.228918 0.497586 0.978484
0.345583 0.513249 0.977398
0.509943 0.538228 0.974120
0.756287 0.543807 0.963825
0.958205 0.550814 0.951476
1.000000 0.564110 0.935958
1.000000 0.756974 0.925842
0.000000 0.555542 0.980404
0.000000 0.556326 0.980283
0.176045 0.563771 0.979774
0.322767 0.579366 0.978672
0.499667 0.602166 0.975597
0.746582 0.626037 0.968260
0.946258 0.636693 0.956911
1.000000 0.647395 0.942279
1.000000 0.777518 0.928767
0.000000 0.688407 0.981271
0.000000 0.689585 0.981112
0.000000 0.697252 0.980054
0.172465 0.713758 0.978260
0.452571 0.735653 0.976479
0.717817 0.769705 0.972759
0.913768 0.784640 0.964403
1.000000 0.793927 0.954520
1.000000 0.821960 0.935350
0.000000 0.839854 0.980701
0.000000 0.840376 0.980657
0.000000 0.843248 0.980399
0.000000 0.852011 0.979531
0.425756 0.866025 0.977827
0.690730 0.883742 0.976048
0.885976 0.905970 0.975011
0.983577 0.909723 0.970151
1.000000 0.900228 0.950669
0.000000 0.929195 0.981702
0.000000 0.929403 0.981639
0.000000 0.930701 0.981361
0.210638 0.933758 0.981099
0.483356 0.940505 0.980123
0.710740 0.950721 0.978389
0.871491 0.961943 0.979015
0.969717 0.973922 0.981824
1.000000 0.967033 0.969245
0.630252 0.986313 0.983529
0.631762 0.986350 0.983528
0.641935 0.986549 0.983525
0.666784 0.987077 0.983526
0.708230 0.988047 0.983558
0.785226 0.990583 0.983179
0.877219 0.993990 0.983425
0.958912 0.998571 0.985521
1.000000 0.999886 0.985419
0.507245 0.667701 1.000000
0.509358 0.668201 1.000000
0.523821 0.671648 1.000000
0.560557 0.680534 1.000000
0.627665 0.691807 1.000000
0.737535 0.702288 1.000000
0.896820 0.710129 0.996649
1.000000 0.724542 0.988931
1.000000 0.741265 0.978712
0.506994 0.668363 1.000000
0.509107 0.668863 1.000000
0.523578 0.672310 1.000000
0.560336 0.681190 1.000000
0.627514 0.692427 1.000000
0.737344 0.703096 1.000000
0.896624 0.710909 0.996675
1.000000 0.725290 0.988949
1.000000 0.741953 0.978746
0.505230 0.672959 1.000000
0.507352 0.673459 1.000000
0.521879 0.676906 1.000000
0.558840 0.685663 1.000000
0.626458 0.696723 1.000000
0.736022 0.708676 1.000000
0.895270 0.716290 0.996856
1.000000 0.730444 0.989072
1.000000 0.746693 0.978977
0.500334 0.685356 1.000000
0.502575 0.685667 1.000000
0.517431 0.688831 1.000000
0.555121 0.696967 1.000000
0.623475 0.707810 1.000000
0.734489 0.721694 1.000000
0.891706 0.730228 0.997320
1.000000 0.743751 0.989397
1.000000 0.758897 0.979591
0.490160 0.710345 1.000000
0.492491 0.710624 1.000000
0.508391 0.712535 1.000000
0.548063 0.718026 1.000000
0.617666 0.728267 1.000000
0.732836 0.744832 1.000000
0.885049 0.755546 0.998156
0.999154 0.767529 0.990204
1.000000 0.780743 0.980783
0.469082 0.759022 1.000000
0.471623 0.759284 1.000000
0.488727 0.760961 1.000000
0.531276 0.765191 1.000000
0.602526 0.775092 1.000000
0.720497 0.791757 1.000000
0.873720 0.806852 0.999211
0.987583 0.814719 0.992694
1.000000 0.825897 0.984286
0.463384 0.847299 1.000000
0.466109 0.847547 1.000000
0.484582 0.849248 1.000000
0.529887 0.853546 1.000000
0.597793 0.858486 1.000000
0.705909 0.869135 1.000000
0.860136 0.888242 1.000000
0.966481 0.895714 0.996843
1.000000 0.899954 0.991589
0.483465 0.926819 1.000000
0.486054 0.926934 1.000000
0.503455 0.927727 1.000000
0.543483 0.929472 1.000000
0.608025 0.931754 1.000000
0.713642 0.938814 1.000000
0.846771 0.949664 1.000000
0.950537 0.963647 1.000000
1.000000 0.966312 0.998508
0.587252 0.975557 1.000000
0.588871 0.975593 1.000000
0.599882 0.975844 1.000000
0.627359 0.976587 1.000000
0.672601 0.977992 1.000000
0.754390 0.981644 1.000000
0.855429 0.987263 1.000000
0.943531 0.994034 1.000000
0.996444 0.999408 1.000000
