Assets/Lutify-Free-LUTs-Pack/Lutify Free LUTs Pack/Print Film Pro - Print Film 2/Lutify.me-PrintFilm2-ZLog2-to-Rec709.cube
# Created with: fylm.ai - Colour Grading and Collaboration Software in Cloud 
# Website: https://fylm.ai 
# META
# Option: Gamut compress
# Block 1: IDT | Z-Cam Z-Log2 - BETA
# Block 2: colourMatch | Blending Mode: Normal | {"ColorSpace":0,"CrossCovarianceLimit":50,"ReshapingIterations":1,"PercentSaturationShift":100,"PercentShadingShift":100,"ExtraShading":true,"PercentTint":100,"PercentModified":100}
# Block 3: HSL | Blending Mode: Normal | {"hue":{"Reds":0,"Yellows":0,"Greens":0,"Cyans":0,"Blues":0,"Magentas":0},"saturation":{"Reds":1,"Yellows":0.9,"Greens":0.95,"Cyans":1,"Blues":1,"Magentas":1},"luminance":{"Reds":0.8,"Yellows":0.95,"Greens":0.9,"Cyans":0.8,"Blues":0.8,"Magentas":0.8},"lum_sat":{"Blacks":1,"Shadows":1,"Midtones":1,"Highlights":1,"Whites":1},"sat_sat":{"10":1,"20":1,"30":1,"40":1,"50":1}}
# Block 4: LUT | Filmic Curve Response: Low Contrast 2 (100%)
# Block 5: ODT | Rec709
TITLE "Lutify.me-PrintFilm2-ZLog2-to-Rec709" 
LUT_3D_SIZE 5
0.000000 0.000000 0.000000
0.000000 0.000000 0.000000
0.097099 0.000000 0.000000
0.299791 0.000000 0.023966
0.660297 0.000000 0.097630
0.000000 0.023387 0.000000
0.045008 0.040378 0.000000
0.152051 0.000000 0.000000
0.333960 0.000000 0.020501
0.678157 0.000000 0.098219
0.000000 0.140934 0.000000
0.000000 0.155750 0.000000
0.239986 0.156558 0.000000
0.449468 0.144456 0.000000
0.700860 0.000000 0.090364
0.000000 0.367263 0.000000
0.085605 0.367070 0.000000
0.336060 0.372765 0.000000
0.630791 0.343466 0.000000
0.819153 0.437173 0.000000
0.296094 0.672640 0.000000
0.365472 0.671892 0.000000
0.511187 0.669095 0.000000
0.723899 0.659926 0.000000
0.927516 0.644699 0.000000
0.000000 0.000000 0.000000
0.000000 0.000000 0.000000
0.090172 0.000000 0.002997
0.290353 0.000000 0.047838
0.656651 0.000000 0.112683
0.000000 0.015184 0.045286
0.039347 0.040145 0.043735
0.150864 0.000000 0.042030
0.339363 0.000000 0.052958
0.674952 0.000000 0.118225
0.000000 0.153066 0.000000
0.000000 0.174865 0.000000
0.213833 0.185949 0.000000
0.441673 0.145054 0.000000
0.706253 0.000000 0.113799
0.000000 0.364284 0.000000
0.000000 0.367507 0.000000
0.302616 0.381911 0.000000
0.569780 0.403403 0.000000
0.818477 0.435175 0.000000
0.288798 0.671825 0.000000
0.359624 0.671088 0.000000
0.508165 0.668284 0.000000
0.722784 0.659081 0.000000
0.927283 0.643869 0.000000
0.000000 0.000000 0.000000
0.000000 0.000000 0.037306
0.068089 0.000000 0.048854
0.251237 0.000000 0.076834
0.639010 0.000000 0.166837
0.000000 0.000000 0.096381
0.000000 0.000000 0.101272
0.107336 0.000000 0.091846
0.312031 0.000000 0.112669
0.658905 0.000000 0.177203
0.000000 0.113616 0.230772
0.000000 0.152067 0.216818
0.176609 0.189567 0.210399
0.432121 0.124180 0.181449
0.719632 0.000000 0.193653
0.000000 0.429626 0.000000
0.000000 0.447758 0.000000
0.000000 0.468778 0.000000
0.518175 0.479908 0.000000
0.807526 0.425702 0.174701
0.263445 0.669135 0.000000
0.339617 0.668442 0.000000
0.498103 0.665619 0.000000
0.719093 0.656304 0.000000
0.844380 0.742169 0.000000
0.000000 0.000000 0.083021
0.000000 0.000000 0.109492
0.044985 0.000000 0.118804
0.193553 0.000000 0.104194
0.586654 0.000000 0.247021
0.000000 0.000000 0.236323
0.000000 0.000000 0.238369
0.030566 0.000000 0.219960
0.253248 0.000000 0.177993
0.627305 0.000000 0.280512
0.000000 0.021504 0.449168
0.000000 0.041207 0.438266
0.000000 0.065673 0.406431
0.374800 0.000000 0.350310
0.697896 0.000000 0.345655
0.000000 0.327742 0.543609
0.000000 0.353713 0.535213
0.000000 0.424573 0.530435
0.463237 0.489652 0.532806
0.798543 0.398177 0.468760
0.000000 0.770304 0.314794
0.000000 0.772003 0.309934
0.000000 0.781341 0.299471
0.474095 0.791543 0.303013
0.819918 0.791000 0.371528
0.000000 0.000000 0.331114
0.000000 0.000000 0.327420
0.000000 0.000000 0.314144
0.144179 0.000000 0.265873
0.366754 0.000000 0.151464
0.000000 0.000000 0.516240
0.000000 0.000000 0.503067
0.000000 0.000000 0.468310
0.165216 0.000000 0.400516
0.456082 0.000000 0.248511
0.000000 0.000000 0.699686
0.000000 0.000000 0.690940
0.000000 0.000000 0.662122
0.205322 0.000000 0.603660
0.637659 0.000000 0.515181
0.000000 0.167740 0.800149
0.000000 0.175588 0.796653
0.000000 0.202897 0.785597
0.268028 0.239280 0.762891
0.759707 0.125151 0.706299
0.000000 0.645829 0.823388
0.000000 0.658540 0.822320
0.000000 0.688689 0.819688
0.213984 0.750248 0.815149
0.772478 0.791869 0.823466
