Assets/Lutify-Free-LUTs-Pack/Lutify Free LUTs Pack/Print Film Pro - Print Film 2/Lutify.me-PrintFilm2-CanonLog1-to-Rec709.cube
# Created with: fylm.ai - Colour Grading and Collaboration Software in Cloud 
# Website: https://fylm.ai 
# META
# Option: Gamut compress
# Block 1: IDT | CanonLog Cinema Gamut Daylight
# Block 2: colourMatch | Blending Mode: Normal | {"ColorSpace":0,"CrossCovarianceLimit":50,"ReshapingIterations":1,"PercentSaturationShift":100,"PercentShadingShift":100,"ExtraShading":true,"PercentTint":100,"PercentModified":100}
# Block 3: HSL | Blending Mode: Normal | {"hue":{"Reds":0,"Yellows":0,"Greens":0,"Cyans":0,"Blues":0,"Magentas":0},"saturation":{"Reds":1,"Yellows":0.9,"Greens":0.95,"Cyans":1,"Blues":1,"Magentas":1},"luminance":{"Reds":0.8,"Yellows":0.95,"Greens":0.9,"Cyans":0.8,"Blues":0.8,"Magentas":0.8},"lum_sat":{"Blacks":1,"Shadows":1,"Midtones":1,"Highlights":1,"Whites":1},"sat_sat":{"10":1,"20":1,"30":1,"40":1,"50":1}}
# Block 4: LUT | Filmic Curve Response: Low Contrast 2 (100%)
# Block 5: ODT | Rec709
TITLE "Lutify.me-PrintFilm2-CanonLog1-to-Rec709" 
LUT_3D_SIZE 5
0.000000 0.000000 0.000000
0.000000 0.000000 0.000000
0.288462 0.000000 0.000000
0.905815 0.000000 0.056495
1.000000 0.422311 0.324551
0.000000 0.108925 0.000000
0.288397 0.162592 0.000000
0.669053 0.000000 0.000000
0.942605 0.000000 0.000000
1.000000 0.465922 0.317729
0.000000 0.396173 0.000000
0.000000 0.544189 0.000000
0.823595 0.516240 0.000000
0.996936 0.536761 0.000000
1.000000 0.608337 0.316528
0.000000 0.830289 0.000000
0.145812 0.834154 0.000000
0.789259 0.820556 0.000000
0.998347 0.812224 0.000000
1.000000 0.870470 0.233520
0.664934 0.953851 0.000000
0.730295 0.951773 0.000000
0.830040 0.947690 0.000000
0.970991 0.941221 0.000000
1.000000 0.938762 0.368774
0.000000 0.000000 0.000000
0.046872 0.000000 0.000000
0.241620 0.000000 0.016077
0.920069 0.000000 0.175785
1.000000 0.422664 0.390418
0.000000 0.062498 0.279420
0.176800 0.188196 0.202965
0.596992 0.000000 0.119832
0.943338 0.000000 0.178316
1.000000 0.469927 0.388480
0.000000 0.344694 0.087644
0.000000 0.604022 0.000000
0.700746 0.630310 0.000000
0.971259 0.577673 0.110330
1.000000 0.595977 0.380159
0.000000 0.825364 0.000000
0.000000 0.832191 0.000000
0.780427 0.818757 0.000000
0.998049 0.810155 0.000000
1.000000 0.868930 0.377120
0.656755 0.953804 0.000000
0.723605 0.951769 0.000000
0.826976 0.947568 0.000000
0.970459 0.940996 0.000000
1.000000 0.938510 0.367635
0.000000 0.000000 0.000000
0.019078 0.000000 0.066181
0.256810 0.000000 0.081698
0.850435 0.000000 0.331255
1.000000 0.405988 0.525727
0.000000 0.000000 0.623636
0.000000 0.000000 0.511964
0.511597 0.000000 0.373133
0.936434 0.000000 0.445417
1.000000 0.466727 0.535747
0.000000 0.221554 0.824086
0.000000 0.476212 0.714109
0.636009 0.656747 0.689627
0.965184 0.526335 0.544213
1.000000 0.594673 0.541379
0.000000 0.837951 0.544339
0.000000 0.881066 0.547026
0.554909 0.900350 0.508377
0.923073 0.895619 0.470510
1.000000 0.865798 0.576688
0.632401 0.953699 0.000000
0.703747 0.951791 0.000000
0.818217 0.947242 0.000000
0.968968 0.940378 0.000000
1.000000 0.937816 0.364513
0.000000 0.000000 0.000000
0.000000 0.000000 0.169313
0.213860 0.000000 0.197404
0.555701 0.000000 0.174482
1.000000 0.158976 0.740306
0.000000 0.000000 0.856454
0.000000 0.000000 0.754236
0.301790 0.000000 0.611214
0.555574 0.000000 0.173151
1.000000 0.328975 0.768173
0.000000 0.030836 0.980291
0.000000 0.232337 0.918361
0.378564 0.321253 0.889141
0.963859 0.169253 0.824577
1.000000 0.516779 0.800443
0.000000 0.461082 0.991824
0.000000 0.704383 0.933764
0.000000 0.848275 0.914867
0.888574 0.898915 0.915353
1.000000 0.851741 0.855719
0.000000 0.973582 0.851252
0.298743 0.976097 0.853026
0.631059 0.980504 0.858084
0.866327 0.982265 0.851041
0.990517 0.980113 0.841392
0.000000 0.000000 0.128283
0.000000 0.000000 0.352009
0.160169 0.000000 0.369462
0.522823 0.000000 0.358244
0.881392 0.000000 0.308605
0.000000 0.000000 0.525718
0.000000 0.000000 0.537005
0.159363 0.000000 0.368795
0.522857 0.000000 0.357621
0.881285 0.000000 0.308099
0.000000 0.049169 1.000000
0.000000 0.172910 0.998194
0.192427 0.207053 0.982970
0.802652 0.000000 0.947220
1.000000 0.000000 0.835914
0.000000 0.284251 1.000000
0.000000 0.497807 1.000000
0.000000 0.609704 0.998321
0.777322 0.692994 0.985022
1.000000 0.672685 0.962724
0.000000 0.722895 1.000000
0.000000 0.859107 1.000000
0.000000 0.931421 0.990361
0.737430 0.961256 0.985280
0.977189 0.980905 0.988252
