Assets/Lutify-Free-LUTs-Pack/Lutify Free LUTs Pack/Print Film Pro - Print Film 2/Lutify.me-PrintFilm2-BolexLog-to-Rec709.cube
# Created with: fylm.ai - Colour Grading and Collaboration Software in Cloud 
# Website: https://fylm.ai 
# META
# Option: Gamut compress
# Block 1: IDT | Bolex Wide Gamut RGB Bolex Log
# Block 2: colourMatch | Blending Mode: Normal | {"ColorSpace":0,"CrossCovarianceLimit":50,"ReshapingIterations":1,"PercentSaturationShift":100,"PercentShadingShift":100,"ExtraShading":true,"PercentTint":100,"PercentModified":100}
# Block 3: HSL | Blending Mode: Normal | {"hue":{"Reds":0,"Yellows":0,"Greens":0,"Cyans":0,"Blues":0,"Magentas":0},"saturation":{"Reds":1,"Yellows":0.9,"Greens":0.95,"Cyans":1,"Blues":1,"Magentas":1},"luminance":{"Reds":0.8,"Yellows":0.95,"Greens":0.9,"Cyans":0.8,"Blues":0.8,"Magentas":0.8},"lum_sat":{"Blacks":1,"Shadows":1,"Midtones":1,"Highlights":1,"Whites":1},"sat_sat":{"10":1,"20":1,"30":1,"40":1,"50":1}}
# Block 4: LUT | Filmic Curve Response: Low Contrast 2 (100%)
# Block 5: ODT | Rec709
TITLE "Lutify.me-PrintFilm2-BolexLog-to-Rec709" 
LUT_3D_SIZE 5
0.000000 0.000000 0.000000
0.000000 0.000000 0.000000
0.347775 0.000000 0.000000
0.974549 0.000000 0.162681
1.000000 0.772675 0.656726
0.000000 0.057912 0.000000
0.110168 0.083853 0.000000
0.434634 0.000000 0.000000
0.978193 0.163363 0.166697
1.000000 0.775246 0.658017
0.000000 0.471495 0.000000
0.000000 0.504791 0.000000
0.588809 0.525691 0.000000
0.991437 0.464133 0.196682
1.000000 0.791610 0.665929
0.390939 0.924520 0.525533
0.438587 0.925048 0.520178
0.669359 0.924967 0.511837
0.950956 0.920695 0.501536
1.000000 0.895214 0.751007
0.912187 1.000000 0.929662
0.912928 1.000000 0.929518
0.917472 1.000000 0.928623
0.952834 1.000000 0.926273
1.000000 1.000000 0.932779
0.000000 0.000000 0.000000
0.000000 0.000000 0.000000
0.350132 0.000000 0.051229
0.977555 0.054287 0.197157
1.000000 0.773101 0.662798
0.000000 0.044955 0.128998
0.085574 0.091154 0.107258
0.437722 0.000000 0.073073
0.980530 0.169424 0.201388
1.000000 0.775671 0.664074
0.000000 0.474697 0.177971
0.000000 0.521389 0.150334
0.581764 0.548842 0.097578
0.991684 0.456388 0.239888
1.000000 0.791992 0.671879
0.394234 0.924757 0.566797
0.441938 0.925262 0.561617
0.668083 0.925541 0.549115
0.950231 0.922688 0.541039
1.000000 0.894858 0.754522
0.912295 1.000000 0.930917
0.913035 1.000000 0.930772
0.917571 1.000000 0.929870
0.952788 1.000000 0.927250
1.000000 1.000000 0.933614
0.000000 0.000000 0.088335
0.000000 0.000000 0.126222
0.248139 0.000000 0.114703
0.986232 0.000000 0.371581
1.000000 0.776844 0.700686
0.000000 0.000000 0.405041
0.000000 0.000000 0.373730
0.400621 0.000000 0.291109
0.991574 0.117919 0.385036
1.000000 0.779690 0.701817
0.000000 0.354823 0.640573
0.000000 0.427310 0.626239
0.534748 0.553373 0.612593
0.995764 0.445635 0.450172
1.000000 0.796153 0.708746
0.305630 0.922491 0.738957
0.377011 0.924090 0.739176
0.649240 0.930024 0.734120
0.940549 0.928136 0.721848
1.000000 0.892600 0.776408
0.912921 1.000000 0.937949
0.913653 1.000000 0.937810
0.918158 1.000000 0.936944
0.952481 1.000000 0.933352
1.000000 1.000000 0.938640
0.000000 0.000000 0.836039
0.000000 0.000000 0.827309
0.219994 0.000000 0.788096
0.906998 0.000000 0.645289
1.000000 0.771331 0.847829
0.000000 0.000000 0.872189
0.000000 0.000000 0.865255
0.231657 0.000000 0.832679
0.943587 0.000000 0.718014
1.000000 0.774292 0.848682
0.000000 0.223263 0.927048
0.000000 0.234424 0.925506
0.277743 0.265340 0.911363
0.994376 0.127219 0.849734
1.000000 0.794576 0.853524
0.000000 0.861936 0.947640
0.000000 0.866281 0.947276
0.378932 0.889933 0.944602
0.918566 0.926668 0.947079
1.000000 0.893663 0.887416
0.897475 1.000000 0.968250
0.898929 1.000000 0.968345
0.907623 1.000000 0.968941
0.952025 1.000000 0.970187
1.000000 1.000000 0.969331
0.448289 0.343010 1.000000
0.461890 0.344322 1.000000
0.537232 0.344409 1.000000
0.859967 0.317321 1.000000
1.000000 0.294721 0.974959
0.450329 0.357447 1.000000
0.463908 0.358892 1.000000
0.539311 0.359455 1.000000
0.859159 0.336906 1.000000
1.000000 0.325037 0.976671
0.460098 0.434166 1.000000
0.472961 0.434556 1.000000
0.539748 0.436654 1.000000
0.859755 0.428162 1.000000
1.000000 0.448960 0.984729
0.473111 0.731428 1.000000
0.485201 0.733546 1.000000
0.553686 0.743838 1.000000
0.826481 0.777604 1.000000
1.000000 0.797066 0.998941
0.800868 0.994561 1.000000
0.803023 0.994649 1.000000
0.815722 0.995151 1.000000
0.891518 0.998739 1.000000
1.000000 1.000000 1.000000
