Assets/Lutify-Free-LUTs-Pack/Lutify Free LUTs Pack/Print Film Pro - Print Film 2/Lutify.me-PrintFilm2-DJIDLog-to-Rec709.cube
# Created with: fylm.ai - Colour Grading and Collaboration Software in Cloud 
# Website: https://fylm.ai 
# META
# Option: Gamut compress
# Block 1: IDT | DJI D-Gamut D-Log
# Block 2: colourMatch | Blending Mode: Normal | {"ColorSpace":0,"CrossCovarianceLimit":50,"ReshapingIterations":1,"PercentSaturationShift":100,"PercentShadingShift":100,"ExtraShading":true,"PercentTint":100,"PercentModified":100}
# Block 3: HSL | Blending Mode: Normal | {"hue":{"Reds":0,"Yellows":0,"Greens":0,"Cyans":0,"Blues":0,"Magentas":0},"saturation":{"Reds":1,"Yellows":0.9,"Greens":0.95,"Cyans":1,"Blues":1,"Magentas":1},"luminance":{"Reds":0.8,"Yellows":0.95,"Greens":0.9,"Cyans":0.8,"Blues":0.8,"Magentas":0.8},"lum_sat":{"Blacks":1,"Shadows":1,"Midtones":1,"Highlights":1,"Whites":1},"sat_sat":{"10":1,"20":1,"30":1,"40":1,"50":1}}
# Block 4: LUT | Filmic Curve Response: Low Contrast 2 (100%)
# Block 5: ODT | Rec709
TITLE "Lutify.me-PrintFilm2-DJIDLog-to-Rec709" 
LUT_3D_SIZE 33
0.000000 0.000000 0.000000
0.000000 0.000000 0.000000
0.000000 0.000000 0.000000
0.000000 0.000000 0.000000
0.000000 0.000000 0.000000
0.000000 0.000000 0.000000
0.000000 0.000000 0.000000
0.000000 0.000000 0.000000
0.000000 0.000000 0.000000
0.045617 0.000000 0.000000
0.075698 0.000000 0.000000
0.114357 0.000000 0.000000
0.156319 0.000000 0.000000
0.223224 0.000000 0.000000
0.294095 0.000000 0.000000
0.368985 0.000000 0.000000
0.453728 0.000000 0.000000
0.554854 0.000000 0.000000
0.646527 0.000000 0.000000
0.738922 0.000000 0.000000
0.825905 0.000000 0.029704
0.904762 0.000000 0.069454
0.962638 0.164735 0.106482
1.000000 0.285244 0.152559
1.000000 0.382239 0.202058
1.000000 0.464896 0.265850
1.000000 0.562405 0.329929
1.000000 0.640780 0.406913
1.000000 0.711668 0.483988
1.000000 0.769091 0.562679
1.000000 0.819944 0.642843
1.000000 0.856985 0.711899
1.000000 0.888280 0.777513
0.000000 0.000000 0.000000
0.000000 0.000000 0.000000
0.000000 0.000000 0.000000
0.000000 0.000000 0.000000
0.000000 0.000000 0.000000
0.000000 0.000000 0.000000
0.000000 0.000000 0.000000
0.000000 0.000000 0.000000
0.027636 0.000000 0.000000
0.061830 0.000000 0.000000
0.091785 0.000000 0.000000
0.129276 0.000000 0.000000
0.172576 0.000000 0.000000
0.237574 0.000000 0.000000
0.309498 0.000000 0.000000
0.379639 0.000000 0.000000
0.460736 0.000000 0.000000
0.561373 0.000000 0.000000
0.651050 0.000000 0.000000
0.742047 0.000000 0.000000
0.827650 0.000000 0.028021
0.905814 0.000000 0.068678
0.963194 0.173813 0.106135
1.000000 0.289317 0.152474
1.000000 0.384825 0.202057
1.000000 0.466785 0.265941
1.000000 0.564060 0.330137
1.000000 0.641847 0.407181
1.000000 0.712241 0.484120
1.000000 0.769536 0.562886
1.000000 0.820186 0.642966
1.000000 0.857134 0.711985
1.000000 0.888367 0.777576
0.000000 0.000000 0.000000
0.000000 0.000000 0.000000
0.000000 0.000000 0.000000
0.000000 0.000000 0.000000
0.000000 0.000000 0.000000
0.000000 0.000000 0.000000
0.000000 0.000000 0.000000
0.012117 0.000000 0.000000
0.051587 0.000000 0.000000
0.077151 0.000000 0.000000
0.109727 0.000000 0.000000
0.144852 0.000000 0.000000
0.190226 0.000000 0.000000
0.252036 0.000000 0.000000
0.320376 0.000000 0.000000
0.390126 0.000000 0.000000
0.467264 0.000000 0.000000
0.567796 0.000000 0.000000
0.655486 0.000000 0.000000
0.744486 0.000000 0.000000
0.829371 0.000000 0.026055
0.906799 0.000000 0.067909
0.963815 0.182388 0.105851
1.000000 0.293342 0.152383
1.000000 0.387397 0.202055
1.000000 0.468787 0.266039
1.000000 0.565712 0.330346
1.000000 0.642910 0.407448
1.000000 0.712813 0.484253
1.000000 0.769981 0.563093
1.000000 0.820426 0.643088
1.000000 0.857281 0.712069
1.000000 0.888454 0.777639
0.000000 0.000000 0.000000
0.000000 0.000000 0.000000
0.000000 0.000000 0.000000
0.000000 0.000000 0.000000
0.000000 0.000000 0.000000
0.000000 0.000000 0.000000
0.016495 0.000000 0.000000
0.046119 0.000000 0.000000
0.069074 0.000000 0.000000
0.095583 0.000000 0.000000
0.124839 0.000000 0.000000
0.161207 0.000000 0.000000
0.208061 0.000000 0.000000
0.265163 0.000000 0.000000
0.328409 0.000000 0.000000
0.398243 0.000000 0.000000
0.473720 0.000000 0.000000
0.574046 0.000000 0.000000
0.659864 0.000000 0.000000
0.746899 0.000000 0.000000
0.831066 0.000000 0.023511
0.907763 0.000000 0.067091
0.964616 0.190428 0.105768
1.000000 0.297325 0.152288
1.000000 0.389957 0.202051
1.000000 0.471208 0.266165
1.000000 0.567360 0.330554
1.000000 0.643969 0.407715
1.000000 0.713383 0.484387
1.000000 0.770424 0.563301
1.000000 0.820668 0.643212
1.000000 0.857429 0.712155
1.000000 0.888542 0.777702
0.000000 0.000000 0.000000
0.000000 0.000000 0.000000
0.000000 0.000000 0.000000
0.000000 0.000000 0.000000
0.000000 0.000000 0.000000
0.037230 0.000000 0.000000
0.055254 0.000000 0.000000
0.070846 0.000000 0.000000
0.094441 0.000000 0.000000
0.116707 0.000000 0.000000
0.142176 0.000000 0.000000
0.178208 0.000000 0.000000
0.221913 0.000000 0.000000
0.279258 0.000000 0.000000
0.337421 0.000000 0.000000
0.406162 0.000000 0.000000
0.480235 0.000000 0.000000
0.579871 0.000000 0.000000
0.664193 0.000000 0.000000
0.749289 0.000000 0.000000
0.832722 0.000000 0.019072
0.908710 0.000000 0.066223
0.965399 0.198199 0.105665
1.000000 0.301683 0.152170
1.000000 0.392505 0.202046
1.000000 0.473621 0.266291
1.000000 0.569004 0.330763
1.000000 0.645026 0.407983
1.000000 0.713951 0.484519
1.000000 0.770866 0.563509
1.000000 0.820907 0.643334
1.000000 0.857577 0.712240
1.000000 0.888629 0.777765
0.000000 0.011721 0.000000
0.000000 0.016468 0.000000
0.000000 0.021123 0.000000
0.000000 0.029741 0.000000
0.000000 0.038702 0.000000
0.058512 0.045596 0.000000
0.076918 0.044839 0.000000
0.100678 0.043093 0.000000
0.130446 0.036029 0.000000
0.160797 0.021413 0.000000
0.196671 0.000000 0.000000
0.230299 0.000000 0.000000
0.270063 0.000000 0.000000
0.318444 0.000000 0.000000
0.366587 0.000000 0.000000
0.430064 0.000000 0.000000
0.506194 0.000000 0.000000
0.594027 0.000000 0.000000
0.674943 0.000000 0.000000
0.756459 0.000000 0.000000
0.837658 0.000000 0.000000
0.911786 0.090414 0.063440
0.967668 0.220598 0.105243
1.000000 0.315117 0.151754
1.000000 0.400200 0.202019
1.000000 0.480931 0.266672
1.000000 0.573994 0.331401
1.000000 0.648226 0.408799
1.000000 0.715675 0.484926
1.000000 0.772206 0.564142
1.000000 0.821638 0.643708
1.000000 0.858025 0.712499
1.000000 0.888895 0.777956
0.000000 0.032518 0.000000
0.000000 0.035947 0.000000
0.000000 0.039086 0.000000
0.000000 0.044622 0.000000
0.000000 0.050282 0.000000
0.061874 0.055930 0.000000
0.081668 0.056317 0.000000
0.108646 0.054699 0.000000
0.142243 0.051455 0.000000
0.172998 0.042865 0.000000
0.209345 0.026626 0.000000
0.247626 0.000000 0.000000
0.285296 0.000000 0.000000
0.334710 0.000000 0.000000
0.385287 0.000000 0.000000
0.442201 0.000000 0.000000
0.518712 0.000000 0.000000
0.599404 0.000000 0.000000
0.679521 0.000000 0.000000
0.759778 0.000000 0.000000
0.839746 0.000000 0.000000
0.913680 0.111905 0.062488
0.968595 0.229823 0.105004
1.000000 0.320809 0.151560
1.000000 0.403496 0.202003
1.000000 0.484051 0.266897
1.000000 0.576143 0.331676
1.000000 0.649600 0.409151
1.000000 0.716417 0.485102
1.000000 0.772782 0.564417
1.000000 0.821953 0.643870
1.000000 0.858219 0.712611
1.000000 0.889010 0.778038
0.000000 0.047972 0.000000
0.000000 0.050316 0.000000
0.000000 0.053921 0.000000
0.000000 0.058135 0.000000
0.000000 0.065832 0.000000
0.062405 0.074788 0.000000
0.087998 0.074539 0.000000
0.117369 0.073511 0.000000
0.151591 0.072158 0.000000
0.190231 0.069754 0.000000
0.224869 0.062952 0.000000
0.264604 0.051884 0.000000
0.307328 0.025166 0.000000
0.356952 0.000000 0.000000
0.410440 0.000000 0.000000
0.464736 0.000000 0.000000
0.529174 0.000000 0.000000
0.609581 0.000000 0.000000
0.686610 0.000000 0.000000
0.765138 0.000000 0.000000
0.842656 0.000000 0.000000
0.916124 0.134606 0.061061
0.969779 0.241700 0.104632
1.000000 0.327822 0.151348
1.000000 0.407831 0.201977
1.000000 0.488107 0.267362
1.000000 0.578978 0.332041
1.000000 0.651411 0.409618
1.000000 0.717395 0.485334
1.000000 0.773540 0.564778
1.000000 0.822368 0.644083
1.000000 0.858474 0.712758
1.000000 0.889162 0.778147
0.000000 0.062966 0.000000
0.000000 0.067327 0.000000
0.000000 0.072065 0.000000
0.000000 0.078252 0.000000
0.000000 0.087427 0.000000
0.061254 0.097355 0.000000
0.090565 0.097238 0.000000
0.121801 0.098943 0.000000
0.163085 0.096748 0.000000
0.204859 0.093451 0.000000
0.242043 0.093230 0.000000
0.281469 0.085970 0.000000
0.325876 0.076106 0.000000
0.378134 0.057754 0.000000
0.432439 0.000000 0.000000
0.486850 0.000000 0.000000
0.544707 0.000000 0.000000
0.623695 0.000000 0.000000
0.696061 0.000000 0.000000
0.772331 0.000000 0.000000
0.846705 0.032923 0.000000
0.919122 0.157607 0.058190
0.971274 0.256960 0.104036
1.000000 0.336507 0.151026
1.000000 0.413522 0.201936
1.000000 0.493442 0.267980
1.000000 0.582685 0.332643
1.000000 0.653793 0.410236
1.000000 0.718682 0.485642
1.000000 0.774539 0.565258
1.000000 0.822917 0.644367
1.000000 0.858812 0.712955
1.000000 0.889362 0.778292
0.000000 0.084711 0.000000
0.000000 0.090361 0.000000
0.000000 0.095055 0.000000
0.000000 0.103696 0.000000
0.000000 0.111452 0.000000
0.046053 0.124129 0.000000
0.086429 0.124410 0.000000
0.126744 0.124810 0.000000
0.171790 0.125722 0.000000
0.214805 0.122336 0.000000
0.256200 0.119946 0.000000
0.300722 0.118565 0.000000
0.345888 0.113328 0.000000
0.401273 0.105202 0.000000
0.453922 0.100957 0.000000
0.508285 0.094983 0.000000
0.570191 0.082960 0.000000
0.643827 0.034729 0.000000
0.709202 0.000000 0.000000
0.782291 0.018474 0.000000
0.853560 0.113380 0.000000
0.922882 0.183395 0.053214
0.972624 0.274892 0.102390
1.000000 0.347797 0.150540
1.000000 0.420978 0.201868
1.000000 0.500452 0.268796
1.000000 0.587510 0.333659
1.000000 0.656917 0.411055
1.000000 0.720374 0.486049
1.000000 0.775849 0.565894
1.000000 0.823639 0.644742
1.000000 0.859257 0.713215
1.000000 0.889627 0.778483
0.000000 0.111885 0.000000
0.000000 0.119670 0.000000
0.000000 0.125713 0.000000
0.000000 0.135698 0.000000
0.000000 0.142222 0.000000
0.000000 0.156508 0.000000
0.075724 0.159108 0.000000
0.128805 0.158855 0.000000
0.175980 0.161070 0.000000
0.218952 0.160838 0.000000
0.269038 0.155096 0.000000
0.319360 0.150301 0.000000
0.367157 0.149302 0.000000
0.427456 0.146328 0.000000
0.478092 0.148239 0.000000
0.531469 0.153337 0.000000
0.599081 0.148681 0.000000
0.666524 0.139813 0.000000
0.726254 0.134772 0.000000
0.794292 0.134431 0.000000
0.862741 0.164328 0.000000
0.927770 0.216646 0.045201
0.974000 0.297805 0.099705
1.000000 0.362632 0.149855
1.000000 0.430726 0.201760
1.000000 0.509561 0.269887
1.000000 0.593324 0.334540
1.000000 0.661028 0.411809
1.000000 0.722593 0.486587
1.000000 0.777567 0.566735
1.000000 0.824591 0.645238
1.000000 0.859842 0.713557
1.000000 0.889977 0.778735
0.000000 0.152457 0.000000
0.000000 0.158627 0.000000
0.000000 0.167723 0.000000
0.000000 0.178264 0.000000
0.000000 0.184013 0.000000
0.000000 0.198450 0.000000
0.000000 0.200671 0.000000
0.116575 0.200071 0.000000
0.172806 0.200255 0.000000
0.224440 0.197586 0.000000
0.278720 0.197587 0.000000
0.335214 0.191247 0.000000
0.390983 0.189541 0.000000
0.451552 0.192337 0.000000
0.505428 0.192951 0.000000
0.561959 0.202477 0.000000
0.620240 0.207152 0.000000
0.687968 0.213468 0.000000
0.752878 0.211825 0.000000
0.808870 0.209407 0.000000
0.874966 0.221110 0.000000
0.933883 0.259949 0.025922
0.975600 0.326214 0.095577
1.000000 0.381924 0.149338
1.000000 0.444571 0.202201
1.000000 0.520729 0.271414
1.000000 0.600834 0.335600
1.000000 0.666394 0.412729
1.000000 0.725494 0.487300
1.000000 0.779810 0.567849
1.000000 0.825840 0.645893
1.000000 0.860612 0.714011
1.000000 0.890438 0.779067
0.000000 0.204873 0.000000
0.000000 0.211533 0.000000
0.000000 0.221060 0.000000
0.000000 0.229173 0.000000
0.000000 0.233956 0.000000
0.000000 0.247564 0.000000
0.000000 0.249656 0.000000
0.073343 0.249610 0.000000
0.156408 0.248985 0.000000
0.216503 0.249036 0.000000
0.277125 0.251830 0.000000
0.337798 0.247955 0.000000
0.408597 0.240499 0.000000
0.481839 0.241426 0.000000
0.532748 0.249043 0.000000
0.594370 0.257166 0.000000
0.652091 0.276733 0.000000
0.717988 0.285621 0.000000
0.773484 0.285671 0.000000
0.831627 0.290726 0.000000
0.885726 0.290721 0.000000
0.938828 0.308259 0.000000
0.977695 0.354790 0.090754
1.000000 0.406870 0.149431
1.000000 0.463440 0.203220
1.000000 0.535478 0.272905
1.000000 0.610670 0.337009
1.000000 0.673360 0.413955
1.000000 0.729274 0.488245
1.000000 0.782723 0.569324
1.000000 0.827479 0.646760
1.000000 0.861622 0.714599
1.000000 0.891045 0.779506
0.000000 0.266861 0.000000
0.000000 0.273799 0.000000
0.000000 0.282781 0.000000
0.000000 0.287240 0.000000
0.000000 0.291194 0.000000
0.000000 0.303099 0.000000
0.000000 0.305634 0.000000
0.000000 0.306445 0.000000
0.113795 0.307422 0.000000
0.197869 0.306546 0.000000
0.266443 0.309597 0.000000
0.333621 0.309234 0.000000
0.411130 0.303382 0.000000
0.502166 0.294919 0.000000
0.566975 0.300829 0.000000
0.615437 0.313954 0.000000
0.676684 0.336676 0.000000
0.739504 0.358873 0.000000
0.793474 0.366401 0.000000
0.849042 0.372826 0.000000
0.897945 0.372923 0.000000
0.944418 0.375795 0.000000
0.980411 0.393048 0.082432
1.000000 0.439574 0.147122
1.000000 0.489195 0.203981
1.000000 0.554851 0.274458
1.000000 0.623488 0.339544
1.000000 0.681807 0.415585
1.000000 0.734174 0.489496
1.000000 0.786499 0.571280
1.000000 0.829620 0.647907
1.000000 0.862944 0.715361
1.000000 0.891843 0.780083
0.000000 0.332515 0.000000
0.000000 0.336701 0.000000
0.000000 0.340685 0.000000
0.000000 0.344595 0.000000
0.000000 0.348434 0.000000
0.000000 0.359556 0.000000
0.000000 0.364356 0.000000
0.000000 0.369739 0.000000
0.000000 0.372387 0.000000
0.164323 0.372029 0.000000
0.250432 0.371023 0.000000
0.327099 0.370960 0.000000
0.415299 0.370813 0.000000
0.501337 0.364841 0.000000
0.580365 0.359547 0.000000
0.642619 0.370956 0.000000
0.693221 0.393463 0.000000
0.760225 0.422922 0.000000
0.814609 0.439866 0.000000
0.863102 0.446134 0.000000
0.908173 0.448344 0.000000
0.949189 0.454888 0.000000
0.983400 0.453427 0.063340
1.000000 0.482318 0.143132
1.000000 0.523756 0.203693
1.000000 0.580144 0.276586
1.000000 0.640169 0.343532
1.000000 0.692234 0.417673
1.000000 0.740485 0.491160
1.000000 0.791393 0.573864
1.000000 0.832371 0.649379
1.000000 0.864648 0.716527
1.000000 0.892891 0.780843
0.000000 0.411271 0.000000
0.000000 0.415551 0.000000
0.000000 0.418880 0.000000
0.000000 0.422092 0.000000
0.000000 0.425218 0.000000
0.000000 0.434509 0.000000
0.000000 0.438442 0.000000
0.000000 0.443543 0.000000
0.000000 0.447769 0.000000
0.000000 0.447939 0.000000
0.194791 0.447677 0.000000
0.293990 0.446421 0.000000
0.400906 0.443661 0.000000
0.497975 0.438999 0.000000
0.579888 0.433190 0.000000
0.655588 0.433650 0.000000
0.718581 0.445130 0.000000
0.778080 0.476047 0.000000
0.825209 0.514593 0.000000
0.875450 0.525315 0.000000
0.918638 0.525652 0.000000
0.952234 0.536399 0.000000
0.983492 0.535281 0.000000
1.000000 0.547569 0.137203
1.000000 0.568477 0.203652
1.000000 0.609287 0.278477
1.000000 0.661471 0.348998
1.000000 0.706227 0.420678
1.000000 0.749203 0.493603
1.000000 0.797675 0.577288
1.000000 0.835931 0.651326
1.000000 0.866566 0.717980
1.000000 0.894262 0.781841
0.000000 0.500299 0.000000
0.000000 0.505426 0.000000
0.000000 0.510349 0.000000
0.000000 0.514254 0.000000
0.000000 0.516814 0.000000
0.000000 0.518898 0.000000
0.000000 0.520188 0.000000
0.000000 0.524306 0.000000
0.000000 0.529615 0.000000
0.000000 0.533102 0.000000
0.000000 0.532788 0.000000
0.247352 0.531809 0.000000
0.367571 0.530284 0.000000
0.473392 0.530323 0.000000
0.564540 0.528861 0.000000
0.646971 0.524198 0.000000
0.731700 0.520739 0.000000
0.790539 0.533926 0.000000
0.831728 0.575668 0.000000
0.881265 0.600707 0.000000
0.920368 0.612232 0.000000
0.953499 0.612414 0.000000
0.980640 0.619692 0.000000
1.000000 0.627097 0.130430
1.000000 0.630880 0.204966
1.000000 0.644522 0.281434
1.000000 0.685633 0.354740
1.000000 0.723834 0.424807
1.000000 0.761623 0.498255
1.000000 0.805688 0.581828
1.000000 0.840508 0.653893
1.000000 0.868999 0.719855
1.000000 0.895843 0.783015
0.000000 0.592155 0.000000
0.000000 0.594204 0.000000
0.000000 0.596189 0.000000
0.000000 0.598118 0.000000
0.000000 0.599994 0.000000
0.000000 0.604084 0.000000
0.000000 0.606247 0.000000
0.000000 0.609044 0.000000
0.000000 0.612753 0.000000
0.000000 0.615191 0.000000
0.000000 0.616223 0.000000
0.154645 0.618230 0.000000
0.327081 0.620807 0.000000
0.434534 0.617667 0.000000
0.535022 0.618211 0.000000
0.626792 0.613656 0.000000
0.719104 0.605838 0.000000
0.799584 0.598080 0.000000
0.840394 0.619884 0.000000
0.879518 0.660193 0.000000
0.918554 0.683049 0.000000
0.951744 0.687262 0.000000
0.976519 0.692272 0.000000
0.999115 0.689448 0.120480
1.000000 0.695542 0.209246
1.000000 0.697243 0.291248
1.000000 0.716696 0.361508
1.000000 0.745739 0.430650
1.000000 0.777639 0.505607
1.000000 0.815841 0.587872
1.000000 0.846380 0.657323
1.000000 0.872120 0.722309
1.000000 0.897835 0.784508
0.000000 0.674008 0.000000
0.000000 0.675443 0.000000
0.000000 0.676846 0.000000
0.000000 0.678254 0.000000
0.000000 0.679656 0.000000
0.000000 0.683810 0.000000
0.000000 0.685547 0.000000
0.000000 0.687795 0.000000
0.000000 0.690751 0.000000
0.000000 0.694342 0.000000
0.000000 0.698874 0.000000
0.000000 0.699213 0.000000
0.273726 0.699522 0.000000
0.398317 0.700413 0.000000
0.497490 0.698474 0.000000
0.589277 0.699300 0.000000
0.697188 0.693738 0.000000
0.776695 0.686574 0.000000
0.842922 0.679058 0.000000
0.879432 0.705763 0.000000
0.915055 0.732991 0.000000
0.947919 0.747981 0.000000
0.972346 0.754183 0.000000
0.992429 0.750967 0.110008
1.000000 0.755124 0.217630
1.000000 0.754915 0.303015
1.000000 0.756055 0.373215
1.000000 0.773850 0.440519
1.000000 0.797065 0.515785
1.000000 0.827954 0.594817
1.000000 0.853826 0.661901
1.000000 0.876556 0.725453
1.000000 0.900618 0.786357
0.000000 0.751291 0.000000
0.000000 0.752173 0.000000
0.000000 0.753034 0.000000
0.000000 0.753905 0.000000
0.000000 0.754772 0.000000
0.000000 0.757304 0.000000
0.000000 0.758353 0.000000
0.000000 0.759700 0.000000
0.000000 0.761419 0.000000
0.000000 0.763606 0.000000
0.000000 0.766337 0.000000
0.000000 0.770023 0.000000
0.216193 0.773916 0.000000
0.365294 0.774371 0.000000
0.469480 0.772007 0.000000
0.565230 0.768827 0.000000
0.671769 0.768706 0.000000
0.753442 0.767243 0.000000
0.818815 0.761403 0.000000
0.877103 0.754280 0.000000
0.910467 0.774437 0.000000
0.943124 0.791162 0.000000
0.965221 0.805513 0.000000
0.987279 0.804130 0.090964
1.000000 0.807083 0.230771
1.000000 0.806703 0.319397
1.000000 0.806558 0.395255
1.000000 0.812116 0.457940
1.000000 0.821263 0.529948
1.000000 0.842204 0.602742
1.000000 0.863090 0.667976
1.000000 0.882470 0.729458
1.000000 0.904169 0.788475
0.000000 0.819024 0.000000
0.000000 0.819464 0.000000
0.000000 0.819895 0.000000
0.000000 0.820337 0.000000
0.000000 0.820770 0.000000
0.000000 0.822014 0.000000
0.000000 0.822545 0.000000
0.000000 0.823227 0.000000
0.000000 0.824096 0.000000
0.000000 0.825190 0.000000
0.000000 0.826598 0.000000
0.000000 0.828375 0.000000
0.207221 0.830552 0.000000
0.351059 0.831957 0.000000
0.459050 0.831108 0.000000
0.558061 0.830821 0.000000
0.656936 0.829316 0.000000
0.739496 0.825209 0.000000
0.803005 0.821304 0.000000
0.858069 0.822223 0.000000
0.905994 0.817734 0.000000
0.937195 0.826604 0.000000
0.960209 0.840429 0.000000
0.982509 0.848660 0.076869
0.999447 0.851638 0.243470
1.000000 0.850352 0.335583
1.000000 0.848777 0.418467
1.000000 0.851252 0.481450
1.000000 0.850196 0.547399
1.000000 0.859676 0.613894
1.000000 0.874442 0.676016
1.000000 0.889926 0.734728
1.000000 0.908421 0.791047
0.000000 0.864576 0.000000
0.000000 0.865057 0.000000
0.000000 0.865529 0.000000
0.000000 0.865758 0.000000
0.000000 0.865971 0.000000
0.000000 0.866593 0.000000
0.000000 0.866851 0.000000
0.000000 0.867186 0.000000
0.000000 0.867614 0.000000
0.000000 0.868156 0.000000
0.000000 0.868835 0.000000
0.188350 0.869667 0.000000
0.296632 0.870808 0.000000
0.385587 0.872262 0.000000
0.471343 0.872997 0.000000
0.571915 0.871319 0.000000
0.658680 0.870601 0.000000
0.732890 0.867798 0.000000
0.792302 0.866535 0.000000
0.843054 0.864592 0.000000
0.895610 0.860947 0.000000
0.933374 0.859169 0.000000
0.957307 0.866348 0.000000
0.978837 0.875767 0.000000
0.996561 0.883074 0.240467
1.000000 0.882755 0.348956
1.000000 0.881002 0.433904
1.000000 0.882185 0.504757
1.000000 0.880246 0.570753
1.000000 0.881658 0.631541
1.000000 0.888332 0.687141
1.000000 0.899317 0.741721
1.000000 0.913803 0.794414
0.000000 0.896916 0.000000
0.000000 0.897034 0.000000
0.000000 0.897177 0.000000
0.000000 0.897437 0.000000
0.000000 0.897693 0.000000
0.099285 0.898452 0.000000
0.140782 0.898778 0.000000
0.176625 0.899210 0.000000
0.212513 0.899768 0.000000
0.251102 0.900079 0.000000
0.292574 0.900403 0.000000
0.337926 0.900798 0.000000
0.389620 0.901261 0.000000
0.454718 0.901726 0.000000
0.525833 0.902246 0.000000
0.602781 0.901815 0.000000
0.672581 0.901360 0.000000
0.733498 0.901503 0.000000
0.790848 0.898864 0.000000
0.837902 0.897881 0.000000
0.887149 0.895438 0.000000
0.922355 0.893462 0.000000
0.952960 0.891167 0.000000
0.973661 0.897489 0.000000
0.991999 0.902960 0.207504
1.000000 0.908446 0.352381
1.000000 0.906383 0.450218
1.000000 0.905130 0.524544
1.000000 0.905642 0.594094
1.000000 0.903627 0.653105
1.000000 0.906715 0.704952
1.000000 0.911307 0.751642
1.000000 0.920906 0.799163
0.324581 0.924668 0.000000
0.331620 0.924702 0.000000
0.338942 0.924727 0.000000
0.346515 0.924746 0.000000
0.353872 0.924763 0.000000
0.375137 0.924813 0.000000
0.383859 0.924832 0.000000
0.395015 0.924855 0.000000
0.409178 0.924881 0.000000
0.427002 0.924912 0.000000
0.449231 0.924942 0.000000
0.474170 0.924999 0.000000
0.506540 0.925001 0.000000
0.546845 0.924954 0.000000
0.592596 0.925007 0.000000
0.645474 0.925115 0.000000
0.698353 0.925328 0.000000
0.748027 0.925414 0.000000
0.794044 0.924322 0.000000
0.839171 0.923097 0.000000
0.883155 0.921649 0.000000
0.916805 0.919494 0.000000
0.945242 0.917832 0.000000
0.971155 0.917751 0.000000
0.989893 0.920175 0.151213
1.000000 0.926805 0.336547
1.000000 0.929669 0.462040
1.000000 0.927842 0.544476
1.000000 0.928367 0.613857
1.000000 0.926038 0.677003
1.000000 0.926548 0.728402
1.000000 0.927310 0.768689
1.000000 0.931924 0.807806
0.509502 0.946200 0.191696
0.513228 0.946251 0.191679
0.516939 0.946243 0.191299
0.520605 0.946231 0.190893
0.524225 0.946219 0.190485
0.534982 0.946181 0.189270
0.539513 0.946166 0.188755
0.545196 0.946151 0.188070
0.552448 0.946134 0.187174
0.561768 0.946113 0.186009
0.573652 0.946085 0.184509
0.588658 0.946050 0.182586
0.607387 0.946005 0.180142
0.630457 0.945954 0.177090
0.656039 0.945988 0.175706
0.685944 0.946138 0.178767
0.723420 0.946341 0.183843
0.764035 0.945631 0.184051
0.803806 0.944626 0.182423
0.846600 0.944774 0.187544
0.881868 0.944427 0.184589
0.911138 0.942920 0.177516
0.939086 0.941946 0.177624
0.965354 0.940678 0.183493
0.984770 0.938606 0.178186
1.000000 0.941703 0.299840
1.000000 0.945501 0.443047
1.000000 0.948392 0.564849
1.000000 0.948415 0.638083
1.000000 0.946387 0.700118
1.000000 0.946170 0.751032
1.000000 0.946688 0.788853
1.000000 0.946906 0.822697
0.634783 0.963409 0.322603
0.636689 0.963415 0.322545
0.638588 0.963402 0.322373
0.640472 0.963390 0.322203
0.642341 0.963377 0.322035
0.647346 0.963359 0.321829
0.649434 0.963353 0.321764
0.652166 0.963345 0.321678
0.655731 0.963334 0.321572
0.660358 0.963321 0.321432
0.666331 0.963305 0.321258
0.673986 0.963287 0.321044
0.683705 0.963266 0.320783
0.695907 0.963246 0.320482
0.711016 0.963233 0.320161
0.729443 0.963246 0.320193
0.751775 0.963300 0.320200
0.780166 0.963140 0.320099
0.814500 0.962517 0.320753
0.849613 0.962617 0.324386
0.882326 0.962514 0.327521
0.910601 0.961206 0.322444
0.935628 0.961103 0.322457
0.956674 0.961012 0.326259
0.977929 0.959928 0.325544
0.998641 0.958033 0.329005
1.000000 0.959674 0.419134
1.000000 0.963970 0.559357
