Assets/Lutify-Free-LUTs-Pack/Lutify Free LUTs Pack/Print Film Pro - Print Film 2/Lutify.me-PrintFilm2-SLog3Cine-to-Rec709.cube
# Created with: fylm.ai - Colour Grading and Collaboration Software in Cloud 
# Website: https://fylm.ai 
# META
# Option: Gamut compress
# Block 1: IDT | Sony S-Log3 S-Gamut3.Cine
# Block 2: colourMatch | Blending Mode: Normal | {"ColorSpace":0,"CrossCovarianceLimit":50,"ReshapingIterations":1,"PercentSaturationShift":100,"PercentShadingShift":100,"ExtraShading":true,"PercentTint":100,"PercentModified":100}
# Block 3: HSL | Blending Mode: Normal | {"hue":{"Reds":0,"Yellows":0,"Greens":0,"Cyans":0,"Blues":0,"Magentas":0},"saturation":{"Reds":1,"Yellows":0.9,"Greens":0.95,"Cyans":1,"Blues":1,"Magentas":1},"luminance":{"Reds":0.8,"Yellows":0.95,"Greens":0.9,"Cyans":0.8,"Blues":0.8,"Magentas":0.8},"lum_sat":{"Blacks":1,"Shadows":1,"Midtones":1,"Highlights":1,"Whites":1},"sat_sat":{"10":1,"20":1,"30":1,"40":1,"50":1}}
# Block 4: LUT | Filmic Curve Response: Low Contrast 2 (100%)
# Block 5: ODT | Rec709
TITLE "Lutify.me-PrintFilm2-SLog3Cine-to-Rec709" 
LUT_3D_SIZE 5
0.000000 0.000000 0.000000
0.000000 0.000000 0.000000
0.345286 0.000000 0.000000
1.000000 0.000000 0.130610
1.000000 0.806497 0.661720
0.000000 0.052552 0.000000
0.103962 0.071445 0.000000
0.446726 0.000000 0.000000
1.000000 0.140076 0.134233
1.000000 0.808113 0.662439
0.000000 0.531276 0.000000
0.000000 0.555903 0.000000
0.660361 0.534407 0.000000
1.000000 0.457232 0.137992
1.000000 0.823213 0.672484
0.618267 0.948995 0.461121
0.638335 0.949151 0.459016
0.753870 0.947158 0.445235
0.977164 0.940186 0.342629
1.000000 0.907199 0.746656
0.955927 1.000000 0.937402
0.956316 1.000000 0.937405
0.959266 1.000000 0.937441
0.979099 1.000000 0.937055
1.000000 1.000000 0.931173
0.000000 0.000000 0.000000
0.000000 0.000000 0.000000
0.343637 0.000000 0.031996
1.000000 0.000000 0.165181
1.000000 0.807109 0.667145
0.000000 0.038713 0.106764
0.073872 0.078543 0.083154
0.442133 0.000000 0.044539
1.000000 0.126618 0.165260
1.000000 0.808731 0.667853
0.000000 0.548441 0.000000
0.000000 0.567762 0.000000
0.625520 0.580364 0.000000
1.000000 0.451276 0.178940
1.000000 0.822697 0.676200
0.617027 0.948556 0.505400
0.637541 0.948729 0.502896
0.753200 0.947781 0.492419
0.975584 0.941259 0.389612
1.000000 0.906977 0.749401
0.955782 1.000000 0.938176
0.956172 1.000000 0.938176
0.959128 1.000000 0.938204
0.979074 1.000000 0.937820
1.000000 1.000000 0.931854
0.000000 0.000000 0.000000
0.000000 0.000000 0.052220
0.197788 0.000000 0.061220
1.000000 0.000000 0.339027
1.000000 0.810102 0.708235
0.000000 0.000000 0.366290
0.000000 0.000000 0.337519
0.336262 0.000000 0.194413
1.000000 0.000000 0.350366
1.000000 0.811865 0.708893
0.000000 0.396720 0.668707
0.000000 0.459839 0.655343
0.575535 0.596293 0.630114
1.000000 0.432842 0.401095
1.000000 0.823580 0.713376
0.608380 0.952330 0.721875
0.628930 0.951914 0.718463
0.740488 0.950326 0.697748
0.967981 0.946661 0.638248
1.000000 0.905672 0.771140
0.955335 1.000000 0.943263
0.955724 1.000000 0.943263
0.958672 1.000000 0.943276
0.978879 1.000000 0.942939
1.000000 1.000000 0.937462
0.000000 0.000000 0.297608
0.000000 0.000000 0.282144
0.147921 0.000000 0.256697
0.684628 0.000000 0.220606
1.000000 0.802476 0.851896
0.000000 0.000000 0.785929
0.000000 0.000000 0.762686
0.153677 0.000000 0.604481
0.685048 0.000000 0.220542
1.000000 0.805132 0.852606
0.000000 0.187770 0.951027
0.000000 0.197843 0.948422
0.225476 0.225109 0.932766
1.000000 0.000000 0.828954
1.000000 0.823976 0.857803
0.000000 0.901275 0.961920
0.000000 0.903404 0.961503
0.485268 0.919147 0.958764
0.943531 0.949954 0.960811
1.000000 0.903746 0.880534
0.954683 1.000000 0.975784
0.955030 1.000000 0.975770
0.957662 1.000000 0.975668
0.975628 1.000000 0.972212
1.000000 1.000000 0.968847
0.157598 0.000000 0.709232
0.174640 0.000000 0.684784
0.271155 0.000000 0.646165
0.647919 0.000000 0.619616
1.000000 0.000000 0.526056
0.199276 0.000000 0.964458
0.219091 0.000000 0.960221
0.310175 0.000000 0.910497
0.648367 0.000000 0.619566
1.000000 0.000000 0.526042
0.351432 0.200916 1.000000
0.367708 0.198501 1.000000
0.466864 0.177890 1.000000
0.846777 0.000000 1.000000
1.000000 0.000000 0.525938
0.445788 0.734323 1.000000
0.455330 0.736067 1.000000
0.531271 0.744004 1.000000
0.839331 0.775541 1.000000
1.000000 0.719852 1.000000
0.863025 1.000000 1.000000
0.863930 1.000000 1.000000
0.870728 1.000000 1.000000
0.925021 1.000000 1.000000
1.000000 1.000000 1.000000
