Assets/Lutify-Free-LUTs-Pack/Lutify Free LUTs Pack/Print Film Pro - Print Film 2/Lutify.me-PrintFilm2-SLog2-to-Rec709.cube
# Created with: fylm.ai - Colour Grading and Collaboration Software in Cloud 
# Website: https://fylm.ai 
# META
# Option: Gamut compress
# Block 1: IDT | Sony S-Log2 S-Gamut Daylight 10-bit
# Block 2: colourMatch | Blending Mode: Normal | {"ColorSpace":0,"CrossCovarianceLimit":50,"ReshapingIterations":1,"PercentSaturationShift":100,"PercentShadingShift":100,"ExtraShading":true,"PercentTint":100,"PercentModified":100}
# Block 3: HSL | Blending Mode: Normal | {"hue":{"Reds":0,"Yellows":0,"Greens":0,"Cyans":0,"Blues":0,"Magentas":0},"saturation":{"Reds":1,"Yellows":0.9,"Greens":0.95,"Cyans":1,"Blues":1,"Magentas":1},"luminance":{"Reds":0.8,"Yellows":0.95,"Greens":0.9,"Cyans":0.8,"Blues":0.8,"Magentas":0.8},"lum_sat":{"Blacks":1,"Shadows":1,"Midtones":1,"Highlights":1,"Whites":1},"sat_sat":{"10":1,"20":1,"30":1,"40":1,"50":1}}
# Block 4: LUT | Filmic Curve Response: Low Contrast 2 (100%)
# Block 5: ODT | Rec709
TITLE "Lutify.me-PrintFilm2-SLog2-to-Rec709" 
LUT_3D_SIZE 5
0.000000 0.000000 0.000000
0.078190 0.000000 0.000000
0.600260 0.000000 0.041266
1.000000 0.305854 0.295400
1.000000 0.763488 0.700344
0.000000 0.084716 0.000000
0.268188 0.135775 0.000000
0.678153 0.103908 0.000000
1.000000 0.360578 0.291707
1.000000 0.769549 0.700569
0.000000 0.369893 0.000000
0.000000 0.496133 0.000000
0.769866 0.579583 0.000000
1.000000 0.657329 0.316546
1.000000 0.796798 0.701218
0.000000 0.741104 0.000000
0.000000 0.741226 0.000000
0.412445 0.866411 0.000000
0.958080 0.908636 0.072870
1.000000 0.908602 0.757624
0.000000 0.947111 0.000000
0.000000 0.947123 0.000000
0.000000 0.947174 0.000000
0.835430 0.992187 0.316111
1.000000 0.993521 0.750213
0.000000 0.000000 0.000000
0.072967 0.000000 0.019870
0.605913 0.000000 0.143164
1.000000 0.307446 0.348514
1.000000 0.765847 0.715316
0.000000 0.059167 0.267779
0.186393 0.196510 0.213137
0.679881 0.000000 0.179357
1.000000 0.370766 0.350917
1.000000 0.771876 0.715587
0.000000 0.330893 0.198051
0.000000 0.563730 0.105962
0.719251 0.667154 0.000000
1.000000 0.648836 0.389795
1.000000 0.798005 0.716458
0.000000 0.697147 0.000000
0.000000 0.693226 0.000000
0.000000 0.908085 0.000000
0.956105 0.912763 0.303083
1.000000 0.907943 0.766418
0.000000 0.947017 0.000000
0.000000 0.949931 0.000000
0.000000 0.953077 0.000000
0.827455 0.994508 0.428072
1.000000 0.993776 0.768102
0.000000 0.000000 0.108922
0.063424 0.000000 0.216173
0.502607 0.000000 0.270590
1.000000 0.271720 0.557349
1.000000 0.773250 0.769873
0.000000 0.000000 0.666017
0.000000 0.062297 0.562261
0.667374 0.000000 0.482883
1.000000 0.357158 0.578148
1.000000 0.778826 0.770426
0.000000 0.227682 0.833685
0.000000 0.362932 0.765753
0.673386 0.692491 0.722504
0.998162 0.642561 0.637335
1.000000 0.803134 0.772233
0.000000 0.615220 0.758231
0.000000 0.614358 0.761736
0.000000 0.914601 0.658407
0.941972 0.924085 0.689201
1.000000 0.905474 0.802222
0.000000 0.886586 0.680475
0.000000 0.886406 0.684653
0.000000 0.885629 0.702258
0.816620 0.995949 0.694127
1.000000 0.994807 0.827736
0.000000 0.000000 0.872056
0.000000 0.000000 0.850581
0.495909 0.000000 0.806350
1.000000 0.000000 0.785265
1.000000 0.752268 0.874734
0.000000 0.050568 0.909539
0.000000 0.103655 0.896882
0.507133 0.000000 0.854985
1.000000 0.000000 0.813785
1.000000 0.760060 0.875993
0.000000 0.093061 0.999832
0.000000 0.289402 0.940632
0.436437 0.417160 0.922217
1.000000 0.451339 0.881279
1.000000 0.794683 0.881517
0.000000 0.513560 1.000000
0.000000 0.513643 1.000000
0.000000 0.832229 0.942675
0.918765 0.927811 0.941003
1.000000 0.904871 0.904796
0.000000 0.850035 0.964191
0.000000 0.849964 0.964407
0.000000 0.849651 0.965361
0.786816 0.997251 0.917147
1.000000 0.997809 0.934133
0.000000 0.298893 1.000000
0.217760 0.304219 1.000000
0.489828 0.321837 1.000000
0.942908 0.317223 0.984761
1.000000 0.504853 0.966230
0.000000 0.324914 1.000000
0.191918 0.336562 1.000000
0.484240 0.355386 1.000000
0.941426 0.362114 0.987346
1.000000 0.532613 0.968080
0.000000 0.410224 1.000000
0.000000 0.429164 1.000000
0.445898 0.475426 1.000000
0.923351 0.501149 0.993173
1.000000 0.633287 0.974129
0.000000 0.472985 1.000000
0.000000 0.599190 1.000000
0.000000 0.715825 1.000000
0.833850 0.809874 1.000000
1.000000 0.844852 0.986450
0.000000 0.803081 1.000000
0.000000 0.803093 1.000000
0.000000 0.803147 1.000000
0.533012 0.971681 1.000000
0.994462 0.997809 1.000000
