Assets/Lutify-Free-LUTs-Pack/Lutify Free LUTs Pack/Print Film Pro - Print Film 2/Lutify.me-PrintFilm2-SLog3-to-Rec709.cube
# Created with: fylm.ai - Colour Grading and Collaboration Software in Cloud 
# Website: https://fylm.ai 
# META
# Option: Gamut compress
# Block 1: IDT | Sony S-Log3 S-Gamut3
# Block 2: colourMatch | Blending Mode: Normal | {"ColorSpace":0,"CrossCovarianceLimit":50,"ReshapingIterations":1,"PercentSaturationShift":100,"PercentShadingShift":100,"ExtraShading":true,"PercentTint":100,"PercentModified":100}
# Block 3: HSL | Blending Mode: Normal | {"hue":{"Reds":0,"Yellows":0,"Greens":0,"Cyans":0,"Blues":0,"Magentas":0},"saturation":{"Reds":1,"Yellows":0.9,"Greens":0.95,"Cyans":1,"Blues":1,"Magentas":1},"luminance":{"Reds":0.8,"Yellows":0.95,"Greens":0.9,"Cyans":0.8,"Blues":0.8,"Magentas":0.8},"lum_sat":{"Blacks":1,"Shadows":1,"Midtones":1,"Highlights":1,"Whites":1},"sat_sat":{"10":1,"20":1,"30":1,"40":1,"50":1}}
# Block 4: LUT | Filmic Curve Response: Low Contrast 2 (100%)
# Block 5: ODT | Rec709
TITLE "Lutify.me-PrintFilm2-SLog3-to-Rec709" 
LUT_3D_SIZE 33
0.000000 0.000000 0.000000
0.000000 0.000000 0.000000
0.000000 0.000000 0.000000
0.000000 0.000000 0.000000
0.000000 0.000000 0.000000
0.000000 0.000000 0.000000
0.000000 0.000000 0.000000
0.000000 0.000000 0.000000
0.000000 0.000000 0.000000
0.016167 0.000000 0.000000
0.057770 0.000000 0.000000
0.091437 0.000000 0.000000
0.130389 0.000000 0.000000
0.183962 0.000000 0.000000
0.255979 0.000000 0.000000
0.332200 0.000000 0.000000
0.423321 0.000000 0.000000
0.521507 0.000000 0.000000
0.610727 0.000000 0.000000
0.707438 0.000000 0.029158
0.800864 0.000000 0.058347
0.887379 0.000000 0.087975
0.951195 0.000000 0.122514
1.000000 0.101209 0.167674
1.000000 0.259949 0.218481
1.000000 0.368039 0.277478
1.000000 0.456193 0.339581
1.000000 0.547842 0.412500
1.000000 0.636389 0.494321
1.000000 0.705673 0.564497
1.000000 0.767170 0.639223
1.000000 0.818008 0.717980
1.000000 0.857732 0.777520
0.000000 0.000000 0.000000
0.000000 0.000000 0.000000
0.000000 0.000000 0.000000
0.000000 0.000000 0.000000
0.000000 0.000000 0.000000
0.000000 0.000000 0.000000
0.000000 0.000000 0.000000
0.000000 0.000000 0.000000
0.000000 0.000000 0.000000
0.035914 0.000000 0.000000
0.068647 0.000000 0.000000
0.105236 0.000000 0.000000
0.143896 0.000000 0.000000
0.199801 0.000000 0.000000
0.271124 0.000000 0.000000
0.342735 0.000000 0.000000
0.430674 0.000000 0.000000
0.526053 0.000000 0.000000
0.615395 0.000000 0.000000
0.710955 0.000000 0.029003
0.802137 0.000000 0.058532
0.888465 0.000000 0.088195
0.951774 0.000000 0.122764
1.000000 0.112194 0.167613
1.000000 0.263425 0.218680
1.000000 0.369785 0.277696
1.000000 0.457422 0.339804
1.000000 0.548753 0.412556
1.000000 0.637056 0.494465
1.000000 0.706076 0.564610
1.000000 0.767407 0.639315
1.000000 0.818150 0.718040
1.000000 0.857813 0.777537
0.000000 0.000000 0.000000
0.000000 0.000000 0.000000
0.000000 0.000000 0.000000
0.000000 0.000000 0.000000
0.000000 0.000000 0.000000
0.000000 0.000000 0.000000
0.000000 0.000000 0.000000
0.000000 0.000000 0.000000
0.005313 0.000000 0.000000
0.053214 0.000000 0.000000
0.081728 0.000000 0.000000
0.118195 0.000000 0.000000
0.156148 0.000000 0.000000
0.216456 0.000000 0.000000
0.283104 0.000000 0.000000
0.352886 0.000000 0.000000
0.437304 0.000000 0.000000
0.531839 0.000000 0.000000
0.620053 0.000000 0.000000
0.713392 0.000000 0.028990
0.803898 0.000000 0.058873
0.889530 0.000000 0.088384
0.952341 0.000000 0.123009
1.000000 0.121947 0.167546
1.000000 0.266853 0.218876
1.000000 0.371522 0.277915
1.000000 0.458647 0.340027
1.000000 0.549661 0.412611
1.000000 0.637720 0.494609
1.000000 0.706479 0.564723
1.000000 0.767644 0.639406
1.000000 0.818290 0.718100
1.000000 0.857892 0.777555
0.000000 0.000000 0.000000
0.000000 0.000000 0.000000
0.000000 0.000000 0.000000
0.000000 0.000000 0.000000
0.000000 0.000000 0.000000
0.000000 0.000000 0.000000
0.000000 0.000000 0.000000
0.000000 0.000000 0.000000
0.032215 0.000000 0.000000
0.067173 0.000000 0.000000
0.096457 0.000000 0.000000
0.131227 0.000000 0.000000
0.171200 0.000000 0.000000
0.229395 0.000000 0.000000
0.294317 0.000000 0.000000
0.362590 0.000000 0.000000
0.443454 0.000000 0.000000
0.537447 0.000000 0.000000
0.624800 0.000000 0.000000
0.715780 0.000000 0.028897
0.805919 0.000000 0.059174
0.890575 0.000000 0.088562
0.952898 0.000000 0.123248
1.000000 0.130809 0.167475
1.000000 0.270235 0.219071
1.000000 0.373247 0.278131
1.000000 0.459866 0.340248
1.000000 0.550567 0.412667
1.000000 0.638382 0.494753
1.000000 0.706880 0.564836
1.000000 0.767880 0.639499
1.000000 0.818431 0.718160
1.000000 0.857973 0.777572
0.000000 0.000000 0.000000
0.000000 0.000000 0.000000
0.000000 0.000000 0.000000
0.000000 0.000000 0.000000
0.000000 0.000000 0.000000
0.000000 0.000000 0.000000
0.000000 0.000000 0.000000
0.032954 0.000000 0.000000
0.059173 0.000000 0.000000
0.082603 0.000000 0.000000
0.111430 0.000000 0.000000
0.144740 0.000000 0.000000
0.184878 0.000000 0.000000
0.240503 0.000000 0.000000
0.306663 0.000000 0.000000
0.369459 0.000000 0.000000
0.449441 0.000000 0.000000
0.542902 0.000000 0.000000
0.629449 0.000000 0.000000
0.719039 0.000000 0.027959
0.808301 0.000000 0.059427
0.892070 0.000000 0.088959
0.953444 0.000000 0.123481
1.000000 0.138988 0.167399
1.000000 0.273573 0.219264
1.000000 0.374963 0.278348
1.000000 0.461081 0.340470
1.000000 0.551470 0.412722
1.000000 0.639042 0.494896
1.000000 0.707280 0.564950
1.000000 0.768115 0.639591
1.000000 0.818571 0.718220
1.000000 0.858053 0.777590
0.000000 0.000000 0.000000
0.000000 0.000000 0.000000
0.000000 0.000000 0.000000
0.000000 0.000000 0.000000
0.000000 0.000000 0.000000
0.000000 0.000000 0.000000
0.022301 0.000000 0.000000
0.053423 0.000000 0.000000
0.073950 0.000000 0.000000
0.103463 0.000000 0.000000
0.127631 0.000000 0.000000
0.157327 0.000000 0.000000
0.198565 0.000000 0.000000
0.251792 0.000000 0.000000
0.316131 0.000000 0.000000
0.376150 0.000000 0.000000
0.455478 0.000000 0.000000
0.548220 0.000000 0.000000
0.634009 0.000000 0.000000
0.722425 0.000000 0.026712
0.810601 0.000000 0.059638
0.893590 0.000000 0.089374
0.953979 0.000000 0.123708
1.000000 0.146626 0.167318
1.000000 0.276868 0.219455
1.000000 0.376671 0.278563
1.000000 0.462292 0.340691
1.000000 0.552372 0.412777
1.000000 0.639701 0.495040
1.000000 0.707679 0.565062
1.000000 0.768349 0.639682
1.000000 0.818711 0.718280
1.000000 0.858133 0.777607
0.000000 0.000000 0.000000
0.000000 0.000000 0.000000
0.000000 0.000000 0.000000
0.000000 0.000000 0.000000
0.000000 0.013563 0.000000
0.000000 0.022341 0.000000
0.034058 0.025881 0.000000
0.058568 0.027684 0.000000
0.084139 0.024149 0.000000
0.118244 0.000000 0.000000
0.148786 0.000000 0.000000
0.177312 0.000000 0.000000
0.217181 0.000000 0.000000
0.269053 0.000000 0.000000
0.326420 0.000000 0.000000
0.386567 0.000000 0.000000
0.463070 0.000000 0.000000
0.555000 0.000000 0.000000
0.639483 0.000000 0.000000
0.726586 0.000000 0.025041
0.812623 0.000000 0.059471
0.895455 0.000000 0.089881
0.954755 0.000000 0.124081
1.000000 0.157024 0.167607
1.000000 0.280933 0.219691
1.000000 0.378793 0.278831
1.000000 0.463802 0.340966
1.000000 0.553497 0.412846
1.000000 0.640522 0.495220
1.000000 0.708177 0.565203
1.000000 0.768642 0.639798
1.000000 0.818886 0.718355
1.000000 0.858234 0.777630
0.000000 0.018867 0.000000
0.000000 0.022129 0.000000
0.000000 0.026497 0.000000
0.000000 0.031907 0.000000
0.000000 0.039745 0.000000
0.000000 0.045614 0.000000
0.035007 0.047587 0.000000
0.062124 0.047922 0.000000
0.092613 0.046375 0.000000
0.131277 0.036739 0.000000
0.168566 0.000000 0.000000
0.204510 0.000000 0.000000
0.241328 0.000000 0.000000
0.287212 0.000000 0.000000
0.338614 0.000000 0.000000
0.399586 0.000000 0.000000
0.473606 0.000000 0.000000
0.564830 0.000000 0.000000
0.646555 0.000000 0.000000
0.732086 0.000000 0.022241
0.815417 0.000000 0.059376
0.897681 0.000000 0.090378
0.956197 0.000000 0.124895
1.000000 0.170651 0.168055
1.000000 0.286536 0.220017
1.000000 0.381746 0.279206
1.000000 0.465908 0.341351
1.000000 0.555067 0.412941
1.000000 0.641670 0.495471
1.000000 0.708873 0.565401
1.000000 0.769052 0.639958
1.000000 0.819133 0.718461
1.000000 0.858374 0.777661
0.000000 0.044275 0.000000
0.000000 0.046809 0.000000
0.000000 0.049517 0.000000
0.000000 0.051536 0.000000
0.000000 0.055490 0.000000
0.000000 0.061752 0.000000
0.019853 0.067126 0.000000
0.060915 0.068584 0.000000
0.096530 0.068561 0.000000
0.143929 0.064943 0.000000
0.185131 0.055023 0.000000
0.227025 0.036231 0.000000
0.266810 0.000000 0.000000
0.312782 0.000000 0.000000
0.359840 0.000000 0.000000
0.418091 0.000000 0.000000
0.487533 0.000000 0.000000
0.577649 0.000000 0.000000
0.655263 0.000000 0.000000
0.739008 0.000000 0.016826
0.820282 0.000000 0.059068
0.899973 0.000000 0.090635
0.958037 0.000000 0.125951
1.000000 0.187148 0.168625
1.000000 0.293932 0.220507
1.000000 0.385618 0.279698
1.000000 0.468678 0.341860
1.000000 0.557139 0.413068
1.000000 0.643182 0.495802
1.000000 0.709792 0.565663
1.000000 0.769593 0.640171
1.000000 0.819456 0.718599
1.000000 0.858560 0.777703
0.000000 0.061541 0.000000
0.000000 0.065205 0.000000
0.000000 0.068381 0.000000
0.000000 0.073463 0.000000
0.000000 0.079654 0.000000
0.000000 0.087489 0.000000
0.000000 0.094028 0.000000
0.040650 0.099240 0.000000
0.097259 0.098998 0.000000
0.149148 0.098257 0.000000
0.201871 0.094774 0.000000
0.247179 0.087469 0.000000
0.293391 0.074669 0.000000
0.342988 0.046187 0.000000
0.392899 0.000000 0.000000
0.445957 0.000000 0.000000
0.506471 0.000000 0.000000
0.592989 0.000000 0.000000
0.666452 0.000000 0.000000
0.747888 0.000000 0.000000
0.826733 0.000000 0.058463
0.903115 0.000000 0.090817
0.959692 0.000000 0.126928
1.000000 0.207078 0.169335
1.000000 0.305004 0.221867
1.000000 0.390677 0.280345
1.000000 0.472669 0.342107
1.000000 0.559867 0.413234
1.000000 0.645170 0.496241
1.000000 0.711002 0.566009
1.000000 0.770306 0.640454
1.000000 0.819884 0.718783
1.000000 0.858805 0.777757
0.000000 0.085760 0.000000
0.000000 0.090927 0.000000
0.000000 0.095237 0.000000
0.000000 0.101828 0.000000
0.000000 0.108368 0.000000
0.000000 0.115723 0.000000
0.000000 0.125905 0.000000
0.000000 0.133219 0.000000
0.076786 0.135319 0.000000
0.145639 0.137784 0.000000
0.206294 0.132482 0.000000
0.260080 0.129398 0.000000
0.314853 0.123190 0.000000
0.368602 0.113313 0.000000
0.425090 0.099134 0.000000
0.477671 0.065596 0.000000
0.535309 0.000000 0.000000
0.606367 0.000000 0.000000
0.680203 0.000000 0.000000
0.756577 0.000000 0.000000
0.834603 0.000000 0.057277
0.907052 0.000000 0.090851
0.961961 0.086217 0.127917
1.000000 0.230108 0.170495
1.000000 0.319162 0.223654
1.000000 0.397264 0.281192
1.000000 0.477975 0.342333
1.000000 0.563448 0.413452
1.000000 0.647779 0.496819
1.000000 0.712592 0.566465
1.000000 0.771243 0.640826
1.000000 0.820450 0.719027
1.000000 0.859128 0.777829
0.000000 0.117020 0.000000
0.000000 0.122144 0.000000
0.000000 0.129631 0.000000
0.000000 0.138060 0.000000
0.000000 0.144357 0.000000
0.000000 0.155131 0.000000
0.000000 0.163034 0.000000
0.000000 0.172728 0.000000
0.000000 0.181005 0.000000
0.119658 0.185703 0.000000
0.197538 0.183003 0.000000
0.265299 0.174747 0.000000
0.328188 0.172465 0.000000
0.394251 0.168982 0.000000
0.454135 0.162266 0.000000
0.509094 0.151687 0.000000
0.573598 0.129096 0.000000
0.635632 0.074397 0.000000
0.698772 0.000000 0.000000
0.767454 0.000000 0.000000
0.842166 0.000000 0.054913
0.911852 0.000000 0.090461
0.964683 0.151138 0.129072
1.000000 0.256361 0.171505
1.000000 0.334915 0.225532
1.000000 0.406656 0.282830
1.000000 0.484896 0.342626
1.000000 0.568142 0.413736
1.000000 0.651189 0.497582
1.000000 0.714675 0.567067
1.000000 0.772473 0.641318
1.000000 0.821175 0.719218
1.000000 0.859555 0.777925
0.000000 0.156751 0.000000
0.000000 0.166255 0.000000
0.000000 0.176790 0.000000
0.000000 0.182748 0.000000
0.000000 0.194067 0.000000
0.000000 0.200744 0.000000
0.000000 0.209406 0.000000
0.000000 0.221951 0.000000
0.000000 0.230820 0.000000
0.039137 0.232834 0.000000
0.169803 0.236244 0.000000
0.250818 0.232626 0.000000
0.326975 0.223743 0.000000
0.402333 0.224193 0.000000
0.476484 0.226998 0.000000
0.542651 0.226421 0.000000
0.602924 0.212195 0.000000
0.669936 0.190552 0.000000
0.727107 0.149292 0.000000
0.785036 0.117507 0.000000
0.852059 0.102201 0.048583
0.919068 0.147805 0.090492
0.967772 0.206815 0.130227
1.000000 0.284350 0.172670
1.000000 0.352874 0.227458
1.000000 0.420090 0.285143
1.000000 0.494246 0.343281
1.000000 0.574274 0.414108
1.000000 0.655633 0.498585
1.000000 0.717396 0.567861
1.000000 0.774082 0.641968
1.000000 0.822123 0.719421
1.000000 0.860116 0.778051
0.000000 0.215598 0.000000
0.000000 0.227443 0.000000
0.000000 0.236575 0.000000
0.000000 0.244415 0.000000
0.000000 0.254190 0.000000
0.000000 0.261861 0.000000
0.000000 0.268159 0.000000
0.000000 0.280969 0.000000
0.000000 0.290477 0.000000
0.000000 0.300192 0.000000
0.069176 0.306617 0.000000
0.213951 0.305745 0.000000
0.314538 0.300166 0.000000
0.408588 0.294491 0.000000
0.492800 0.298235 0.000000
0.563579 0.304252 0.000000
0.635866 0.299151 0.000000
0.701312 0.285527 0.000000
0.759033 0.268065 0.000000
0.813116 0.231841 0.000000
0.868314 0.204960 0.033690
0.928888 0.218785 0.088497
0.971519 0.265229 0.131346
1.000000 0.318454 0.174059
1.000000 0.375536 0.229979
1.000000 0.437090 0.287610
1.000000 0.509937 0.346559
1.000000 0.584053 0.416850
1.000000 0.661390 0.499902
1.000000 0.720934 0.568907
1.000000 0.776178 0.642824
1.000000 0.823365 0.719688
1.000000 0.860854 0.778217
0.000000 0.276950 0.000000
0.000000 0.290702 0.000000
0.000000 0.299893 0.000000
0.000000 0.308636 0.000000
0.000000 0.319682 0.000000
0.000000 0.324669 0.000000
0.000000 0.330172 0.000000
0.000000 0.337400 0.000000
0.000000 0.353215 0.000000
0.000000 0.366230 0.000000
0.000000 0.377938 0.000000
0.073931 0.387570 0.000000
0.261227 0.385088 0.000000
0.386562 0.379629 0.000000
0.488406 0.379457 0.000000
0.569780 0.382286 0.000000
0.652254 0.388803 0.000000
0.725228 0.386345 0.000000
0.786705 0.370833 0.000000
0.835992 0.351418 0.000000
0.890014 0.328333 0.000000
0.938436 0.297711 0.082456
0.974420 0.328217 0.131555
1.000000 0.357363 0.176177
1.000000 0.404029 0.233294
1.000000 0.458770 0.290858
1.000000 0.529903 0.350716
1.000000 0.596587 0.420535
1.000000 0.668801 0.501632
1.000000 0.725506 0.570281
1.000000 0.778895 0.643950
1.000000 0.824989 0.720040
1.000000 0.861819 0.778437
0.000000 0.345016 0.000000
0.000000 0.364713 0.000000
0.000000 0.375649 0.000000
0.000000 0.381441 0.000000
0.000000 0.389798 0.000000
0.000000 0.398993 0.000000
0.000000 0.406297 0.000000
0.000000 0.412400 0.000000
0.000000 0.421038 0.000000
0.000000 0.438819 0.000000
0.000000 0.451123 0.000000
0.000000 0.462996 0.000000
0.162827 0.468199 0.000000
0.331784 0.469115 0.000000
0.456125 0.469464 0.000000
0.562512 0.460621 0.000000
0.650855 0.465683 0.000000
0.737092 0.474858 0.000000
0.804451 0.460303 0.000000
0.853996 0.453376 0.000000
0.902891 0.431196 0.000000
0.946603 0.405720 0.066143
0.977571 0.398366 0.132619
1.000000 0.410731 0.181415
1.000000 0.440253 0.237932
1.000000 0.492097 0.295691
1.000000 0.555054 0.356301
1.000000 0.613484 0.426003
1.000000 0.679237 0.504907
1.000000 0.731372 0.572082
1.000000 0.782391 0.645431
1.000000 0.827101 0.720504
1.000000 0.863079 0.778726
0.000000 0.440596 0.000000
0.000000 0.455038 0.000000
0.000000 0.463584 0.000000
0.000000 0.471947 0.000000
0.000000 0.479297 0.000000
0.000000 0.483233 0.000000
0.000000 0.487329 0.000000
0.000000 0.495767 0.000000
0.000000 0.502481 0.000000
0.000000 0.512866 0.000000
0.000000 0.526615 0.000000
0.000000 0.542410 0.000000
0.000000 0.553883 0.000000
0.227738 0.563094 0.000000
0.403618 0.558845 0.000000
0.528078 0.553142 0.000000
0.638242 0.551752 0.000000
0.732567 0.556279 0.000000
0.812575 0.553600 0.000000
0.866284 0.546305 0.000000
0.910495 0.535936 0.000000
0.950448 0.517306 0.018225
0.983760 0.487094 0.131795
1.000000 0.480125 0.189781
1.000000 0.494471 0.247270
1.000000 0.534925 0.302807
1.000000 0.586978 0.363822
1.000000 0.635123 0.433154
1.000000 0.691803 0.509223
1.000000 0.739233 0.574945
1.000000 0.786878 0.647368
1.000000 0.829835 0.721111
1.000000 0.864715 0.779108
0.000000 0.539018 0.000000
0.000000 0.550155 0.000000
0.000000 0.556860 0.000000
0.000000 0.562042 0.000000
0.000000 0.566741 0.000000
0.000000 0.569390 0.000000
0.000000 0.573822 0.000000
0.000000 0.581391 0.000000
0.000000 0.589467 0.000000
0.000000 0.595455 0.000000
0.000000 0.602991 0.000000
0.000000 0.613525 0.000000
0.000000 0.630541 0.000000
0.000000 0.641213 0.000000
0.327221 0.649720 0.000000
0.482100 0.646399 0.000000
0.605676 0.640716 0.000000
0.718490 0.641042 0.000000
0.803400 0.638114 0.000000
0.865044 0.643024 0.000000
0.910852 0.637613 0.000000
0.949074 0.627941 0.000000
0.980732 0.603555 0.141569
1.000000 0.586953 0.199768
1.000000 0.567641 0.257800
1.000000 0.588398 0.312931
1.000000 0.622961 0.375874
1.000000 0.662054 0.442598
1.000000 0.707379 0.514908
1.000000 0.749649 0.579450
1.000000 0.793485 0.650497
1.000000 0.833349 0.721908
1.000000 0.866879 0.779997
0.000000 0.626313 0.000000
0.000000 0.633033 0.000000
0.000000 0.637337 0.000000
0.000000 0.641867 0.000000
0.000000 0.645848 0.000000
0.000000 0.649551 0.000000
0.000000 0.653246 0.000000
0.000000 0.656003 0.000000
0.000000 0.660341 0.000000
0.000000 0.668668 0.000000
0.000000 0.678110 0.000000
0.000000 0.685363 0.000000
0.000000 0.694293 0.000000
0.000000 0.704013 0.000000
0.234636 0.713041 0.000000
0.423303 0.720535 0.000000
0.563565 0.720504 0.000000
0.693661 0.717226 0.000000
0.784966 0.711118 0.000000
0.853465 0.713277 0.000000
0.905081 0.717542 0.000000
0.944969 0.707865 0.000000
0.973885 0.697872 0.142017
0.996556 0.680495 0.217437
1.000000 0.666129 0.280548
1.000000 0.651694 0.332376
1.000000 0.668193 0.392697
1.000000 0.692393 0.453937
1.000000 0.726441 0.522421
1.000000 0.765822 0.588238
1.000000 0.803933 0.657738
1.000000 0.837751 0.723953
1.000000 0.869669 0.781321
0.000000 0.704031 0.080935
0.000000 0.708103 0.068077
0.000000 0.712829 0.056008
0.000000 0.716408 0.039315
0.000000 0.721002 0.000000
0.000000 0.725327 0.000000
0.000000 0.730064 0.000000
0.000000 0.734205 0.000000
0.000000 0.736648 0.000000
0.000000 0.739611 0.000000
0.000000 0.743942 0.000000
0.000000 0.748337 0.000000
0.000000 0.758059 0.000000
0.000000 0.766548 0.000000
0.000000 0.773904 0.000000
0.356258 0.780156 0.000000
0.517964 0.785681 0.000000
0.657036 0.781683 0.000000
0.762795 0.779194 0.000000
0.834121 0.773720 0.000000
0.890485 0.775197 0.000000
0.936833 0.775799 0.000000
0.964516 0.771811 0.165671
0.987677 0.757442 0.240511
1.000000 0.746620 0.307971
1.000000 0.728531 0.363571
1.000000 0.720502 0.412648
1.000000 0.729734 0.467508
1.000000 0.749734 0.533000
1.000000 0.785133 0.600049
1.000000 0.816727 0.666991
1.000000 0.845437 0.728718
1.000000 0.873237 0.782641
0.000000 0.780613 0.202172
0.000000 0.783365 0.198670
0.000000 0.786568 0.194981
0.000000 0.789595 0.191411
0.000000 0.792456 0.187946
0.000000 0.795073 0.184454
0.000000 0.798169 0.179972
0.000000 0.802170 0.173637
0.000000 0.805171 0.170442
0.000000 0.807950 0.163827
0.000000 0.809771 0.148501
0.000000 0.811795 0.128298
0.000000 0.814310 0.112753
0.000000 0.820055 0.084221
0.000000 0.825341 0.012006
0.287998 0.832349 0.000000
0.472675 0.835899 0.000000
0.631847 0.833980 0.000000
0.736302 0.833409 0.000000
0.813432 0.831019 0.000000
0.875152 0.825991 0.000000
0.924947 0.824402 0.000000
0.956652 0.828478 0.201962
0.980489 0.819958 0.276973
0.999824 0.812523 0.346449
1.000000 0.799539 0.401005
1.000000 0.783132 0.441557
1.000000 0.775192 0.489218
1.000000 0.783462 0.553476
1.000000 0.807476 0.615154
1.000000 0.830801 0.676256
1.000000 0.854872 0.734856
1.000000 0.879098 0.787277
0.000000 0.839837 0.295215
0.000000 0.840938 0.292986
0.000000 0.842494 0.290771
0.000000 0.844123 0.288614
0.000000 0.845685 0.286528
0.000000 0.847185 0.284510
0.000000 0.848962 0.282142
0.000000 0.850464 0.281114
0.000000 0.852316 0.279836
0.000000 0.854461 0.274915
0.000000 0.856844 0.268299
0.000000 0.859753 0.257573
0.000000 0.861765 0.249478
0.000000 0.862879 0.237577
0.000000 0.864901 0.227147
0.217425 0.868926 0.215076
0.443957 0.872553 0.203191
0.604481 0.873004 0.192411
0.716878 0.873065 0.185665
0.795480 0.871845 0.173615
0.858299 0.869446 0.147008
0.913453 0.865568 0.130150
0.947582 0.866816 0.223683
0.975052 0.866280 0.313027
0.992939 0.863216 0.391737
1.000000 0.854495 0.442600
1.000000 0.844044 0.483680
1.000000 0.834464 0.527403
1.000000 0.822629 0.581047
1.000000 0.832853 0.633641
1.000000 0.847556 0.688557
1.000000 0.866143 0.743170
1.000000 0.886387 0.793123
0.000000 0.883074 0.389372
0.000000 0.883708 0.388557
0.000000 0.884322 0.388204
0.000000 0.884913 0.387860
0.000000 0.885484 0.387527
0.000000 0.886035 0.387202
0.000000 0.886697 0.386811
0.000000 0.887580 0.386283
0.000000 0.888661 0.385253
0.000000 0.889916 0.381842
0.000000 0.892309 0.377655
0.000000 0.895432 0.372551
0.000000 0.897250 0.364611
0.000000 0.897595 0.353152
0.000000 0.897877 0.341823
0.183645 0.899046 0.332816
0.408490 0.901237 0.322906
0.578329 0.901901 0.313853
0.693093 0.902545 0.306717
0.778135 0.902056 0.302772
0.843658 0.900405 0.299639
0.898744 0.899545 0.279941
0.938123 0.896449 0.275860
0.967486 0.894775 0.331560
0.987917 0.896937 0.425584
1.000000 0.892413 0.486226
1.000000 0.884708 0.526049
1.000000 0.879232 0.570466
1.000000 0.867205 0.617495
1.000000 0.861427 0.657404
1.000000 0.867087 0.704259
1.000000 0.879281 0.754644
1.000000 0.895342 0.800470
0.000000 0.916362 0.484682
0.000000 0.916909 0.484745
0.000000 0.917219 0.483809
0.000000 0.917503 0.482836
0.000000 0.917778 0.481882
0.000000 0.918045 0.480946
0.000000 0.918369 0.479799
0.000000 0.918803 0.478233
0.000000 0.919353 0.476231
0.000000 0.920059 0.473690
0.000000 0.921202 0.470628
0.000000 0.922341 0.467303
0.000000 0.923494 0.463313
0.000000 0.923648 0.455733
0.000000 0.923559 0.449813
0.245307 0.923417 0.444133
0.407090 0.925112 0.435032
0.554255 0.925909 0.428209
0.675705 0.925872 0.422427
0.758802 0.925617 0.416456
0.829170 0.924348 0.412841
0.887708 0.924326 0.407347
0.923906 0.922025 0.393461
0.957468 0.919143 0.380974
0.981059 0.920006 0.442833
0.999857 0.920893 0.523665
1.000000 0.915690 0.571600
1.000000 0.911534 0.612677
1.000000 0.903133 0.659481
1.000000 0.896128 0.692928
1.000000 0.889679 0.724301
1.000000 0.894842 0.767144
1.000000 0.906221 0.809023
0.000000 0.938446 0.580986
0.000000 0.938808 0.581084
0.000000 0.939288 0.581207
0.000000 0.939756 0.581331
0.000000 0.940213 0.581454
0.000000 0.940658 0.581578
0.000000 0.941157 0.581549
0.000000 0.941613 0.580596
0.000000 0.942191 0.579372
0.000000 0.942916 0.577812
0.000000 0.943809 0.575847
0.000000 0.944886 0.573405
0.000000 0.945454 0.570407
0.000000 0.946168 0.566681
0.207613 0.946633 0.561203
0.342261 0.946115 0.552327
0.447337 0.945309 0.541429
0.557648 0.944633 0.532428
0.660869 0.944270 0.529029
0.746808 0.944529 0.529205
0.817418 0.944685 0.525454
0.875310 0.945332 0.524669
0.912988 0.943630 0.514996
0.946538 0.943428 0.505671
0.972004 0.941338 0.494128
0.993612 0.940577 0.546456
1.000000 0.940630 0.616204
1.000000 0.937682 0.656821
1.000000 0.931437 0.699888
1.000000 0.924022 0.727113
1.000000 0.918609 0.756842
1.000000 0.912362 0.782807
1.000000 0.917709 0.818202
0.000000 0.961677 0.662414
0.000000 0.961942 0.662574
0.000000 0.962202 0.662728
0.000000 0.962455 0.662883
0.000000 0.962703 0.663037
0.000000 0.962880 0.662860
0.000000 0.962982 0.662650
0.000000 0.963067 0.662560
0.000000 0.963173 0.662444
0.000000 0.963324 0.662296
0.000000 0.963509 0.662112
0.070769 0.963723 0.661884
0.221160 0.963959 0.661502
0.308496 0.964200 0.658751
0.375951 0.965192 0.655204
0.442241 0.966242 0.650799
0.513251 0.965436 0.642733
0.587765 0.964156 0.632332
0.660037 0.963097 0.623489
0.729570 0.962663 0.619637
0.797714 0.962469 0.614750
0.859643 0.962590 0.614546
0.899990 0.963120 0.613565
0.933084 0.961814 0.607619
0.961554 0.960722 0.604497
0.985516 0.958677 0.592987
1.000000 0.957976 0.638118
1.000000 0.959210 0.700321
