Assets/Lutify-Free-LUTs-Pack/Lutify Free LUTs Pack/Print Film Pro - Print Film 2/Lutify.me-PrintFilm2-BMDFilmGen4-to-Rec709.cube
# Created with: fylm.ai - Colour Grading and Collaboration Software in Cloud 
# Website: https://fylm.ai 
# META
# Option: Gamut compress
# Block 1: IDT | BMD Wide Gamut BMDFilm Gen 4
# Block 2: colourMatch | Blending Mode: Normal | {"ColorSpace":0,"CrossCovarianceLimit":50,"ReshapingIterations":1,"PercentSaturationShift":100,"PercentShadingShift":100,"ExtraShading":true,"PercentTint":100,"PercentModified":100}
# Block 3: HSL | Blending Mode: Normal | {"hue":{"Reds":0,"Yellows":0,"Greens":0,"Cyans":0,"Blues":0,"Magentas":0},"saturation":{"Reds":1,"Yellows":0.9,"Greens":0.95,"Cyans":1,"Blues":1,"Magentas":1},"luminance":{"Reds":0.8,"Yellows":0.95,"Greens":0.9,"Cyans":0.8,"Blues":0.8,"Magentas":0.8},"lum_sat":{"Blacks":1,"Shadows":1,"Midtones":1,"Highlights":1,"Whites":1},"sat_sat":{"10":1,"20":1,"30":1,"40":1,"50":1}}
# Block 4: LUT | Filmic Curve Response: Low Contrast 2 (100%)
# Block 5: ODT | Rec709
TITLE "Lutify.me-PrintFilm2-BMDFilmGen4-to-Rec709" 
LUT_3D_SIZE 9
0.000000 0.000000 0.000000
0.000000 0.000000 0.000000
0.073030 0.000000 0.000000
0.195862 0.000000 0.000000
0.377298 0.000000 0.000000
0.611755 0.000000 0.000000
0.825684 0.000000 0.000000
0.983552 0.238692 0.103492
1.000000 0.461212 0.221586
0.000000 0.013024 0.000000
0.048065 0.043001 0.000000
0.156996 0.023415 0.000000
0.271769 0.000000 0.000000
0.426054 0.000000 0.000000
0.634272 0.000000 0.000000
0.834922 0.000000 0.000000
0.986407 0.269202 0.100929
1.000000 0.472105 0.221561
0.000000 0.109512 0.000000
0.000000 0.141659 0.000000
0.213554 0.144542 0.000000
0.362256 0.137870 0.000000
0.515944 0.125447 0.000000
0.683591 0.090808 0.000000
0.857318 0.140112 0.000000
0.990157 0.320063 0.093825
1.000000 0.495971 0.223060
0.000000 0.260227 0.000000
0.000000 0.284924 0.000000
0.205134 0.292764 0.000000
0.420183 0.282740 0.000000
0.603482 0.295099 0.000000
0.760406 0.329363 0.000000
0.892877 0.338941 0.000000
0.994219 0.392246 0.076938
1.000000 0.539744 0.224302
0.000000 0.450703 0.000000
0.000000 0.465484 0.000000
0.000000 0.477087 0.000000
0.418228 0.470309 0.000000
0.648948 0.457575 0.000000
0.806434 0.508799 0.000000
0.918413 0.545663 0.000000
0.994353 0.560802 0.000000
1.000000 0.614722 0.225167
0.000000 0.664098 0.000000
0.000000 0.670899 0.000000
0.000000 0.682370 0.000000
0.362323 0.682576 0.000000
0.615300 0.678088 0.000000
0.835367 0.649487 0.000000
0.917096 0.712903 0.000000
0.982829 0.739456 0.000000
1.000000 0.746852 0.234586
0.000000 0.833836 0.000000
0.000000 0.835379 0.000000
0.000000 0.837913 0.000000
0.360565 0.840840 0.000000
0.595219 0.839662 0.000000
0.785440 0.828391 0.000000
0.915452 0.815155 0.000000
0.971622 0.846652 0.000000
1.000000 0.859059 0.270700
0.386775 0.915552 0.000000
0.414704 0.915685 0.000000
0.462018 0.915893 0.000000
0.547706 0.915990 0.000000
0.667538 0.916268 0.000000
0.785973 0.914929 0.000000
0.895535 0.909031 0.000000
0.967028 0.900483 0.000000
1.000000 0.916371 0.237312
0.686132 0.964216 0.302780
0.692720 0.964209 0.302304
0.703913 0.964201 0.301493
0.724702 0.964215 0.299821
0.761064 0.964062 0.296262
0.825949 0.962774 0.291065
0.894052 0.962041 0.285571
0.949821 0.959612 0.265736
1.000000 0.953931 0.235381
0.000000 0.000000 0.000000
0.000000 0.000000 0.000000
0.076820 0.000000 0.000000
0.192953 0.000000 0.000000
0.384157 0.000000 0.024224
0.605203 0.000000 0.033656
0.824946 0.000000 0.067568
0.981588 0.230878 0.130062
1.000000 0.457837 0.240219
0.000000 0.000000 0.049317
0.042637 0.042785 0.045063
0.151679 0.020491 0.035524
0.263454 0.000000 0.021076
0.420814 0.000000 0.022108
0.630675 0.000000 0.025066
0.835804 0.000000 0.063598
0.984001 0.263078 0.128860
1.000000 0.468691 0.240429
0.000000 0.109199 0.050571
0.000000 0.159901 0.014334
0.185624 0.173989 0.000000
0.345706 0.163154 0.000000
0.503980 0.138036 0.000000
0.674964 0.076723 0.000000
0.851952 0.132238 0.049580
0.987969 0.315018 0.125640
1.000000 0.492224 0.242394
0.000000 0.277978 0.000000
0.000000 0.305517 0.000000
0.105668 0.332570 0.000000
0.369616 0.333790 0.000000
0.587477 0.340223 0.000000
0.754198 0.333212 0.000000
0.890840 0.339544 0.000000
0.992011 0.394892 0.118180
1.000000 0.536608 0.245001
0.000000 0.472305 0.000000
0.000000 0.494844 0.000000
0.000000 0.515181 0.000000
0.341859 0.527020 0.000000
0.595678 0.524660 0.000000
0.794972 0.539958 0.000000
0.915747 0.546545 0.000000
0.994307 0.559865 0.093383
1.000000 0.612559 0.248292
0.000000 0.680283 0.000000
0.000000 0.686804 0.000000
0.000000 0.698161 0.000000
0.276205 0.711948 0.000000
0.573449 0.714056 0.000000
0.790701 0.705215 0.000000
0.913636 0.725989 0.000000
0.981376 0.739272 0.000000
1.000000 0.745517 0.262257
0.000000 0.838658 0.000000
0.000000 0.840180 0.000000
0.000000 0.842971 0.000000
0.351504 0.846926 0.000000
0.582881 0.848419 0.000000
0.771427 0.841531 0.000000
0.900643 0.834578 0.000000
0.968866 0.852144 0.000000
1.000000 0.859045 0.296425
0.373807 0.917504 0.000000
0.407656 0.917588 0.000000
0.463766 0.917697 0.000000
0.552915 0.917737 0.000000
0.672170 0.918031 0.000000
0.784428 0.917408 0.000000
0.891472 0.912806 0.000000
0.961959 0.906968 0.000000
1.000000 0.918218 0.278623
0.687306 0.963780 0.340020
0.693906 0.963772 0.339459
0.705114 0.963763 0.338509
0.725913 0.963775 0.336733
0.761022 0.963884 0.334088
0.823053 0.963332 0.330734
0.892416 0.962866 0.326992
0.947852 0.961745 0.309105
0.998695 0.956908 0.281557
0.000000 0.000000 0.000000
0.000000 0.000000 0.006904
0.059283 0.000000 0.031711
0.167662 0.000000 0.053299
0.374886 0.000000 0.082024
0.624323 0.000000 0.094564
0.826908 0.000000 0.117809
0.981959 0.219966 0.167363
1.000000 0.452026 0.269540
0.000000 0.000000 0.078660
0.000000 0.000000 0.091309
0.112386 0.000000 0.087797
0.243037 0.000000 0.093408
0.426279 0.000000 0.097837
0.640327 0.000000 0.097129
0.834542 0.000000 0.115472
0.983663 0.254828 0.167501
1.000000 0.462940 0.270068
0.000000 0.079245 0.223186
0.000000 0.133491 0.201361
0.162635 0.172599 0.185778
0.330305 0.160660 0.153674
0.493217 0.119044 0.118703
0.672376 0.000000 0.099493
0.852474 0.102758 0.117775
0.986095 0.303488 0.167758
1.000000 0.486019 0.271336
0.000000 0.246581 0.224588
0.000000 0.296015 0.202982
0.000000 0.346118 0.185699
0.358310 0.361983 0.167945
0.571543 0.349912 0.122008
0.743219 0.327090 0.087095
0.883546 0.321857 0.114790
0.989495 0.388928 0.166602
1.000000 0.530876 0.275622
0.000000 0.480096 0.159076
0.000000 0.506208 0.142903
0.000000 0.531435 0.103004
0.315877 0.551969 0.000000
0.579828 0.555131 0.000000
0.794958 0.553535 0.000000
0.910660 0.545487 0.061854
0.993125 0.551824 0.165056
1.000000 0.608708 0.282156
0.000000 0.693657 0.000000
0.000000 0.699030 0.000000
0.000000 0.709423 0.000000
0.245655 0.722784 0.000000
0.544070 0.736629 0.000000
0.779809 0.728346 0.000000
0.910487 0.737888 0.000000
0.981459 0.737113 0.152397
1.000000 0.742696 0.305814
0.000000 0.840253 0.000000
0.000000 0.843394 0.000000
0.000000 0.848354 0.000000
0.340052 0.852292 0.000000
0.572713 0.854124 0.000000
0.767840 0.853772 0.000000
0.894875 0.846956 0.000000
0.968061 0.855463 0.119295
1.000000 0.858918 0.341818
0.362937 0.919680 0.204798
0.393763 0.919793 0.202374
0.445094 0.919968 0.197306
0.541333 0.920002 0.189422
0.672272 0.920104 0.178276
0.779109 0.919654 0.153986
0.886480 0.918221 0.113285
0.958485 0.913501 0.000000
1.000000 0.920506 0.337723
0.687486 0.964185 0.399619
0.694137 0.964159 0.398947
0.705425 0.964120 0.397784
0.726350 0.964073 0.395578
0.761964 0.964068 0.392152
0.820883 0.964098 0.387585
0.889259 0.964181 0.384821
0.948534 0.962786 0.365508
0.996263 0.959423 0.338068
0.000000 0.000000 0.000000
0.000000 0.000000 0.044491
0.055823 0.000000 0.060097
0.134280 0.000000 0.065271
0.331123 0.000000 0.126764
0.603881 0.000000 0.185217
0.845273 0.000000 0.203435
0.987965 0.212566 0.243451
1.000000 0.448917 0.308763
0.000000 0.000000 0.144310
0.000000 0.000000 0.156747
0.089008 0.000000 0.154711
0.212140 0.000000 0.147212
0.403584 0.000000 0.181857
0.633361 0.000000 0.204579
0.852458 0.000000 0.207700
0.989002 0.240344 0.244239
1.000000 0.459911 0.309830
0.000000 0.043323 0.350830
0.000000 0.076354 0.328024
0.113758 0.104831 0.312857
0.314268 0.093416 0.289355
0.487842 0.000000 0.252770
0.680350 0.000000 0.228566
0.858893 0.059732 0.211808
0.989063 0.283391 0.243198
1.000000 0.480579 0.311272
0.000000 0.189002 0.422094
0.000000 0.243720 0.402008
0.000000 0.303869 0.386078
0.331424 0.350828 0.376486
0.549762 0.331393 0.322378
0.725895 0.298453 0.262226
0.880146 0.284120 0.221352
0.990338 0.368332 0.247955
1.000000 0.524416 0.316967
0.000000 0.437000 0.414893
0.000000 0.466672 0.406446
0.000000 0.517438 0.391426
0.283701 0.563696 0.381220
0.575474 0.571512 0.357060
0.779431 0.552562 0.295583
0.906113 0.529189 0.244606
0.990556 0.536070 0.262241
1.000000 0.601908 0.326309
0.000000 0.691072 0.364801
0.000000 0.705384 0.362032
0.000000 0.724142 0.351035
0.228764 0.735307 0.325881
0.528695 0.747684 0.295121
0.772547 0.748232 0.262254
0.906789 0.747057 0.250720
0.977390 0.733895 0.287961
1.000000 0.737154 0.371658
0.000000 0.847017 0.329166
0.000000 0.847571 0.320396
0.000000 0.848872 0.307674
0.313963 0.852403 0.290966
0.572486 0.856005 0.269474
0.757302 0.860548 0.255090
0.890018 0.856385 0.179552
0.965578 0.859319 0.302742
1.000000 0.857509 0.423500
0.358420 0.922039 0.384304
0.390042 0.922604 0.382478
0.443338 0.922859 0.379126
0.536112 0.922794 0.372960
0.660274 0.922919 0.362770
0.776705 0.922384 0.348753
0.881577 0.921942 0.325658
0.955648 0.917772 0.281092
1.000000 0.922465 0.429735
0.680670 0.965521 0.499340
0.687597 0.965485 0.498774
0.699331 0.965425 0.497463
0.721060 0.965341 0.494945
0.761594 0.965114 0.491338
0.818769 0.965282 0.482685
0.887120 0.966072 0.480523
0.945336 0.964609 0.456222
0.993866 0.961666 0.428749
0.000000 0.000000 0.050360
0.000000 0.000000 0.081672
0.044550 0.000000 0.098597
0.129620 0.000000 0.111374
0.254103 0.000000 0.118710
0.567235 0.000000 0.267087
0.825131 0.000000 0.337347
0.994351 0.190179 0.356414
1.000000 0.449992 0.406733
0.000000 0.000000 0.244638
0.000000 0.000000 0.248351
0.000000 0.000000 0.244708
0.185215 0.000000 0.237318
0.353956 0.000000 0.229035
0.611468 0.000000 0.304817
0.837049 0.000000 0.351913
0.995646 0.220727 0.361379
1.000000 0.460523 0.407658
0.000000 0.000000 0.452727
0.000000 0.008522 0.435532
0.000000 0.034234 0.410095
0.232532 0.000000 0.380311
0.447746 0.000000 0.356635
0.665868 0.000000 0.363345
0.858105 0.000000 0.375311
0.997746 0.293981 0.375710
1.000000 0.478697 0.407784
0.000000 0.141937 0.584597
0.000000 0.169792 0.569840
0.000000 0.214405 0.556306
0.256757 0.252517 0.543232
0.542835 0.251351 0.512971
0.730083 0.222826 0.453383
0.886700 0.239513 0.412921
0.995294 0.367006 0.383183
1.000000 0.515979 0.409200
0.000000 0.352684 0.629382
0.000000 0.390484 0.619416
0.000000 0.452544 0.606067
0.125953 0.515695 0.601406
0.542729 0.563352 0.596997
0.753443 0.542260 0.534315
0.896719 0.509555 0.459355
0.986681 0.506468 0.394509
1.000000 0.590242 0.419018
0.000000 0.641295 0.627715
0.000000 0.659397 0.620539
0.000000 0.684452 0.612541
0.000000 0.722531 0.604263
0.499768 0.758221 0.602520
0.763388 0.761245 0.584945
0.894313 0.747367 0.522858
0.971079 0.727577 0.452263
1.000000 0.724900 0.455319
0.000000 0.837454 0.590401
0.000000 0.842088 0.592611
0.000000 0.850227 0.593734
0.288684 0.860202 0.589665
0.542638 0.864920 0.567395
0.747531 0.866430 0.551302
0.880571 0.867741 0.521951
0.960208 0.864684 0.506518
1.000000 0.855422 0.519695
0.359999 0.924226 0.578532
0.389976 0.924551 0.574982
0.439898 0.925120 0.568588
0.524875 0.925876 0.559986
0.657153 0.925658 0.550372
0.768319 0.925279 0.543768
0.877379 0.925978 0.530977
0.949802 0.922425 0.481974
0.997996 0.924812 0.550573
0.669124 0.967068 0.623502
0.676342 0.967012 0.622723
0.688573 0.966924 0.621380
0.711143 0.966806 0.620089
0.748974 0.966710 0.617098
0.813636 0.966768 0.612243
0.880548 0.967509 0.604545
0.939535 0.966959 0.594591
0.990176 0.964328 0.564906
0.000000 0.000000 0.108906
0.000000 0.000000 0.129581
0.033119 0.000000 0.145512
0.103234 0.000000 0.166708
0.245780 0.000000 0.183345
0.410554 0.000000 0.200689
0.798066 0.000000 0.452755
0.982528 0.000000 0.529299
1.000000 0.447969 0.552351
0.000000 0.000000 0.338636
0.000000 0.000000 0.336849
0.000000 0.000000 0.334450
0.126260 0.000000 0.333506
0.319077 0.000000 0.334798
0.528209 0.000000 0.337768
0.819799 0.000000 0.484691
0.984937 0.131521 0.536637
1.000000 0.459095 0.554677
0.000000 0.000000 0.586402
0.000000 0.000000 0.569896
0.000000 0.000000 0.550101
0.139015 0.000000 0.526938
0.379783 0.000000 0.495026
0.624482 0.000000 0.468236
0.850311 0.000000 0.520398
0.988163 0.214707 0.549478
1.000000 0.479067 0.559065
0.000000 0.077425 0.698653
0.000000 0.091149 0.690720
0.000000 0.112246 0.682237
0.145660 0.130037 0.655148
0.446908 0.094156 0.617831
0.703345 0.000000 0.589652
0.882310 0.000000 0.576920
0.993542 0.328125 0.576322
1.000000 0.517538 0.567765
0.000000 0.289519 0.778359
0.000000 0.314775 0.773436
0.000000 0.344621 0.767489
0.000000 0.404380 0.758616
0.464133 0.451102 0.749781
0.752507 0.459924 0.724908
0.904581 0.452373 0.665686
0.993680 0.478706 0.611482
1.000000 0.588573 0.577804
0.000000 0.556827 0.798332
0.000000 0.575186 0.794785
0.000000 0.611700 0.790276
0.000000 0.661856 0.784909
0.416125 0.712781 0.784331
0.735664 0.752240 0.782028
0.873464 0.739368 0.734993
0.962967 0.713894 0.660673
1.000000 0.709108 0.588997
0.000000 0.805955 0.795623
0.000000 0.812675 0.795068
0.000000 0.822188 0.792882
0.000000 0.835873 0.785267
0.462416 0.856276 0.783019
0.726079 0.873671 0.784976
0.867157 0.874700 0.774587
0.947563 0.864139 0.727207
0.997800 0.850801 0.662037
0.134317 0.916888 0.773115
0.224351 0.918543 0.772863
0.321852 0.921467 0.772450
0.459261 0.925253 0.773451
0.635224 0.929754 0.773553
0.752675 0.930214 0.760712
0.867246 0.929284 0.749180
0.938511 0.930292 0.729487
0.991346 0.925612 0.711675
0.670401 0.969813 0.767666
0.676891 0.969716 0.767037
0.687764 0.969517 0.764869
0.708028 0.969148 0.760538
0.742537 0.968508 0.752109
0.803407 0.968345 0.748351
0.875182 0.968819 0.742545
0.934751 0.968937 0.736802
0.982640 0.967743 0.705999
0.000000 0.000000 0.205792
0.000000 0.000000 0.215956
0.000000 0.000000 0.227671
0.086172 0.000000 0.245940
0.211855 0.000000 0.274271
0.416375 0.000000 0.306154
0.647058 0.000000 0.372470
0.974686 0.000000 0.652252
1.000000 0.388775 0.714829
0.000000 0.000000 0.468285
0.000000 0.000000 0.469083
0.000000 0.000000 0.462194
0.000000 0.000000 0.468276
0.254912 0.000000 0.474900
0.505043 0.000000 0.488740
0.731575 0.000000 0.500722
0.981313 0.000000 0.666251
1.000000 0.402142 0.717764
0.000000 0.000000 0.709206
0.000000 0.000000 0.699070
0.000000 0.000000 0.686094
0.000000 0.000000 0.672341
0.297289 0.000000 0.646612
0.571930 0.000000 0.626298
0.794364 0.000000 0.601517
0.988239 0.000000 0.684045
1.000000 0.426070 0.723649
0.000000 0.054820 0.813085
0.000000 0.067972 0.810925
0.000000 0.077744 0.801355
0.000000 0.085876 0.785739
0.342078 0.000000 0.757515
0.632568 0.000000 0.727715
0.850678 0.000000 0.704050
0.997344 0.122196 0.719251
1.000000 0.463912 0.732570
0.000000 0.193257 0.858908
0.000000 0.202327 0.854584
0.000000 0.219249 0.851267
0.000000 0.242436 0.847195
0.375510 0.257488 0.829584
0.671741 0.240517 0.804679
0.897934 0.225987 0.782900
1.000000 0.368939 0.763896
1.000000 0.548288 0.749539
0.000000 0.469791 0.890375
0.000000 0.482464 0.889371
0.000000 0.510665 0.885709
0.000000 0.547628 0.880824
0.339521 0.602002 0.876603
0.674029 0.647504 0.871329
0.882143 0.668712 0.854859
0.973621 0.667625 0.819158
1.000000 0.684660 0.777051
0.000000 0.731185 0.893207
0.000000 0.739785 0.891762
0.000000 0.757426 0.889406
0.000000 0.787694 0.886841
0.325555 0.817588 0.883546
0.656834 0.842026 0.881747
0.850431 0.864018 0.885644
0.936155 0.855440 0.854465
0.990972 0.839518 0.807418
0.000000 0.898986 0.887465
0.000000 0.900632 0.887276
0.000000 0.903568 0.886947
0.265662 0.908253 0.886189
0.533882 0.915570 0.882268
0.709145 0.922666 0.881064
0.852118 0.934246 0.883550
0.931332 0.934973 0.877390
0.981476 0.927143 0.847863
0.607837 0.964040 0.872865
0.619026 0.964325 0.872978
0.637736 0.964823 0.873188
0.671465 0.965809 0.873636
0.724496 0.967785 0.875119
0.798886 0.970737 0.875692
0.863518 0.970983 0.868749
0.925428 0.970737 0.866360
0.975353 0.971126 0.854857
0.000000 0.000000 0.216091
0.000000 0.000000 0.223052
0.044673 0.000000 0.236100
0.093748 0.000000 0.261433
0.177412 0.000000 0.295388
0.343713 0.000000 0.352410
0.609939 0.000000 0.449951
0.872098 0.000000 0.577927
1.000000 0.080388 0.810760
0.000000 0.000000 0.495842
0.000000 0.000000 0.498917
0.000000 0.000000 0.506862
0.000000 0.000000 0.520905
0.198704 0.000000 0.539804
0.410201 0.000000 0.572911
0.685424 0.000000 0.619956
0.910739 0.000000 0.655671
1.000000 0.150324 0.815730
0.000000 0.000000 0.783903
0.000000 0.000000 0.782907
0.000000 0.000000 0.778692
0.000000 0.000000 0.769420
0.222029 0.000000 0.758736
0.480937 0.000000 0.739810
0.739919 0.000000 0.734540
0.945806 0.000000 0.723572
1.000000 0.219916 0.823457
0.000000 0.000000 0.881294
0.000000 0.000000 0.878292
0.000000 0.000000 0.873656
0.000000 0.000000 0.864980
0.253728 0.000000 0.851182
0.525799 0.000000 0.832241
0.791073 0.000000 0.815596
0.972795 0.000000 0.793408
1.000000 0.309806 0.835342
0.000000 0.171023 0.920592
0.000000 0.176439 0.920085
0.000000 0.187318 0.919191
0.000000 0.196302 0.911789
0.284217 0.200765 0.900097
0.576150 0.178491 0.882898
0.829624 0.097163 0.864770
0.993699 0.000000 0.845582
1.000000 0.419712 0.850036
0.000000 0.346407 0.940305
0.000000 0.352768 0.939818
0.000000 0.363011 0.939046
0.000000 0.390643 0.935135
0.299630 0.419762 0.932317
0.602125 0.441718 0.919110
0.849024 0.447304 0.904235
0.995353 0.476666 0.890656
1.000000 0.588110 0.872650
0.000000 0.653491 0.947731
0.000000 0.661429 0.946720
0.000000 0.672841 0.945134
0.000000 0.698357 0.942207
0.000000 0.726897 0.939841
0.579576 0.767708 0.937367
0.814050 0.799313 0.933533
0.942124 0.808928 0.924111
0.998808 0.811649 0.902494
0.000000 0.857126 0.944242
0.000000 0.859467 0.943980
0.000000 0.865224 0.943494
0.000000 0.873099 0.942797
0.372561 0.888145 0.940894
0.643957 0.900645 0.940091
0.811535 0.914349 0.940008
0.920682 0.929275 0.942435
0.973644 0.923830 0.925569
0.491812 0.953363 0.942154
0.509574 0.953765 0.942178
0.532846 0.954435 0.942079
0.574481 0.955735 0.941878
0.644359 0.957630 0.941316
0.733786 0.960194 0.939040
0.840491 0.966091 0.938949
0.917811 0.973325 0.943563
0.970600 0.973898 0.938483
0.042492 0.000000 0.321352
0.062925 0.000000 0.327706
0.087867 0.000000 0.338983
0.130231 0.000000 0.362898
0.196184 0.000000 0.401750
0.314559 0.000000 0.479039
0.554069 0.000000 0.590723
0.860068 0.000000 0.734250
1.000000 0.000000 0.791991
0.000000 0.000000 0.616899
0.000000 0.000000 0.621450
0.000000 0.000000 0.629505
0.081641 0.000000 0.644969
0.203126 0.000000 0.667980
0.354483 0.000000 0.710665
0.612499 0.000000 0.750042
0.890059 0.000000 0.794787
1.000000 0.000000 0.816865
0.000000 0.000000 0.860974
0.000000 0.000000 0.860037
0.000000 0.000000 0.858381
0.033011 0.000000 0.855683
0.237235 0.000000 0.852396
0.419201 0.000000 0.848656
0.660755 0.000000 0.842671
0.911097 0.000000 0.841861
1.000000 0.000000 0.845086
0.000000 0.000000 0.932015
0.000000 0.000000 0.930886
0.000000 0.000000 0.929032
0.089852 0.000000 0.925718
0.272123 0.000000 0.919670
0.460972 0.000000 0.910166
0.709246 0.000000 0.896896
0.942402 0.000000 0.883686
1.000000 0.000000 0.874811
0.000000 0.168900 0.963909
0.000000 0.171613 0.962482
0.000000 0.174687 0.960353
0.139435 0.176312 0.957416
0.300517 0.175840 0.952679
0.498237 0.157536 0.942352
0.750007 0.046981 0.929503
0.959489 0.000000 0.916760
1.000000 0.000000 0.904646
0.000000 0.329259 0.979609
0.000000 0.333698 0.978996
0.000000 0.341191 0.978256
0.175981 0.352033 0.977488
0.334864 0.362669 0.974246
0.514765 0.374849 0.965803
0.774815 0.369201 0.953734
0.963639 0.378716 0.939920
1.000000 0.416933 0.930186
0.000000 0.531220 0.983967
0.000000 0.535083 0.983422
0.000000 0.541519 0.982505
0.000000 0.554068 0.981441
0.313337 0.578551 0.979697
0.524597 0.608288 0.975952
0.771457 0.634321 0.968114
0.939816 0.653989 0.958303
1.000000 0.683096 0.949051
0.000000 0.806724 0.980839
0.000000 0.809052 0.980506
0.000000 0.814488 0.980010
0.000000 0.820410 0.979494
0.267150 0.833788 0.977854
0.510371 0.850136 0.976006
0.754829 0.871013 0.974100
0.894646 0.891016 0.973298
0.973986 0.896914 0.968127
0.140997 0.924716 0.978349
0.212638 0.925434 0.978308
0.291305 0.927062 0.978137
0.397290 0.930178 0.977500
0.509321 0.934743 0.976800
0.661692 0.941124 0.975553
0.797484 0.950579 0.975584
0.892336 0.959020 0.976109
0.964536 0.969909 0.977713
