Assets/Lutify-Free-LUTs-Pack/Lutify Free LUTs Pack/Print Film Pro - Print Film 2/Lutify.me-PrintFilm2-Cineon-to-Rec709.cube
# Created with: fylm.ai - Colour Grading and Collaboration Software in Cloud 
# Website: https://fylm.ai 
# META
# Option: Gamut compress
# Block 1: IDT | ADX10
# Block 2: colourMatch | Blending Mode: Normal | {"ColorSpace":0,"CrossCovarianceLimit":50,"ReshapingIterations":1,"PercentSaturationShift":100,"PercentShadingShift":100,"ExtraShading":true,"PercentTint":100,"PercentModified":100}
# Block 3: HSL | Blending Mode: Normal | {"hue":{"Reds":0,"Yellows":0,"Greens":0,"Cyans":0,"Blues":0,"Magentas":0},"saturation":{"Reds":1,"Yellows":0.9,"Greens":0.95,"Cyans":1,"Blues":1,"Magentas":1},"luminance":{"Reds":0.8,"Yellows":0.95,"Greens":0.9,"Cyans":0.8,"Blues":0.8,"Magentas":0.8},"lum_sat":{"Blacks":1,"Shadows":1,"Midtones":1,"Highlights":1,"Whites":1},"sat_sat":{"10":1,"20":1,"30":1,"40":1,"50":1}}
# Block 4: LUT | Filmic Curve Response: Low Contrast 2 (100%)
# Block 5: ODT | Rec709
TITLE "Lutify.me-PrintFilm2-Cineon-to-Rec709" 
LUT_3D_SIZE 33
0.000000 0.000000 0.000000
0.000000 0.000000 0.000000
0.000000 0.000000 0.000000
0.000000 0.000000 0.000000
0.000000 0.000000 0.000000
0.000000 0.000000 0.000000
0.000000 0.000000 0.000000
0.000000 0.000000 0.000000
0.000000 0.000000 0.000000
0.000000 0.000000 0.000000
0.019353 0.000000 0.000000
0.047814 0.000000 0.000000
0.067734 0.000000 0.000000
0.089320 0.000000 0.000000
0.114557 0.000000 0.000000
0.137967 0.000000 0.000000
0.166680 0.000000 0.000000
0.204919 0.000000 0.000000
0.246108 0.000000 0.000000
0.293688 0.000000 0.000000
0.339879 0.000000 0.000000
0.388030 0.000000 0.000000
0.446444 0.000000 0.022950
0.508670 0.000000 0.028892
0.576930 0.000000 0.035138
0.640310 0.000000 0.047536
0.701042 0.000000 0.064149
0.766635 0.000000 0.081593
0.825649 0.059920 0.103210
0.883040 0.149106 0.126177
0.930234 0.223641 0.155212
0.965645 0.299693 0.185130
0.993809 0.363058 0.219502
0.000000 0.000000 0.000000
0.000000 0.000000 0.000000
0.000000 0.000000 0.000000
0.000000 0.000000 0.000000
0.000000 0.000000 0.000000
0.000000 0.000000 0.000000
0.000000 0.000000 0.000000
0.000000 0.000000 0.000000
0.000000 0.000000 0.000000
0.000000 0.000000 0.000000
0.029036 0.000000 0.000000
0.054367 0.000000 0.000000
0.073376 0.000000 0.000000
0.097291 0.000000 0.000000
0.121428 0.000000 0.000000
0.145709 0.000000 0.000000
0.177592 0.000000 0.000000
0.216548 0.000000 0.000000
0.259956 0.000000 0.000000
0.308470 0.000000 0.000000
0.353998 0.000000 0.000000
0.404872 0.000000 0.013629
0.464196 0.000000 0.025045
0.528593 0.000000 0.030810
0.597446 0.000000 0.037706
0.658257 0.000000 0.052244
0.719787 0.000000 0.069587
0.784167 0.000000 0.087898
0.843360 0.094511 0.109644
0.898610 0.171724 0.134124
0.941742 0.246312 0.164666
0.974400 0.322193 0.194159
1.000000 0.380482 0.231920
0.000000 0.000000 0.000000
0.000000 0.000000 0.000000
0.000000 0.000000 0.000000
0.000000 0.000000 0.000000
0.000000 0.000000 0.000000
0.000000 0.000000 0.000000
0.000000 0.000000 0.000000
0.000000 0.000000 0.000000
0.000000 0.000000 0.000000
0.002393 0.000000 0.000000
0.039086 0.000000 0.000000
0.061055 0.000000 0.000000
0.080473 0.000000 0.000000
0.106520 0.000000 0.000000
0.129392 0.000000 0.000000
0.155470 0.000000 0.000000
0.190497 0.000000 0.000000
0.230595 0.000000 0.000000
0.276446 0.000000 0.000000
0.323423 0.000000 0.000000
0.369522 0.000000 0.000000
0.424358 0.000000 0.019668
0.484490 0.000000 0.026639
0.550627 0.000000 0.032557
0.617359 0.000000 0.041722
0.677605 0.000000 0.057240
0.740989 0.000000 0.074809
0.801912 0.000000 0.094990
0.860875 0.125785 0.116844
0.913322 0.197280 0.142904
0.952533 0.271687 0.173943
0.982878 0.342037 0.204577
1.000000 0.399276 0.246339
0.000000 0.000000 0.000000
0.000000 0.000000 0.000000
0.000000 0.000000 0.000000
0.000000 0.000000 0.000000
0.000000 0.000000 0.000000
0.000000 0.000000 0.000000
0.000000 0.000000 0.000000
0.000000 0.000000 0.000000
0.000000 0.000000 0.000000
0.033624 0.000000 0.000000
0.056388 0.000000 0.000000
0.074333 0.000000 0.000000
0.097386 0.000000 0.000000
0.119815 0.000000 0.000000
0.143444 0.000000 0.000000
0.172089 0.000000 0.000000
0.210330 0.000000 0.000000
0.251043 0.000000 0.000000
0.297451 0.000000 0.000000
0.341786 0.000000 0.000000
0.388172 0.000000 0.004880
0.445880 0.000000 0.022735
0.506863 0.000000 0.028282
0.574291 0.000000 0.034184
0.637596 0.000000 0.046289
0.697658 0.000000 0.062969
0.762432 0.000000 0.080460
0.820219 0.074940 0.102357
0.878013 0.152738 0.124904
0.926257 0.223693 0.153044
0.962328 0.297819 0.182847
0.990888 0.361475 0.216295
1.000000 0.418126 0.261379
0.000000 0.000000 0.000000
0.000000 0.000000 0.000000
0.000000 0.000000 0.000000
0.000000 0.000000 0.000000
0.000000 0.000000 0.000000
0.000000 0.000000 0.000000
0.000000 0.000000 0.000000
0.003442 0.000000 0.000000
0.035297 0.000000 0.000000
0.057949 0.000000 0.000000
0.072566 0.000000 0.000000
0.093231 0.000000 0.000000
0.114586 0.000000 0.000000
0.136843 0.000000 0.000000
0.161851 0.000000 0.000000
0.194154 0.000000 0.000000
0.230620 0.000000 0.000000
0.272589 0.000000 0.000000
0.318502 0.000000 0.000000
0.360170 0.000000 0.000000
0.410373 0.000000 0.017271
0.468485 0.000000 0.024118
0.531058 0.000000 0.029423
0.598551 0.000000 0.036482
0.658501 0.000000 0.051034
0.718464 0.000000 0.068962
0.780980 0.000000 0.087628
0.839101 0.114228 0.109453
0.894472 0.180493 0.133566
0.938335 0.250401 0.163307
0.971349 0.324187 0.192218
0.998442 0.381158 0.228898
1.000000 0.437218 0.275421
0.000000 0.000000 0.000000
0.000000 0.000000 0.000000
0.000000 0.000000 0.000000
0.000000 0.000000 0.000000
0.000000 0.000000 0.000000
0.000000 0.000000 0.000000
0.000000 0.000000 0.000000
0.033086 0.000000 0.000000
0.052582 0.000000 0.000000
0.067338 0.000000 0.000000
0.085665 0.000000 0.000000
0.108171 0.000000 0.000000
0.130524 0.000000 0.000000
0.155197 0.000000 0.000000
0.184201 0.000000 0.000000
0.217414 0.000000 0.000000
0.251791 0.000000 0.000000
0.295074 0.000000 0.000000
0.337567 0.000000 0.000000
0.380467 0.000000 0.000000
0.434625 0.000000 0.019815
0.492289 0.000000 0.024637
0.555714 0.000000 0.030292
0.621213 0.000000 0.040040
0.679421 0.000000 0.056487
0.740900 0.000000 0.074347
0.799361 0.071830 0.095088
0.857204 0.143032 0.117148
0.909924 0.207569 0.142687
0.949412 0.277518 0.172616
0.979990 0.345729 0.202470
1.000000 0.400946 0.243503
1.000000 0.459196 0.287800
0.000000 0.000000 0.000000
0.000000 0.000000 0.000000
0.000000 0.000000 0.000000
0.000000 0.000000 0.000000
0.000000 0.000000 0.000000
0.000000 0.012406 0.000000
0.019633 0.019153 0.000000
0.044904 0.025451 0.000000
0.059359 0.031525 0.000000
0.075980 0.034168 0.000000
0.097090 0.034086 0.000000
0.121709 0.032115 0.000000
0.146385 0.026914 0.000000
0.173882 0.012350 0.000000
0.208433 0.000000 0.000000
0.239856 0.000000 0.000000
0.275527 0.000000 0.000000
0.319024 0.000000 0.000000
0.360075 0.000000 0.000000
0.405948 0.000000 0.008839
0.459983 0.000000 0.019774
0.516669 0.000000 0.025696
0.582056 0.000000 0.031326
0.643722 0.000000 0.044437
0.701342 0.000000 0.062460
0.761819 0.014863 0.081459
0.817991 0.116360 0.103276
0.875129 0.173692 0.125802
0.923502 0.236669 0.153095
0.959481 0.306351 0.181812
0.988145 0.367234 0.214484
1.000000 0.421552 0.259216
1.000000 0.482019 0.300806
0.000000 0.000000 0.000000
0.000000 0.003074 0.000000
0.000000 0.009293 0.000000
0.000000 0.021709 0.000000
0.000000 0.031720 0.000000
0.000000 0.038943 0.000000
0.029495 0.043851 0.000000
0.049392 0.045831 0.000000
0.066346 0.048101 0.000000
0.085923 0.049447 0.000000
0.109652 0.049621 0.000000
0.135588 0.050008 0.000000
0.163358 0.049548 0.000000
0.194961 0.045318 0.000000
0.229906 0.042057 0.000000
0.262818 0.034991 0.000000
0.301872 0.014699 0.000000
0.344291 0.000000 0.000000
0.386745 0.000000 0.000000
0.436994 0.000000 0.000000
0.486697 0.000000 0.017435
0.543681 0.000000 0.025142
0.607583 0.000000 0.033866
0.666029 0.000000 0.050451
0.723938 0.000000 0.068951
0.781292 0.097332 0.089201
0.837434 0.149878 0.111272
0.892151 0.203808 0.135143
0.935888 0.266247 0.163684
0.968705 0.334271 0.191603
0.995751 0.388697 0.227815
1.000000 0.442116 0.273692
1.000000 0.504774 0.314456
0.000000 0.031084 0.000000
0.000000 0.033047 0.000000
0.000000 0.037796 0.000000
0.000000 0.043657 0.000000
0.000000 0.049895 0.000000
0.000000 0.054486 0.000000
0.035334 0.058000 0.000000
0.053026 0.061439 0.000000
0.073628 0.064614 0.000000
0.094587 0.067618 0.000000
0.122157 0.068729 0.000000
0.149902 0.071098 0.000000
0.181275 0.074187 0.000000
0.216538 0.073398 0.000000
0.252323 0.075365 0.000000
0.285508 0.074430 0.000000
0.327553 0.071991 0.000000
0.370428 0.068499 0.000000
0.414224 0.063487 0.000000
0.461054 0.058368 0.000000
0.512828 0.052472 0.008994
0.572125 0.042422 0.023327
0.632529 0.020227 0.037695
0.688481 0.058035 0.056639
0.745787 0.098395 0.076618
0.801057 0.139044 0.097607
0.856889 0.182450 0.120204
0.908210 0.235283 0.145238
0.947196 0.297836 0.172853
0.977502 0.359824 0.202287
1.000000 0.411107 0.243272
1.000000 0.465465 0.287485
1.000000 0.526631 0.329195
0.000000 0.047386 0.000000
0.000000 0.049013 0.000000
0.000000 0.053583 0.000000
0.000000 0.057675 0.000000
0.000000 0.065183 0.000000
0.000000 0.072765 0.000000
0.025283 0.077863 0.000000
0.051366 0.083259 0.000000
0.076376 0.087935 0.000000
0.102985 0.091527 0.000000
0.134361 0.093644 0.000000
0.169323 0.098344 0.000000
0.206040 0.102198 0.000000
0.240946 0.105191 0.000000
0.275493 0.106651 0.000000
0.311236 0.107511 0.000000
0.352078 0.107059 0.000000
0.397906 0.105621 0.000000
0.443839 0.105939 0.000000
0.490646 0.108078 0.000000
0.541948 0.112977 0.000000
0.601114 0.107927 0.020879
0.658187 0.109852 0.042628
0.712816 0.122403 0.065193
0.768020 0.146710 0.085055
0.821659 0.179072 0.106861
0.875915 0.219356 0.130065
0.922763 0.270246 0.156456
0.957441 0.331504 0.182820
0.985713 0.385243 0.215145
1.000000 0.434939 0.259938
1.000000 0.491021 0.301416
1.000000 0.549302 0.345056
0.000000 0.063369 0.000000
0.000000 0.066225 0.000000
0.000000 0.073223 0.000000
0.000000 0.080433 0.000000
0.000000 0.089114 0.000000
0.000000 0.098097 0.000000
0.000000 0.106487 0.000000
0.030578 0.112522 0.000000
0.069820 0.117954 0.000000
0.104873 0.122456 0.000000
0.143918 0.125389 0.000000
0.183743 0.130630 0.000000
0.220503 0.136738 0.000000
0.257913 0.142383 0.000000
0.298853 0.141177 0.000000
0.337670 0.141961 0.000000
0.379950 0.145808 0.000000
0.427310 0.147790 0.000000
0.475993 0.150459 0.000000
0.523515 0.149542 0.000000
0.576384 0.155245 0.000000
0.632230 0.160625 0.006094
0.685318 0.164406 0.050296
0.738898 0.176504 0.074715
0.791560 0.196186 0.094442
0.843623 0.227367 0.115777
0.894273 0.262948 0.140342
0.935486 0.309920 0.166130
0.967025 0.364078 0.194171
0.993299 0.412485 0.231382
1.000000 0.460364 0.276040
1.000000 0.516909 0.316652
1.000000 0.574376 0.362606
0.000000 0.086861 0.000000
0.000000 0.091927 0.000000
0.000000 0.098002 0.000000
0.000000 0.107962 0.000000
0.000000 0.115617 0.000000
0.000000 0.125966 0.000000
0.000000 0.134731 0.000000
0.000000 0.143783 0.000000
0.047771 0.152028 0.000000
0.105103 0.156699 0.000000
0.147828 0.164303 0.000000
0.192745 0.171694 0.000000
0.231666 0.176347 0.000000
0.272694 0.182013 0.000000
0.318911 0.183561 0.000000
0.361504 0.186201 0.000000
0.408653 0.189958 0.000000
0.458187 0.193898 0.000000
0.507756 0.197464 0.000000
0.558653 0.197208 0.000000
0.612362 0.204670 0.000000
0.666298 0.212651 0.000000
0.715895 0.217257 0.057947
0.765890 0.230484 0.082053
0.817226 0.258354 0.102383
0.866062 0.284256 0.125826
0.911184 0.310593 0.151423
0.947138 0.351619 0.177234
0.975833 0.398424 0.206712
1.000000 0.442258 0.249653
1.000000 0.489201 0.292487
1.000000 0.543261 0.333442
1.000000 0.598571 0.381716
0.000000 0.114572 0.000000
0.000000 0.122164 0.000000
0.000000 0.129225 0.000000
0.000000 0.140404 0.000000
0.000000 0.150781 0.000000
0.000000 0.160767 0.000000
0.000000 0.174506 0.000000
0.000000 0.183619 0.000000
0.000000 0.192844 0.000000
0.076904 0.200675 0.000000
0.139272 0.207136 0.000000
0.188278 0.214368 0.000000
0.235434 0.220953 0.000000
0.284998 0.225835 0.000000
0.330092 0.229100 0.000000
0.387659 0.236141 0.000000
0.441812 0.239187 0.000000
0.488376 0.240148 0.000000
0.539586 0.244268 0.000000
0.591674 0.248502 0.000000
0.646439 0.254856 0.000000
0.700725 0.267098 0.000000
0.748664 0.276427 0.065109
0.795523 0.293506 0.088058
0.840641 0.320083 0.111694
0.885979 0.340630 0.137027
0.926625 0.359617 0.162958
0.957520 0.394777 0.190075
0.983812 0.431429 0.223279
1.000000 0.472495 0.267226
1.000000 0.520544 0.308786
1.000000 0.570703 0.351741
1.000000 0.623686 0.399383
0.000000 0.146693 0.016489
0.000000 0.157887 0.000000
0.000000 0.169197 0.000000
0.000000 0.181090 0.000000
0.000000 0.193166 0.000000
0.000000 0.202211 0.000000
0.000000 0.214558 0.000000
0.000000 0.226122 0.000000
0.000000 0.234645 0.000000
0.000000 0.243545 0.000000
0.117258 0.252660 0.000000
0.174890 0.262157 0.000000
0.231568 0.268902 0.000000
0.287213 0.273302 0.000000
0.340188 0.278637 0.000000
0.407594 0.286119 0.000000
0.469341 0.292455 0.000000
0.518781 0.294587 0.000000
0.572327 0.301785 0.000000
0.624756 0.310757 0.000000
0.679470 0.317652 0.000000
0.732715 0.331046 0.000000
0.778440 0.342135 0.069644
0.819922 0.354045 0.096680
0.861271 0.374665 0.125957
0.903847 0.391499 0.150871
0.939178 0.411016 0.176491
0.966788 0.438337 0.204835
0.990857 0.469472 0.242660
1.000000 0.510565 0.286320
1.000000 0.554558 0.326880
1.000000 0.601144 0.372085
1.000000 0.650220 0.416665
0.000000 0.187151 0.026530
0.000000 0.200833 0.000000
0.000000 0.213193 0.000000
0.000000 0.223354 0.000000
0.000000 0.235972 0.000000
0.000000 0.248575 0.000000
0.000000 0.258944 0.000000
0.000000 0.272908 0.000000
0.000000 0.286037 0.000000
0.000000 0.295992 0.000000
0.029304 0.306257 0.000000
0.149837 0.317259 0.000000
0.217205 0.327636 0.000000
0.281538 0.332601 0.000000
0.346185 0.340195 0.000000
0.421312 0.349912 0.000000
0.482339 0.357195 0.000000
0.544488 0.365125 0.000000
0.601727 0.375839 0.000000
0.655228 0.380768 0.000000
0.710479 0.383982 0.000000
0.760950 0.395824 0.035963
0.802231 0.403823 0.086092
0.840666 0.412460 0.114333
0.881179 0.428993 0.140493
0.919237 0.448190 0.165300
0.949390 0.464634 0.192536
0.974565 0.485819 0.222389
0.996238 0.519168 0.264282
1.000000 0.555434 0.307549
1.000000 0.592619 0.347678
1.000000 0.632800 0.392765
1.000000 0.677080 0.435992
0.000000 0.237089 0.048962
0.000000 0.251440 0.041375
0.000000 0.265969 0.027743
0.000000 0.278517 0.000000
0.000000 0.289194 0.000000
0.000000 0.304328 0.000000
0.000000 0.316406 0.000000
0.000000 0.326363 0.000000
0.000000 0.342469 0.000000
0.000000 0.356458 0.000000
0.000000 0.367666 0.000000
0.059096 0.379737 0.000000
0.190165 0.392410 0.000000
0.270304 0.399059 0.000000
0.347631 0.408380 0.000000
0.425434 0.418391 0.000000
0.496335 0.422025 0.000000
0.562298 0.429314 0.000000
0.621368 0.441733 0.000000
0.681845 0.446249 0.000000
0.739523 0.445542 0.000000
0.784060 0.457064 0.067393
0.823579 0.468461 0.105988
0.860872 0.475283 0.132221
0.898188 0.488623 0.157043
0.931365 0.507711 0.183230
0.957589 0.522825 0.213374
0.980378 0.544011 0.249556
0.999193 0.576693 0.289386
1.000000 0.606453 0.331283
1.000000 0.631951 0.371109
1.000000 0.667138 0.413026
1.000000 0.702760 0.457087
0.000000 0.293500 0.069195
0.000000 0.306510 0.064745
0.000000 0.321903 0.060305
0.000000 0.333869 0.054463
0.000000 0.345031 0.045619
0.000000 0.359149 0.024721
0.000000 0.371997 0.000000
0.000000 0.382175 0.000000
0.000000 0.400131 0.000000
0.000000 0.413922 0.000000
0.000000 0.425460 0.000000
0.000000 0.437707 0.000000
0.133278 0.449806 0.000000
0.239621 0.462188 0.000000
0.338200 0.474231 0.000000
0.419518 0.483118 0.000000
0.501056 0.488265 0.000000
0.572861 0.496320 0.000000
0.630726 0.508903 0.000000
0.703036 0.514614 0.000000
0.761573 0.517724 0.053055
0.803928 0.527947 0.098940
0.841930 0.534939 0.128185
0.877787 0.540753 0.153590
0.911621 0.555405 0.179255
0.940221 0.572605 0.208097
0.963285 0.586789 0.243715
0.983460 0.607435 0.280261
0.999608 0.633249 0.320513
1.000000 0.654494 0.358129
1.000000 0.675088 0.397129
1.000000 0.701593 0.436791
1.000000 0.728031 0.482938
0.000000 0.352442 0.093544
0.000000 0.367077 0.092219
0.000000 0.384075 0.090122
0.000000 0.397442 0.088326
0.000000 0.410219 0.085685
0.000000 0.422370 0.081310
0.000000 0.433620 0.073440
0.000000 0.446045 0.064110
0.000000 0.460808 0.045430
0.000000 0.478321 0.000000
0.000000 0.490799 0.000000
0.000000 0.503967 0.000000
0.000000 0.516805 0.000000
0.192080 0.529627 0.000000
0.325440 0.542618 0.000000
0.418417 0.550717 0.000000
0.499455 0.555201 0.000000
0.570524 0.566199 0.000000
0.638148 0.575375 0.000000
0.716873 0.579857 0.054800
0.775718 0.590666 0.099802
0.818387 0.603745 0.133725
0.857124 0.608467 0.158185
0.890217 0.614810 0.182886
0.920228 0.628778 0.209250
0.945222 0.641153 0.239576
0.965366 0.650693 0.275044
0.983874 0.666783 0.312792
0.997476 0.686516 0.352160
1.000000 0.700337 0.388777
1.000000 0.715791 0.425899
1.000000 0.734751 0.466859
1.000000 0.755048 0.513398
0.000000 0.422111 0.130101
0.000000 0.435253 0.131370
0.000000 0.449111 0.131847
0.000000 0.462747 0.132506
0.000000 0.476108 0.131807
0.000000 0.490064 0.132565
0.000000 0.503400 0.132103
0.000000 0.516310 0.131160
0.000000 0.530262 0.125825
0.000000 0.546716 0.115540
0.000000 0.560590 0.103226
0.000000 0.573421 0.104435
0.000000 0.588635 0.097481
0.103489 0.601037 0.098744
0.299938 0.613587 0.100816
0.403296 0.620921 0.104041
0.492267 0.628469 0.111370
0.563383 0.639790 0.105988
0.642178 0.647831 0.104917
0.721677 0.651463 0.107786
0.778004 0.662950 0.137643
0.825687 0.675210 0.171681
0.865665 0.680284 0.199018
0.897232 0.684850 0.221907
0.925669 0.693827 0.245131
0.948423 0.699840 0.275019
0.965838 0.706831 0.314627
0.981910 0.720295 0.352626
0.994859 0.733845 0.389825
1.000000 0.744193 0.425403
1.000000 0.755053 0.460748
1.000000 0.767094 0.499753
1.000000 0.787724 0.546553
0.000000 0.498154 0.178497
0.000000 0.511115 0.180510
0.000000 0.522524 0.182190
0.000000 0.533286 0.184220
0.000000 0.545148 0.186054
0.000000 0.560001 0.187200
0.000000 0.576667 0.187934
0.000000 0.592969 0.185907
0.000000 0.604846 0.182375
0.000000 0.617584 0.182499
0.000000 0.628822 0.180699
0.000000 0.639034 0.172185
0.000000 0.651488 0.167924
0.000000 0.665813 0.167896
0.259213 0.680256 0.173163
0.375198 0.688071 0.174204
0.470369 0.695833 0.176112
0.552037 0.706676 0.178684
0.639656 0.711090 0.183039
0.721848 0.714774 0.187720
0.777635 0.723306 0.193537
0.825912 0.730809 0.216963
0.868017 0.736196 0.242351
0.902052 0.743791 0.267150
0.928875 0.750138 0.289741
0.949248 0.752868 0.324424
0.965828 0.756819 0.361525
0.980810 0.764681 0.393585
0.993061 0.775621 0.428408
1.000000 0.783879 0.464610
1.000000 0.792575 0.498117
1.000000 0.804344 0.537795
1.000000 0.820197 0.580514
0.000000 0.575058 0.232417
0.000000 0.584279 0.233759
0.000000 0.593089 0.235309
0.000000 0.602695 0.238063
0.000000 0.614017 0.239145
0.000000 0.626327 0.241106
0.000000 0.641318 0.244828
0.000000 0.657189 0.248366
0.000000 0.672366 0.249957
0.000000 0.683669 0.248781
0.000000 0.695930 0.245632
0.000000 0.706241 0.241549
0.000000 0.715319 0.239953
0.000000 0.724823 0.241964
0.212998 0.734318 0.241803
0.356057 0.743510 0.241732
0.453491 0.752531 0.242540
0.539253 0.761148 0.245091
0.641485 0.764857 0.256191
0.720981 0.768845 0.264357
0.776955 0.776201 0.268595
0.825383 0.779916 0.272583
0.867023 0.783045 0.291198
0.900498 0.791520 0.318761
0.928587 0.797721 0.352047
0.948645 0.798534 0.383653
0.965260 0.801098 0.412769
0.979791 0.807928 0.441257
0.991184 0.816625 0.474522
1.000000 0.822317 0.509009
1.000000 0.828102 0.538352
1.000000 0.838264 0.577168
1.000000 0.848493 0.618780
0.000000 0.645125 0.286810
0.000000 0.654323 0.290088
0.000000 0.662771 0.294040
0.000000 0.672122 0.297578
0.000000 0.682665 0.299899
0.000000 0.692649 0.304232
0.000000 0.704331 0.308628
0.000000 0.718153 0.311553
0.000000 0.731388 0.316409
0.000000 0.741392 0.317460
0.000000 0.750583 0.320330
0.000000 0.759893 0.323646
0.000000 0.768717 0.321083
0.000000 0.779788 0.313773
0.120569 0.787149 0.315071
0.334125 0.794239 0.314915
0.443550 0.801183 0.316106
0.540368 0.807749 0.321602
0.640794 0.812648 0.333840
0.715985 0.816047 0.342175
0.774413 0.819649 0.347856
0.823328 0.822151 0.352051
0.865504 0.825310 0.358202
0.899379 0.831850 0.381963
0.927393 0.837396 0.414259
0.948294 0.841103 0.446882
0.963803 0.844885 0.472475
0.978188 0.849341 0.500865
0.989846 0.853245 0.528962
1.000000 0.855179 0.553823
1.000000 0.858953 0.582328
1.000000 0.865541 0.621285
1.000000 0.871965 0.657523
0.000000 0.714742 0.351829
0.000000 0.722769 0.356131
0.000000 0.730018 0.360801
0.000000 0.737872 0.364359
0.000000 0.746084 0.368780
0.000000 0.754360 0.374249
0.000000 0.763115 0.380098
0.000000 0.772505 0.384925
0.000000 0.782246 0.391347
0.000000 0.792504 0.395506
0.000000 0.801584 0.400777
0.000000 0.809088 0.400687
0.000000 0.816876 0.401898
0.000000 0.825913 0.402617
0.000000 0.831276 0.396692
0.314806 0.835909 0.395366
0.438833 0.841070 0.402942
0.545439 0.845651 0.407187
0.644772 0.850030 0.416238
0.715075 0.854816 0.427619
0.771592 0.859099 0.436256
0.815220 0.863151 0.442168
0.858043 0.865353 0.448845
0.896973 0.867758 0.457050
0.923901 0.870076 0.476079
0.946037 0.873204 0.501862
0.962931 0.879111 0.536720
0.976963 0.880716 0.558699
0.988335 0.881384 0.578862
0.999965 0.881756 0.599456
1.000000 0.885171 0.629207
1.000000 0.889723 0.666706
1.000000 0.892800 0.695920
0.000000 0.779791 0.424530
0.000000 0.786215 0.428453
0.000000 0.792441 0.432929
0.000000 0.798790 0.437668
0.000000 0.805154 0.442507
0.000000 0.811553 0.447465
0.000000 0.818288 0.452553
0.000000 0.825268 0.457842
0.000000 0.832306 0.464673
0.000000 0.839341 0.473265
0.000000 0.845947 0.482359
0.000000 0.853144 0.490795
0.000000 0.858491 0.491699
0.000000 0.863910 0.492458
0.000000 0.868950 0.497659
0.313053 0.871991 0.493800
0.437421 0.874879 0.490577
0.560107 0.877812 0.495762
0.648178 0.880940 0.500775
0.712594 0.884591 0.511647
0.769353 0.888258 0.521086
0.814952 0.892052 0.528090
0.858049 0.893426 0.533294
0.895851 0.894182 0.537310
0.922673 0.895186 0.541524
0.943153 0.897591 0.557135
0.960592 0.901898 0.586595
0.976000 0.904913 0.614534
0.987687 0.904750 0.631371
0.999280 0.904287 0.654053
1.000000 0.906230 0.681622
1.000000 0.910400 0.709053
1.000000 0.912102 0.731278
0.000000 0.830148 0.505429
0.000000 0.833613 0.511100
0.000000 0.837274 0.516904
0.000000 0.841434 0.521777
0.000000 0.845496 0.526675
0.000000 0.849774 0.531658
0.000000 0.854325 0.536761
0.000000 0.859179 0.541789
0.000000 0.864250 0.546820
0.000000 0.869425 0.553247
0.000000 0.875807 0.559796
0.000000 0.883136 0.565808
0.000000 0.890302 0.571842
0.000000 0.894143 0.575348
0.150943 0.898059 0.580292
0.344238 0.901748 0.581947
0.453882 0.903252 0.575479
0.563001 0.904682 0.572786
0.654045 0.906408 0.575913
0.721300 0.908621 0.585700
0.771015 0.910135 0.591469
0.816516 0.912671 0.597359
0.861565 0.914811 0.606208
0.892837 0.915945 0.610832
0.917798 0.917235 0.615300
0.940768 0.918835 0.621808
0.958490 0.921995 0.639888
0.974214 0.923669 0.661912
0.987632 0.925564 0.689183
0.998432 0.924716 0.708079
1.000000 0.926152 0.729461
1.000000 0.929148 0.748163
1.000000 0.929951 0.764228
0.000000 0.865227 0.581268
0.000000 0.868232 0.586028
0.000000 0.871559 0.590269
0.000000 0.875077 0.594413
0.000000 0.878517 0.598612
0.000000 0.882107 0.602894
0.000000 0.885859 0.607294
0.000000 0.889772 0.611854
0.000000 0.893824 0.618156
0.000000 0.898123 0.625936
0.000000 0.902977 0.632978
0.000000 0.908366 0.639494
0.000000 0.912445 0.645638
0.000000 0.916259 0.651875
0.262461 0.918974 0.656471
0.385264 0.921330 0.656587
0.491640 0.923790 0.656394
0.587069 0.926071 0.654568
0.665155 0.927307 0.656152
0.725150 0.928837 0.658962
0.771771 0.930717 0.661636
0.815345 0.931581 0.666110
0.858319 0.932768 0.673223
0.889433 0.935658 0.684059
0.912540 0.937993 0.692107
0.934526 0.938990 0.695981
0.954684 0.939858 0.702210
0.970454 0.940671 0.714022
