Assets/Lutify-Free-LUTs-Pack/Lutify Free LUTs Pack/Print Film Pro - Print Film 2/Lutify.me-PrintFilm2-LogC3-to-Rec709.cube
# Created with: fylm.ai - Colour Grading and Collaboration Software in Cloud 
# Website: https://fylm.ai 
# META
# Option: Gamut compress
# Block 1: IDT | Arri Alexa - LogC3
# Block 2: colourMatch | Blending Mode: Normal | {"ColorSpace":0,"CrossCovarianceLimit":50,"ReshapingIterations":1,"PercentSaturationShift":100,"PercentShadingShift":100,"ExtraShading":true,"PercentTint":100,"PercentModified":100}
# Block 3: HSL | Blending Mode: Normal | {"hue":{"Reds":0,"Yellows":0,"Greens":0,"Cyans":0,"Blues":0,"Magentas":0},"saturation":{"Reds":1,"Yellows":0.9,"Greens":0.95,"Cyans":1,"Blues":1,"Magentas":1},"luminance":{"Reds":0.8,"Yellows":0.95,"Greens":0.9,"Cyans":0.8,"Blues":0.8,"Magentas":0.8},"lum_sat":{"Blacks":1,"Shadows":1,"Midtones":1,"Highlights":1,"Whites":1},"sat_sat":{"10":1,"20":1,"30":1,"40":1,"50":1}}
# Block 4: LUT | Filmic Curve Response: Low Contrast 2 (100%)
# Block 5: ODT | Rec709
TITLE "Lutify.me-PrintFilm2-LogC3-to-Rec709" 
LUT_3D_SIZE 9
0.000000 0.000000 0.000000
0.000000 0.000000 0.000000
0.000000 0.000000 0.000000
0.159818 0.000000 0.000000
0.493962 0.000000 0.000000
0.876439 0.000000 0.086856
1.000000 0.477278 0.296109
1.000000 0.785902 0.613042
1.000000 0.920345 0.850420
0.000000 0.000000 0.000000
0.000000 0.000000 0.000000
0.086462 0.000000 0.000000
0.233432 0.000000 0.000000
0.525060 0.000000 0.000000
0.882289 0.077225 0.085180
1.000000 0.488715 0.297262
1.000000 0.787764 0.614076
1.000000 0.920575 0.850555
0.000000 0.054040 0.000000
0.000000 0.077808 0.000000
0.135045 0.087236 0.000000
0.319804 0.069907 0.000000
0.571845 0.000000 0.000000
0.892642 0.167995 0.081100
1.000000 0.504455 0.299683
1.000000 0.790575 0.615654
1.000000 0.920924 0.850759
0.000000 0.215289 0.000000
0.000000 0.245430 0.000000
0.125639 0.259481 0.000000
0.405278 0.261148 0.000000
0.679397 0.321024 0.000000
0.921022 0.357681 0.029291
1.000000 0.551561 0.307040
1.000000 0.798394 0.619373
1.000000 0.922020 0.851405
0.000000 0.553164 0.000000
0.000000 0.563084 0.000000
0.000000 0.576974 0.000000
0.355199 0.591710 0.000000
0.729550 0.596887 0.000000
0.934772 0.661684 0.000000
1.000000 0.700619 0.341823
1.000000 0.822318 0.632663
1.000000 0.925534 0.853883
0.000000 0.851699 0.000000
0.000000 0.852818 0.000000
0.000000 0.856075 0.000000
0.369299 0.860667 0.000000
0.701607 0.861777 0.000000
0.915148 0.859787 0.000000
1.000000 0.879289 0.421197
1.000000 0.886543 0.681666
1.000000 0.937311 0.861684
0.663590 0.960046 0.364658
0.670295 0.960041 0.364882
0.680152 0.960037 0.365241
0.708721 0.960054 0.366512
0.783525 0.960358 0.374647
0.901701 0.960742 0.400701
0.992204 0.959208 0.448706
1.000000 0.965106 0.770538
1.000000 0.968230 0.887044
0.877837 1.000000 0.760902
0.878579 1.000000 0.761003
0.879702 1.000000 0.761158
0.883564 1.000000 0.761769
0.895005 1.000000 0.763710
0.926931 1.000000 0.771157
0.977302 1.000000 0.790974
1.000000 1.000000 0.822516
1.000000 1.000000 0.931700
0.967134 1.000000 0.933447
0.967234 1.000000 0.933473
0.967373 1.000000 0.933507
0.967791 1.000000 0.933610
0.969185 1.000000 0.933898
0.974149 1.000000 0.934708
0.986815 1.000000 0.938100
1.000000 1.000000 0.947801
1.000000 1.000000 0.959249
0.000000 0.000000 0.000000
0.000000 0.000000 0.000000
0.000000 0.000000 0.000000
0.160761 0.000000 0.000000
0.493369 0.000000 0.031291
0.876498 0.000000 0.107992
1.000000 0.476470 0.305631
1.000000 0.785775 0.616376
1.000000 0.920280 0.850841
0.000000 0.000000 0.000000
0.000000 0.000000 0.000000
0.076622 0.000000 0.000000
0.223659 0.000000 0.000000
0.520229 0.000000 0.026759
0.882359 0.049983 0.107663
1.000000 0.487947 0.306887
1.000000 0.787639 0.617410
1.000000 0.920510 0.850974
0.000000 0.053171 0.000000
0.000000 0.079001 0.000000
0.110621 0.098903 0.000000
0.301315 0.096919 0.000000
0.564342 0.000000 0.000000
0.890611 0.157367 0.109324
1.000000 0.503992 0.309357
1.000000 0.790454 0.618990
1.000000 0.920860 0.851179
0.000000 0.233555 0.000000
0.000000 0.265336 0.000000
0.000000 0.293238 0.000000
0.357697 0.304003 0.000000
0.670674 0.324525 0.000000
0.918281 0.350752 0.096595
1.000000 0.548870 0.318366
1.000000 0.798321 0.622771
1.000000 0.921956 0.851822
0.000000 0.568653 0.000000
0.000000 0.582199 0.000000
0.000000 0.601256 0.000000
0.280850 0.624160 0.000000
0.701637 0.633500 0.000000
0.934441 0.665841 0.000000
1.000000 0.698867 0.353382
1.000000 0.821957 0.635515
1.000000 0.925470 0.854287
0.000000 0.854408 0.000000
0.000000 0.855531 0.000000
0.000000 0.857435 0.000000
0.349028 0.861994 0.000000
0.695719 0.864872 0.000000
0.912974 0.862557 0.000000
1.000000 0.879080 0.437077
1.000000 0.886265 0.684601
1.000000 0.937249 0.862009
0.663354 0.960364 0.391238
0.670079 0.960356 0.391374
0.679965 0.960348 0.391598
0.708600 0.960355 0.392451
0.783580 0.960632 0.399336
0.900393 0.961712 0.423987
0.991579 0.959571 0.466321
1.000000 0.965216 0.772995
1.000000 0.968193 0.887340
0.877692 1.000000 0.764978
0.878434 1.000000 0.765076
0.879558 1.000000 0.765225
0.883039 1.000000 0.765704
0.894497 1.000000 0.767566
0.926829 1.000000 0.774800
0.977082 1.000000 0.793942
1.000000 1.000000 0.824937
1.000000 1.000000 0.931931
0.967125 1.000000 0.933832
0.967225 1.000000 0.933858
0.967366 1.000000 0.933891
0.967784 1.000000 0.933991
0.969128 1.000000 0.934300
0.974092 1.000000 0.935097
0.986771 1.000000 0.938450
1.000000 1.000000 0.948083
1.000000 1.000000 0.959435
0.000000 0.000000 0.000000
0.000000 0.000000 0.000000
0.000000 0.000000 0.000000
0.145819 0.000000 0.027712
0.501042 0.000000 0.071378
0.875151 0.000000 0.138627
1.000000 0.475210 0.319873
1.000000 0.785420 0.621160
1.000000 0.920181 0.851478
0.000000 0.000000 0.000000
0.000000 0.000000 0.000000
0.048082 0.000000 0.032153
0.214412 0.000000 0.055902
0.525430 0.000000 0.074758
0.880234 0.000000 0.137575
1.000000 0.486641 0.321262
1.000000 0.787307 0.622224
1.000000 0.920412 0.851612
0.000000 0.037048 0.123280
0.000000 0.060358 0.112230
0.090828 0.096564 0.101918
0.291566 0.078153 0.084454
0.559630 0.000000 0.075192
0.890238 0.137335 0.140925
1.000000 0.503157 0.323789
1.000000 0.790156 0.623848
1.000000 0.920762 0.851814
0.000000 0.206385 0.123961
0.000000 0.266162 0.106504
0.000000 0.308113 0.082425
0.342294 0.327840 0.053099
0.664802 0.324752 0.023345
0.913133 0.340080 0.148027
1.000000 0.547282 0.334013
1.000000 0.798183 0.627858
1.000000 0.921860 0.852454
0.000000 0.582430 0.000000
0.000000 0.589969 0.000000
0.000000 0.603861 0.000000
0.239902 0.639178 0.000000
0.694385 0.647601 0.000000
0.930960 0.670508 0.118073
1.000000 0.695836 0.369847
1.000000 0.821407 0.639811
1.000000 0.925373 0.854899
0.000000 0.856471 0.000000
0.000000 0.858707 0.000000
0.000000 0.860536 0.000000
0.351886 0.864690 0.000000
0.687869 0.867899 0.000000
0.911589 0.867119 0.000000
1.000000 0.878731 0.458336
1.000000 0.885840 0.688983
1.000000 0.937155 0.862501
0.662750 0.960799 0.427712
0.669511 0.960787 0.427785
0.679444 0.960773 0.427914
0.708195 0.960764 0.428459
0.782405 0.960733 0.432301
0.898899 0.962265 0.453217
0.990587 0.960140 0.495680
1.000000 0.965380 0.776636
1.000000 0.968137 0.887792
0.877484 1.000000 0.770735
0.878228 1.000000 0.770822
0.879355 1.000000 0.770959
0.882841 1.000000 0.771394
0.893753 1.000000 0.772952
0.926684 1.000000 0.779945
0.976930 1.000000 0.798496
1.000000 1.000000 0.828407
1.000000 1.000000 0.932281
0.967111 1.000000 0.934413
0.967212 1.000000 0.934436
0.967354 1.000000 0.934472
0.967772 1.000000 0.934569
0.969084 1.000000 0.934885
0.974006 1.000000 0.935685
0.986706 1.000000 0.938977
1.000000 1.000000 0.948509
1.000000 1.000000 0.959718
0.000000 0.000000 0.000000
0.000000 0.000000 0.000000
0.000000 0.000000 0.015558
0.103717 0.000000 0.046511
0.465993 0.000000 0.157608
0.892463 0.000000 0.233015
1.000000 0.471846 0.371292
1.000000 0.783149 0.634131
1.000000 0.919870 0.853463
0.000000 0.000000 0.000000
0.000000 0.000000 0.051608
0.018689 0.000000 0.079261
0.154971 0.000000 0.092660
0.505112 0.000000 0.182099
0.894848 0.000000 0.235630
1.000000 0.480168 0.371050
1.000000 0.785056 0.635194
1.000000 0.920102 0.853594
0.000000 0.000000 0.221379
0.000000 0.000000 0.225471
0.000000 0.031697 0.219402
0.250862 0.000000 0.203522
0.552995 0.000000 0.214104
0.897998 0.112546 0.239194
1.000000 0.494461 0.372121
1.000000 0.787936 0.636816
1.000000 0.920454 0.853794
0.000000 0.123339 0.414383
0.000000 0.183828 0.372041
0.000000 0.254176 0.351682
0.307061 0.324804 0.345396
0.635130 0.293643 0.276191
0.910207 0.308098 0.248675
1.000000 0.542605 0.381153
1.000000 0.796243 0.641106
1.000000 0.921555 0.854423
0.000000 0.543673 0.366147
0.000000 0.571356 0.360999
0.000000 0.602208 0.361277
0.152302 0.652464 0.341491
0.686173 0.673857 0.319253
0.926252 0.662667 0.292781
1.000000 0.686019 0.416277
1.000000 0.819679 0.652996
1.000000 0.925067 0.856805
0.000000 0.862175 0.344890
0.000000 0.862566 0.339434
0.000000 0.863275 0.334128
0.323162 0.866845 0.322875
0.678303 0.872402 0.311822
0.907138 0.875036 0.310592
1.000000 0.877754 0.513599
1.000000 0.884486 0.702139
1.000000 0.936858 0.864032
0.649065 0.962221 0.525819
0.656188 0.962200 0.526336
0.666647 0.962171 0.527134
0.696870 0.962117 0.529728
0.779991 0.961623 0.531365
0.898072 0.963388 0.546303
0.987808 0.961447 0.563608
1.000000 0.965719 0.787384
1.000000 0.967958 0.889227
0.876335 1.000000 0.788771
0.877084 1.000000 0.788842
0.878217 1.000000 0.788948
0.881727 1.000000 0.789290
0.892738 1.000000 0.790984
0.925914 1.000000 0.796782
0.976495 1.000000 0.813088
1.000000 1.000000 0.838676
1.000000 1.000000 0.933368
0.967068 1.000000 0.936207
0.967169 1.000000 0.936229
0.967317 1.000000 0.936264
0.967737 1.000000 0.936356
0.969051 1.000000 0.936650
0.973739 1.000000 0.937493
0.986502 1.000000 0.940605
1.000000 1.000000 0.949815
1.000000 1.000000 0.960599
0.000000 0.000000 0.000000
0.000000 0.000000 0.000000
0.000000 0.000000 0.047899
0.074369 0.000000 0.076992
0.295294 0.000000 0.124827
0.869133 0.000000 0.437391
1.000000 0.476414 0.531063
1.000000 0.781035 0.679843
1.000000 0.918882 0.859533
0.000000 0.000000 0.037084
0.000000 0.000000 0.102771
0.000000 0.000000 0.141434
0.106319 0.000000 0.176812
0.382311 0.000000 0.226921
0.876239 0.000000 0.447147
1.000000 0.485400 0.533133
1.000000 0.782536 0.680200
1.000000 0.919116 0.859657
0.000000 0.000000 0.368837
0.000000 0.000000 0.379071
0.000000 0.000000 0.369803
0.138540 0.000000 0.351038
0.482888 0.000000 0.352495
0.885532 0.000000 0.460776
1.000000 0.498843 0.536228
1.000000 0.784795 0.680743
1.000000 0.919472 0.859846
0.000000 0.000000 0.637683
0.000000 0.068570 0.610494
0.000000 0.098687 0.595784
0.158049 0.143492 0.572837
0.610541 0.093564 0.539673
0.910357 0.222269 0.506425
1.000000 0.537859 0.541325
1.000000 0.791768 0.682442
1.000000 0.920586 0.860443
0.000000 0.407225 0.723615
0.000000 0.440052 0.715568
0.000000 0.481017 0.706174
0.000000 0.570301 0.693143
0.640191 0.660900 0.693429
0.910654 0.636626 0.604940
1.000000 0.663059 0.549064
1.000000 0.815702 0.693224
1.000000 0.924094 0.862625
0.000000 0.839516 0.691332
0.000000 0.843550 0.691167
0.000000 0.849289 0.691081
0.048414 0.863889 0.697255
0.649416 0.882958 0.688007
0.892716 0.883912 0.685196
0.993677 0.875329 0.653351
1.000000 0.880836 0.736400
1.000000 0.935942 0.869378
0.642272 0.964593 0.712193
0.648934 0.964482 0.711121
0.658724 0.964318 0.709506
0.687090 0.963840 0.704536
0.765621 0.963484 0.702464
0.889507 0.964932 0.704267
0.980561 0.964692 0.705671
1.000000 0.965195 0.816545
1.000000 0.967377 0.893630
0.874342 1.000000 0.835160
0.875104 1.000000 0.835174
0.876256 1.000000 0.835198
0.879823 1.000000 0.835280
0.890622 1.000000 0.835538
0.924062 1.000000 0.838175
0.975013 1.000000 0.847744
1.000000 1.000000 0.861650
1.000000 1.000000 0.936584
0.966908 1.000000 0.941508
0.967009 1.000000 0.941527
0.967163 1.000000 0.941555
0.967598 1.000000 0.941634
0.968917 1.000000 0.941873
0.973288 1.000000 0.942674
0.985885 1.000000 0.945208
1.000000 1.000000 0.953763
1.000000 1.000000 0.963086
0.000000 0.000000 0.061679
0.000000 0.000000 0.101811
0.000000 0.000000 0.122417
0.053828 0.000000 0.146379
0.220389 0.000000 0.162071
0.683358 0.000000 0.399052
1.000000 0.374773 0.756405
1.000000 0.785779 0.798854
1.000000 0.920053 0.880325
0.000000 0.000000 0.067721
0.000000 0.000000 0.103637
0.000000 0.000000 0.123597
0.050634 0.000000 0.176530
0.267460 0.000000 0.283569
0.752273 0.000000 0.502341
1.000000 0.388264 0.758950
1.000000 0.787642 0.799529
1.000000 0.920221 0.880374
0.000000 0.000000 0.416580
0.000000 0.000000 0.429904
0.000000 0.000000 0.439443
0.000000 0.000000 0.461900
0.335365 0.000000 0.521177
0.802379 0.000000 0.592477
1.000000 0.408012 0.762652
1.000000 0.790448 0.800547
1.000000 0.920477 0.880448
0.000000 0.000000 0.816117
0.000000 0.000000 0.808436
0.000000 0.000000 0.801012
0.000000 0.000000 0.777663
0.424954 0.000000 0.738526
0.871418 0.000000 0.711310
1.000000 0.460994 0.772824
1.000000 0.799014 0.803693
1.000000 0.921281 0.880680
0.000000 0.235134 0.889585
0.000000 0.251247 0.886404
0.000000 0.272111 0.883047
0.000000 0.315101 0.876106
0.478795 0.391077 0.860781
0.920249 0.436373 0.837033
1.000000 0.609360 0.803969
1.000000 0.819112 0.807618
1.000000 0.923803 0.881414
0.000000 0.733570 0.905088
0.000000 0.742098 0.904078
0.000000 0.752252 0.902803
0.000000 0.789392 0.897701
0.466185 0.840489 0.893587
0.868088 0.877964 0.898645
0.982583 0.865420 0.855229
1.000000 0.869465 0.814984
1.000000 0.933023 0.884191
0.496894 0.954066 0.887764
0.511427 0.954426 0.887835
0.532269 0.954959 0.887950
0.589766 0.956543 0.888358
0.721252 0.961192 0.890211
0.873180 0.968187 0.893771
0.971590 0.969313 0.890821
1.000000 0.963980 0.876655
1.000000 0.965358 0.905156
0.873592 1.000000 0.901535
0.874263 1.000000 0.901419
0.875279 1.000000 0.901241
0.878427 1.000000 0.900687
0.888047 1.000000 0.898965
0.917713 1.000000 0.899064
0.971361 1.000000 0.901851
1.000000 1.000000 0.907256
1.000000 1.000000 0.945276
0.966215 1.000000 0.953957
0.966330 1.000000 0.953969
0.966504 1.000000 0.953990
0.967050 1.000000 0.954053
0.968406 1.000000 0.954180
0.972824 1.000000 0.954604
0.985008 1.000000 0.955992
1.000000 1.000000 0.962105
1.000000 1.000000 0.969252
0.000000 0.000000 0.266300
0.000000 0.000000 0.273022
0.000000 0.000000 0.277764
0.000000 0.000000 0.287994
0.175015 0.000000 0.298599
0.464805 0.000000 0.284724
1.000000 0.000000 0.788258
1.000000 0.724336 0.910955
1.000000 0.925294 0.927508
0.000000 0.000000 0.267237
0.000000 0.000000 0.273370
0.000000 0.000000 0.278004
0.000000 0.000000 0.288127
0.175764 0.000000 0.298547
0.469064 0.000000 0.292762
1.000000 0.000000 0.807868
1.000000 0.726916 0.911240
1.000000 0.925507 0.927585
0.000000 0.000000 0.268632
0.000000 0.000000 0.273888
0.000000 0.000000 0.278362
0.000000 0.000000 0.288328
0.176906 0.000000 0.298468
0.588977 0.000000 0.590982
1.000000 0.000000 0.830575
1.000000 0.730778 0.911670
1.000000 0.925845 0.927702
0.000000 0.000000 0.870091
0.000000 0.000000 0.867827
0.000000 0.000000 0.865297
0.000000 0.000000 0.858280
0.223710 0.000000 0.853247
0.715176 0.000000 0.853139
1.000000 0.000000 0.866170
1.000000 0.742420 0.912992
1.000000 0.926903 0.928069
0.000000 0.169469 0.968896
0.000000 0.176537 0.967541
0.000000 0.183240 0.966471
0.000000 0.204766 0.964505
0.285190 0.220884 0.951780
0.788287 0.195517 0.928491
1.000000 0.307404 0.914103
1.000000 0.774524 0.916921
1.000000 0.930184 0.929224
0.000000 0.530340 0.982148
0.000000 0.537916 0.981671
0.000000 0.547835 0.980904
0.000000 0.570325 0.978183
0.265839 0.620618 0.973857
0.789240 0.701741 0.963174
1.000000 0.759853 0.949292
1.000000 0.850653 0.929464
1.000000 0.937491 0.930459
0.000000 0.911505 0.974526
0.000000 0.912308 0.974405
0.000000 0.913463 0.974229
0.000000 0.916729 0.973753
0.489605 0.928747 0.971900
0.805916 0.947571 0.971305
0.959843 0.966317 0.974293
1.000000 0.957872 0.952101
1.000000 0.959915 0.935500
0.818500 0.999821 0.968001
0.819867 0.999862 0.968031
0.821918 0.999925 0.968077
0.828196 1.000000 0.968226
0.846823 1.000000 0.968716
0.896309 1.000000 0.970503
0.964381 1.000000 0.974304
1.000000 1.000000 0.972583
1.000000 1.000000 0.966119
0.965016 1.000000 0.978881
0.965104 1.000000 0.978869
0.965236 1.000000 0.978851
0.965652 1.000000 0.978795
0.966955 1.000000 0.978617
0.971272 1.000000 0.977999
0.983103 1.000000 0.976998
1.000000 1.000000 0.979751
1.000000 1.000000 0.982942
0.000000 0.000000 0.497987
0.000000 0.000000 0.499637
0.000000 0.000000 0.501986
0.000000 0.000000 0.502785
0.189574 0.000000 0.496119
0.406322 0.000000 0.494796
0.762439 0.000000 0.454523
1.000000 0.000000 0.950687
1.000000 0.900860 0.979557
0.000000 0.000000 0.498161
0.000000 0.000000 0.499800
0.000000 0.000000 0.502134
0.000000 0.000000 0.502760
0.190248 0.000000 0.496096
0.406714 0.000000 0.494780
0.762575 0.000000 0.454490
1.000000 0.000000 0.952636
1.000000 0.901170 0.979602
0.000000 0.000000 0.498421
0.000000 0.000000 0.500045
0.000000 0.000000 0.502358
0.012431 0.000000 0.502723
0.191271 0.000000 0.496061
0.407312 0.000000 0.494755
0.762781 0.000000 0.454440
1.000000 0.000000 0.955333
1.000000 0.901643 0.979672
0.000000 0.000000 0.499228
0.000000 0.000000 0.500803
0.000000 0.000000 0.502573
0.046038 0.000000 0.502605
0.194480 0.000000 0.495950
0.409200 0.000000 0.494677
0.938767 0.000000 0.902035
1.000000 0.210993 0.962428
1.000000 0.903115 0.979887
0.000000 0.021568 1.000000
0.000000 0.013937 1.000000
0.000000 0.000000 1.000000
0.000000 0.019791 0.999198
0.305787 0.000000 0.993984
0.628316 0.000000 0.985822
0.989122 0.000000 0.977213
1.000000 0.413978 0.974310
1.000000 0.907643 0.980557
0.000000 0.434043 1.000000
0.000000 0.437180 1.000000
0.000000 0.441776 1.000000
0.174966 0.452755 1.000000
0.382541 0.476757 1.000000
0.658766 0.510599 1.000000
0.977413 0.554437 0.999378
1.000000 0.680373 0.987214
1.000000 0.920006 0.982455
0.000000 0.804500 1.000000
0.000000 0.805552 1.000000
0.000000 0.807099 1.000000
0.177351 0.811569 1.000000
0.413959 0.824232 1.000000
0.662775 0.849024 1.000000
0.919988 0.885669 1.000000
1.000000 0.910531 0.998236
1.000000 0.950389 0.988162
0.652937 0.980483 1.000000
0.656167 0.980580 1.000000
0.660976 0.980728 1.000000
0.675310 0.981187 1.000000
0.719651 0.982539 1.000000
0.809698 0.986653 1.000000
0.927329 0.995044 1.000000
0.999863 1.000000 1.000000
1.000000 0.999384 0.998441
0.938187 1.000000 1.000000
0.938438 1.000000 1.000000
0.938818 1.000000 1.000000
0.940005 1.000000 1.000000
0.943661 1.000000 1.000000
0.954020 1.000000 1.000000
0.974289 1.000000 1.000000
0.999568 1.000000 1.000000
1.000000 1.000000 1.000000
0.211537 0.000000 0.711100
0.217160 0.000000 0.711061
0.225451 0.000000 0.711001
0.249730 0.000000 0.710813
0.310535 0.000000 0.705292
0.458441 0.000000 0.700081
0.723879 0.000000 0.682812
0.992634 0.000000 0.630017
1.000000 0.569450 1.000000
0.212175 0.000000 0.711091
0.217778 0.000000 0.711051
0.226061 0.000000 0.710992
0.250205 0.000000 0.710803
0.310937 0.000000 0.705249
0.458765 0.000000 0.700050
0.724002 0.000000 0.682807
0.992656 0.000000 0.630002
1.000000 0.574514 1.000000
0.213154 0.000000 0.711076
0.218733 0.000000 0.711038
0.226976 0.000000 0.710977
0.250930 0.000000 0.710790
0.311546 0.000000 0.705183
0.459263 0.000000 0.700004
0.724189 0.000000 0.682800
0.992691 0.000000 0.629977
1.000000 0.582317 1.000000
0.216215 0.000000 0.711031
0.221708 0.000000 0.710992
0.229844 0.000000 0.710932
0.253292 0.000000 0.710594
0.313489 0.000000 0.704973
0.460831 0.000000 0.699858
0.724782 0.000000 0.682777
0.992799 0.000000 0.629901
1.000000 0.605153 1.000000
0.225713 0.000000 0.710885
0.230973 0.000000 0.710846
0.238813 0.000000 0.710786
0.260768 0.000000 0.709820
0.319618 0.000000 0.704311
0.465805 0.000000 0.699396
0.726672 0.000000 0.682705
1.000000 0.000000 0.999100
1.000000 0.663072 1.000000
0.462815 0.293135 1.000000
0.467883 0.293221 1.000000
0.475456 0.293365 1.000000
0.498291 0.293790 1.000000
0.562387 0.295163 1.000000
0.708137 0.297872 1.000000
0.921696 0.327864 1.000000
1.000000 0.495682 1.000000
1.000000 0.760678 1.000000
0.514552 0.734231 1.000000
0.519095 0.734752 1.000000
0.525901 0.735523 1.000000
0.543531 0.738695 1.000000
0.592828 0.745073 1.000000
0.721496 0.763609 1.000000
0.871783 0.784693 1.000000
1.000000 0.818180 1.000000
1.000000 0.878900 1.000000
0.673947 0.933896 1.000000
0.676146 0.933989 1.000000
0.679430 0.934129 1.000000
0.689362 0.934569 1.000000
0.717201 0.935926 1.000000
0.775500 0.939803 1.000000
0.867798 0.949843 1.000000
0.981569 0.966394 1.000000
1.000000 0.979787 1.000000
0.878651 1.000000 1.000000
0.878993 1.000000 1.000000
0.879513 1.000000 1.000000
0.881128 1.000000 1.000000
0.886080 1.000000 1.000000
0.900568 1.000000 1.000000
0.937965 1.000000 1.000000
0.987309 1.000000 1.000000
1.000000 1.000000 1.000000
