Assets/Lutify-Free-LUTs-Pack/Lutify Free LUTs Pack/Print Film Pro - Print Film 2/Lutify.me-PrintFilm2-SLog1-to-Rec709.cube
# Created with: fylm.ai - Colour Grading and Collaboration Software in Cloud 
# Website: https://fylm.ai 
# META
# Option: Gamut compress
# Block 1: IDT | Sony S-Log S-Gamut 10-bit
# Block 2: colourMatch | Blending Mode: Normal | {"ColorSpace":0,"CrossCovarianceLimit":50,"ReshapingIterations":1,"PercentSaturationShift":100,"PercentShadingShift":100,"ExtraShading":true,"PercentTint":100,"PercentModified":100}
# Block 3: HSL | Blending Mode: Normal | {"hue":{"Reds":0,"Yellows":0,"Greens":0,"Cyans":0,"Blues":0,"Magentas":0},"saturation":{"Reds":1,"Yellows":0.9,"Greens":0.95,"Cyans":1,"Blues":1,"Magentas":1},"luminance":{"Reds":0.8,"Yellows":0.95,"Greens":0.9,"Cyans":0.8,"Blues":0.8,"Magentas":0.8},"lum_sat":{"Blacks":1,"Shadows":1,"Midtones":1,"Highlights":1,"Whites":1},"sat_sat":{"10":1,"20":1,"30":1,"40":1,"50":1}}
# Block 4: LUT | Filmic Curve Response: Low Contrast 2 (100%)
# Block 5: ODT | Rec709
TITLE "Lutify.me-PrintFilm2-SLog1-to-Rec709" 
LUT_3D_SIZE 5
0.000000 0.000000 0.000000
0.020627 0.000000 0.000000
0.402533 0.000000 0.000000
0.925139 0.000000 0.103027
1.000000 0.557301 0.419771
0.000000 0.066780 0.000000
0.184492 0.109692 0.000000
0.514657 0.000000 0.000000
0.938539 0.000000 0.106805
1.000000 0.571219 0.420663
0.000000 0.393934 0.000000
0.000000 0.503900 0.000000
0.632555 0.532802 0.000000
0.969804 0.484558 0.096871
1.000000 0.639158 0.439990
0.000000 0.855468 0.345927
0.000000 0.872227 0.334853
0.368329 0.887266 0.265239
0.927996 0.883691 0.213464
1.000000 0.858372 0.555178
0.348325 0.988896 0.797502
0.438812 0.989525 0.798775
0.626588 0.989903 0.797335
0.854938 0.987649 0.776752
1.000000 0.984833 0.766246
0.000000 0.000000 0.000000
0.044638 0.000000 0.000000
0.405116 0.000000 0.060768
0.933918 0.000000 0.158050
1.000000 0.562562 0.445231
0.000000 0.049172 0.207630
0.136807 0.140026 0.152728
0.513239 0.000000 0.092135
0.940181 0.000000 0.164762
1.000000 0.576550 0.446204
0.000000 0.334808 0.251407
0.000000 0.519058 0.191844
0.610020 0.575716 0.081795
0.965446 0.475653 0.189704
1.000000 0.636356 0.458371
0.000000 0.845584 0.431841
0.000000 0.869504 0.432734
0.358635 0.889576 0.385208
0.924738 0.887180 0.326499
1.000000 0.857293 0.576506
0.323651 0.988193 0.806691
0.421720 0.988883 0.807890
0.622601 0.989893 0.810226
0.853089 0.987859 0.788537
1.000000 0.985055 0.779026
0.000000 0.000000 0.076291
0.044867 0.000000 0.128435
0.277162 0.000000 0.098858
0.933891 0.000000 0.345848
1.000000 0.572000 0.535991
0.000000 0.000000 0.504068
0.000000 0.040747 0.436826
0.492016 0.000000 0.333278
0.951090 0.000000 0.372144
1.000000 0.588450 0.539047
0.000000 0.186857 0.764496
0.000000 0.408401 0.650694
0.568122 0.588854 0.622648
0.966546 0.461434 0.458193
1.000000 0.648422 0.550809
0.000000 0.805578 0.698372
0.000000 0.835807 0.681549
0.259051 0.892599 0.689743
0.914168 0.895107 0.651505
1.000000 0.853353 0.647719
0.171074 0.984588 0.835761
0.334639 0.986035 0.837887
0.586004 0.988590 0.843233
0.847030 0.988679 0.830118
1.000000 0.985889 0.820842
0.000000 0.000000 0.783398
0.000000 0.000000 0.754915
0.347790 0.000000 0.679817
0.830460 0.000000 0.505207
1.000000 0.539218 0.763953
0.000000 0.000000 0.846484
0.000000 0.051126 0.830413
0.375718 0.000000 0.773090
0.911227 0.000000 0.643407
1.000000 0.560314 0.768485
0.000000 0.220660 0.909432
0.000000 0.266828 0.896829
0.372421 0.342267 0.878171
0.976101 0.240518 0.808388
1.000000 0.645583 0.789691
0.000000 0.524167 0.971584
0.000000 0.708843 0.932448
0.000000 0.835607 0.915767
0.888599 0.898943 0.915374
1.000000 0.850029 0.843229
0.000000 0.974033 0.924577
0.000000 0.975117 0.924745
0.375753 0.978098 0.921813
0.835350 0.988867 0.928120
0.993978 0.989865 0.923292
0.000000 0.225868 0.992777
0.128525 0.227699 0.990712
0.389411 0.222104 0.981332
0.866347 0.000000 0.953384
1.000000 0.000000 0.892941
0.000000 0.259131 0.996712
0.128172 0.265373 0.994042
0.389646 0.263989 0.986029
0.868770 0.150260 0.959005
1.000000 0.000000 0.905327
0.000000 0.355339 1.000000
0.000000 0.366785 1.000000
0.374541 0.391285 0.996502
0.867982 0.369771 0.973436
1.000000 0.322735 0.933876
0.000000 0.624249 1.000000
0.000000 0.639114 1.000000
0.000000 0.676205 0.999896
0.806945 0.748458 0.989358
1.000000 0.743071 0.967363
0.000000 0.890458 1.000000
0.000000 0.913097 1.000000
0.000000 0.944658 0.997987
0.707629 0.967877 0.993283
0.985623 0.990045 0.995488
