Assets/Lutify-Free-LUTs-Pack/Lutify Free LUTs Pack/Print Film Pro - Print Film 2/Lutify.me-PrintFilm2-SLog3CineVenice-to-Rec709.cube
# Created with: fylm.ai - Colour Grading and Collaboration Software in Cloud 
# Website: https://fylm.ai 
# META
# Option: Gamut compress
# Block 1: IDT | Sony Venice S-Log3 S-Gamut3.Cine
# Block 2: colourMatch | Blending Mode: Normal | {"ColorSpace":0,"CrossCovarianceLimit":50,"ReshapingIterations":1,"PercentSaturationShift":100,"PercentShadingShift":100,"ExtraShading":true,"PercentTint":100,"PercentModified":100}
# Block 3: HSL | Blending Mode: Normal | {"hue":{"Reds":0,"Yellows":0,"Greens":0,"Cyans":0,"Blues":0,"Magentas":0},"saturation":{"Reds":1,"Yellows":0.9,"Greens":0.95,"Cyans":1,"Blues":1,"Magentas":1},"luminance":{"Reds":0.8,"Yellows":0.95,"Greens":0.9,"Cyans":0.8,"Blues":0.8,"Magentas":0.8},"lum_sat":{"Blacks":1,"Shadows":1,"Midtones":1,"Highlights":1,"Whites":1},"sat_sat":{"10":1,"20":1,"30":1,"40":1,"50":1}}
# Block 4: LUT | Filmic Curve Response: Low Contrast 2 (100%)
# Block 5: ODT | Rec709
TITLE "Lutify.me-PrintFilm2-SLog3CineVenice-to-Rec709" 
LUT_3D_SIZE 5
0.000000 0.000000 0.000000
0.000000 0.000000 0.000000
0.356564 0.000000 0.000000
1.000000 0.000000 0.122944
1.000000 0.808146 0.651170
0.000000 0.051641 0.000000
0.100182 0.073081 0.000000
0.455982 0.000000 0.000000
1.000000 0.146047 0.125248
1.000000 0.810494 0.652792
0.000000 0.517945 0.000000
0.000000 0.547980 0.000000
0.650151 0.540621 0.000000
1.000000 0.454020 0.124226
1.000000 0.826503 0.663919
0.406074 0.950526 0.511261
0.444342 0.950172 0.507483
0.658940 0.949992 0.484370
0.974742 0.941212 0.350155
1.000000 0.906651 0.739454
0.931149 1.000000 0.944418
0.931528 1.000000 0.944320
0.934390 1.000000 0.943572
0.962886 1.000000 0.941561
1.000000 1.000000 0.932208
0.000000 0.000000 0.000000
0.000000 0.000000 0.000000
0.354324 0.000000 0.029621
1.000000 0.000000 0.155278
1.000000 0.807535 0.654455
0.000000 0.037315 0.108945
0.073872 0.078543 0.083154
0.452072 0.000000 0.042079
1.000000 0.127620 0.156389
1.000000 0.809883 0.656181
0.000000 0.525790 0.094454
0.000000 0.557912 0.000000
0.614924 0.584969 0.000000
1.000000 0.447837 0.168687
1.000000 0.825984 0.667628
0.409400 0.951631 0.556557
0.447447 0.951207 0.550949
0.658553 0.949584 0.525894
0.973174 0.942227 0.396507
1.000000 0.906399 0.742288
0.931229 1.000000 0.945127
0.931607 1.000000 0.945030
0.934465 1.000000 0.944285
0.962858 1.000000 0.942167
1.000000 1.000000 0.932874
0.000000 0.000000 0.000000
0.000000 0.000000 0.042331
0.210141 0.000000 0.061207
1.000000 0.000000 0.330500
1.000000 0.810790 0.695712
0.000000 0.000000 0.341116
0.000000 0.000000 0.306893
0.319601 0.000000 0.154644
1.000000 0.000000 0.340892
1.000000 0.812546 0.696383
0.000000 0.354908 0.686813
0.000000 0.436176 0.662362
0.575535 0.596293 0.630114
1.000000 0.428781 0.389167
1.000000 0.824369 0.700651
0.371299 0.952018 0.739526
0.427867 0.952836 0.741160
0.653662 0.952672 0.723395
0.965740 0.947534 0.640815
1.000000 0.904621 0.763787
0.931818 1.000000 0.950304
0.932193 1.000000 0.950211
0.935030 1.000000 0.949491
0.962639 1.000000 0.946624
1.000000 1.000000 0.938541
0.000000 0.000000 0.240712
0.038163 0.000000 0.245000
0.192178 0.000000 0.255959
0.704084 0.000000 0.217206
1.000000 0.806279 0.847167
0.000000 0.000000 0.291270
0.011477 0.000000 0.270899
0.193232 0.000000 0.255907
0.704250 0.000000 0.217154
1.000000 0.808832 0.847899
0.000000 0.184975 0.945179
0.000000 0.193568 0.944222
0.313767 0.197913 0.923962
1.000000 0.000000 0.787860
1.000000 0.826953 0.853260
0.000000 0.889318 0.963827
0.000000 0.892621 0.963505
0.202668 0.911077 0.960652
0.943531 0.949954 0.960811
1.000000 0.902243 0.874865
0.926212 1.000000 0.976655
0.926866 1.000000 0.976698
0.931731 1.000000 0.977022
0.961742 1.000000 0.976720
1.000000 1.000000 0.969356
0.370531 0.000000 0.637735
0.377228 0.000000 0.637736
0.427026 0.000000 0.637707
0.725700 0.000000 0.616503
1.000000 0.000000 0.522086
0.370942 0.000000 0.637730
0.377636 0.000000 0.637732
0.427401 0.000000 0.637702
0.725858 0.000000 0.616478
1.000000 0.000000 0.522079
0.374155 0.000000 0.637697
0.380809 0.000000 0.637697
0.430333 0.000000 0.637665
0.727087 0.000000 0.616288
1.000000 0.000000 0.522020
0.592884 0.728816 1.000000
0.600399 0.730116 1.000000
0.652560 0.739050 1.000000
0.878678 0.744927 1.000000
1.000000 0.634939 0.998563
0.810393 1.000000 1.000000
0.811947 1.000000 1.000000
0.823364 1.000000 1.000000
0.896039 1.000000 1.000000
1.000000 1.000000 1.000000
