Assets/Lutify-Free-LUTs-Pack/Lutify Free LUTs Pack/Print Film Pro - Print Film 2/Lutify.me-PrintFilm2-SLog2-to-Rec709.cube
# Created with: fylm.ai - Colour Grading and Collaboration Software in Cloud 
# Website: https://fylm.ai 
# META
# Option: Gamut compress
# Block 1: IDT | Sony S-Log2 S-Gamut Daylight 10-bit
# Block 2: colourMatch | Blending Mode: Normal | {"ColorSpace":0,"CrossCovarianceLimit":50,"ReshapingIterations":1,"PercentSaturationShift":100,"PercentShadingShift":100,"ExtraShading":true,"PercentTint":100,"PercentModified":100}
# Block 3: HSL | Blending Mode: Normal | {"hue":{"Reds":0,"Yellows":0,"Greens":0,"Cyans":0,"Blues":0,"Magentas":0},"saturation":{"Reds":1,"Yellows":0.9,"Greens":0.95,"Cyans":1,"Blues":1,"Magentas":1},"luminance":{"Reds":0.8,"Yellows":0.95,"Greens":0.9,"Cyans":0.8,"Blues":0.8,"Magentas":0.8},"lum_sat":{"Blacks":1,"Shadows":1,"Midtones":1,"Highlights":1,"Whites":1},"sat_sat":{"10":1,"20":1,"30":1,"40":1,"50":1}}
# Block 4: LUT | Filmic Curve Response: Low Contrast 2 (100%)
# Block 5: ODT | Rec709
TITLE "Lutify.me-PrintFilm2-SLog2-to-Rec709" 
LUT_3D_SIZE 9
0.000000 0.000000 0.000000
0.000000 0.000000 0.000000
0.078190 0.000000 0.000000
0.305525 0.000000 0.000000
0.600260 0.000000 0.041266
0.868651 0.000000 0.139025
1.000000 0.305854 0.295400
1.000000 0.565674 0.500695
1.000000 0.763488 0.700344
0.000000 0.000000 0.000000
0.022088 0.010189 0.000000
0.188753 0.000000 0.000000
0.369908 0.000000 0.000000
0.625549 0.000000 0.033655
0.873785 0.000000 0.135847
1.000000 0.328982 0.295129
1.000000 0.573406 0.500833
1.000000 0.765659 0.700427
0.000000 0.084716 0.000000
0.000000 0.112900 0.000000
0.268188 0.135775 0.000000
0.472634 0.142298 0.000000
0.678153 0.103908 0.000000
0.887608 0.139191 0.133696
1.000000 0.360578 0.291707
1.000000 0.588426 0.500946
1.000000 0.769549 0.700569
0.000000 0.209560 0.000000
0.000000 0.237179 0.000000
0.140111 0.312184 0.000000
0.560224 0.307172 0.000000
0.756298 0.404809 0.000000
0.913805 0.392889 0.120466
1.000000 0.440190 0.295801
1.000000 0.615919 0.498156
1.000000 0.778416 0.700818
0.000000 0.369893 0.000000
0.000000 0.370125 0.000000
0.000000 0.496133 0.000000
0.469083 0.531649 0.000000
0.769866 0.579583 0.000000
0.920691 0.662000 0.000000
1.000000 0.657329 0.316546
1.000000 0.685432 0.504324
1.000000 0.796798 0.701218
0.000000 0.561368 0.000000
0.000000 0.561488 0.000000
0.000000 0.637988 0.000000
0.000000 0.725104 0.000000
0.667857 0.758968 0.000000
0.885857 0.807195 0.000000
0.980234 0.829142 0.316605
1.000000 0.819836 0.550134
1.000000 0.837117 0.714961
0.000000 0.741104 0.000000
0.000000 0.741147 0.000000
0.000000 0.741226 0.000000
0.000000 0.842344 0.000000
0.412445 0.866411 0.000000
0.814062 0.898822 0.000000
0.958080 0.908636 0.072870
1.000000 0.915708 0.588072
1.000000 0.908602 0.757624
0.000000 0.871016 0.000000
0.000000 0.871028 0.000000
0.000000 0.871050 0.000000
0.000000 0.871096 0.000000
0.000000 0.936770 0.000000
0.680009 0.952969 0.000000
0.913998 0.961042 0.208724
0.999922 0.963432 0.473122
1.000000 0.968142 0.799601
0.000000 0.947111 0.000000
0.000000 0.947115 0.000000
0.000000 0.947123 0.000000
0.000000 0.947139 0.000000
0.000000 0.947174 0.000000
0.573142 0.980119 0.000000
0.835430 0.992187 0.316111
0.969959 0.992876 0.558587
1.000000 0.993521 0.750213
0.000000 0.000000 0.000000
0.000000 0.000000 0.000000
0.093566 0.000000 0.000000
0.312821 0.000000 0.036584
0.617206 0.000000 0.083299
0.875550 0.000000 0.167367
1.000000 0.306574 0.313312
1.000000 0.567991 0.513350
1.000000 0.764334 0.705729
0.000000 0.000000 0.000000
0.002155 0.003098 0.008187
0.174914 0.000000 0.018578
0.373409 0.000000 0.042969
0.637059 0.000000 0.084652
0.878095 0.000000 0.168660
1.000000 0.330851 0.313978
1.000000 0.575761 0.513545
1.000000 0.766501 0.705818
0.000000 0.085051 0.000000
0.000000 0.124528 0.000000
0.219948 0.185568 0.000000
0.461604 0.167452 0.000000
0.673474 0.071935 0.079822
0.886138 0.126911 0.165910
1.000000 0.366149 0.313097
1.000000 0.589676 0.513817
1.000000 0.770383 0.705972
0.000000 0.216507 0.000000
0.000000 0.251911 0.000000
0.000000 0.370311 0.000000
0.478803 0.399999 0.000000
0.750126 0.408492 0.000000
0.911564 0.388584 0.168888
1.000000 0.436436 0.314505
1.000000 0.617315 0.511372
1.000000 0.778858 0.706255
0.000000 0.388011 0.000000
0.000000 0.387034 0.000000
0.000000 0.547991 0.000000
0.237760 0.621685 0.000000
0.726348 0.646090 0.000000
0.916442 0.667366 0.108912
1.000000 0.654640 0.344252
1.000000 0.683952 0.516236
1.000000 0.797230 0.706703
0.000000 0.580212 0.000000
0.000000 0.581076 0.000000
0.000000 0.664912 0.000000
0.000000 0.777401 0.000000
0.568735 0.810544 0.000000
0.879374 0.818505 0.000000
0.978561 0.829260 0.356344
1.000000 0.819927 0.562215
1.000000 0.837074 0.718685
0.000000 0.750769 0.000000
0.000000 0.753239 0.000000
0.000000 0.758301 0.000000
0.000000 0.861595 0.000000
0.000000 0.899196 0.000000
0.802934 0.907432 0.000000
0.956852 0.910449 0.191536
1.000000 0.915566 0.600385
1.000000 0.908370 0.760798
0.000000 0.870920 0.000000
0.000000 0.870931 0.000000
0.000000 0.870953 0.000000
0.000000 0.871000 0.000000
0.000000 0.947935 0.000000
0.645531 0.961951 0.000000
0.913985 0.962586 0.274613
0.998935 0.964020 0.501718
1.000000 0.968140 0.803058
0.000000 0.947078 0.000000
0.000000 0.947082 0.000000
0.000000 0.947089 0.000000
0.000000 0.947105 0.000000
0.000000 0.947141 0.000000
0.505859 0.986817 0.000000
0.829355 0.993371 0.356670
0.968914 0.993200 0.578287
1.000000 0.993615 0.756832
0.000000 0.000000 0.000000
0.000000 0.000000 0.000000
0.072967 0.000000 0.019870
0.285132 0.000000 0.073810
0.605913 0.000000 0.143164
0.885637 0.000000 0.223388
1.000000 0.307446 0.348514
1.000000 0.569793 0.534033
1.000000 0.765847 0.715316
0.000000 0.000000 0.042250
0.000000 0.000000 0.079683
0.142419 0.000000 0.085374
0.367554 0.000000 0.120691
0.643188 0.000000 0.162749
0.891726 0.000000 0.226680
1.000000 0.331998 0.349467
1.000000 0.577816 0.534489
1.000000 0.768007 0.715415
0.000000 0.059167 0.267779
0.000000 0.086560 0.245397
0.186393 0.196510 0.213137
0.452574 0.161711 0.183248
0.679881 0.000000 0.179357
0.894303 0.131581 0.229078
1.000000 0.370766 0.350917
1.000000 0.592190 0.535243
1.000000 0.771876 0.715587
0.000000 0.176090 0.267825
0.000000 0.198326 0.262180
0.000000 0.398753 0.203307
0.464130 0.442067 0.194958
0.740476 0.413026 0.191150
0.911019 0.374397 0.240595
1.000000 0.440888 0.352633
1.000000 0.620493 0.534976
1.000000 0.779899 0.715923
0.000000 0.330893 0.198051
0.000000 0.330777 0.206373
0.000000 0.563730 0.105962
0.101987 0.654183 0.000000
0.719251 0.667154 0.000000
0.914586 0.665243 0.242384
1.000000 0.648836 0.389795
1.000000 0.681240 0.537544
1.000000 0.798005 0.716458
0.000000 0.512134 0.147356
0.000000 0.511171 0.155292
0.000000 0.624712 0.086865
0.000000 0.793467 0.000000
0.545705 0.827342 0.000000
0.875521 0.826853 0.070835
0.976719 0.829150 0.417523
1.000000 0.820008 0.583546
1.000000 0.836696 0.725239
0.000000 0.697147 0.000000
0.000000 0.695719 0.000000
0.000000 0.693226 0.000000
0.000000 0.882803 0.000000
0.000000 0.908085 0.000000
0.795001 0.913358 0.083939
0.956105 0.912763 0.303083
1.000000 0.915310 0.621896
1.000000 0.907943 0.766418
0.000000 0.861298 0.000000
0.000000 0.859564 0.000000
0.000000 0.856247 0.000000
0.000000 0.848460 0.000000
0.000000 0.959454 0.000000
0.635070 0.965375 0.163435
0.911725 0.964390 0.363519
0.997206 0.964982 0.549353
1.000000 0.968133 0.809167
0.000000 0.947017 0.000000
0.000000 0.947229 0.000000
0.000000 0.949931 0.000000
0.000000 0.955661 0.000000
0.000000 0.953077 0.000000
0.438398 0.996289 0.217128
0.827455 0.994508 0.428072
0.967131 0.993721 0.614324
1.000000 0.993776 0.768102
0.000000 0.000000 0.000000
0.000000 0.000000 0.043455
0.080972 0.000000 0.068020
0.220196 0.000000 0.084506
0.589059 0.000000 0.239303
0.873604 0.000000 0.326339
1.000000 0.299100 0.425303
1.000000 0.574487 0.573964
1.000000 0.768987 0.734944
0.000000 0.000000 0.161662
0.000000 0.000000 0.210799
0.124834 0.000000 0.203485
0.335108 0.000000 0.196143
0.625815 0.000000 0.276978
0.886657 0.000000 0.336699
1.000000 0.328375 0.428892
1.000000 0.583017 0.574509
1.000000 0.771131 0.735059
0.000000 0.000000 0.490836
0.000000 0.047384 0.447144
0.097769 0.128113 0.398885
0.452532 0.080753 0.351429
0.674141 0.000000 0.327006
0.902729 0.114526 0.359753
1.000000 0.372938 0.434897
1.000000 0.597412 0.575466
1.000000 0.774969 0.735262
0.000000 0.127314 0.586849
0.000000 0.127377 0.589835
0.000000 0.329245 0.479334
0.421886 0.442841 0.477193
0.727361 0.409681 0.421658
0.915074 0.373729 0.397244
1.000000 0.446105 0.439406
1.000000 0.627428 0.577258
1.000000 0.782921 0.735668
0.000000 0.282203 0.584356
0.000000 0.281760 0.588174
0.000000 0.503903 0.492447
0.000000 0.665456 0.466295
0.704695 0.696856 0.476862
0.904166 0.664214 0.446860
0.999273 0.636210 0.464645
1.000000 0.685307 0.580668
1.000000 0.799612 0.736377
0.000000 0.480822 0.495372
0.000000 0.480073 0.498900
0.000000 0.537328 0.467428
0.000000 0.799579 0.389053
0.528411 0.834640 0.367915
0.869197 0.838541 0.415139
0.972245 0.833414 0.521314
1.000000 0.818921 0.622162
1.000000 0.835201 0.738656
0.000000 0.649640 0.447569
0.000000 0.649667 0.451166
0.000000 0.649716 0.457673
0.000000 0.867280 0.379388
0.000000 0.912913 0.356229
0.787090 0.917622 0.387518
0.951108 0.916660 0.469948
1.000000 0.915162 0.673543
1.000000 0.907008 0.777823
0.000000 0.807804 0.401065
0.000000 0.807164 0.404531
0.000000 0.806008 0.410770
0.000000 0.803566 0.423876
0.000000 0.965702 0.391543
0.638707 0.966133 0.403396
0.906145 0.968520 0.503932
0.993854 0.966477 0.619525
1.000000 0.968056 0.821358
0.000000 0.914671 0.339478
0.000000 0.914337 0.344552
0.000000 0.913736 0.353608
0.000000 0.912481 0.371284
0.000000 0.909541 0.404157
0.421240 0.998212 0.435798
0.822509 0.995793 0.540855
0.963940 0.994575 0.680362
1.000000 0.994150 0.791345
0.000000 0.000000 0.108922
0.000000 0.000000 0.199177
0.063424 0.000000 0.216173
0.260576 0.000000 0.228178
0.502607 0.000000 0.270590
0.868275 0.000000 0.471387
1.000000 0.271720 0.557349
1.000000 0.565083 0.644644
1.000000 0.773250 0.769873
0.000000 0.000000 0.457037
0.000000 0.000000 0.440674
0.000000 0.000000 0.412101
0.322000 0.000000 0.385489
0.595111 0.000000 0.376400
0.879071 0.000000 0.491225
1.000000 0.307407 0.564573
1.000000 0.576202 0.646760
1.000000 0.775130 0.770093
0.000000 0.000000 0.666017
0.000000 0.000000 0.600297
0.000000 0.062297 0.562261
0.355588 0.000000 0.509743
0.667374 0.000000 0.482883
0.893664 0.000000 0.521277
1.000000 0.357158 0.578148
1.000000 0.596102 0.650519
1.000000 0.778826 0.770426
0.000000 0.055076 0.801425
0.000000 0.091882 0.778032
0.000000 0.244793 0.691972
0.326709 0.339829 0.673625
0.733591 0.340382 0.637614
0.914187 0.312580 0.581292
1.000000 0.441474 0.598192
1.000000 0.636688 0.658167
1.000000 0.786895 0.771042
0.000000 0.227682 0.833685
0.000000 0.227817 0.834588
0.000000 0.362932 0.765753
0.000000 0.595945 0.719737
0.673386 0.692491 0.722504
0.890644 0.664039 0.672617
0.998162 0.642561 0.637335
1.000000 0.692317 0.664270
1.000000 0.803134 0.772233
0.000000 0.410677 0.821909
0.000000 0.410488 0.822998
0.000000 0.410146 0.824961
0.000000 0.751670 0.718882
0.464156 0.840162 0.710871
0.853147 0.851247 0.723252
0.962459 0.829247 0.691656
1.000000 0.811161 0.689969
1.000000 0.836339 0.772972
0.000000 0.615220 0.758231
0.000000 0.614914 0.759475
0.000000 0.614358 0.761736
0.000000 0.819551 0.643196
0.000000 0.914601 0.658407
0.774847 0.923344 0.651354
0.941972 0.924085 0.689201
1.000000 0.916873 0.749165
1.000000 0.905474 0.802222
0.000000 0.792457 0.726044
0.000000 0.792375 0.727254
0.000000 0.792224 0.729450
0.000000 0.791901 0.734126
0.000000 0.958274 0.647944
0.618252 0.969846 0.646637
0.898690 0.970345 0.674388
0.987975 0.969902 0.732466
1.000000 0.967664 0.841879
0.000000 0.886586 0.680475
0.000000 0.886522 0.681959
0.000000 0.886406 0.684653
0.000000 0.886156 0.690382
0.000000 0.885629 0.702258
0.415901 1.000000 0.685224
0.816620 0.995949 0.694127
0.960386 0.995387 0.760887
1.000000 0.994807 0.827736
0.000000 0.000000 0.624476
0.000000 0.000000 0.599104
0.000000 0.000000 0.575842
0.236252 0.000000 0.559094
0.554375 0.000000 0.544747
0.820003 0.000000 0.550569
1.000000 0.133900 0.696874
1.000000 0.545933 0.764416
1.000000 0.769706 0.811052
0.000000 0.000000 0.734579
0.000000 0.000000 0.705123
0.000000 0.000000 0.671887
0.244347 0.000000 0.640024
0.587378 0.000000 0.608447
0.849117 0.000000 0.596570
1.000000 0.199406 0.706840
1.000000 0.557746 0.767303
1.000000 0.772478 0.811625
0.000000 0.000000 0.820039
0.000000 0.000000 0.780298
0.000000 0.058658 0.759637
0.228113 0.039107 0.721334
0.623991 0.000000 0.683102
0.878588 0.000000 0.657161
1.000000 0.279585 0.722819
1.000000 0.576950 0.771085
1.000000 0.776850 0.812654
0.000000 0.000000 0.907180
0.000000 0.087558 0.847360
0.000000 0.165928 0.819416
0.132315 0.214031 0.801735
0.636996 0.180703 0.763554
0.914176 0.079920 0.727594
1.000000 0.381950 0.744145
1.000000 0.615524 0.777848
1.000000 0.785871 0.814926
0.000000 0.170235 0.944380
0.000000 0.170444 0.944595
0.000000 0.341604 0.879337
0.000000 0.478786 0.856690
0.569536 0.583694 0.849971
0.904103 0.594666 0.826363
1.000000 0.579550 0.789604
1.000000 0.686318 0.789630
1.000000 0.808322 0.821833
0.000000 0.351718 0.949141
0.000000 0.351766 0.949323
0.000000 0.351856 0.949657
0.000000 0.645140 0.874120
0.283438 0.797769 0.860121
0.826967 0.845863 0.867721
0.954515 0.828407 0.835685
1.000000 0.814209 0.814951
1.000000 0.843347 0.827199
0.000000 0.559567 0.936514
0.000000 0.559505 0.936732
0.000000 0.559394 0.937129
0.000000 0.631355 0.912951
0.000000 0.891123 0.858604
0.742485 0.924500 0.859652
0.931202 0.931222 0.864213
0.995113 0.915318 0.843081
1.000000 0.903358 0.842084
0.000000 0.753294 0.896975
0.000000 0.753256 0.897250
0.000000 0.753185 0.897754
0.000000 0.753026 0.898838
0.000000 0.934844 0.812851
0.581557 0.969855 0.830333
0.888527 0.972569 0.830783
0.981770 0.972785 0.852216
1.000000 0.968340 0.879419
0.000000 0.875976 0.876531
0.000000 0.875908 0.876818
0.000000 0.875783 0.877344
0.000000 0.875516 0.878472
0.000000 0.874941 0.880869
0.207189 0.997018 0.824370
0.807931 0.997921 0.829939
0.955048 0.996897 0.846856
1.000000 0.995998 0.875770
0.000000 0.000000 0.872056
0.000000 0.000000 0.861893
0.000000 0.000000 0.850581
0.147756 0.000000 0.831446
0.495909 0.000000 0.806350
0.825720 0.000000 0.792215
1.000000 0.000000 0.785265
1.000000 0.465172 0.850769
1.000000 0.752268 0.874734
0.000000 0.000000 0.890644
0.000000 0.000000 0.883846
0.000000 0.027368 0.871617
0.132849 0.000000 0.853454
0.501971 0.000000 0.830077
0.834854 0.000000 0.810148
1.000000 0.000000 0.795563
1.000000 0.478680 0.853103
1.000000 0.755011 0.875179
0.000000 0.050568 0.909539
0.000000 0.081193 0.903260
0.000000 0.103655 0.896882
0.057657 0.120372 0.879769
0.507133 0.000000 0.854985
0.845660 0.000000 0.832727
1.000000 0.000000 0.813785
1.000000 0.502433 0.857115
1.000000 0.760060 0.875993
0.000000 0.111795 0.934071
0.000000 0.147182 0.926029
0.000000 0.180396 0.917967
0.000000 0.212222 0.909398
0.501230 0.210529 0.886289
0.858655 0.130281 0.862824
1.000000 0.161840 0.843246
1.000000 0.550749 0.864868
1.000000 0.771562 0.877786
0.000000 0.093061 0.999832
0.000000 0.209704 0.957764
0.000000 0.289402 0.940632
0.000000 0.350631 0.933314
0.436437 0.417160 0.922217
0.854640 0.425361 0.898181
1.000000 0.451339 0.881279
1.000000 0.645815 0.875024
1.000000 0.794683 0.881517
0.000000 0.297398 1.000000
0.000000 0.297504 1.000000
0.000000 0.297701 1.000000
0.000000 0.594698 0.947972
0.000000 0.706406 0.935886
0.769340 0.781861 0.932543
0.963150 0.791983 0.920051
1.000000 0.782396 0.893756
1.000000 0.839685 0.890453
0.000000 0.513560 1.000000
0.000000 0.513589 1.000000
0.000000 0.513643 1.000000
0.000000 0.513760 1.000000
0.000000 0.832229 0.942675
0.661424 0.902167 0.935851
0.918765 0.927811 0.941003
0.990525 0.917224 0.921097
1.000000 0.904871 0.904796
0.000000 0.709147 0.992339
0.000000 0.709162 0.992394
0.000000 0.709189 0.992494
0.000000 0.709248 0.992712
0.000000 0.875499 0.946217
0.374212 0.956792 0.933769
0.871286 0.972687 0.936773
0.976137 0.976737 0.939582
1.000000 0.966991 0.925365
0.000000 0.850035 0.964191
0.000000 0.850010 0.964267
0.000000 0.849964 0.964407
0.000000 0.849865 0.964709
0.000000 0.849651 0.965361
0.000000 0.984843 0.905420
0.786816 0.997251 0.917147
0.948347 0.998025 0.922558
1.000000 0.997809 0.934133
0.000000 0.133784 0.969761
0.000000 0.136759 0.967393
0.000000 0.145158 0.963024
0.163722 0.151300 0.956075
0.444243 0.127146 0.943920
0.762192 0.000000 0.929029
0.995833 0.000000 0.916252
1.000000 0.174592 0.907505
1.000000 0.708597 0.931486
0.000000 0.152137 0.973236
0.000000 0.157317 0.971594
0.000000 0.163112 0.967096
0.157615 0.171700 0.959861
0.440295 0.161024 0.948015
0.765101 0.000000 0.932949
0.997114 0.000000 0.920226
1.000000 0.218675 0.910700
1.000000 0.712826 0.932036
0.000000 0.176378 0.977379
0.000000 0.185536 0.976289
0.000000 0.196822 0.973437
0.140607 0.204754 0.965873
0.437610 0.202920 0.955211
0.768969 0.140524 0.939027
0.998545 0.090321 0.926179
1.000000 0.279413 0.915765
1.000000 0.720325 0.933019
0.000000 0.223183 0.984638
0.000000 0.233473 0.983232
0.000000 0.254273 0.980663
0.089144 0.274110 0.975566
0.426877 0.286979 0.966260
0.762583 0.272365 0.949704
0.998279 0.275063 0.936018
1.000000 0.366164 0.924457
1.000000 0.735662 0.934551
0.000000 0.287871 0.994010
0.000000 0.306682 0.991152
0.000000 0.328450 0.988822
0.000000 0.373383 0.983292
0.384017 0.408473 0.978328
0.747720 0.419129 0.962932
0.988572 0.433329 0.947292
1.000000 0.492458 0.934742
1.000000 0.764217 0.937547
0.000000 0.255377 1.000000
0.000000 0.360444 1.000000
0.000000 0.440143 0.997573
0.000000 0.505031 0.989819
0.187765 0.575506 0.983110
0.683990 0.640502 0.974934
0.952349 0.662963 0.961972
1.000000 0.695658 0.950550
1.000000 0.810832 0.943366
0.000000 0.466925 1.000000
0.000000 0.466982 1.000000
0.000000 0.467086 1.000000
0.000000 0.581550 1.000000
0.000000 0.795554 0.984626
0.498508 0.853975 0.978324
0.884365 0.892485 0.976759
0.995134 0.896685 0.971406
1.000000 0.891661 0.954630
0.000000 0.674719 1.000000
0.000000 0.674738 1.000000
0.000000 0.674772 1.000000
0.000000 0.674848 1.000000
0.000000 0.675011 1.000000
0.000000 0.926963 0.980317
0.823345 0.957946 0.977464
0.969712 0.973918 0.981820
1.000000 0.967602 0.971656
0.000000 0.826726 1.000000
0.000000 0.826726 1.000000
0.000000 0.826726 1.000000
0.000000 0.826726 1.000000
0.000000 0.826724 1.000000
0.000000 0.959288 0.980152
0.707321 0.989802 0.974553
0.935757 0.997691 0.977727
0.999347 0.999865 0.981719
0.000000 0.298893 1.000000
0.122245 0.300536 1.000000
0.217760 0.304219 1.000000
0.332486 0.314568 1.000000
0.489828 0.321837 1.000000
0.697967 0.318250 0.996124
0.942908 0.317223 0.984761
1.000000 0.372594 0.975166
1.000000 0.504853 0.966230
0.000000 0.309485 1.000000
0.100789 0.312206 1.000000
0.209683 0.315896 1.000000
0.328991 0.325363 1.000000
0.488090 0.333974 1.000000
0.695454 0.334523 0.997019
0.942467 0.333922 0.985737
1.000000 0.385813 0.975965
1.000000 0.514748 0.966901
0.000000 0.324914 1.000000
0.000000 0.330806 1.000000
0.191918 0.336562 1.000000
0.321616 0.344391 1.000000
0.484240 0.355386 1.000000
0.691470 0.362453 0.998355
0.941426 0.362114 0.987346
1.000000 0.411446 0.977324
1.000000 0.532613 0.968080
0.000000 0.355643 1.000000
0.000000 0.362517 1.000000
0.132431 0.374181 1.000000
0.299630 0.387190 1.000000
0.473848 0.397678 1.000000
0.686966 0.407633 1.000000
0.936497 0.414096 0.990005
1.000000 0.461390 0.979931
1.000000 0.570235 0.970281
0.000000 0.410224 1.000000
0.000000 0.416399 1.000000
0.000000 0.429164 1.000000
0.241957 0.447544 1.000000
0.445898 0.475426 1.000000
0.675515 0.490308 1.000000
0.923351 0.501149 0.993173
1.000000 0.548103 0.983901
1.000000 0.633287 0.974129
0.000000 0.491755 1.000000
0.000000 0.503654 1.000000
0.000000 0.523262 1.000000
0.000000 0.545818 1.000000
0.357038 0.579715 1.000000
0.635209 0.626332 1.000000
0.894452 0.645144 0.997095
1.000000 0.674567 0.988212
1.000000 0.726386 0.978875
0.000000 0.472985 1.000000
0.000000 0.545000 1.000000
0.000000 0.599190 1.000000
0.000000 0.655785 1.000000
0.000000 0.715825 1.000000
0.511426 0.765547 1.000000
0.833850 0.809874 1.000000
0.988781 0.823468 0.993266
1.000000 0.844852 0.986450
0.000000 0.610981 1.000000
0.000000 0.611008 1.000000
0.000000 0.611057 1.000000
0.000000 0.611165 1.000000
0.000000 0.807548 1.000000
0.000000 0.898455 1.000000
0.748541 0.925757 1.000000
0.946193 0.950651 1.000000
1.000000 0.954366 0.997111
0.000000 0.803081 1.000000
0.000000 0.803086 1.000000
0.000000 0.803093 1.000000
0.000000 0.803110 1.000000
0.000000 0.803147 1.000000
0.000000 0.803227 1.000000
0.533012 0.971681 1.000000
0.908774 0.989132 1.000000
0.994462 0.997809 1.000000
