Assets/Lutify-Free-LUTs-Pack/Lutify Free LUTs Pack/Print Film Pro - Print Film 2/Lutify.me-PrintFilm2-BolexLog-to-Rec709.cube
# Created with: fylm.ai - Colour Grading and Collaboration Software in Cloud 
# Website: https://fylm.ai 
# META
# Option: Gamut compress
# Block 1: IDT | Bolex Wide Gamut RGB Bolex Log
# Block 2: colourMatch | Blending Mode: Normal | {"ColorSpace":0,"CrossCovarianceLimit":50,"ReshapingIterations":1,"PercentSaturationShift":100,"PercentShadingShift":100,"ExtraShading":true,"PercentTint":100,"PercentModified":100}
# Block 3: HSL | Blending Mode: Normal | {"hue":{"Reds":0,"Yellows":0,"Greens":0,"Cyans":0,"Blues":0,"Magentas":0},"saturation":{"Reds":1,"Yellows":0.9,"Greens":0.95,"Cyans":1,"Blues":1,"Magentas":1},"luminance":{"Reds":0.8,"Yellows":0.95,"Greens":0.9,"Cyans":0.8,"Blues":0.8,"Magentas":0.8},"lum_sat":{"Blacks":1,"Shadows":1,"Midtones":1,"Highlights":1,"Whites":1},"sat_sat":{"10":1,"20":1,"30":1,"40":1,"50":1}}
# Block 4: LUT | Filmic Curve Response: Low Contrast 2 (100%)
# Block 5: ODT | Rec709
TITLE "Lutify.me-PrintFilm2-BolexLog-to-Rec709" 
LUT_3D_SIZE 9
0.000000 0.000000 0.000000
0.000000 0.000000 0.000000
0.000000 0.000000 0.000000
0.118437 0.000000 0.000000
0.347775 0.000000 0.000000
0.687231 0.000000 0.040539
0.974549 0.000000 0.162681
1.000000 0.493938 0.378920
1.000000 0.772675 0.656726
0.000000 0.000000 0.000000
0.000000 0.000000 0.000000
0.077179 0.000000 0.000000
0.179294 0.000000 0.000000
0.384106 0.000000 0.000000
0.699479 0.000000 0.042541
0.974972 0.110110 0.163221
1.000000 0.499567 0.379588
1.000000 0.773741 0.657259
0.000000 0.057912 0.000000
0.000000 0.078329 0.000000
0.110168 0.083853 0.000000
0.256158 0.065376 0.000000
0.434634 0.000000 0.000000
0.720152 0.000000 0.041245
0.978193 0.163363 0.166697
1.000000 0.507563 0.380599
1.000000 0.775246 0.658017
0.000000 0.197945 0.000000
0.000000 0.223170 0.000000
0.000000 0.238662 0.000000
0.305900 0.236256 0.000000
0.545581 0.233669 0.000000
0.768046 0.147984 0.013775
0.984626 0.268578 0.174204
1.000000 0.530736 0.385742
1.000000 0.779421 0.660118
0.000000 0.471495 0.000000
0.000000 0.488929 0.000000
0.000000 0.504791 0.000000
0.183609 0.527294 0.000000
0.588809 0.525691 0.000000
0.852489 0.519085 0.000000
0.991437 0.464133 0.196682
1.000000 0.599909 0.408230
1.000000 0.791610 0.665929
0.000000 0.770095 0.163813
0.000000 0.772254 0.158744
0.000000 0.778310 0.148212
0.000000 0.789933 0.122381
0.553455 0.799463 0.089182
0.838380 0.794472 0.000000
0.973244 0.783525 0.300201
1.000000 0.747504 0.469726
1.000000 0.826151 0.689504
0.390939 0.924520 0.525533
0.411381 0.924746 0.523304
0.438587 0.925048 0.520178
0.517266 0.925168 0.515188
0.669359 0.924967 0.511837
0.828497 0.923597 0.513286
0.950956 0.920695 0.501536
1.000000 0.914532 0.638609
1.000000 0.895214 0.751007
0.766450 0.983629 0.803987
0.768627 0.983578 0.803589
0.771698 0.983505 0.803022
0.780031 0.983309 0.801455
0.804143 0.983196 0.797732
0.862928 0.983377 0.797933
0.934697 0.983185 0.802127
0.996432 0.981636 0.800470
1.000000 0.977590 0.860557
0.912187 1.000000 0.929662
0.912493 1.000000 0.929603
0.912928 1.000000 0.929518
0.914132 1.000000 0.929284
0.917472 1.000000 0.928623
0.926484 1.000000 0.926784
0.952834 1.000000 0.926273
0.987514 1.000000 0.930972
1.000000 1.000000 0.932779
0.000000 0.000000 0.000000
0.000000 0.000000 0.000000
0.000000 0.000000 0.000000
0.123366 0.000000 0.000000
0.354640 0.000000 0.019813
0.697054 0.000000 0.067372
0.975443 0.044183 0.176383
1.000000 0.494459 0.386772
1.000000 0.772852 0.659243
0.000000 0.000000 0.000000
0.000000 0.000000 0.000000
0.083295 0.000000 0.000000
0.178991 0.000000 0.000000
0.390398 0.000000 0.027311
0.705364 0.000000 0.069674
0.975834 0.118462 0.176865
1.000000 0.500099 0.387446
1.000000 0.773917 0.659773
0.000000 0.056258 0.039305
0.000000 0.084304 0.032710
0.098943 0.096648 0.022092
0.247612 0.075964 0.000000
0.433857 0.000000 0.028162
0.715732 0.000000 0.070480
0.977668 0.166006 0.178911
1.000000 0.508030 0.388399
1.000000 0.775422 0.660528
0.000000 0.201056 0.027863
0.000000 0.233349 0.000000
0.000000 0.256224 0.000000
0.286828 0.264942 0.000000
0.541566 0.237418 0.000000
0.767287 0.136319 0.075377
0.984878 0.264147 0.188248
1.000000 0.531193 0.393570
1.000000 0.779580 0.662618
0.000000 0.481061 0.000000
0.000000 0.489423 0.000000
0.000000 0.511565 0.000000
0.162787 0.533894 0.000000
0.584739 0.539957 0.000000
0.848934 0.518778 0.007321
0.991530 0.460986 0.214119
1.000000 0.598697 0.414546
1.000000 0.791769 0.668397
0.000000 0.773443 0.225432
0.000000 0.775272 0.221584
0.000000 0.778769 0.214103
0.000000 0.791827 0.196881
0.550076 0.800987 0.174337
0.836502 0.796868 0.150838
0.973008 0.783081 0.322601
1.000000 0.746742 0.475288
1.000000 0.825956 0.691227
0.392224 0.924842 0.543710
0.412676 0.925060 0.541609
0.439895 0.925352 0.538662
0.515092 0.925519 0.533002
0.668841 0.925218 0.528583
0.828003 0.923930 0.529623
0.950667 0.921542 0.518108
1.000000 0.914487 0.645435
1.000000 0.895069 0.752420
0.766636 0.983728 0.807515
0.768811 0.983677 0.807117
0.771878 0.983604 0.806551
0.780203 0.983407 0.804984
0.803942 0.983223 0.800822
0.862676 0.983421 0.800825
0.934622 0.983219 0.804799
0.996263 0.981691 0.802978
1.000000 0.977580 0.861399
0.912235 1.000000 0.930211
0.912541 1.000000 0.930152
0.912975 1.000000 0.930066
0.914178 1.000000 0.929829
0.917515 1.000000 0.929161
0.926520 1.000000 0.927296
0.952815 1.000000 0.926677
0.987503 1.000000 0.931344
1.000000 1.000000 0.933125
0.000000 0.000000 0.000000
0.000000 0.000000 0.000000
0.000000 0.000000 0.000000
0.118329 0.000000 0.018954
0.350132 0.000000 0.051229
0.706434 0.000000 0.093697
0.977555 0.054287 0.197157
1.000000 0.495156 0.397818
1.000000 0.773101 0.662798
0.000000 0.000000 0.020274
0.000000 0.000000 0.043125
0.056276 0.000000 0.044867
0.170279 0.000000 0.052028
0.397200 0.000000 0.062209
0.716042 0.000000 0.097554
0.978908 0.121568 0.198990
1.000000 0.500812 0.398501
1.000000 0.774166 0.663325
0.000000 0.044955 0.128998
0.000000 0.071763 0.115349
0.085574 0.091154 0.107258
0.249447 0.065137 0.092039
0.437722 0.000000 0.073073
0.725716 0.000000 0.102003
0.980530 0.169424 0.201388
1.000000 0.508765 0.399467
1.000000 0.775671 0.664074
0.000000 0.182713 0.168087
0.000000 0.225060 0.150550
0.000000 0.262702 0.145478
0.284903 0.278314 0.131467
0.532442 0.236585 0.094714
0.767660 0.121107 0.114355
0.985346 0.257570 0.209338
1.000000 0.531802 0.404524
1.000000 0.779802 0.666148
0.000000 0.474697 0.177971
0.000000 0.495090 0.174812
0.000000 0.521389 0.150334
0.133485 0.541395 0.125855
0.581764 0.548842 0.097578
0.844933 0.517376 0.140679
0.991684 0.456388 0.239888
1.000000 0.596974 0.423404
1.000000 0.791992 0.671879
0.000000 0.777352 0.295872
0.000000 0.779425 0.292367
0.000000 0.782612 0.285192
0.000000 0.794085 0.264117
0.539386 0.802924 0.244010
0.835867 0.799254 0.231831
0.971997 0.782680 0.353237
1.000000 0.745743 0.485180
1.000000 0.825677 0.693662
0.394234 0.924757 0.566797
0.414697 0.924973 0.564642
0.441938 0.925262 0.561617
0.513931 0.925835 0.555995
0.668083 0.925541 0.549115
0.826576 0.924234 0.549724
0.950231 0.922688 0.541039
1.000000 0.914419 0.654921
1.000000 0.894858 0.754522
0.766856 0.983854 0.811981
0.769029 0.983802 0.811586
0.772092 0.983730 0.811024
0.780407 0.983532 0.809468
0.804028 0.983335 0.805256
0.862476 0.983478 0.804727
0.934516 0.983268 0.808522
0.996024 0.981768 0.806488
1.000000 0.977566 0.862587
0.912295 1.000000 0.930917
0.912600 1.000000 0.930857
0.913035 1.000000 0.930772
0.914236 1.000000 0.930536
0.917571 1.000000 0.929870
0.926570 1.000000 0.928010
0.952788 1.000000 0.927250
0.987486 1.000000 0.931887
1.000000 1.000000 0.933614
0.000000 0.000000 0.000000
0.000000 0.000000 0.013002
0.000000 0.000000 0.044615
0.095272 0.000000 0.047995
0.322174 0.000000 0.097636
0.699422 0.000000 0.161066
0.985507 0.022682 0.255166
1.000000 0.499312 0.429715
1.000000 0.773771 0.672468
0.000000 0.000000 0.074057
0.000000 0.000000 0.094700
0.044764 0.000000 0.097112
0.141408 0.000000 0.091049
0.373112 0.000000 0.131888
0.716645 0.000000 0.173851
0.986821 0.115736 0.258092
1.000000 0.505797 0.430961
1.000000 0.774835 0.672984
0.000000 0.000000 0.247315
0.000000 0.039034 0.234271
0.025453 0.052093 0.220045
0.224476 0.000000 0.193167
0.428409 0.000000 0.169810
0.739719 0.000000 0.184292
0.988687 0.169298 0.262093
1.000000 0.514649 0.432517
1.000000 0.776339 0.673717
0.000000 0.131961 0.355826
0.000000 0.181707 0.330826
0.000000 0.227077 0.317108
0.258201 0.270856 0.310088
0.525356 0.227650 0.253934
0.773523 0.110310 0.207736
0.992516 0.259797 0.271636
1.000000 0.537232 0.437120
1.000000 0.780437 0.675748
0.000000 0.440481 0.386088
0.000000 0.462006 0.379937
0.000000 0.500376 0.368837
0.000000 0.552628 0.364966
0.575312 0.563966 0.348985
0.839675 0.507947 0.279798
0.991643 0.447379 0.300479
1.000000 0.595355 0.449933
1.000000 0.792596 0.681348
0.000000 0.770976 0.441935
0.000000 0.777113 0.440409
0.000000 0.785032 0.438452
0.000000 0.801294 0.429058
0.531687 0.808355 0.405510
0.833718 0.804867 0.400075
0.967940 0.784574 0.424124
1.000000 0.743239 0.511882
1.000000 0.824869 0.700645
0.394508 0.925235 0.625709
0.417742 0.925449 0.624452
0.446100 0.925291 0.621431
0.517671 0.925546 0.615059
0.665448 0.926516 0.607519
0.820814 0.925067 0.599741
0.948380 0.924512 0.593930
1.000000 0.914208 0.679783
1.000000 0.894258 0.760565
0.767452 0.984193 0.823735
0.769618 0.984142 0.823349
0.772674 0.984068 0.822801
0.780963 0.983870 0.821281
0.804440 0.983656 0.817134
0.861925 0.983633 0.815037
0.933613 0.983405 0.818134
0.995380 0.981977 0.815859
1.000000 0.977527 0.865816
0.912461 1.000000 0.932841
0.912765 1.000000 0.932782
0.913198 1.000000 0.932698
0.914397 1.000000 0.932464
0.917726 1.000000 0.931805
0.926706 1.000000 0.929962
0.952707 1.000000 0.928906
0.987441 1.000000 0.933374
1.000000 1.000000 0.934957
0.000000 0.000000 0.088335
0.000000 0.000000 0.115334
0.000000 0.000000 0.126222
0.098960 0.000000 0.127884
0.248139 0.000000 0.114703
0.673698 0.000000 0.288643
0.986232 0.000000 0.371581
1.000000 0.511278 0.508605
1.000000 0.776844 0.700686
0.000000 0.000000 0.254660
0.000000 0.000000 0.256594
0.000000 0.000000 0.247823
0.123630 0.000000 0.228721
0.324181 0.000000 0.195909
0.692471 0.000000 0.310389
0.989054 0.000000 0.377077
1.000000 0.517808 0.509908
1.000000 0.778024 0.701153
0.000000 0.000000 0.405041
0.000000 0.000000 0.393397
0.000000 0.000000 0.373730
0.147822 0.000000 0.334436
0.400621 0.000000 0.291109
0.722857 0.000000 0.338636
0.991574 0.117919 0.385036
1.000000 0.526470 0.511768
1.000000 0.779690 0.701817
0.000000 0.091444 0.562862
0.000000 0.113376 0.543215
0.000000 0.136301 0.532843
0.158931 0.174452 0.511778
0.512360 0.126407 0.461589
0.768294 0.000000 0.399698
0.996602 0.251388 0.406193
1.000000 0.548936 0.516948
1.000000 0.784136 0.703659
0.000000 0.354823 0.640573
0.000000 0.383758 0.633188
0.000000 0.427310 0.626239
0.000000 0.488783 0.613941
0.534748 0.553373 0.612593
0.828132 0.501629 0.533388
0.995764 0.445635 0.450172
1.000000 0.603760 0.531318
1.000000 0.796153 0.708746
0.000000 0.735276 0.675209
0.000000 0.741642 0.671919
0.000000 0.750135 0.667190
0.000000 0.780621 0.662703
0.493326 0.814078 0.669174
0.821716 0.818129 0.660261
0.961954 0.781363 0.570926
1.000000 0.737088 0.574273
1.000000 0.824885 0.722259
0.305630 0.922491 0.738957
0.337315 0.923169 0.739043
0.377011 0.924090 0.739176
0.478028 0.926403 0.740881
0.649240 0.930024 0.734120
0.813019 0.929348 0.723674
0.940549 0.928136 0.721848
1.000000 0.913868 0.730897
1.000000 0.892600 0.776408
0.766500 0.984499 0.850433
0.768963 0.984513 0.850271
0.772429 0.984533 0.850042
0.781800 0.984593 0.849413
0.805541 0.984493 0.846008
0.860411 0.984062 0.840483
0.930643 0.983771 0.841779
0.993721 0.982525 0.839365
1.000000 0.977407 0.874297
0.912921 1.000000 0.937949
0.913223 1.000000 0.937892
0.913653 1.000000 0.937810
0.914845 1.000000 0.937583
0.918158 1.000000 0.936944
0.927090 1.000000 0.935155
0.952481 1.000000 0.933352
0.987030 1.000000 0.937261
1.000000 1.000000 0.938640
0.000000 0.000000 0.462535
0.000000 0.000000 0.451712
0.000000 0.000000 0.438539
0.000000 0.000000 0.416128
0.280249 0.000000 0.374233
0.538058 0.000000 0.294217
0.973020 0.000000 0.575380
1.000000 0.487887 0.647609
1.000000 0.785836 0.768181
0.000000 0.000000 0.575631
0.000000 0.000000 0.565616
0.000000 0.000000 0.548168
0.000000 0.000000 0.521395
0.314643 0.000000 0.471375
0.616637 0.000000 0.396659
0.976165 0.000000 0.584368
1.000000 0.494299 0.650231
1.000000 0.786992 0.768535
0.000000 0.000000 0.660615
0.000000 0.000000 0.647207
0.000000 0.000000 0.632286
0.000000 0.000000 0.603957
0.337860 0.000000 0.553021
0.675672 0.000000 0.481861
0.980055 0.000000 0.596089
1.000000 0.504117 0.653423
1.000000 0.788630 0.769038
0.000000 0.045936 0.745123
0.000000 0.061533 0.740184
0.000000 0.077710 0.732004
0.000000 0.092907 0.713473
0.387888 0.000000 0.660114
0.750045 0.000000 0.603749
0.987931 0.082196 0.624779
1.000000 0.530562 0.662605
1.000000 0.793114 0.770427
0.000000 0.275572 0.826515
0.000000 0.288861 0.822343
0.000000 0.306319 0.818814
0.000000 0.339494 0.812536
0.418591 0.401758 0.801146
0.830419 0.373836 0.757714
0.994388 0.387488 0.691514
1.000000 0.602538 0.685688
1.000000 0.804603 0.774252
0.000000 0.648409 0.854291
0.000000 0.657745 0.852954
0.000000 0.672886 0.851546
0.000000 0.713853 0.848477
0.352388 0.765762 0.843321
0.788595 0.808190 0.845580
0.951456 0.779426 0.793599
1.000000 0.743337 0.724795
1.000000 0.830907 0.784264
0.000000 0.905897 0.865855
0.000000 0.906631 0.865406
0.000000 0.907648 0.864785
0.266199 0.910190 0.863098
0.568487 0.919447 0.861823
0.794165 0.931829 0.868719
0.932430 0.933804 0.864647
1.000000 0.912543 0.816619
1.000000 0.888571 0.810900
0.744736 0.982169 0.896112
0.748068 0.982275 0.896216
0.752740 0.982425 0.896365
0.765273 0.982835 0.896784
0.798611 0.984213 0.898172
0.859049 0.986402 0.896406
0.927186 0.984733 0.893044
0.990888 0.984594 0.893561
1.000000 0.976860 0.893072
0.912380 1.000000 0.949004
0.912737 1.000000 0.948986
0.913245 1.000000 0.948962
0.914651 1.000000 0.948895
0.918543 1.000000 0.948710
0.928138 1.000000 0.947606
0.951882 1.000000 0.944224
0.985730 1.000000 0.946811
1.000000 1.000000 0.947961
0.000000 0.000000 0.836039
0.000000 0.000000 0.832237
0.000000 0.000000 0.827309
0.000000 0.000000 0.813542
0.219994 0.000000 0.788096
0.604409 0.000000 0.737577
0.906998 0.000000 0.645289
1.000000 0.378750 0.824380
1.000000 0.771331 0.847829
0.000000 0.000000 0.853988
0.000000 0.000000 0.850646
0.000000 0.000000 0.846342
0.000000 0.000000 0.833238
0.224553 0.000000 0.809518
0.625427 0.000000 0.758871
0.923583 0.000000 0.682909
1.000000 0.387728 0.825854
1.000000 0.772559 0.848182
0.000000 0.000000 0.872189
0.000000 0.000000 0.869168
0.000000 0.000000 0.865255
0.000000 0.000000 0.856052
0.231657 0.000000 0.832679
0.639483 0.000000 0.786881
0.943587 0.000000 0.718014
1.000000 0.400118 0.827885
1.000000 0.774292 0.848682
0.000000 0.094521 0.902817
0.000000 0.097118 0.900853
0.000000 0.099310 0.897727
0.000000 0.108953 0.888192
0.241866 0.095779 0.870058
0.665186 0.000000 0.833605
0.968116 0.000000 0.781519
1.000000 0.432391 0.833134
1.000000 0.779411 0.849863
0.000000 0.223263 0.927048
0.000000 0.227337 0.926394
0.000000 0.234424 0.925506
0.000000 0.249255 0.923973
0.277743 0.265340 0.911363
0.711278 0.229770 0.883630
0.994376 0.127219 0.849734
1.000000 0.519540 0.848484
1.000000 0.794576 0.853524
0.000000 0.545760 0.946861
0.000000 0.552479 0.946281
0.000000 0.559308 0.945039
0.000000 0.579827 0.941886
0.190654 0.619206 0.938959
0.710028 0.680058 0.931174
0.964940 0.687650 0.912557
1.000000 0.698803 0.875952
1.000000 0.831952 0.866086
0.000000 0.861936 0.947640
0.000000 0.863550 0.947502
0.000000 0.866281 0.947276
0.000000 0.872591 0.946742
0.378932 0.889933 0.944602
0.727028 0.906858 0.943790
0.918566 0.926668 0.947079
0.997825 0.911547 0.920654
1.000000 0.893663 0.887416
0.674032 0.974176 0.954021
0.677897 0.974258 0.953959
0.683286 0.974375 0.953870
0.697716 0.974699 0.953628
0.734404 0.975601 0.952955
0.823150 0.979891 0.952322
0.918509 0.986642 0.956273
0.987499 0.987230 0.955776
1.000000 0.976188 0.931667
0.897475 1.000000 0.968250
0.898076 1.000000 0.968289
0.898929 1.000000 0.968345
0.901273 1.000000 0.968501
0.907623 1.000000 0.968941
0.923493 1.000000 0.970145
0.952025 1.000000 0.970187
0.984432 1.000000 0.968654
1.000000 1.000000 0.969331
0.000000 0.127786 0.974103
0.000000 0.128684 0.973226
0.000000 0.128987 0.971975
0.110364 0.127631 0.968635
0.300989 0.114999 0.962932
0.568090 0.000000 0.948328
0.917788 0.000000 0.923090
1.000000 0.000000 0.880712
1.000000 0.707951 0.934111
0.000000 0.141500 0.976538
0.000000 0.142445 0.975686
0.000000 0.142521 0.974468
0.115844 0.141248 0.971236
0.301500 0.131234 0.965418
0.569789 0.000000 0.950799
0.920620 0.000000 0.926161
1.000000 0.000000 0.886046
1.000000 0.710194 0.934417
0.000000 0.157290 0.979476
0.000000 0.158330 0.978670
0.000000 0.158580 0.977642
0.122951 0.158048 0.974538
0.302439 0.151251 0.968901
0.575627 0.017396 0.953910
0.923923 0.000000 0.930463
1.000000 0.000000 0.892857
1.000000 0.713401 0.934861
0.000000 0.196060 0.984896
0.000000 0.197185 0.984191
0.000000 0.197712 0.983465
0.139780 0.198787 0.981570
0.315990 0.196480 0.975392
0.582261 0.159601 0.962037
0.931463 0.000000 0.939143
1.000000 0.000000 0.907817
1.000000 0.722039 0.936070
0.000000 0.294092 0.994631
0.000000 0.296618 0.994274
0.000000 0.299845 0.993649
0.184451 0.306506 0.991513
0.343480 0.312626 0.987501
0.598474 0.304532 0.976297
0.942139 0.260405 0.955826
1.000000 0.236548 0.931088
1.000000 0.742110 0.938642
0.000000 0.471416 0.998582
0.000000 0.473193 0.998403
0.000000 0.475752 0.997983
0.160965 0.484099 0.996972
0.349232 0.502640 0.995010
0.605237 0.532049 0.988086
0.930803 0.529325 0.972649
1.000000 0.541596 0.954940
1.000000 0.790306 0.944277
0.000000 0.795238 0.994558
0.000000 0.796882 0.994422
0.000000 0.798554 0.994274
0.000000 0.803123 0.993803
0.326732 0.815761 0.991993
0.594444 0.836493 0.989624
0.878885 0.866258 0.986118
1.000000 0.870311 0.977681
1.000000 0.874437 0.957583
0.522032 0.953129 0.992785
0.528217 0.953307 0.992750
0.536797 0.953557 0.992702
0.559270 0.954547 0.992548
0.614781 0.956812 0.991824
0.746649 0.962382 0.991089
0.882287 0.973291 0.991238
0.978958 0.984045 0.993337
1.000000 0.975311 0.981554
0.863041 1.000000 0.994629
0.863608 1.000000 0.994622
0.864415 1.000000 0.994613
0.866643 1.000000 0.994587
0.872761 1.000000 0.994515
0.889123 1.000000 0.994329
0.926758 1.000000 0.994225
0.980395 1.000000 0.996906
1.000000 1.000000 0.997097
0.448289 0.343010 1.000000
0.453952 0.343561 1.000000
0.461890 0.344322 1.000000
0.483156 0.344798 1.000000
0.537232 0.344409 1.000000
0.651388 0.337730 1.000000
0.859967 0.317321 1.000000
1.000000 0.296275 0.996051
1.000000 0.294721 0.974959
0.449167 0.349004 1.000000
0.454829 0.349568 1.000000
0.462761 0.350371 1.000000
0.484030 0.350849 1.000000
0.538122 0.350664 1.000000
0.652122 0.345500 1.000000
0.859644 0.325566 1.000000
1.000000 0.305916 0.996480
1.000000 0.308406 0.975698
0.450329 0.357447 1.000000
0.455984 0.358043 1.000000
0.463908 0.358892 1.000000
0.485187 0.359377 1.000000
0.539311 0.359455 1.000000
0.653093 0.356324 1.000000
0.859159 0.336906 1.000000
1.000000 0.318541 0.997068
1.000000 0.325037 0.976671
0.452830 0.381623 1.000000
0.458580 0.381749 1.000000
0.466635 0.381916 1.000000
0.486378 0.382412 1.000000
0.540768 0.383021 1.000000
0.654589 0.383025 1.000000
0.858379 0.363376 1.000000
1.000000 0.350960 0.998525
1.000000 0.362430 0.979100
0.460098 0.434166 1.000000
0.465903 0.434316 1.000000
0.472961 0.434556 1.000000
0.491845 0.435186 1.000000
0.539748 0.436654 1.000000
0.652142 0.439505 1.000000
0.859755 0.428162 1.000000
1.000000 0.433784 1.000000
1.000000 0.448960 0.984729
0.479268 0.563467 1.000000
0.484907 0.564094 1.000000
0.492426 0.564994 1.000000
0.511903 0.567457 1.000000
0.557893 0.570668 1.000000
0.659731 0.576819 1.000000
0.848225 0.580627 1.000000
1.000000 0.596199 1.000000
1.000000 0.611221 0.992187
0.473111 0.731428 1.000000
0.478141 0.732309 1.000000
0.485201 0.733546 1.000000
0.504161 0.736891 1.000000
0.553686 0.743838 1.000000
0.661636 0.756539 1.000000
0.826481 0.777604 1.000000
0.991967 0.783342 1.000000
1.000000 0.797066 0.998941
0.591874 0.914946 1.000000
0.595045 0.915168 1.000000
0.599493 0.915482 1.000000
0.611543 0.916394 1.000000
0.643857 0.918553 1.000000
0.718972 0.922583 1.000000
0.826836 0.932890 1.000000
0.957494 0.949365 1.000000
1.000000 0.951264 1.000000
0.800868 0.994561 1.000000
0.801760 0.994597 1.000000
0.803023 0.994649 1.000000
0.806481 0.994792 1.000000
0.815722 0.995151 1.000000
0.838810 0.996077 1.000000
0.891518 0.998739 1.000000
0.959801 1.000000 1.000000
1.000000 1.000000 1.000000
