Assets/Lutify-Free-LUTs-Pack/Lutify Free LUTs Pack/Print Film Pro - Print Film 2/Lutify.me-PrintFilm2-SLog3Venice-to-Rec709.cube
# Created with: fylm.ai - Colour Grading and Collaboration Software in Cloud 
# Website: https://fylm.ai 
# META
# Option: Gamut compress
# Block 1: IDT | Sony Venice S-Log3 S-Gamut3
# Block 2: colourMatch | Blending Mode: Normal | {"ColorSpace":0,"CrossCovarianceLimit":50,"ReshapingIterations":1,"PercentSaturationShift":100,"PercentShadingShift":100,"ExtraShading":true,"PercentTint":100,"PercentModified":100}
# Block 3: HSL | Blending Mode: Normal | {"hue":{"Reds":0,"Yellows":0,"Greens":0,"Cyans":0,"Blues":0,"Magentas":0},"saturation":{"Reds":1,"Yellows":0.9,"Greens":0.95,"Cyans":1,"Blues":1,"Magentas":1},"luminance":{"Reds":0.8,"Yellows":0.95,"Greens":0.9,"Cyans":0.8,"Blues":0.8,"Magentas":0.8},"lum_sat":{"Blacks":1,"Shadows":1,"Midtones":1,"Highlights":1,"Whites":1},"sat_sat":{"10":1,"20":1,"30":1,"40":1,"50":1}}
# Block 4: LUT | Filmic Curve Response: Low Contrast 2 (100%)
# Block 5: ODT | Rec709
TITLE "Lutify.me-PrintFilm2-SLog3Venice-to-Rec709" 
LUT_3D_SIZE 5
0.000000 0.000000 0.000000
0.000000 0.000000 0.000000
0.437004 0.000000 0.000000
1.000000 0.258983 0.209444
1.000000 0.857862 0.770178
0.000000 0.042761 0.000000
0.093874 0.069806 0.000000
0.498362 0.000000 0.000000
1.000000 0.295237 0.212481
1.000000 0.858666 0.770373
0.000000 0.306268 0.058275
0.000000 0.484180 0.000000
0.629441 0.555584 0.000000
1.000000 0.490854 0.234856
1.000000 0.864648 0.771898
0.000000 0.762658 0.674317
0.000000 0.871435 0.591830
0.000000 0.946724 0.595286
0.970013 0.942402 0.499202
1.000000 0.917330 0.812622
0.000000 1.000000 0.947158
0.000000 1.000000 0.942710
0.306738 1.000000 0.939865
0.899672 1.000000 0.953772
1.000000 1.000000 0.950804
0.000000 0.000000 0.000000
0.002136 0.000000 0.000000
0.444065 0.000000 0.044788
1.000000 0.261411 0.237548
1.000000 0.858059 0.772430
0.000000 0.030369 0.107428
0.073872 0.078543 0.083154
0.498646 0.000000 0.051920
1.000000 0.295012 0.240050
1.000000 0.858861 0.772621
0.000000 0.286525 0.233982
0.000000 0.465199 0.149308
0.617414 0.584129 0.000000
1.000000 0.485249 0.265638
1.000000 0.864837 0.774100
0.000000 0.751382 0.713216
0.000000 0.864868 0.617973
0.000000 0.946601 0.623213
0.969341 0.943121 0.532096
1.000000 0.917193 0.814037
0.000000 1.000000 0.948010
0.000000 1.000000 0.943462
0.299039 1.000000 0.940402
0.899613 1.000000 0.954264
1.000000 1.000000 0.951194
0.000000 0.000000 0.078131
0.000000 0.000000 0.112755
0.284442 0.000000 0.092591
1.000000 0.265783 0.398167
1.000000 0.859697 0.789703
0.000000 0.000000 0.407262
0.000000 0.000000 0.369922
0.451671 0.000000 0.260657
1.000000 0.303568 0.405792
1.000000 0.860497 0.789875
0.000000 0.188415 0.776248
0.000000 0.312257 0.696362
0.575535 0.596293 0.630114
1.000000 0.483887 0.440196
1.000000 0.866436 0.791196
0.000000 0.685934 0.849881
0.000000 0.837983 0.787509
0.000000 0.937713 0.750424
0.962008 0.946529 0.705644
1.000000 0.916848 0.824889
0.000000 1.000000 0.955529
0.000000 1.000000 0.949910
0.228850 1.000000 0.944175
0.899157 1.000000 0.957896
1.000000 1.000000 0.954218
0.000000 0.000000 0.865293
0.000000 0.000000 0.857151
0.345582 0.000000 0.810913
0.956912 0.000000 0.592151
1.000000 0.867249 0.877909
0.000000 0.000000 0.896838
0.000000 0.000000 0.889821
0.357751 0.000000 0.853456
0.999040 0.000000 0.698037
1.000000 0.868273 0.878302
0.000000 0.243844 0.951136
0.000000 0.258263 0.948961
0.362786 0.293103 0.934093
1.000000 0.109995 0.858768
1.000000 0.875118 0.881199
0.000000 0.589935 1.000000
0.000000 0.589840 1.000000
0.000000 0.863972 0.966012
0.943531 0.949954 0.960811
1.000000 0.916932 0.894351
0.000000 0.944843 1.000000
0.000000 0.944840 1.000000
0.000000 1.000000 0.976377
0.873870 1.000000 0.975573
1.000000 1.000000 0.976817
0.654897 0.420035 1.000000
0.662270 0.419707 1.000000
0.719850 0.416212 1.000000
0.962748 0.361135 1.000000
1.000000 0.333701 0.974783
0.654561 0.430376 1.000000
0.661970 0.430102 1.000000
0.719723 0.426982 1.000000
0.961535 0.375978 1.000000
1.000000 0.362653 0.977268
0.647076 0.512691 1.000000
0.654812 0.512612 1.000000
0.714133 0.511229 1.000000
0.954654 0.482510 1.000000
1.000000 0.495285 0.987753
0.529361 0.787463 1.000000
0.538932 0.788378 1.000000
0.612849 0.794538 1.000000
0.876286 0.822342 1.000000
1.000000 0.835450 1.000000
0.000000 0.919278 1.000000
0.000000 0.919274 1.000000
0.000000 0.919243 1.000000
0.718132 1.000000 1.000000
1.000000 1.000000 1.000000
