Assets/Lutify-Free-LUTs-Pack/Lutify Free LUTs Pack/Print Film Pro - Print Film 2/Lutify.me-PrintFilm2-ZLog2-to-Rec709.cube
# Created with: fylm.ai - Colour Grading and Collaboration Software in Cloud 
# Website: https://fylm.ai 
# META
# Option: Gamut compress
# Block 1: IDT | Z-Cam Z-Log2 - BETA
# Block 2: colourMatch | Blending Mode: Normal | {"ColorSpace":0,"CrossCovarianceLimit":50,"ReshapingIterations":1,"PercentSaturationShift":100,"PercentShadingShift":100,"ExtraShading":true,"PercentTint":100,"PercentModified":100}
# Block 3: HSL | Blending Mode: Normal | {"hue":{"Reds":0,"Yellows":0,"Greens":0,"Cyans":0,"Blues":0,"Magentas":0},"saturation":{"Reds":1,"Yellows":0.9,"Greens":0.95,"Cyans":1,"Blues":1,"Magentas":1},"luminance":{"Reds":0.8,"Yellows":0.95,"Greens":0.9,"Cyans":0.8,"Blues":0.8,"Magentas":0.8},"lum_sat":{"Blacks":1,"Shadows":1,"Midtones":1,"Highlights":1,"Whites":1},"sat_sat":{"10":1,"20":1,"30":1,"40":1,"50":1}}
# Block 4: LUT | Filmic Curve Response: Low Contrast 2 (100%)
# Block 5: ODT | Rec709
TITLE "Lutify.me-PrintFilm2-ZLog2-to-Rec709" 
LUT_3D_SIZE 33
0.000000 0.000000 0.000000
0.000000 0.000000 0.000000
0.000000 0.000000 0.000000
0.000000 0.000000 0.000000
0.000000 0.000000 0.000000
0.000000 0.000000 0.000000
0.000000 0.000000 0.000000
0.000000 0.000000 0.000000
0.000000 0.000000 0.000000
0.000000 0.000000 0.000000
0.000000 0.000000 0.000000
0.004032 0.000000 0.000000
0.028250 0.000000 0.000000
0.049360 0.000000 0.000000
0.065399 0.000000 0.000000
0.079421 0.000000 0.000000
0.097099 0.000000 0.000000
0.115279 0.000000 0.000000
0.130463 0.000000 0.000000
0.148963 0.000000 0.000000
0.170545 0.000000 0.000000
0.197089 0.000000 0.000000
0.229969 0.000000 0.000000
0.266414 0.000000 0.012870
0.299791 0.000000 0.023966
0.333130 0.000000 0.033127
0.370612 0.000000 0.039844
0.412909 0.000000 0.045606
0.457954 0.000000 0.052531
0.508469 0.000000 0.062087
0.561891 0.000000 0.072719
0.611980 0.000000 0.084192
0.660297 0.000000 0.097630
0.000000 0.000000 0.000000
0.000000 0.000000 0.000000
0.000000 0.000000 0.000000
0.000000 0.000000 0.000000
0.000000 0.000000 0.000000
0.000000 0.000000 0.000000
0.000000 0.000000 0.000000
0.000000 0.000000 0.000000
0.000000 0.000000 0.000000
0.000000 0.000000 0.000000
0.000000 0.000000 0.000000
0.014933 0.000000 0.000000
0.034370 0.000000 0.000000
0.054128 0.000000 0.000000
0.069180 0.000000 0.000000
0.083527 0.000000 0.000000
0.102045 0.000000 0.000000
0.117495 0.000000 0.000000
0.133002 0.000000 0.000000
0.151594 0.000000 0.000000
0.174147 0.000000 0.000000
0.202283 0.000000 0.000000
0.234783 0.000000 0.000000
0.269870 0.000000 0.013297
0.302976 0.000000 0.024096
0.336996 0.000000 0.033223
0.374419 0.000000 0.039892
0.416646 0.000000 0.045642
0.460380 0.000000 0.052567
0.510740 0.000000 0.062163
0.563987 0.000000 0.072856
0.613712 0.000000 0.084338
0.661913 0.000000 0.097805
0.000000 0.000000 0.000000
0.000000 0.000000 0.000000
0.000000 0.000000 0.000000
0.000000 0.000000 0.000000
0.000000 0.000000 0.000000
0.000000 0.000000 0.000000
0.000000 0.000000 0.000000
0.000000 0.000000 0.000000
0.000000 0.000000 0.000000
0.000000 0.000000 0.000000
0.000802 0.000000 0.000000
0.025695 0.000000 0.000000
0.043364 0.000000 0.000000
0.059644 0.000000 0.000000
0.073963 0.000000 0.000000
0.088615 0.000000 0.000000
0.105991 0.000000 0.000000
0.120502 0.000000 0.000000
0.136022 0.000000 0.000000
0.154868 0.000000 0.000000
0.178144 0.000000 0.000000
0.207107 0.000000 0.000000
0.238326 0.000000 0.000000
0.272771 0.000000 0.013428
0.306312 0.000000 0.024165
0.341377 0.000000 0.033277
0.378775 0.000000 0.039900
0.419749 0.000000 0.045686
0.463157 0.000000 0.052596
0.513337 0.000000 0.062237
0.566386 0.000000 0.073004
0.615696 0.000000 0.084499
0.663860 0.000000 0.097940
0.000000 0.000000 0.000000
0.000000 0.000000 0.000000
0.000000 0.000000 0.000000
0.000000 0.000000 0.000000
0.000000 0.000000 0.000000
0.000000 0.000000 0.000000
0.000000 0.000000 0.000000
0.000000 0.000000 0.000000
0.000000 0.000000 0.000000
0.006349 0.000000 0.000000
0.024735 0.000000 0.000000
0.038916 0.000000 0.000000
0.053010 0.000000 0.000000
0.065656 0.000000 0.000000
0.078359 0.000000 0.000000
0.093737 0.000000 0.000000
0.110592 0.000000 0.000000
0.124806 0.000000 0.000000
0.140869 0.000000 0.000000
0.159788 0.000000 0.000000
0.183212 0.000000 0.000000
0.211737 0.000000 0.000000
0.241612 0.000000 0.000000
0.275690 0.000000 0.013407
0.309308 0.000000 0.023997
0.345128 0.000000 0.033208
0.382499 0.000000 0.039800
0.422185 0.000000 0.045652
0.465982 0.000000 0.052584
0.516324 0.000000 0.062311
0.569126 0.000000 0.073163
0.617965 0.000000 0.084674
0.666091 0.000000 0.098075
0.000000 0.000000 0.000000
0.000000 0.000000 0.000000
0.000000 0.000000 0.000000
0.000000 0.000000 0.000000
0.000000 0.000000 0.000000
0.000000 0.000000 0.000000
0.000000 0.000000 0.000000
0.000000 0.000000 0.000000
0.010717 0.000000 0.000000
0.026642 0.000000 0.000000
0.040608 0.000000 0.000000
0.053182 0.000000 0.000000
0.062696 0.000000 0.000000
0.072742 0.000000 0.000000
0.085236 0.000000 0.000000
0.100918 0.000000 0.000000
0.115841 0.000000 0.000000
0.129950 0.000000 0.000000
0.147439 0.000000 0.000000
0.166973 0.000000 0.000000
0.190480 0.000000 0.000000
0.216092 0.000000 0.000000
0.245358 0.000000 0.000000
0.278948 0.000000 0.013091
0.313347 0.000000 0.023682
0.349051 0.000000 0.033051
0.386616 0.000000 0.039650
0.424938 0.000000 0.045589
0.468370 0.000000 0.052470
0.519422 0.000000 0.062344
0.572250 0.000000 0.073329
0.620557 0.000000 0.084862
0.668645 0.000000 0.098215
0.000000 0.000000 0.000000
0.000000 0.000000 0.000000
0.000000 0.000000 0.000000
0.000000 0.000000 0.000000
0.000000 0.000000 0.000000
0.000000 0.000000 0.000000
0.000000 0.000000 0.000000
0.005257 0.000000 0.000000
0.024789 0.000000 0.000000
0.039855 0.000000 0.000000
0.051528 0.000000 0.000000
0.061819 0.000000 0.000000
0.071841 0.000000 0.000000
0.084348 0.000000 0.000000
0.097910 0.000000 0.000000
0.109137 0.000000 0.000000
0.121735 0.000000 0.000000
0.135765 0.000000 0.000000
0.153015 0.000000 0.000000
0.174240 0.000000 0.000000
0.196723 0.000000 0.000000
0.221682 0.000000 0.000000
0.250947 0.000000 0.000000
0.284058 0.000000 0.011643
0.318143 0.000000 0.023246
0.353764 0.000000 0.032795
0.389870 0.000000 0.039531
0.428044 0.000000 0.045488
0.471069 0.000000 0.052310
0.521977 0.000000 0.062247
0.575303 0.000000 0.073434
0.623511 0.000000 0.085061
0.671566 0.000000 0.098360
0.000000 0.000000 0.000000
0.000000 0.000000 0.000000
0.000000 0.000000 0.000000
0.000000 0.000000 0.000000
0.000000 0.000000 0.000000
0.000000 0.000000 0.000000
0.000000 0.003041 0.000000
0.018888 0.004751 0.000000
0.037070 0.000000 0.000000
0.048237 0.000000 0.000000
0.056844 0.000000 0.000000
0.066367 0.000000 0.000000
0.077738 0.000000 0.000000
0.092692 0.000000 0.000000
0.106870 0.000000 0.000000
0.118762 0.000000 0.000000
0.130771 0.000000 0.000000
0.143438 0.000000 0.000000
0.158701 0.000000 0.000000
0.179260 0.000000 0.000000
0.203693 0.000000 0.000000
0.228109 0.000000 0.000000
0.257419 0.000000 0.000000
0.290148 0.000000 0.009229
0.323544 0.000000 0.022681
0.358740 0.000000 0.032469
0.393981 0.000000 0.039317
0.431539 0.000000 0.045327
0.474114 0.000000 0.052088
0.524856 0.000000 0.062101
0.577921 0.000000 0.073418
0.625807 0.000000 0.085080
0.673607 0.000000 0.098294
0.000000 0.004336 0.000000
0.000000 0.008377 0.000000
0.000000 0.012331 0.000000
0.000000 0.015974 0.000000
0.000000 0.019506 0.000000
0.000000 0.022862 0.000000
0.000000 0.024419 0.000000
0.026144 0.025737 0.000000
0.042471 0.026558 0.000000
0.052210 0.027430 0.000000
0.060390 0.027282 0.000000
0.070465 0.024005 0.000000
0.083767 0.017491 0.000000
0.099197 0.000000 0.000000
0.114356 0.000000 0.000000
0.127878 0.000000 0.000000
0.141326 0.000000 0.000000
0.154751 0.000000 0.000000
0.168758 0.000000 0.000000
0.188009 0.000000 0.000000
0.211532 0.000000 0.000000
0.235996 0.000000 0.000000
0.264826 0.000000 0.000000
0.297029 0.000000 0.002452
0.329389 0.000000 0.021904
0.362892 0.000000 0.032107
0.398508 0.000000 0.039007
0.435987 0.000000 0.045024
0.477541 0.000000 0.051773
0.528092 0.000000 0.061884
0.580872 0.000000 0.073364
0.628235 0.000000 0.085036
0.675744 0.000000 0.098275
0.000000 0.023387 0.000000
0.000000 0.026241 0.000000
0.000000 0.028449 0.000000
0.000000 0.031682 0.000000
0.000000 0.035553 0.000000
0.000000 0.037908 0.000000
0.000000 0.039135 0.000000
0.031561 0.039885 0.000000
0.045008 0.040378 0.000000
0.054000 0.040873 0.000000
0.063975 0.041100 0.000000
0.076919 0.039954 0.000000
0.090459 0.037309 0.000000
0.105730 0.032856 0.000000
0.121373 0.027522 0.000000
0.137119 0.017590 0.000000
0.152051 0.000000 0.000000
0.167577 0.000000 0.000000
0.183392 0.000000 0.000000
0.201962 0.000000 0.000000
0.222485 0.000000 0.000000
0.246580 0.000000 0.000000
0.274437 0.000000 0.000000
0.303669 0.000000 0.000000
0.333960 0.000000 0.020501
0.367547 0.000000 0.031555
0.403599 0.000000 0.038541
0.440421 0.000000 0.044621
0.481223 0.000000 0.051091
0.531594 0.000000 0.061342
0.584188 0.000000 0.073248
0.630970 0.000000 0.084937
0.678157 0.000000 0.098219
0.000000 0.039470 0.000000
0.000000 0.040895 0.000000
0.000000 0.042099 0.000000
0.000000 0.044426 0.000000
0.000000 0.046581 0.000000
0.000000 0.047533 0.000000
0.000000 0.048175 0.000000
0.035978 0.048720 0.000000
0.047264 0.049242 0.000000
0.056565 0.049547 0.000000
0.068530 0.049501 0.000000
0.082103 0.049117 0.000000
0.097478 0.047723 0.000000
0.114987 0.043819 0.000000
0.132120 0.038781 0.000000
0.147874 0.033572 0.000000
0.165011 0.024168 0.000000
0.181316 0.000000 0.000000
0.200367 0.000000 0.000000
0.216371 0.000000 0.000000
0.235148 0.000000 0.000000
0.258652 0.000000 0.000000
0.285381 0.000000 0.000000
0.310621 0.000000 0.000000
0.338811 0.000000 0.017191
0.372477 0.000000 0.029959
0.409359 0.000000 0.037818
0.445431 0.000000 0.044053
0.485428 0.000000 0.050360
0.535562 0.000000 0.060731
0.587903 0.000000 0.072998
0.634044 0.000000 0.084766
0.680874 0.000000 0.098102
0.000000 0.049233 0.000000
0.000000 0.050840 0.000000
0.000000 0.051874 0.000000
0.000000 0.053211 0.000000
0.000000 0.055312 0.000000
0.000000 0.056953 0.000000
0.017216 0.057635 0.000000
0.037549 0.058450 0.000000
0.048624 0.058539 0.000000
0.059612 0.058398 0.000000
0.072871 0.058675 0.000000
0.086580 0.058724 0.000000
0.102641 0.058423 0.000000
0.121007 0.057191 0.000000
0.138857 0.053500 0.000000
0.155884 0.048313 0.000000
0.173851 0.043740 0.000000
0.193049 0.036563 0.000000
0.211908 0.016417 0.000000
0.230357 0.000000 0.000000
0.249512 0.000000 0.000000
0.272386 0.000000 0.000000
0.298156 0.000000 0.000000
0.322545 0.000000 0.000000
0.346835 0.000000 0.013260
0.378438 0.000000 0.027170
0.415409 0.000000 0.035896
0.451050 0.000000 0.043161
0.490120 0.000000 0.049387
0.539990 0.000000 0.059878
0.591938 0.000000 0.072337
0.637488 0.000000 0.084475
0.683923 0.000000 0.097900
0.000000 0.058916 0.000000
0.000000 0.061178 0.000000
0.000000 0.062918 0.000000
0.000000 0.064226 0.000000
0.000000 0.066525 0.000000
0.000000 0.068689 0.000000
0.006023 0.069965 0.000000
0.033812 0.071265 0.000000
0.047192 0.071661 0.000000
0.061580 0.071148 0.000000
0.075940 0.071474 0.000000
0.090419 0.071574 0.000000
0.108057 0.071082 0.000000
0.128211 0.070511 0.000000
0.148168 0.069366 0.000000
0.165020 0.066115 0.000000
0.183683 0.061094 0.000000
0.204050 0.056929 0.000000
0.222720 0.051017 0.000000
0.242166 0.038586 0.000000
0.262644 0.000000 0.000000
0.286232 0.000000 0.000000
0.312554 0.000000 0.000000
0.335511 0.000000 0.000000
0.357907 0.000000 0.003622
0.388002 0.000000 0.024570
0.422958 0.000000 0.033292
0.456933 0.000000 0.041043
0.495906 0.000000 0.048165
0.544937 0.000000 0.058587
0.596116 0.000000 0.071299
0.641338 0.000000 0.084002
0.686558 0.000000 0.097600
0.000000 0.072599 0.000000
0.000000 0.075378 0.000000
0.000000 0.077620 0.000000
0.000000 0.079026 0.000000
0.000000 0.080743 0.000000
0.000000 0.082368 0.000000
0.000000 0.083913 0.000000
0.023685 0.085441 0.000000
0.044441 0.086818 0.000000
0.061484 0.087416 0.000000
0.076984 0.088534 0.000000
0.092782 0.089307 0.000000
0.113835 0.087727 0.000000
0.135668 0.085861 0.000000
0.156821 0.085653 0.000000
0.178540 0.085079 0.000000
0.198120 0.082138 0.000000
0.217703 0.077624 0.000000
0.238845 0.074389 0.000000
0.258545 0.068512 0.000000
0.278658 0.057711 0.000000
0.300957 0.037929 0.000000
0.327274 0.000000 0.000000
0.352179 0.000000 0.000000
0.373035 0.000000 0.000000
0.399744 0.000000 0.021702
0.434006 0.000000 0.030590
0.465787 0.000000 0.038310
0.502569 0.000000 0.046074
0.550471 0.000000 0.056880
0.600705 0.000000 0.069897
0.645639 0.000000 0.083295
0.688619 0.000000 0.097193
0.000000 0.087538 0.000000
0.000000 0.090325 0.000000
0.000000 0.092906 0.000000
0.000000 0.094407 0.000000
0.000000 0.095992 0.000000
0.000000 0.097688 0.000000
0.000000 0.099538 0.000000
0.000000 0.101297 0.000000
0.036439 0.102935 0.000000
0.061089 0.103328 0.000000
0.079066 0.104497 0.000000
0.098422 0.105118 0.000000
0.120166 0.105007 0.000000
0.143263 0.103295 0.000000
0.164374 0.101610 0.000000
0.187676 0.101715 0.000000
0.210824 0.101670 0.000000
0.230209 0.099809 0.000000
0.251757 0.096382 0.000000
0.273958 0.093471 0.000000
0.295955 0.086344 0.000000
0.319320 0.076302 0.000000
0.342656 0.062678 0.000000
0.369653 0.031152 0.000000
0.393056 0.000000 0.000000
0.417215 0.000000 0.000000
0.446687 0.000000 0.025577
0.478382 0.000000 0.034463
0.513357 0.000000 0.043050
0.556431 0.000000 0.054039
0.605757 0.000000 0.068051
0.648305 0.000000 0.082457
0.690908 0.000000 0.096566
0.000000 0.103901 0.000000
0.000000 0.106557 0.000000
0.000000 0.109384 0.000000
0.000000 0.111048 0.000000
0.000000 0.112744 0.000000
0.000000 0.114582 0.000000
0.000000 0.116476 0.000000
0.000000 0.118359 0.000000
0.021542 0.120041 0.000000
0.059934 0.119881 0.000000
0.082460 0.119603 0.000000
0.105143 0.120032 0.000000
0.128586 0.120918 0.000000
0.151782 0.121235 0.000000
0.172765 0.119340 0.000000
0.195398 0.117452 0.000000
0.218028 0.118271 0.000000
0.241430 0.119064 0.000000
0.262091 0.117391 0.000000
0.285012 0.114531 0.000000
0.308240 0.112823 0.000000
0.332342 0.105588 0.000000
0.359928 0.097701 0.000000
0.384336 0.084738 0.000000
0.411737 0.064028 0.000000
0.438021 0.000000 0.000000
0.464435 0.000000 0.000000
0.493987 0.000000 0.028061
0.527263 0.000000 0.038721
0.567435 0.000000 0.050882
0.609914 0.000000 0.064640
0.650714 0.000000 0.080156
0.693448 0.000000 0.095623
0.000000 0.121470 0.000000
0.000000 0.124048 0.000000
0.000000 0.126120 0.000000
0.000000 0.128348 0.000000
0.000000 0.130106 0.000000
0.000000 0.131930 0.000000
0.000000 0.133451 0.000000
0.000000 0.135510 0.000000
0.000000 0.137466 0.000000
0.056500 0.138030 0.000000
0.081812 0.137935 0.000000
0.106673 0.139352 0.000000
0.132165 0.140816 0.000000
0.158366 0.141163 0.000000
0.182322 0.139421 0.000000
0.205035 0.137378 0.000000
0.228136 0.135430 0.000000
0.250563 0.136299 0.000000
0.274440 0.137373 0.000000
0.299473 0.136317 0.000000
0.322879 0.135214 0.000000
0.346818 0.132605 0.000000
0.374055 0.128782 0.000000
0.404196 0.122421 0.000000
0.428338 0.111483 0.000000
0.456464 0.090249 0.000000
0.483079 0.062937 0.000000
0.509630 0.000000 0.000000
0.544158 0.000000 0.031618
0.580833 0.000000 0.045731
0.619830 0.000000 0.061480
0.655267 0.000000 0.076762
0.695690 0.000000 0.092962
0.000000 0.140934 0.000000
0.000000 0.143658 0.000000
0.000000 0.146760 0.000000
0.000000 0.149733 0.000000
0.000000 0.150768 0.000000
0.000000 0.151218 0.000000
0.000000 0.151632 0.000000
0.000000 0.153563 0.000000
0.000000 0.155750 0.000000
0.055738 0.157962 0.000000
0.085145 0.158867 0.000000
0.114027 0.159280 0.000000
0.141798 0.159596 0.000000
0.168240 0.160243 0.000000
0.191701 0.160568 0.000000
0.214786 0.159554 0.000000
0.239986 0.156558 0.000000
0.264712 0.153878 0.000000
0.287865 0.155662 0.000000
0.313021 0.158006 0.000000
0.337190 0.158314 0.000000
0.365278 0.157653 0.000000
0.392061 0.156067 0.000000
0.418749 0.151636 0.000000
0.449468 0.144456 0.000000
0.473541 0.138410 0.000000
0.503663 0.117427 0.000000
0.530273 0.095383 0.000000
0.560730 0.045627 0.000000
0.597353 0.000000 0.037682
0.632588 0.000000 0.056203
0.665401 0.000000 0.073955
0.700860 0.000000 0.090364
0.000000 0.164563 0.000000
0.000000 0.166108 0.000000
0.000000 0.167873 0.000000
0.000000 0.169752 0.000000
0.000000 0.170424 0.000000
0.000000 0.171424 0.000000
0.000000 0.173666 0.000000
0.000000 0.175871 0.000000
0.000000 0.178136 0.000000
0.052172 0.179449 0.000000
0.092507 0.179677 0.000000
0.123975 0.179736 0.000000
0.154026 0.179539 0.000000
0.179237 0.179425 0.000000
0.198759 0.180943 0.000000
0.220036 0.181661 0.000000
0.246500 0.179123 0.000000
0.273959 0.176131 0.000000
0.301991 0.173286 0.000000
0.325926 0.175290 0.000000
0.351266 0.178270 0.000000
0.381734 0.179169 0.000000
0.413147 0.179778 0.000000
0.440624 0.180117 0.000000
0.464293 0.176636 0.000000
0.494972 0.167397 0.000000
0.520352 0.161894 0.000000
0.551406 0.141945 0.000000
0.581998 0.119684 0.000000
0.612107 0.084021 0.009616
0.645444 0.000000 0.049019
0.678421 0.000000 0.069091
0.711191 0.000000 0.088802
0.000000 0.187417 0.000000
0.000000 0.188620 0.000000
0.000000 0.190038 0.000000
0.000000 0.191596 0.000000
0.000000 0.193303 0.000000
0.000000 0.195162 0.000000
0.000000 0.197100 0.000000
0.000000 0.197842 0.000000
0.000000 0.198237 0.000000
0.066762 0.198580 0.000000
0.105597 0.198499 0.000000
0.136278 0.198706 0.000000
0.162630 0.199610 0.000000
0.186973 0.199135 0.000000
0.211309 0.198525 0.000000
0.235869 0.198623 0.000000
0.261088 0.199771 0.000000
0.288129 0.198219 0.000000
0.314229 0.195532 0.000000
0.338880 0.193069 0.000000
0.363831 0.196449 0.000000
0.395092 0.200248 0.000000
0.428413 0.202838 0.000000
0.458252 0.206601 0.000000
0.487291 0.209553 0.000000
0.511584 0.206226 0.000000
0.540807 0.199109 0.000000
0.568420 0.189694 0.000000
0.603539 0.170722 0.000000
0.633151 0.149099 0.000000
0.660314 0.119246 0.028779
0.691218 0.067727 0.062801
0.724355 0.000000 0.084262
0.000000 0.212759 0.000000
0.000000 0.213754 0.000000
0.000000 0.214911 0.000000
0.000000 0.216177 0.000000
0.000000 0.217545 0.000000
0.000000 0.217683 0.000000
0.000000 0.217628 0.000000
0.000000 0.217863 0.000000
0.019983 0.218043 0.000000
0.088404 0.218119 0.000000
0.123589 0.218060 0.000000
0.154436 0.217832 0.000000
0.178590 0.217880 0.000000
0.202150 0.219341 0.000000
0.226722 0.220665 0.000000
0.252101 0.221486 0.000000
0.278722 0.221926 0.000000
0.305289 0.220647 0.000000
0.330992 0.219413 0.000000
0.358640 0.217234 0.000000
0.386835 0.215653 0.000000
0.411269 0.219546 0.000000
0.444439 0.224801 0.000000
0.472887 0.230193 0.000000
0.501253 0.237944 0.000000
0.535880 0.243087 0.000000
0.559956 0.235844 0.000000
0.586874 0.235098 0.000000
0.620385 0.223238 0.000000
0.654445 0.206661 0.000000
0.682426 0.184677 0.000000
0.706413 0.155234 0.050629
0.737403 0.123226 0.078082
0.000000 0.240613 0.000000
0.000000 0.241580 0.000000
0.000000 0.242716 0.000000
0.000000 0.243983 0.000000
0.000000 0.245365 0.000000
0.000000 0.246181 0.000000
0.000000 0.246163 0.000000
0.000000 0.246058 0.000000
0.029071 0.245812 0.000000
0.103643 0.245356 0.000000
0.139491 0.244758 0.000000
0.166681 0.245446 0.000000
0.192231 0.246741 0.000000
0.218659 0.247879 0.000000
0.246809 0.248000 0.000000
0.274333 0.246700 0.000000
0.299166 0.245984 0.000000
0.323583 0.245311 0.000000
0.348579 0.244626 0.000000
0.375096 0.243869 0.000000
0.408567 0.242399 0.000000
0.445249 0.241900 0.000000
0.467387 0.251256 0.000000
0.493678 0.255825 0.000000
0.521986 0.262807 0.000000
0.550298 0.273089 0.000000
0.585243 0.277523 0.000000
0.609017 0.269025 0.000000
0.639753 0.267252 0.000000
0.672685 0.256447 0.000000
0.703304 0.241483 0.000000
0.728841 0.217938 0.000000
0.752262 0.191621 0.070885
0.000000 0.271667 0.000000
0.000000 0.272615 0.000000
0.000000 0.273725 0.000000
0.000000 0.274982 0.000000
0.000000 0.276365 0.000000
0.000000 0.277070 0.000000
0.000000 0.277083 0.000000
0.000000 0.277008 0.000000
0.039352 0.276753 0.000000
0.107542 0.276415 0.000000
0.142854 0.276347 0.000000
0.170433 0.277684 0.000000
0.197769 0.278961 0.000000
0.225720 0.280128 0.000000
0.255636 0.279694 0.000000
0.285383 0.278007 0.000000
0.314480 0.275515 0.000000
0.343197 0.272664 0.000000
0.371310 0.269465 0.000000
0.397796 0.267851 0.000000
0.433494 0.266446 0.000000
0.470194 0.265217 0.000000
0.504561 0.265955 0.000000
0.520479 0.277653 0.000000
0.543935 0.287183 0.000000
0.571871 0.298149 0.000000
0.599585 0.313700 0.000000
0.632416 0.316477 0.000000
0.660144 0.311622 0.000000
0.694220 0.304401 0.000000
0.721426 0.295410 0.000000
0.749784 0.281711 0.000000
0.774717 0.258672 0.040151
0.000000 0.302944 0.000000
0.000000 0.303735 0.000000
0.000000 0.304165 0.000000
0.000000 0.304356 0.000000
0.000000 0.304508 0.000000
0.000000 0.304485 0.000000
0.000000 0.304408 0.000000
0.000000 0.304306 0.000000
0.069376 0.304127 0.000000
0.115530 0.303861 0.000000
0.148887 0.303480 0.000000
0.178279 0.303753 0.000000
0.206020 0.305150 0.000000
0.234386 0.306478 0.000000
0.262692 0.307752 0.000000
0.291084 0.307221 0.000000
0.321450 0.305341 0.000000
0.353148 0.302585 0.000000
0.384310 0.299456 0.000000
0.415609 0.295876 0.000000
0.454931 0.291234 0.000000
0.496252 0.285806 0.000000
0.531353 0.284799 0.000000
0.557107 0.288105 0.000000
0.574904 0.306354 0.000000
0.590188 0.318920 0.000000
0.616502 0.335421 0.000000
0.641534 0.353749 0.000000
0.680595 0.359802 0.000000
0.710083 0.357701 0.000000
0.742504 0.347893 0.000000
0.765724 0.340550 0.000000
0.793425 0.326385 0.000000
0.000000 0.334102 0.000000
0.000000 0.334244 0.000000
0.000000 0.334401 0.000000
0.000000 0.334434 0.000000
0.000000 0.334449 0.000000
0.000000 0.334441 0.000000
0.000000 0.334399 0.000000
0.000000 0.334307 0.000000
0.076669 0.334158 0.000000
0.121606 0.333933 0.000000
0.155774 0.333606 0.000000
0.186716 0.333148 0.000000
0.215669 0.333748 0.000000
0.243129 0.335266 0.000000
0.269468 0.336838 0.000000
0.297450 0.338325 0.000000
0.328427 0.337488 0.000000
0.361377 0.335263 0.000000
0.396226 0.332426 0.000000
0.433222 0.329010 0.000000
0.471501 0.324999 0.000000
0.510189 0.320391 0.000000
0.548081 0.315276 0.000000
0.582882 0.309922 0.000000
0.610631 0.311418 0.000000
0.623371 0.333817 0.000000
0.634356 0.353895 0.000000
0.657807 0.375991 0.000000
0.690624 0.393674 0.000000
0.725796 0.402411 0.000000
0.756133 0.396640 0.000000
0.782103 0.392570 0.000000
0.806727 0.384466 0.000000
0.000000 0.367263 0.000000
0.000000 0.367291 0.000000
0.000000 0.367317 0.000000
0.000000 0.367337 0.000000
0.000000 0.367338 0.000000
0.000000 0.367321 0.000000
0.000000 0.367277 0.000000
0.000000 0.367197 0.000000
0.085605 0.367070 0.000000
0.129787 0.366876 0.000000
0.164332 0.366595 0.000000
0.194249 0.367645 0.000000
0.220698 0.369313 0.000000
0.246763 0.371051 0.000000
0.274100 0.372865 0.000000
0.303652 0.373872 0.000000
0.336060 0.372765 0.000000
0.370440 0.371285 0.000000
0.406547 0.368872 0.000000
0.447666 0.365543 0.000000
0.487934 0.361776 0.000000
0.526976 0.357603 0.000000
0.562996 0.353212 0.000000
0.598088 0.348437 0.000000
0.630791 0.343466 0.000000
0.663240 0.338490 0.000000
0.669592 0.363707 0.000000
0.682630 0.389151 0.000000
0.705515 0.414230 0.000000
0.739794 0.432882 0.000000
0.768440 0.444445 0.000000
0.796825 0.434764 0.000000
0.819153 0.437173 0.000000
0.000000 0.403351 0.000000
0.000000 0.403356 0.000000
0.000000 0.403351 0.000000
0.000000 0.403339 0.000000
0.000000 0.403323 0.000000
0.000000 0.403317 0.000000
0.000000 0.403292 0.000000
0.000000 0.403241 0.000000
0.098910 0.403153 0.000000
0.139539 0.403838 0.000000
0.169763 0.405279 0.000000
0.196888 0.406833 0.000000
0.223926 0.408457 0.000000
0.251547 0.410130 0.000000
0.280604 0.411340 0.000000
0.312323 0.410573 0.000000
0.345567 0.409546 0.000000
0.380745 0.408186 0.000000
0.418252 0.406451 0.000000
0.460263 0.403422 0.000000
0.503159 0.399874 0.000000
0.543550 0.396044 0.000000
0.578684 0.392228 0.000000
0.612596 0.388157 0.000000
0.645418 0.383825 0.000000
0.678173 0.379114 0.000000
0.710766 0.374424 0.000000
0.724206 0.392541 0.000000
