Assets/Lutify-Free-LUTs-Pack/Lutify Free LUTs Pack/Print Film Pro - Print Film 2/Lutify.me-PrintFilm2-ZLog2-to-Rec709.cube
# Created with: fylm.ai - Colour Grading and Collaboration Software in Cloud 
# Website: https://fylm.ai 
# META
# Option: Gamut compress
# Block 1: IDT | Z-Cam Z-Log2 - BETA
# Block 2: colourMatch | Blending Mode: Normal | {"ColorSpace":0,"CrossCovarianceLimit":50,"ReshapingIterations":1,"PercentSaturationShift":100,"PercentShadingShift":100,"ExtraShading":true,"PercentTint":100,"PercentModified":100}
# Block 3: HSL | Blending Mode: Normal | {"hue":{"Reds":0,"Yellows":0,"Greens":0,"Cyans":0,"Blues":0,"Magentas":0},"saturation":{"Reds":1,"Yellows":0.9,"Greens":0.95,"Cyans":1,"Blues":1,"Magentas":1},"luminance":{"Reds":0.8,"Yellows":0.95,"Greens":0.9,"Cyans":0.8,"Blues":0.8,"Magentas":0.8},"lum_sat":{"Blacks":1,"Shadows":1,"Midtones":1,"Highlights":1,"Whites":1},"sat_sat":{"10":1,"20":1,"30":1,"40":1,"50":1}}
# Block 4: LUT | Filmic Curve Response: Low Contrast 2 (100%)
# Block 5: ODT | Rec709
TITLE "Lutify.me-PrintFilm2-ZLog2-to-Rec709" 
LUT_3D_SIZE 9
0.000000 0.000000 0.000000
0.000000 0.000000 0.000000
0.000000 0.000000 0.000000
0.028250 0.000000 0.000000
0.097099 0.000000 0.000000
0.170545 0.000000 0.000000
0.299791 0.000000 0.023966
0.457954 0.000000 0.052531
0.660297 0.000000 0.097630
0.000000 0.000000 0.000000
0.000000 0.000000 0.000000
0.010717 0.000000 0.000000
0.062696 0.000000 0.000000
0.115841 0.000000 0.000000
0.190480 0.000000 0.000000
0.313347 0.000000 0.023682
0.468370 0.000000 0.052470
0.668645 0.000000 0.098215
0.000000 0.023387 0.000000
0.000000 0.035553 0.000000
0.045008 0.040378 0.000000
0.090459 0.037309 0.000000
0.152051 0.000000 0.000000
0.222485 0.000000 0.000000
0.333960 0.000000 0.020501
0.481223 0.000000 0.051091
0.678157 0.000000 0.098219
0.000000 0.072599 0.000000
0.000000 0.080743 0.000000
0.044441 0.086818 0.000000
0.113835 0.087727 0.000000
0.198120 0.082138 0.000000
0.278658 0.057711 0.000000
0.373035 0.000000 0.000000
0.502569 0.000000 0.046074
0.688619 0.000000 0.097193
0.000000 0.140934 0.000000
0.000000 0.150768 0.000000
0.000000 0.155750 0.000000
0.141798 0.159596 0.000000
0.239986 0.156558 0.000000
0.337190 0.158314 0.000000
0.449468 0.144456 0.000000
0.560730 0.045627 0.000000
0.700860 0.000000 0.090364
0.000000 0.240613 0.000000
0.000000 0.245365 0.000000
0.029071 0.245812 0.000000
0.192231 0.246741 0.000000
0.299166 0.245984 0.000000
0.408567 0.242399 0.000000
0.521986 0.262807 0.000000
0.639753 0.267252 0.000000
0.752262 0.191621 0.070885
0.000000 0.367263 0.000000
0.000000 0.367338 0.000000
0.085605 0.367070 0.000000
0.220698 0.369313 0.000000
0.336060 0.372765 0.000000
0.487934 0.361776 0.000000
0.630791 0.343466 0.000000
0.705515 0.414230 0.000000
0.819153 0.437173 0.000000
0.000000 0.532492 0.000000
0.000000 0.532428 0.000000
0.133596 0.532187 0.000000
0.273519 0.531284 0.000000
0.401200 0.528982 0.000000
0.543177 0.523668 0.000000
0.673616 0.512723 0.000000
0.815465 0.504523 0.000000
0.853646 0.593178 0.000000
0.296094 0.672640 0.000000
0.322276 0.672393 0.000000
0.365472 0.671892 0.000000
0.430308 0.670875 0.000000
0.511187 0.669095 0.000000
0.612906 0.665898 0.000000
0.723899 0.659926 0.000000
0.847750 0.650096 0.000000
0.927516 0.644699 0.000000
0.000000 0.000000 0.000000
0.000000 0.000000 0.000000
0.000000 0.000000 0.000000
0.036781 0.000000 0.000000
0.099555 0.000000 0.000000
0.165782 0.000000 0.000000
0.295689 0.000000 0.034512
0.456111 0.000000 0.060072
0.659108 0.000000 0.102889
0.000000 0.000000 0.000000
0.000000 0.000000 0.000000
0.021326 0.000000 0.000000
0.067130 0.000000 0.000000
0.117707 0.000000 0.000000
0.189972 0.000000 0.000000
0.316208 0.000000 0.037063
0.468254 0.000000 0.060595
0.665654 0.000000 0.104801
0.000000 0.021764 0.000000
0.000000 0.036124 0.000000
0.044149 0.041747 0.000000
0.090453 0.038048 0.000000
0.152738 0.000000 0.000000
0.221969 0.000000 0.000000
0.337192 0.000000 0.036458
0.484730 0.000000 0.060356
0.678911 0.000000 0.105418
0.000000 0.074199 0.000000
0.000000 0.083082 0.000000
0.031085 0.089665 0.000000
0.109513 0.091269 0.000000
0.195128 0.087017 0.000000
0.276511 0.059591 0.000000
0.370503 0.000000 0.029558
0.505579 0.000000 0.057090
0.691052 0.000000 0.104076
0.000000 0.146124 0.000000
0.000000 0.153235 0.000000
0.000000 0.162572 0.000000
0.121656 0.167330 0.000000
0.226247 0.166748 0.000000
0.329105 0.167808 0.000000
0.444016 0.148657 0.000000
0.560219 0.000000 0.038514
0.703493 0.000000 0.098933
0.000000 0.246410 0.000000
0.000000 0.252317 0.000000
0.000000 0.255443 0.000000
0.150442 0.256943 0.000000
0.266236 0.261435 0.000000
0.382992 0.258382 0.000000
0.512707 0.279946 0.000000
0.639230 0.266647 0.000000
0.752384 0.191604 0.083072
0.000000 0.366212 0.000000
0.000000 0.366343 0.000000
0.078304 0.366090 0.000000
0.218956 0.368108 0.000000
0.334613 0.371737 0.000000
0.486677 0.360742 0.000000
0.616326 0.357262 0.000000
0.698763 0.430686 0.000000
0.818378 0.437242 0.000000
0.000000 0.531894 0.000000
0.000000 0.531835 0.000000
0.127972 0.531601 0.000000
0.270767 0.530715 0.000000
0.399676 0.528413 0.000000
0.542201 0.523102 0.000000
0.673023 0.512127 0.000000
0.815123 0.503927 0.000000
0.855250 0.599434 0.000000
0.293516 0.672350 0.000000
0.319908 0.672105 0.000000
0.363402 0.671606 0.000000
0.428658 0.670592 0.000000
0.510113 0.668806 0.000000
0.612138 0.665608 0.000000
0.723502 0.659625 0.000000
0.847549 0.649775 0.000000
0.927434 0.644403 0.000000
0.000000 0.000000 0.000000
0.000000 0.000000 0.000000
0.000000 0.000000 0.000000
0.026134 0.000000 0.000000
0.090172 0.000000 0.002997
0.162827 0.000000 0.027470
0.290353 0.000000 0.047838
0.452601 0.000000 0.072824
0.656651 0.000000 0.112683
0.000000 0.000000 0.000000
0.000000 0.000000 0.000000
0.000000 0.000000 0.000000
0.052603 0.000000 0.004285
0.111478 0.000000 0.020752
0.183675 0.000000 0.037031
0.309989 0.000000 0.049995
0.465166 0.000000 0.074712
0.663520 0.000000 0.114690
0.000000 0.015184 0.045286
0.000000 0.029450 0.044704
0.039347 0.040145 0.043735
0.093604 0.033182 0.042676
0.150864 0.000000 0.042030
0.223289 0.000000 0.044059
0.339363 0.000000 0.052958
0.485932 0.000000 0.076173
0.674952 0.000000 0.118225
0.000000 0.071659 0.036915
0.000000 0.083349 0.035683
0.000000 0.095295 0.033144
0.101217 0.099982 0.036034
0.189150 0.089284 0.039012
0.271805 0.053577 0.043409
0.371485 0.000000 0.050307
0.511988 0.000000 0.075409
0.693978 0.000000 0.118428
0.000000 0.153066 0.000000
0.000000 0.160850 0.000000
0.000000 0.174865 0.000000
0.089915 0.184133 0.000000
0.213833 0.185949 0.000000
0.326241 0.176806 0.000000
0.441673 0.145054 0.000000
0.558718 0.000000 0.065735
0.706253 0.000000 0.113799
0.000000 0.258506 0.000000
0.000000 0.264461 0.000000
0.000000 0.273652 0.000000
0.055329 0.281163 0.000000
0.218207 0.286468 0.000000
0.359241 0.284245 0.000000
0.510331 0.293622 0.000000
0.636621 0.263685 0.000000
0.752498 0.191035 0.102309
0.000000 0.364284 0.000000
0.000000 0.365398 0.000000
0.000000 0.367507 0.000000
0.198620 0.370626 0.000000
0.302616 0.381911 0.000000
0.436751 0.390195 0.000000
0.569780 0.403403 0.000000
0.693765 0.450577 0.000000
0.818477 0.435175 0.000000
0.000000 0.530810 0.000000
0.000000 0.530759 0.000000
0.116915 0.530540 0.000000
0.265733 0.529683 0.000000
0.396908 0.527381 0.000000
0.540430 0.522076 0.000000
0.671949 0.511047 0.000000
0.812080 0.504967 0.000000
0.848074 0.616598 0.000000
0.288798 0.671825 0.000000
0.315587 0.671582 0.000000
0.359624 0.671088 0.000000
0.425656 0.670079 0.000000
0.508165 0.668284 0.000000
0.610743 0.665083 0.000000
0.722784 0.659081 0.000000
0.847183 0.649196 0.000000
0.927283 0.643869 0.000000
0.000000 0.000000 0.000000
0.000000 0.000000 0.000000
0.000000 0.000000 0.007757
0.023274 0.000000 0.020889
0.072568 0.000000 0.029127
0.149912 0.000000 0.045206
0.278050 0.000000 0.063534
0.444075 0.000000 0.092892
0.650551 0.000000 0.131268
0.000000 0.000000 0.000000
0.000000 0.000000 0.016831
0.000000 0.000000 0.032213
0.042229 0.000000 0.037512
0.090828 0.000000 0.042080
0.170216 0.000000 0.053065
0.296767 0.000000 0.070457
0.457709 0.000000 0.095937
0.658971 0.000000 0.133249
0.000000 0.000000 0.080499
0.000000 0.000000 0.079338
0.017816 0.016149 0.077912
0.069659 0.000000 0.073930
0.131562 0.000000 0.066384
0.208867 0.000000 0.068610
0.331348 0.000000 0.081728
0.479933 0.000000 0.102424
0.671359 0.000000 0.138038
0.000000 0.058557 0.113862
0.000000 0.069313 0.107170
0.000000 0.083386 0.104722
0.085979 0.093228 0.101847
0.180216 0.081400 0.099814
0.270945 0.035148 0.096030
0.372455 0.000000 0.093899
0.514342 0.000000 0.106554
0.690426 0.000000 0.145038
0.000000 0.145002 0.094393
0.000000 0.163030 0.091651
0.000000 0.181943 0.090563
0.057737 0.195862 0.088743
0.201939 0.198858 0.091221
0.316922 0.182090 0.090725
0.435032 0.140070 0.092969
0.555551 0.000000 0.106330
0.715181 0.000000 0.143809
0.000000 0.277190 0.000000
0.000000 0.282204 0.000000
0.000000 0.293659 0.000000
0.000000 0.306045 0.000000
0.171632 0.316633 0.000000
0.333262 0.313560 0.000000
0.504537 0.299628 0.000000
0.629470 0.259591 0.080718
0.751512 0.179197 0.134845
0.000000 0.411411 0.000000
0.000000 0.416249 0.000000
0.000000 0.423792 0.000000
0.000000 0.428426 0.000000
0.124342 0.444204 0.000000
0.353404 0.450278 0.000000
0.531808 0.448980 0.000000
0.688992 0.459452 0.000000
0.813729 0.432325 0.079872
0.000000 0.528838 0.000000
0.000000 0.528802 0.000000
0.092420 0.528610 0.000000
0.256428 0.527805 0.000000
0.391850 0.525509 0.000000
0.516165 0.531325 0.000000
0.615923 0.546039 0.000000
0.734937 0.577342 0.000000
0.843035 0.624757 0.000000
0.280056 0.670871 0.000000
0.307622 0.670634 0.000000
0.352663 0.670150 0.000000
0.420162 0.669149 0.000000
0.504617 0.667339 0.000000
0.608210 0.664131 0.000000
0.721478 0.658095 0.000000
0.846517 0.648146 0.000000
0.927011 0.642901 0.000000
0.000000 0.000000 0.000000
0.000000 0.000000 0.014432
0.000000 0.000000 0.037306
0.014479 0.000000 0.047708
0.068089 0.000000 0.048854
0.128443 0.000000 0.051497
0.251237 0.000000 0.076834
0.426540 0.000000 0.118560
0.639010 0.000000 0.166837
0.000000 0.000000 0.039164
0.000000 0.000000 0.047399
0.000000 0.000000 0.055726
0.034500 0.000000 0.059773
0.079943 0.000000 0.059629
0.147289 0.000000 0.063672
0.275697 0.000000 0.090779
0.442599 0.000000 0.126450
0.645347 0.000000 0.171089
0.000000 0.000000 0.096381
0.000000 0.000000 0.099048
0.000000 0.000000 0.101272
0.051217 0.000000 0.098620
0.107336 0.000000 0.091846
0.185601 0.000000 0.092620
0.312031 0.000000 0.112669
0.466224 0.000000 0.138712
0.658905 0.000000 0.177203
0.000000 0.041547 0.202535
0.000000 0.046889 0.198265
0.000000 0.059096 0.190719
0.056646 0.066871 0.184928
0.160761 0.057499 0.170719
0.256369 0.000000 0.151128
0.361276 0.000000 0.139291
0.502956 0.000000 0.152428
0.683956 0.000000 0.186372
0.000000 0.113616 0.230772
0.000000 0.127587 0.224063
0.000000 0.152067 0.216818
0.000000 0.177218 0.209403
0.176609 0.189567 0.210399
0.306415 0.170598 0.196005
0.432121 0.124180 0.181449
0.563951 0.000000 0.176332
0.719632 0.000000 0.193653
0.000000 0.254784 0.190629
0.000000 0.266304 0.187972
0.000000 0.286222 0.187608
0.000000 0.309493 0.189417
0.147176 0.324115 0.183429
0.328980 0.329021 0.191609
0.493609 0.302450 0.181408
0.622356 0.250272 0.179250
0.747543 0.158142 0.189757
0.000000 0.429626 0.000000
0.000000 0.435956 0.000000
0.000000 0.447758 0.000000
0.000000 0.456683 0.000000
0.000000 0.468778 0.000000
0.306893 0.482047 0.000000
0.518175 0.479908 0.000000
0.682786 0.469541 0.112913
0.807526 0.425702 0.174701
0.000000 0.596893 0.000000
0.000000 0.599356 0.000000
0.000000 0.603768 0.000000
0.000000 0.610689 0.000000
0.000000 0.619382 0.000000
0.316937 0.626623 0.000000
0.506911 0.632113 0.000000
0.698820 0.632069 0.000000
0.841071 0.642691 0.000000
0.263445 0.669135 0.000000
0.292659 0.668907 0.000000
0.339617 0.668442 0.000000
0.409982 0.667457 0.000000
0.498103 0.665619 0.000000
0.603584 0.662402 0.000000
0.719093 0.656304 0.000000
0.780520 0.695578 0.000000
0.844380 0.742169 0.000000
0.000000 0.000000 0.040206
0.000000 0.000000 0.051065
0.000000 0.000000 0.062847
0.000000 0.000000 0.072521
0.062630 0.000000 0.076761
0.117167 0.000000 0.072910
0.207202 0.000000 0.077816
0.390749 0.000000 0.145827
0.626820 0.000000 0.213877
0.000000 0.000000 0.071139
0.000000 0.000000 0.080132
0.000000 0.000000 0.091605
0.000000 0.000000 0.096775
0.070546 0.000000 0.097779
0.132197 0.000000 0.091085
0.231878 0.000000 0.096468
0.411512 0.000000 0.160256
0.634730 0.000000 0.220387
0.000000 0.000000 0.148446
0.000000 0.000000 0.153722
0.000000 0.000000 0.154372
0.000000 0.000000 0.151837
0.088204 0.000000 0.143087
0.166300 0.000000 0.131368
0.276289 0.000000 0.133663
0.444908 0.000000 0.184528
0.646643 0.000000 0.231231
0.000000 0.000000 0.257522
0.000000 0.000000 0.254237
0.000000 0.017472 0.250564
0.000000 0.030992 0.238923
0.114426 0.000000 0.221055
0.221047 0.000000 0.203198
0.342899 0.000000 0.193769
0.488778 0.000000 0.213659
0.671112 0.000000 0.248235
0.000000 0.079015 0.352398
0.000000 0.090242 0.343429
0.000000 0.106485 0.338499
0.000000 0.127304 0.326676
0.132491 0.141382 0.319448
0.277549 0.130618 0.305469
0.430914 0.043543 0.274349
0.545065 0.000000 0.254875
0.707861 0.000000 0.269316
0.000000 0.198354 0.363518
0.000000 0.214171 0.357968
0.000000 0.239405 0.354748
0.000000 0.270000 0.344734
0.068713 0.295656 0.346796
0.297777 0.318208 0.346286
0.473978 0.289520 0.325678
0.620070 0.239762 0.302871
0.757735 0.128546 0.291517
0.000000 0.402804 0.314752
0.000000 0.410985 0.311534
0.000000 0.427413 0.308952
0.000000 0.449292 0.310046
0.000000 0.484132 0.316351
0.257604 0.501223 0.308609
0.503567 0.500365 0.323978
0.669008 0.473946 0.307951
0.798816 0.415731 0.303328
0.000000 0.616879 0.151159
0.000000 0.618467 0.149103
0.000000 0.621071 0.142490
0.000000 0.625801 0.133623
0.000000 0.639446 0.123962
0.266613 0.654367 0.135947
0.489338 0.655647 0.154063
0.686536 0.654800 0.184010
0.835889 0.644286 0.253456
0.000000 0.752254 0.000000
0.000000 0.753246 0.000000
0.000000 0.755014 0.000000
0.000000 0.758138 0.000000
0.000000 0.762875 0.000000
0.321895 0.769567 0.000000
0.503216 0.777205 0.000000
0.691453 0.774631 0.000000
0.823779 0.775484 0.000000
0.000000 0.000000 0.083021
0.000000 0.000000 0.094787
0.000000 0.000000 0.109492
0.000000 0.000000 0.119025
0.044985 0.000000 0.118804
0.110554 0.000000 0.115499
0.193553 0.000000 0.104194
0.298427 0.000000 0.110483
0.586654 0.000000 0.247021
0.000000 0.000000 0.135682
0.000000 0.000000 0.144868
0.000000 0.000000 0.154448
0.000000 0.000000 0.157782
0.042799 0.000000 0.153676
0.121394 0.000000 0.144557
0.213720 0.000000 0.126280
0.324863 0.000000 0.132970
0.604096 0.000000 0.262705
0.000000 0.000000 0.236323
0.000000 0.000000 0.240069
0.000000 0.000000 0.238369
0.000000 0.000000 0.229867
0.030566 0.000000 0.219960
0.144290 0.000000 0.201580
0.253248 0.000000 0.177993
0.376056 0.000000 0.183363
0.627305 0.000000 0.280512
0.000000 0.000000 0.351272
0.000000 0.000000 0.346214
0.000000 0.000000 0.342332
0.000000 0.000000 0.328364
0.000000 0.000000 0.309470
0.174381 0.000000 0.284421
0.314193 0.000000 0.259396
0.451945 0.000000 0.255072
0.655038 0.000000 0.306668
0.000000 0.021504 0.449168
0.000000 0.030223 0.444512
0.000000 0.041207 0.438266
0.000000 0.056485 0.426720
0.000000 0.065673 0.406431
0.210863 0.038904 0.375473
0.374800 0.000000 0.350310
0.531953 0.000000 0.326515
0.697896 0.000000 0.345655
0.000000 0.151769 0.532934
0.000000 0.163008 0.528841
0.000000 0.175416 0.521926
0.000000 0.196961 0.511434
0.000000 0.227700 0.503169
0.223057 0.250082 0.498520
0.454263 0.230861 0.471229
0.624778 0.159703 0.437009
0.742984 0.000000 0.395417
0.000000 0.327742 0.543609
0.000000 0.335885 0.540420
0.000000 0.353713 0.535213
0.000000 0.388178 0.529216
0.000000 0.424573 0.530435
0.148445 0.460162 0.526034
0.463237 0.489652 0.532806
0.644663 0.463161 0.499425
0.798543 0.398177 0.468760
0.000000 0.573392 0.487681
0.000000 0.577089 0.487749
0.000000 0.585394 0.484639
0.000000 0.600338 0.481514
0.000000 0.627089 0.485106
0.132757 0.656771 0.491061
0.444304 0.674904 0.495915
0.670361 0.675722 0.502790
0.818593 0.643866 0.479688
0.000000 0.770304 0.314794
0.000000 0.770798 0.313080
0.000000 0.772003 0.309934
0.000000 0.776049 0.303902
0.000000 0.781341 0.299471
0.278667 0.785910 0.299009
0.474095 0.791543 0.303013
0.678187 0.795085 0.336096
0.819918 0.791000 0.371528
0.000000 0.000000 0.180170
0.000000 0.000000 0.191159
0.000000 0.000000 0.198514
0.000000 0.000000 0.202245
0.000000 0.000000 0.199076
0.081336 0.000000 0.189724
0.187397 0.000000 0.173007
0.276534 0.000000 0.133337
0.412398 0.000000 0.152479
0.000000 0.000000 0.249422
0.000000 0.000000 0.255530
0.000000 0.000000 0.256374
0.000000 0.000000 0.253784
0.000000 0.000000 0.245416
0.084751 0.000000 0.228398
0.203791 0.000000 0.204485
0.301678 0.000000 0.161860
0.447769 0.000000 0.182790
0.000000 0.000000 0.359548
0.000000 0.000000 0.360023
0.000000 0.000000 0.353342
0.000000 0.000000 0.342653
0.000000 0.000000 0.326847
0.087682 0.000000 0.301950
0.227856 0.000000 0.270723
0.346927 0.000000 0.226147
0.508465 0.000000 0.242831
0.000000 0.000000 0.486264
0.000000 0.000000 0.481769
0.000000 0.000000 0.472855
0.000000 0.000000 0.457653
0.000000 0.000000 0.434393
0.084026 0.000000 0.407803
0.264987 0.000000 0.373332
0.413810 0.000000 0.328320
0.594014 0.000000 0.330182
0.000000 0.000000 0.575899
0.000000 0.000000 0.573312
0.000000 0.000000 0.566546
0.000000 0.000000 0.556320
0.000000 0.016023 0.534052
0.095591 0.000000 0.506121
0.312692 0.000000 0.469466
0.492966 0.000000 0.439705
0.670093 0.000000 0.419821
0.000000 0.080248 0.647960
0.000000 0.087816 0.640803
0.000000 0.098146 0.635388
0.000000 0.108310 0.627962
0.000000 0.125912 0.620759
0.102211 0.140884 0.605526
0.352719 0.115726 0.569222
0.559636 0.000000 0.541579
0.740276 0.000000 0.509359
0.000000 0.264415 0.705167
0.000000 0.271061 0.703369
0.000000 0.282620 0.699965
0.000000 0.301483 0.695828
0.000000 0.327486 0.690120
0.000000 0.368496 0.681217
0.379850 0.404685 0.677808
0.623428 0.384689 0.658888
0.806890 0.318817 0.612475
0.000000 0.491793 0.702834
0.000000 0.497531 0.701924
0.000000 0.507011 0.699762
0.000000 0.529237 0.696465
0.000000 0.557600 0.692844
0.000000 0.593160 0.689217
0.353525 0.629071 0.694362
0.631462 0.655656 0.698478
0.801419 0.623410 0.673664
0.000000 0.728727 0.645052
0.000000 0.730790 0.644219
0.000000 0.734441 0.643015
0.000000 0.740857 0.644132
0.000000 0.759070 0.642656
0.000000 0.775175 0.647270
0.401995 0.795072 0.654966
0.644771 0.803802 0.656366
0.802279 0.805183 0.669623
0.000000 0.000000 0.331114
0.000000 0.000000 0.335003
0.000000 0.000000 0.327420
0.000000 0.000000 0.325721
0.000000 0.000000 0.314144
0.000000 0.000000 0.295936
0.144179 0.000000 0.265873
0.280587 0.000000 0.221640
0.366754 0.000000 0.151464
0.000000 0.000000 0.403835
0.000000 0.000000 0.401460
0.000000 0.000000 0.399375
0.000000 0.000000 0.388700
0.000000 0.000000 0.371965
0.000000 0.000000 0.347851
0.151247 0.000000 0.316313
0.303234 0.000000 0.262100
0.396983 0.000000 0.184653
0.000000 0.000000 0.516240
0.000000 0.000000 0.510148
0.000000 0.000000 0.503067
0.000000 0.000000 0.490990
0.000000 0.000000 0.468310
0.000000 0.000000 0.441072
0.165216 0.000000 0.400516
0.335764 0.000000 0.337577
0.456082 0.000000 0.248511
0.000000 0.000000 0.626970
0.000000 0.000000 0.620457
0.000000 0.000000 0.609996
0.000000 0.000000 0.595084
0.000000 0.000000 0.571288
0.000000 0.000000 0.547841
0.180799 0.000000 0.510210
0.382389 0.000000 0.458680
0.548668 0.000000 0.381276
0.000000 0.000000 0.699686
0.000000 0.000000 0.696229
0.000000 0.000000 0.690940
0.000000 0.000000 0.681140
0.000000 0.000000 0.662122
0.000000 0.000000 0.637595
0.205322 0.000000 0.603660
0.429304 0.000000 0.561865
0.637659 0.000000 0.515181
0.000000 0.033536 0.758837
0.000000 0.041410 0.755284
0.000000 0.054797 0.751194
0.000000 0.068539 0.746140
0.000000 0.086167 0.735537
0.000000 0.096574 0.720867
0.236790 0.080309 0.687591
0.483265 0.000000 0.654329
0.697758 0.000000 0.616987
0.000000 0.167740 0.800149
0.000000 0.170723 0.798809
0.000000 0.175588 0.796653
0.000000 0.188842 0.790261
0.000000 0.202897 0.785597
0.000000 0.226250 0.780695
0.268028 0.239280 0.762891
0.529262 0.217783 0.732895
0.759707 0.125151 0.706299
0.000000 0.400443 0.830724
0.000000 0.406726 0.829080
0.000000 0.415819 0.826975
0.000000 0.426854 0.825623
0.000000 0.448635 0.822817
0.000000 0.481454 0.818945
0.221335 0.531595 0.814613
0.545785 0.561185 0.812856
0.786293 0.546608 0.795835
0.000000 0.645829 0.823388
0.000000 0.650424 0.822999
0.000000 0.658540 0.822320
0.000000 0.670730 0.821271
0.000000 0.688689 0.819688
0.000000 0.717190 0.817768
0.213984 0.750248 0.815149
0.546798 0.774872 0.819148
0.772478 0.791869 0.823466
