Assets/Lutify-Free-LUTs-Pack/Lutify Free LUTs Pack/Print Film Pro - Print Film 2/Lutify.me-PrintFilm2-SLog3Venice-to-Rec709.cube
# Created with: fylm.ai - Colour Grading and Collaboration Software in Cloud 
# Website: https://fylm.ai 
# META
# Option: Gamut compress
# Block 1: IDT | Sony Venice S-Log3 S-Gamut3
# Block 2: colourMatch | Blending Mode: Normal | {"ColorSpace":0,"CrossCovarianceLimit":50,"ReshapingIterations":1,"PercentSaturationShift":100,"PercentShadingShift":100,"ExtraShading":true,"PercentTint":100,"PercentModified":100}
# Block 3: HSL | Blending Mode: Normal | {"hue":{"Reds":0,"Yellows":0,"Greens":0,"Cyans":0,"Blues":0,"Magentas":0},"saturation":{"Reds":1,"Yellows":0.9,"Greens":0.95,"Cyans":1,"Blues":1,"Magentas":1},"luminance":{"Reds":0.8,"Yellows":0.95,"Greens":0.9,"Cyans":0.8,"Blues":0.8,"Magentas":0.8},"lum_sat":{"Blacks":1,"Shadows":1,"Midtones":1,"Highlights":1,"Whites":1},"sat_sat":{"10":1,"20":1,"30":1,"40":1,"50":1}}
# Block 4: LUT | Filmic Curve Response: Low Contrast 2 (100%)
# Block 5: ODT | Rec709
TITLE "Lutify.me-PrintFilm2-SLog3Venice-to-Rec709" 
LUT_3D_SIZE 9
0.000000 0.000000 0.000000
0.000000 0.000000 0.000000
0.000000 0.000000 0.000000
0.135869 0.000000 0.000000
0.437004 0.000000 0.000000
0.816088 0.000000 0.051267
1.000000 0.258983 0.209444
1.000000 0.635980 0.480555
1.000000 0.857862 0.770178
0.000000 0.000000 0.000000
0.000000 0.000000 0.000000
0.061475 0.000000 0.000000
0.190771 0.000000 0.000000
0.461871 0.000000 0.000000
0.823303 0.000000 0.051829
1.000000 0.272392 0.210138
1.000000 0.638573 0.481122
1.000000 0.858173 0.770253
0.000000 0.042761 0.000000
0.000000 0.054524 0.000000
0.093874 0.069806 0.000000
0.271362 0.000000 0.000000
0.498362 0.000000 0.000000
0.832758 0.000000 0.050439
1.000000 0.295237 0.212481
1.000000 0.642617 0.482015
1.000000 0.858666 0.770373
0.000000 0.144011 0.000000
0.000000 0.180244 0.000000
0.000000 0.228740 0.000000
0.320968 0.227170 0.000000
0.609585 0.207556 0.000000
0.861546 0.076146 0.034333
1.000000 0.355270 0.218092
1.000000 0.654789 0.484762
1.000000 0.860176 0.770741
0.000000 0.306268 0.058275
0.000000 0.384427 0.000000
0.000000 0.484180 0.000000
0.000000 0.552260 0.000000
0.629441 0.555584 0.000000
0.915192 0.532325 0.000000
1.000000 0.490854 0.234856
1.000000 0.693992 0.497461
1.000000 0.864648 0.771898
0.000000 0.529136 0.336591
0.000000 0.614100 0.286821
0.000000 0.728948 0.248320
0.000000 0.808920 0.205934
0.348813 0.836689 0.066601
0.869892 0.828486 0.000000
1.000000 0.811315 0.332158
1.000000 0.782075 0.540089
1.000000 0.879619 0.781603
0.000000 0.762658 0.674317
0.000000 0.819924 0.614831
0.000000 0.871435 0.591830
0.000000 0.918652 0.592048
0.000000 0.946724 0.595286
0.766567 0.945809 0.548819
0.970013 0.942402 0.499202
1.000000 0.930470 0.690306
1.000000 0.917330 0.812622
0.000000 0.932189 0.861744
0.000000 0.948529 0.847099
0.000000 0.958576 0.835798
0.000000 0.979279 0.833930
0.000000 0.993211 0.839354
0.711455 0.998372 0.850592
0.914063 0.995726 0.833253
1.000000 0.992831 0.821152
1.000000 0.986907 0.891777
0.000000 1.000000 0.947158
0.000000 1.000000 0.945263
0.000000 1.000000 0.942710
0.000000 1.000000 0.938993
0.306738 1.000000 0.939865
0.731348 1.000000 0.944584
0.899672 1.000000 0.953772
0.981016 1.000000 0.950063
1.000000 1.000000 0.950804
0.000000 0.000000 0.000000
0.000000 0.000000 0.000000
0.000000 0.000000 0.000000
0.140777 0.000000 0.000000
0.441897 0.000000 0.000000
0.817195 0.000000 0.070334
1.000000 0.259929 0.220105
1.000000 0.636440 0.485160
1.000000 0.857938 0.771055
0.000000 0.000000 0.000000
0.000000 0.000000 0.000000
0.057963 0.000000 0.000000
0.190966 0.000000 0.000000
0.465748 0.000000 0.000000
0.821549 0.000000 0.071172
1.000000 0.273382 0.220909
1.000000 0.639033 0.485733
1.000000 0.858250 0.771130
0.000000 0.042050 0.000000
0.000000 0.055628 0.000000
0.084986 0.078138 0.000000
0.262856 0.000000 0.000000
0.497976 0.000000 0.000000
0.833356 0.000000 0.073239
1.000000 0.293344 0.222121
1.000000 0.643077 0.486632
1.000000 0.858742 0.771248
0.000000 0.133438 0.035033
0.000000 0.178318 0.000000
0.000000 0.238475 0.000000
0.303441 0.257832 0.000000
0.604839 0.217628 0.000000
0.862582 0.079783 0.071009
1.000000 0.352930 0.228870
1.000000 0.655252 0.489398
1.000000 0.860251 0.771615
0.000000 0.293825 0.134100
0.000000 0.367953 0.092738
0.000000 0.482674 0.000000
0.000000 0.559020 0.000000
0.619515 0.564956 0.000000
0.915264 0.531565 0.000000
1.000000 0.488680 0.247370
1.000000 0.693446 0.501493
1.000000 0.864722 0.772756
0.000000 0.522884 0.376796
0.000000 0.602402 0.319830
0.000000 0.722537 0.282724
0.000000 0.808603 0.252709
0.349826 0.837550 0.162196
0.869307 0.830048 0.000000
1.000000 0.810886 0.348649
1.000000 0.781661 0.544086
1.000000 0.879540 0.782243
0.000000 0.758325 0.690006
0.000000 0.816738 0.628910
0.000000 0.868401 0.602041
0.000000 0.917628 0.601055
0.000000 0.946678 0.606345
0.765125 0.945984 0.559120
0.969605 0.942791 0.512847
1.000000 0.930423 0.693658
1.000000 0.917277 0.813172
0.000000 0.931347 0.864182
0.000000 0.948060 0.849515
0.000000 0.958327 0.837902
0.000000 0.979014 0.835304
0.000000 0.993074 0.840614
0.710849 0.998372 0.852066
0.913844 0.995747 0.834748
1.000000 0.992863 0.822885
1.000000 0.986900 0.892086
0.000000 1.000000 0.947488
0.000000 1.000000 0.945565
0.000000 1.000000 0.943002
0.000000 1.000000 0.939307
0.303797 1.000000 0.940074
0.730843 1.000000 0.944739
0.899649 1.000000 0.953963
0.980987 1.000000 0.950238
1.000000 1.000000 0.950956
0.000000 0.000000 0.000000
0.000000 0.000000 0.000000
0.002136 0.000000 0.000000
0.138192 0.000000 0.000000
0.444065 0.000000 0.044788
0.825779 0.000000 0.095768
1.000000 0.261411 0.237548
1.000000 0.637117 0.492224
1.000000 0.858059 0.772430
0.000000 0.000000 0.000000
0.000000 0.000000 0.000000
0.045261 0.000000 0.015536
0.189089 0.000000 0.037233
0.471173 0.000000 0.048514
0.829317 0.000000 0.097511
1.000000 0.274938 0.238539
1.000000 0.639714 0.492805
1.000000 0.858369 0.772505
0.000000 0.030369 0.107428
0.000000 0.046664 0.100334
0.073872 0.078543 0.083154
0.264119 0.000000 0.061765
0.498646 0.000000 0.051920
0.837258 0.000000 0.099876
1.000000 0.295012 0.240050
1.000000 0.643762 0.493718
1.000000 0.858861 0.772621
0.000000 0.117297 0.165603
0.000000 0.161082 0.144221
0.000000 0.241575 0.112577
0.295132 0.279112 0.075820
0.601245 0.214834 0.031074
0.863413 0.062748 0.102901
1.000000 0.349245 0.245581
1.000000 0.655946 0.496525
1.000000 0.860372 0.772986
0.000000 0.286525 0.233982
0.000000 0.346554 0.191932
0.000000 0.465199 0.149308
0.000000 0.563013 0.000000
0.617414 0.584129 0.000000
0.911441 0.529598 0.092061
1.000000 0.485249 0.265638
1.000000 0.692590 0.507720
1.000000 0.864837 0.774100
0.000000 0.514361 0.433963
0.000000 0.593304 0.371713
0.000000 0.712578 0.331738
0.000000 0.807815 0.313109
0.340757 0.836040 0.231905
0.870680 0.833729 0.153762
1.000000 0.810181 0.371912
1.000000 0.781006 0.550318
1.000000 0.879416 0.783248
0.000000 0.751382 0.713216
0.000000 0.813520 0.650358
0.000000 0.864868 0.617973
0.000000 0.916019 0.614774
0.000000 0.946601 0.623213
0.762870 0.946250 0.574865
0.969341 0.943121 0.532096
1.000000 0.930348 0.698846
1.000000 0.917193 0.814037
0.000000 0.929587 0.868159
0.000000 0.947293 0.853271
0.000000 0.957928 0.841455
0.000000 0.978592 0.837436
0.000000 0.992857 0.842572
0.709898 0.998372 0.854347
0.913503 0.995779 0.837067
1.000000 0.992911 0.825577
1.000000 0.986888 0.892572
0.000000 1.000000 0.948010
0.000000 1.000000 0.946140
0.000000 1.000000 0.943462
0.000000 1.000000 0.939800
0.299039 1.000000 0.940402
0.730055 1.000000 0.944983
0.899613 1.000000 0.954264
0.980942 1.000000 0.950513
1.000000 1.000000 0.951194
0.000000 0.000000 0.000000
0.000000 0.000000 0.000000
0.012156 0.000000 0.033669
0.113098 0.000000 0.040318
0.415960 0.000000 0.100875
0.836561 0.000000 0.163653
1.000000 0.270875 0.282732
1.000000 0.638747 0.511591
1.000000 0.858425 0.776619
0.000000 0.000000 0.037594
0.000000 0.000000 0.063997
0.043321 0.000000 0.074877
0.152171 0.000000 0.068897
0.455195 0.000000 0.124007
0.846660 0.000000 0.167896
1.000000 0.282645 0.283977
1.000000 0.641352 0.512190
1.000000 0.858738 0.776692
0.000000 0.000000 0.228643
0.000000 0.000000 0.216259
0.000000 0.039131 0.198128
0.238279 0.000000 0.152959
0.499980 0.000000 0.148751
0.854896 0.000000 0.170937
1.000000 0.300209 0.285891
1.000000 0.645416 0.513131
1.000000 0.859227 0.776805
0.000000 0.082264 0.407000
0.000000 0.109705 0.377603
0.000000 0.197384 0.326346
0.272428 0.280964 0.303873
0.592434 0.195950 0.219924
0.865609 0.000000 0.182134
1.000000 0.350614 0.291519
1.000000 0.657640 0.516021
1.000000 0.860736 0.777161
0.000000 0.247231 0.487761
0.000000 0.301235 0.446770
0.000000 0.427822 0.397027
0.000000 0.562648 0.356302
0.609890 0.600445 0.314404
0.908128 0.518687 0.234438
1.000000 0.482936 0.307487
1.000000 0.691101 0.524601
1.000000 0.865197 0.778236
0.000000 0.484240 0.569859
0.000000 0.568130 0.522310
0.000000 0.677748 0.452809
0.000000 0.790636 0.432291
0.325230 0.839756 0.387157
0.867123 0.838483 0.331780
0.999412 0.808586 0.426764
1.000000 0.779268 0.565222
1.000000 0.879031 0.786317
0.000000 0.729663 0.758990
0.000000 0.802366 0.707560
0.000000 0.856485 0.664924
0.000000 0.911080 0.654010
0.000000 0.945188 0.666211
0.761254 0.946885 0.621177
0.968136 0.943988 0.584165
1.000000 0.930116 0.712811
1.000000 0.916934 0.816689
0.000000 0.921715 0.881968
0.000000 0.943508 0.864871
0.000000 0.956624 0.851970
0.000000 0.977273 0.843779
0.000000 0.992182 0.848390
0.706980 0.998371 0.861073
0.912466 0.995878 0.843950
1.000000 0.993058 0.833582
1.000000 0.986852 0.894082
0.000000 1.000000 0.949617
0.000000 1.000000 0.947906
0.000000 1.000000 0.944898
0.000000 1.000000 0.941308
0.283540 1.000000 0.941408
0.727583 1.000000 0.945736
0.899500 1.000000 0.955186
0.980806 1.000000 0.951360
1.000000 1.000000 0.951929
0.000000 0.000000 0.078131
0.000000 0.000000 0.103988
0.000000 0.000000 0.112755
0.120925 0.000000 0.105244
0.284442 0.000000 0.092591
0.812149 0.000000 0.311523
1.000000 0.265783 0.398167
1.000000 0.642718 0.565844
1.000000 0.859697 0.789703
0.000000 0.000000 0.226239
0.000000 0.000000 0.230344
0.000000 0.000000 0.218824
0.152714 0.000000 0.194088
0.351651 0.000000 0.154049
0.826394 0.000000 0.325588
1.000000 0.282118 0.401369
1.000000 0.645362 0.566435
1.000000 0.860008 0.789770
0.000000 0.000000 0.407262
0.000000 0.000000 0.392928
0.000000 0.000000 0.369922
0.185508 0.000000 0.317736
0.451671 0.000000 0.260657
0.838777 0.000000 0.341011
1.000000 0.303568 0.405792
1.000000 0.649485 0.567364
1.000000 0.860497 0.789875
0.000000 0.000000 0.638079
0.000000 0.078332 0.593343
0.000000 0.119857 0.558363
0.169676 0.168855 0.525478
0.584633 0.000000 0.443248
0.869796 0.000000 0.393115
1.000000 0.356181 0.417108
1.000000 0.661869 0.570209
1.000000 0.861998 0.790203
0.000000 0.188415 0.776248
0.000000 0.194333 0.770261
0.000000 0.312257 0.696362
0.000000 0.488357 0.645208
0.575535 0.596293 0.630114
0.901662 0.507890 0.508808
1.000000 0.483887 0.440196
1.000000 0.695468 0.578623
1.000000 0.866436 0.791196
0.000000 0.433106 0.816518
0.000000 0.452768 0.806453
0.000000 0.600560 0.744859
0.000000 0.750113 0.702726
0.213500 0.837101 0.683013
0.853801 0.851245 0.658053
0.995327 0.803366 0.549844
1.000000 0.778419 0.610817
1.000000 0.878812 0.796292
0.000000 0.685934 0.849881
0.000000 0.731383 0.830258
0.000000 0.837983 0.787509
0.000000 0.895871 0.746985
0.000000 0.937713 0.750424
0.756512 0.948646 0.735391
0.962008 0.946529 0.705644
1.000000 0.929358 0.747416
1.000000 0.916848 0.824889
0.000000 0.891874 0.912869
0.000000 0.930642 0.894008
0.000000 0.952280 0.877465
0.000000 0.972542 0.861392
0.000000 0.990122 0.864011
0.692434 0.997490 0.875366
0.911768 0.996112 0.863444
1.000000 0.993442 0.854071
1.000000 0.986660 0.898479
0.000000 1.000000 0.955529
0.000000 1.000000 0.952900
0.000000 1.000000 0.949910
0.000000 1.000000 0.945739
0.228850 1.000000 0.944175
0.720444 1.000000 0.947992
0.899157 1.000000 0.957896
0.980394 1.000000 0.953862
1.000000 1.000000 0.954218
0.000000 0.000000 0.480286
0.000000 0.000000 0.467237
0.000000 0.000000 0.451475
0.079503 0.000000 0.408007
0.345964 0.000000 0.304614
0.585068 0.000000 0.229994
1.000000 0.081001 0.616775
1.000000 0.651161 0.691415
1.000000 0.863161 0.821360
0.000000 0.000000 0.594053
0.000000 0.000000 0.578604
0.000000 0.000000 0.564385
0.000000 0.000000 0.522436
0.391488 0.000000 0.426753
0.667577 0.000000 0.333393
1.000000 0.133892 0.622485
1.000000 0.654371 0.692409
1.000000 0.863478 0.821480
0.000000 0.000000 0.687243
0.000000 0.000000 0.672804
0.000000 0.000000 0.655210
0.000000 0.000000 0.618669
0.428043 0.000000 0.546457
0.756939 0.000000 0.450658
1.000000 0.186280 0.631186
1.000000 0.659367 0.693892
1.000000 0.863977 0.821672
0.000000 0.024827 0.786907
0.000000 0.053885 0.779502
0.000000 0.075662 0.771051
0.000000 0.093404 0.745978
0.486422 0.000000 0.681688
0.846817 0.000000 0.596369
1.000000 0.291187 0.655506
1.000000 0.672609 0.698193
1.000000 0.865511 0.822263
0.000000 0.206914 0.885128
0.000000 0.248716 0.869217
0.000000 0.285498 0.858320
0.000000 0.343902 0.847164
0.468959 0.422918 0.828106
0.915199 0.353303 0.766239
1.000000 0.453735 0.698384
1.000000 0.706632 0.709879
1.000000 0.870031 0.824045
0.000000 0.365357 0.957432
0.000000 0.365224 0.957412
0.000000 0.365014 0.957381
0.000000 0.633608 0.888696
0.000000 0.784771 0.868858
0.827843 0.846539 0.868401
0.988066 0.795327 0.791006
1.000000 0.780532 0.731393
1.000000 0.882019 0.829034
0.000000 0.637430 0.958502
0.000000 0.637403 0.958488
0.000000 0.644839 0.956262
0.000000 0.858715 0.898543
0.000000 0.921736 0.887466
0.718406 0.946314 0.881338
0.953459 0.952196 0.875013
1.000000 0.927068 0.819508
1.000000 0.914972 0.843954
0.000000 0.846965 0.964485
0.000000 0.846962 0.964477
0.000000 0.902668 0.939788
0.000000 0.964749 0.915427
0.000000 0.983253 0.902301
0.644424 0.993706 0.906858
0.908880 0.996833 0.905336
1.000000 0.994975 0.898360
1.000000 0.986327 0.910612
0.000000 0.990682 0.971523
0.000000 0.999131 0.968231
0.000000 1.000000 0.964209
0.000000 1.000000 0.957787
0.000000 1.000000 0.951578
0.699123 1.000000 0.954540
0.892950 1.000000 0.963292
0.980152 1.000000 0.960899
1.000000 1.000000 0.960906
0.000000 0.000000 0.865293
0.000000 0.000000 0.862484
0.000000 0.000000 0.857151
0.000000 0.000000 0.845602
0.345582 0.000000 0.810913
0.732572 0.000000 0.716570
0.956912 0.000000 0.592151
1.000000 0.573939 0.850619
1.000000 0.867249 0.877909
0.000000 0.000000 0.879719
0.000000 0.000000 0.876872
0.000000 0.000000 0.871652
0.000000 0.000000 0.859914
0.351220 0.000000 0.829461
0.745561 0.000000 0.751682
0.979965 0.000000 0.642561
1.000000 0.578139 0.851485
1.000000 0.867647 0.878061
0.000000 0.000000 0.896838
0.000000 0.000000 0.893543
0.000000 0.000000 0.889821
0.000000 0.000000 0.878379
0.357751 0.000000 0.853456
0.769860 0.000000 0.788635
0.999040 0.000000 0.698037
1.000000 0.584685 0.852826
1.000000 0.868273 0.878302
0.000000 0.111092 0.925822
0.000000 0.114141 0.923363
0.000000 0.118565 0.920137
0.000000 0.120809 0.911618
0.372430 0.060290 0.890677
0.802461 0.000000 0.845701
1.000000 0.000000 0.780382
1.000000 0.604351 0.856777
1.000000 0.870192 0.879046
0.000000 0.243844 0.951136
0.000000 0.250392 0.949911
0.000000 0.258263 0.948961
0.000000 0.278334 0.946236
0.362786 0.293103 0.934093
0.833581 0.227736 0.901669
1.000000 0.109995 0.858768
1.000000 0.656230 0.865951
1.000000 0.875118 0.881199
0.000000 0.499941 0.975684
0.000000 0.518641 0.973094
0.000000 0.536681 0.970621
0.000000 0.579255 0.965166
0.000000 0.646702 0.957561
0.770260 0.723012 0.947623
1.000000 0.697094 0.921295
1.000000 0.764561 0.884004
1.000000 0.889053 0.887237
0.000000 0.589935 1.000000
0.000000 0.589898 1.000000
0.000000 0.589840 1.000000
0.000000 0.589659 1.000000
0.000000 0.863972 0.966012
0.623159 0.923402 0.957641
0.943531 0.949954 0.960811
1.000000 0.924724 0.924683
1.000000 0.916932 0.894351
0.000000 0.826671 1.000000
0.000000 0.826663 1.000000
0.000000 0.826650 1.000000
0.000000 0.826611 1.000000
0.000000 0.968354 0.969594
0.539555 0.987133 0.965346
0.893695 0.995333 0.964739
0.997877 0.997300 0.965250
1.000000 0.985828 0.937895
0.000000 0.944843 1.000000
0.000000 0.944842 1.000000
0.000000 0.944840 1.000000
0.000000 0.994554 0.985736
0.000000 1.000000 0.976377
0.632745 1.000000 0.970750
0.873870 1.000000 0.975573
0.978722 1.000000 0.977393
1.000000 1.000000 0.976817
0.278784 0.161683 0.989657
0.291187 0.160546 0.989250
0.309826 0.158625 0.988615
0.364382 0.151227 0.986471
0.493239 0.113781 0.979077
0.715293 0.000000 0.964903
1.000000 0.000000 0.926633
1.000000 0.000000 0.872140
1.000000 0.836874 0.949539
0.279422 0.172034 0.990891
0.291949 0.171040 0.990492
0.310761 0.169348 0.989869
0.365646 0.162842 0.987782
0.494977 0.130747 0.980538
0.717898 0.000000 0.966855
1.000000 0.000000 0.930765
1.000000 0.000000 0.878790
1.000000 0.837459 0.949637
0.279770 0.187350 0.992831
0.292690 0.186557 0.992288
0.311817 0.185168 0.991663
0.367219 0.179781 0.989659
0.497350 0.153488 0.982629
0.721391 0.000000 0.969504
1.000000 0.000000 0.935683
1.000000 0.000000 0.887744
1.000000 0.838382 0.949791
0.276411 0.234404 0.998662
0.290156 0.233966 0.998124
0.310689 0.233194 0.997287
0.366910 0.230244 0.994805
0.499134 0.216824 0.988805
0.726330 0.133812 0.976037
1.000000 0.000000 0.946965
1.000000 0.000000 0.910287
1.000000 0.841205 0.950264
0.262006 0.345695 1.000000
0.276735 0.345964 1.000000
0.298383 0.346333 1.000000
0.351831 0.348276 1.000000
0.487261 0.349013 0.999776
0.730632 0.331249 0.988405
1.000000 0.251931 0.967579
1.000000 0.253013 0.937770
1.000000 0.849379 0.951654
0.000000 0.523436 1.000000
0.000000 0.525320 1.000000
0.000000 0.528611 1.000000
0.221083 0.536798 1.000000
0.427690 0.565292 1.000000
0.693000 0.585260 1.000000
0.991256 0.579831 0.984186
1.000000 0.577518 0.963120
1.000000 0.869543 0.955751
0.000000 0.781786 1.000000
0.000000 0.786174 1.000000
0.000000 0.792707 1.000000
0.000000 0.804171 1.000000
0.000000 0.827989 1.000000
0.564636 0.860515 1.000000
0.909762 0.893031 0.996088
1.000000 0.881844 0.984671
1.000000 0.911450 0.965069
0.000000 0.797193 1.000000
0.000000 0.797184 1.000000
0.000000 0.797170 1.000000
0.000000 0.797127 1.000000
0.000000 0.796994 1.000000
0.000000 0.964034 1.000000
0.847215 0.983228 0.999007
0.992151 0.995789 1.000000
1.000000 0.985580 0.985429
0.000000 0.936716 1.000000
0.000000 0.936715 1.000000
0.000000 0.936713 1.000000
0.000000 0.936707 1.000000
0.000000 0.936688 1.000000
0.416807 1.000000 1.000000
0.830093 1.000000 1.000000
0.971662 1.000000 1.000000
1.000000 1.000000 1.000000
0.654897 0.420035 1.000000
0.657770 0.419921 1.000000
0.662270 0.419707 1.000000
0.676166 0.418999 1.000000
0.719850 0.416212 1.000000
0.821932 0.400151 1.000000
0.962748 0.361135 1.000000
1.000000 0.269804 1.000000
1.000000 0.333701 0.974783
0.654778 0.424096 1.000000
0.657658 0.423966 1.000000
0.662164 0.423780 1.000000
0.676052 0.423121 1.000000
0.719812 0.420435 1.000000
0.821329 0.405509 1.000000
0.962217 0.366838 1.000000
1.000000 0.282444 1.000000
1.000000 0.345266 0.975785
0.654561 0.430376 1.000000
0.657450 0.430275 1.000000
0.661970 0.430102 1.000000
0.675843 0.429507 1.000000
0.719723 0.426982 1.000000
0.820362 0.413761 1.000000
0.961535 0.375978 1.000000
1.000000 0.301127 1.000000
1.000000 0.362653 0.977268
0.653694 0.449102 1.000000
0.656606 0.449015 1.000000
0.661164 0.448863 1.000000
0.675006 0.448415 1.000000
0.719237 0.446403 1.000000
0.817238 0.438134 1.000000
0.960359 0.404908 1.000000
1.000000 0.347707 1.000000
1.000000 0.408892 0.981165
0.647076 0.512691 1.000000
0.650090 0.512657 1.000000
0.654812 0.512612 1.000000
0.669130 0.512416 1.000000
0.714133 0.511229 1.000000
0.811350 0.504652 1.000000
0.954654 0.482510 1.000000
1.000000 0.442675 1.000000
1.000000 0.495285 0.987753
0.630880 0.631640 1.000000
0.633748 0.631755 1.000000
0.638225 0.631927 1.000000
0.651762 0.632437 1.000000
0.692170 0.633834 1.000000
0.785678 0.637198 1.000000
0.928521 0.639491 1.000000
1.000000 0.627895 1.000000
1.000000 0.665653 0.994858
0.529361 0.787463 1.000000
0.533102 0.787821 1.000000
0.538932 0.788378 1.000000
0.558720 0.790021 1.000000
0.612849 0.794538 1.000000
0.731810 0.808290 1.000000
0.876286 0.822342 1.000000
1.000000 0.826507 1.000000
1.000000 0.835450 1.000000
0.000000 0.927743 1.000000
0.000000 0.928147 1.000000
0.000000 0.928789 1.000000
0.239986 0.930480 1.000000
0.426216 0.932764 1.000000
0.616785 0.938435 1.000000
0.820497 0.951325 1.000000
0.976422 0.968257 1.000000
1.000000 0.965977 1.000000
0.000000 0.919278 1.000000
0.000000 0.919277 1.000000
0.000000 0.919274 1.000000
0.000000 0.919267 1.000000
0.000000 0.919243 1.000000
0.000000 0.919172 1.000000
0.718132 1.000000 1.000000
0.948508 1.000000 1.000000
1.000000 1.000000 1.000000
