Assets/Lutify-Free-LUTs-Pack/Lutify Free LUTs Pack/Print Film Pro - Print Film 2/Lutify.me-PrintFilm2-LogC4-to-Rec709.cube
# Created with: fylm.ai - Colour Grading and Collaboration Software in Cloud 
# Website: https://fylm.ai 
# META
# Option: Gamut compress
# Block 1: IDT | Arri Alexa 35 - LogC4
# Block 2: colourMatch | Blending Mode: Normal | {"ColorSpace":0,"CrossCovarianceLimit":50,"ReshapingIterations":1,"PercentSaturationShift":100,"PercentShadingShift":100,"ExtraShading":true,"PercentTint":100,"PercentModified":100}
# Block 3: HSL | Blending Mode: Normal | {"hue":{"Reds":0,"Yellows":0,"Greens":0,"Cyans":0,"Blues":0,"Magentas":0},"saturation":{"Reds":1,"Yellows":0.9,"Greens":0.95,"Cyans":1,"Blues":1,"Magentas":1},"luminance":{"Reds":0.8,"Yellows":0.95,"Greens":0.9,"Cyans":0.8,"Blues":0.8,"Magentas":0.8},"lum_sat":{"Blacks":1,"Shadows":1,"Midtones":1,"Highlights":1,"Whites":1},"sat_sat":{"10":1,"20":1,"30":1,"40":1,"50":1}}
# Block 4: LUT | Filmic Curve Response: Low Contrast 2 (100%)
# Block 5: ODT | Rec709
TITLE "Lutify.me-PrintFilm2-LogC4-to-Rec709" 
LUT_3D_SIZE 9
0.000000 0.000000 0.000000
0.000000 0.000000 0.000000
0.108927 0.000000 0.000000
0.508888 0.000000 0.000000
0.938431 0.000000 0.125707
1.000000 0.473873 0.404774
1.000000 0.819461 0.757024
1.000000 0.948333 0.925609
1.000000 1.000000 0.999469
0.000000 0.000000 0.000000
0.007938 0.000000 0.000000
0.195876 0.000000 0.000000
0.539214 0.000000 0.000000
0.941436 0.000000 0.127237
1.000000 0.480919 0.406298
1.000000 0.820424 0.757344
1.000000 0.948430 0.925643
1.000000 1.000000 0.999470
0.000000 0.146836 0.000000
0.000000 0.193117 0.000000
0.329484 0.207943 0.000000
0.656896 0.152500 0.000000
0.956594 0.088869 0.134243
1.000000 0.510367 0.409762
1.000000 0.824020 0.758550
1.000000 0.948792 0.925764
1.000000 1.000000 0.999474
0.000000 0.537748 0.000000
0.000000 0.568771 0.000000
0.000000 0.627248 0.000000
0.723410 0.634345 0.000000
0.977819 0.571642 0.147051
1.000000 0.604817 0.423937
1.000000 0.835765 0.761783
1.000000 0.950139 0.926219
1.000000 1.000000 0.999487
0.000000 0.877202 0.353956
0.000000 0.881079 0.351639
0.000000 0.891489 0.323932
0.592699 0.896588 0.277016
0.936827 0.890226 0.257476
1.000000 0.863253 0.552701
1.000000 0.868803 0.774289
1.000000 0.954773 0.927439
1.000000 1.000000 0.999538
0.424108 0.985278 0.764437
0.448842 0.985251 0.763516
0.523304 0.985129 0.760366
0.671122 0.984214 0.750191
0.879224 0.982298 0.737624
1.000000 0.979292 0.732267
1.000000 0.965019 0.860436
1.000000 0.970293 0.935271
1.000000 1.000000 0.999855
0.840240 1.000000 0.935586
0.842076 1.000000 0.935738
0.848763 1.000000 0.936304
0.867267 1.000000 0.936530
0.906359 1.000000 0.934810
0.975801 1.000000 0.933472
1.000000 1.000000 0.937836
1.000000 1.000000 0.973961
1.000000 1.000000 1.000000
0.958418 1.000000 0.993870
0.958605 1.000000 0.993889
0.959302 1.000000 0.993960
0.961834 1.000000 0.994224
0.969830 1.000000 0.995076
0.983325 1.000000 0.995205
1.000000 1.000000 0.994061
1.000000 1.000000 0.992934
1.000000 1.000000 1.000000
0.994528 1.000000 1.000000
0.994550 1.000000 1.000000
0.994643 1.000000 1.000000
0.994996 1.000000 1.000000
0.996176 1.000000 1.000000
1.000000 1.000000 1.000000
1.000000 1.000000 1.000000
1.000000 1.000000 1.000000
1.000000 1.000000 1.000000
0.000000 0.000000 0.000000
0.000000 0.000000 0.000000
0.119079 0.000000 0.000000
0.513960 0.000000 0.038010
0.943032 0.000000 0.145638
1.000000 0.474942 0.414673
1.000000 0.819622 0.758659
1.000000 0.948362 0.925793
1.000000 1.000000 0.999483
0.000000 0.000000 0.000000
0.000000 0.000000 0.003387
0.197014 0.000000 0.000000
0.545439 0.000000 0.039295
0.945098 0.000000 0.147556
1.000000 0.482011 0.416045
1.000000 0.820583 0.758978
1.000000 0.948455 0.925824
1.000000 1.000000 0.999484
0.000000 0.138255 0.046454
0.000000 0.211991 0.000000
0.297739 0.257558 0.000000
0.650917 0.144631 0.000000
0.955898 0.084912 0.155099
1.000000 0.512736 0.420323
1.000000 0.824176 0.760175
1.000000 0.948817 0.925946
1.000000 1.000000 0.999487
0.000000 0.510969 0.085183
0.000000 0.574275 0.000000
0.000000 0.631966 0.000000
0.721842 0.644499 0.000000
0.975967 0.569834 0.183005
1.000000 0.603721 0.431701
1.000000 0.835964 0.763607
1.000000 0.950167 0.926401
1.000000 1.000000 0.999501
0.000000 0.876138 0.392697
0.000000 0.880844 0.392262
0.000000 0.892432 0.371809
0.592556 0.897467 0.324607
0.935434 0.891262 0.297379
1.000000 0.862910 0.562028
1.000000 0.868681 0.775360
1.000000 0.954803 0.927645
1.000000 1.000000 0.999552
0.416064 0.985092 0.770685
0.444904 0.985251 0.770774
0.520332 0.985128 0.767654
0.671471 0.984395 0.757770
0.878984 0.982380 0.744861
1.000000 0.979409 0.739294
1.000000 0.964977 0.861246
1.000000 0.970278 0.935398
1.000000 1.000000 0.999867
0.839726 1.000000 0.935973
0.841569 1.000000 0.936124
0.848280 1.000000 0.936685
0.867177 1.000000 0.937082
0.906442 1.000000 0.935513
0.975784 1.000000 0.933948
1.000000 1.000000 0.938262
1.000000 1.000000 0.974030
1.000000 1.000000 1.000000
0.958366 1.000000 0.993900
0.958550 1.000000 0.993919
0.959251 1.000000 0.993991
0.961784 1.000000 0.994254
0.969823 1.000000 0.995120
0.983320 1.000000 0.995248
1.000000 1.000000 0.994106
1.000000 1.000000 0.992975
1.000000 1.000000 1.000000
0.994518 1.000000 1.000000
0.994545 1.000000 1.000000
0.994638 1.000000 1.000000
0.994992 1.000000 1.000000
0.996169 1.000000 1.000000
1.000000 1.000000 1.000000
1.000000 1.000000 1.000000
1.000000 1.000000 1.000000
1.000000 1.000000 1.000000
0.000000 0.000000 0.000000
0.000000 0.000000 0.000000
0.098701 0.000000 0.036316
0.494333 0.000000 0.109712
0.955344 0.000000 0.215415
1.000000 0.478644 0.449159
1.000000 0.820213 0.764714
1.000000 0.948465 0.926483
1.000000 1.000000 0.999537
0.000000 0.000000 0.093865
0.000000 0.000000 0.117825
0.162751 0.000000 0.089657
0.547060 0.000000 0.135952
0.959963 0.000000 0.220608
1.000000 0.485796 0.450631
1.000000 0.821177 0.765025
1.000000 0.948558 0.926514
1.000000 1.000000 0.999538
0.000000 0.083512 0.397370
0.000000 0.147851 0.339636
0.268837 0.276455 0.299609
0.655799 0.123617 0.206790
0.965234 0.113245 0.233848
1.000000 0.516494 0.455605
1.000000 0.824768 0.766193
1.000000 0.948919 0.926634
1.000000 1.000000 0.999542
0.000000 0.454546 0.403214
0.000000 0.524417 0.363272
0.000000 0.646301 0.348634
0.711180 0.674174 0.298323
0.973038 0.561273 0.289684
1.000000 0.607320 0.466963
1.000000 0.836702 0.770345
1.000000 0.950267 0.927087
1.000000 1.000000 0.999555
0.000000 0.864448 0.500993
0.000000 0.871788 0.503005
0.000000 0.889737 0.505330
0.589093 0.900210 0.460930
0.930549 0.894727 0.431740
1.000000 0.861589 0.594930
1.000000 0.868218 0.779341
1.000000 0.954919 0.928445
1.000000 1.000000 0.999606
0.378587 0.983901 0.788386
0.408059 0.984157 0.789278
0.504972 0.985025 0.791342
0.671753 0.984887 0.784138
0.878105 0.982680 0.769573
0.999492 0.979831 0.762804
1.000000 0.965093 0.864238
1.000000 0.970224 0.935880
1.000000 1.000000 0.999914
0.837831 1.000000 0.937345
0.839698 1.000000 0.937493
0.846502 1.000000 0.938041
0.866840 1.000000 0.939033
0.906719 1.000000 0.937894
0.975625 1.000000 0.935623
1.000000 1.000000 0.939664
1.000000 1.000000 0.974291
1.000000 1.000000 1.000000
0.958158 1.000000 0.994015
0.958346 1.000000 0.994034
0.959046 1.000000 0.994105
0.961594 1.000000 0.994366
0.969743 1.000000 0.995263
0.983303 1.000000 0.995411
1.000000 1.000000 0.994279
1.000000 1.000000 0.993131
1.000000 1.000000 1.000000
0.994493 1.000000 1.000000
0.994521 1.000000 1.000000
0.994614 1.000000 1.000000
0.994968 1.000000 1.000000
0.996146 1.000000 1.000000
1.000000 1.000000 1.000000
1.000000 1.000000 1.000000
1.000000 1.000000 1.000000
1.000000 1.000000 1.000000
0.000000 0.000000 0.298605
0.000000 0.000000 0.299660
0.112167 0.000000 0.246233
0.343219 0.000000 0.129863
0.939882 0.000000 0.415003
1.000000 0.477328 0.551532
1.000000 0.822280 0.785455
1.000000 0.948872 0.929029
1.000000 1.000000 0.999741
0.000000 0.000000 0.493564
0.000000 0.000000 0.466591
0.117229 0.000000 0.383701
0.466342 0.000000 0.256713
0.946024 0.000000 0.426155
1.000000 0.486755 0.553939
1.000000 0.823243 0.785736
1.000000 0.948969 0.929062
1.000000 1.000000 0.999742
0.000000 0.000000 0.704774
0.000000 0.080887 0.647192
0.000000 0.149885 0.601450
0.644993 0.000000 0.486135
0.962552 0.000000 0.464599
1.000000 0.522846 0.562856
1.000000 0.826825 0.786792
1.000000 0.949328 0.929187
1.000000 1.000000 0.999746
0.000000 0.255267 0.833059
0.000000 0.373641 0.773879
0.000000 0.554500 0.727158
0.667034 0.686373 0.716788
0.970680 0.556095 0.581791
1.000000 0.624433 0.582872
1.000000 0.838873 0.790610
1.000000 0.950667 0.929654
1.000000 1.000000 0.999759
0.000000 0.830220 0.766570
0.000000 0.838180 0.763358
0.000000 0.859529 0.751318
0.537014 0.904514 0.760371
0.916492 0.905153 0.739858
1.000000 0.858821 0.683025
1.000000 0.870389 0.800837
1.000000 0.955340 0.931333
1.000000 1.000000 0.999809
0.198585 0.979696 0.832639
0.269199 0.980151 0.832986
0.414793 0.981443 0.834623
0.659374 0.984421 0.841755
0.873108 0.983612 0.827873
0.996472 0.981124 0.821165
1.000000 0.965555 0.874528
1.000000 0.970020 0.937636
1.000000 1.000000 1.000000
0.831005 1.000000 0.941837
0.832924 1.000000 0.941973
0.840052 1.000000 0.942479
0.863261 1.000000 0.944269
0.906005 1.000000 0.944100
0.974655 1.000000 0.941266
1.000000 1.000000 0.944250
1.000000 1.000000 0.975258
1.000000 1.000000 1.000000
0.957373 1.000000 0.994443
0.957560 1.000000 0.994461
0.958274 1.000000 0.994530
0.960868 1.000000 0.994784
0.969164 1.000000 0.995655
0.983239 1.000000 0.996006
1.000000 1.000000 0.994914
1.000000 1.000000 0.993710
1.000000 1.000000 1.000000
0.994401 1.000000 1.000000
0.994422 1.000000 1.000000
0.994515 1.000000 1.000000
0.994869 1.000000 1.000000
0.996055 1.000000 1.000000
1.000000 1.000000 1.000000
1.000000 1.000000 1.000000
1.000000 1.000000 1.000000
1.000000 1.000000 1.000000
0.000000 0.000000 0.847147
0.000000 0.000000 0.842241
0.000000 0.000000 0.809677
0.462494 0.000000 0.729979
0.834944 0.000000 0.505463
1.000000 0.431338 0.768972
1.000000 0.826332 0.838265
1.000000 0.950584 0.937172
1.000000 1.000000 1.000000
0.000000 0.000000 0.861678
0.000000 0.000000 0.855117
0.000000 0.046907 0.830808
0.472230 0.000000 0.761338
0.882433 0.000000 0.584519
1.000000 0.441533 0.771227
1.000000 0.827531 0.838670
1.000000 0.950678 0.937202
1.000000 1.000000 1.000000
0.000000 0.092823 0.891578
0.000000 0.113958 0.884293
0.000000 0.154468 0.872933
0.500871 0.088427 0.819885
0.945312 0.000000 0.713959
1.000000 0.477664 0.779080
1.000000 0.831601 0.840124
1.000000 0.951034 0.937316
1.000000 1.000000 1.000000
0.000000 0.293077 0.932979
0.000000 0.329198 0.926812
0.000000 0.395692 0.914582
0.480538 0.490630 0.899619
0.981023 0.405787 0.844473
1.000000 0.606252 0.804597
1.000000 0.846966 0.845575
1.000000 0.952356 0.937744
1.000000 1.000000 1.000000
0.000000 0.593341 0.964725
0.000000 0.680883 0.946667
0.000000 0.776181 0.930478
0.111288 0.863486 0.920301
0.895435 0.906651 0.921561
1.000000 0.859615 0.866955
1.000000 0.877453 0.856167
1.000000 0.957035 0.939289
1.000000 1.000000 1.000000
0.000000 0.968666 0.930220
0.000000 0.969373 0.929915
0.000000 0.970803 0.929436
0.501762 0.973279 0.925901
0.860125 0.985635 0.931999
0.989705 0.985409 0.927519
1.000000 0.964214 0.900638
1.000000 0.969708 0.943843
1.000000 1.000000 1.000000
0.805420 1.000000 0.955253
0.807718 1.000000 0.955363
0.815959 1.000000 0.955777
0.842734 1.000000 0.957260
0.901376 1.000000 0.961298
0.973584 1.000000 0.958359
1.000000 1.000000 0.960176
1.000000 1.000000 0.978272
1.000000 1.000000 1.000000
0.954301 1.000000 0.995935
0.954490 1.000000 0.995944
0.955204 1.000000 0.995982
0.957780 1.000000 0.996124
0.966570 1.000000 0.996914
0.982726 1.000000 0.997945
1.000000 1.000000 0.996797
1.000000 1.000000 0.995536
1.000000 1.000000 1.000000
0.994041 1.000000 1.000000
0.994068 1.000000 1.000000
0.994161 1.000000 1.000000
0.994516 1.000000 1.000000
0.995714 1.000000 1.000000
0.999978 1.000000 1.000000
1.000000 1.000000 1.000000
1.000000 1.000000 1.000000
1.000000 1.000000 1.000000
0.000000 0.244447 0.994258
0.000000 0.250205 0.993642
0.000000 0.265096 0.991606
0.393704 0.268340 0.979923
0.892799 0.101558 0.946548
1.000000 0.000000 0.866671
1.000000 0.798275 0.928472
1.000000 0.952255 0.957149
1.000000 1.000000 1.000000
0.000000 0.254477 0.995117
0.000000 0.260693 0.994270
0.000000 0.275446 0.992395
0.393749 0.283301 0.981296
0.893893 0.151190 0.948705
1.000000 0.000000 0.874723
1.000000 0.799662 0.928714
1.000000 0.952379 0.957197
1.000000 1.000000 1.000000
0.000000 0.288304 0.997308
0.000000 0.294644 0.996314
0.000000 0.308827 0.993905
0.390453 0.331092 0.985391
0.894504 0.252540 0.956474
1.000000 0.000000 0.896970
1.000000 0.804794 0.929612
1.000000 0.952840 0.957374
1.000000 1.000000 1.000000
0.000000 0.385845 1.000000
0.000000 0.392109 1.000000
0.000000 0.419386 0.998124
0.367439 0.457710 0.992670
0.885293 0.453395 0.970226
1.000000 0.365595 0.933402
1.000000 0.822438 0.932790
1.000000 0.954487 0.958022
1.000000 1.000000 1.000000
0.000000 0.666414 1.000000
0.000000 0.674509 1.000000
0.000000 0.703863 0.999016
0.000000 0.758362 0.993034
0.821288 0.817301 0.985285
1.000000 0.781166 0.965465
1.000000 0.872038 0.943150
1.000000 0.959771 0.960410
1.000000 1.000000 1.000000
0.000000 0.892806 1.000000
0.000000 0.901267 1.000000
0.000000 0.920347 0.997456
0.000000 0.945548 0.992849
0.766221 0.967010 0.989279
0.981455 0.985595 0.991972
1.000000 0.965928 0.967795
1.000000 0.973371 0.965408
1.000000 1.000000 1.000000
0.719146 1.000000 0.992327
0.722109 1.000000 0.992296
0.731472 1.000000 0.992147
0.766041 1.000000 0.991486
0.845669 1.000000 0.989982
0.967584 1.000000 0.994573
1.000000 1.000000 0.994351
1.000000 1.000000 0.987547
1.000000 1.000000 1.000000
0.943594 1.000000 1.000000
0.943783 1.000000 1.000000
0.944499 1.000000 1.000000
0.947448 1.000000 1.000000
0.957479 1.000000 1.000000
0.978843 1.000000 1.000000
1.000000 1.000000 1.000000
1.000000 1.000000 1.000000
1.000000 1.000000 1.000000
0.992606 1.000000 1.000000
0.992637 1.000000 1.000000
0.992741 1.000000 1.000000
0.993145 1.000000 1.000000
0.994485 1.000000 1.000000
0.998713 1.000000 1.000000
1.000000 1.000000 1.000000
1.000000 1.000000 1.000000
1.000000 1.000000 1.000000
0.389048 0.584500 1.000000
0.401882 0.586425 1.000000
0.446180 0.593103 1.000000
0.558928 0.605782 1.000000
0.784525 0.611584 1.000000
1.000000 0.594223 1.000000
1.000000 0.431529 0.983528
1.000000 0.941316 0.993763
1.000000 1.000000 1.000000
0.387487 0.587106 1.000000
0.400376 0.589036 1.000000
0.444893 0.595766 1.000000
0.557984 0.608550 1.000000
0.783693 0.615036 1.000000
1.000000 0.599082 1.000000
1.000000 0.440329 0.984195
1.000000 0.941436 0.993785
1.000000 1.000000 1.000000
0.381483 0.596725 1.000000
0.394627 0.598680 1.000000
0.439974 0.605597 1.000000
0.554380 0.618782 1.000000
0.780536 0.627775 1.000000
1.000000 0.616890 1.000000
1.000000 0.474128 0.986023
1.000000 0.941896 0.993872
1.000000 1.000000 1.000000
0.357768 0.629966 1.000000
0.372039 0.632031 1.000000
0.420806 0.639438 1.000000
0.540335 0.653637 1.000000
0.771045 0.674058 1.000000
1.000000 0.668782 1.000000
1.000000 0.577003 0.991190
1.000000 0.943611 0.994191
1.000000 1.000000 1.000000
0.271065 0.733912 1.000000
0.292731 0.735835 1.000000
0.359475 0.742184 1.000000
0.483697 0.757792 1.000000
0.750016 0.788351 1.000000
0.986431 0.791200 1.000000
1.000000 0.761277 0.998268
1.000000 0.951174 0.995399
1.000000 1.000000 1.000000
0.000000 0.899070 1.000000
0.000000 0.899613 1.000000
0.000000 0.901429 1.000000
0.409276 0.910032 1.000000
0.713157 0.922120 1.000000
0.947096 0.946135 1.000000
1.000000 0.934155 1.000000
1.000000 0.971311 0.998879
1.000000 1.000000 1.000000
0.000000 0.994449 1.000000
0.000000 0.994855 1.000000
0.000000 0.996073 1.000000
0.387264 0.997800 1.000000
0.721003 1.000000 1.000000
0.927428 1.000000 1.000000
1.000000 1.000000 1.000000
1.000000 1.000000 1.000000
1.000000 1.000000 1.000000
0.920295 1.000000 1.000000
0.920535 1.000000 1.000000
0.921440 1.000000 1.000000
0.924695 1.000000 1.000000
0.935629 1.000000 1.000000
0.963246 1.000000 1.000000
1.000000 1.000000 1.000000
1.000000 1.000000 1.000000
1.000000 1.000000 1.000000
0.990568 1.000000 1.000000
0.990596 1.000000 1.000000
0.990697 1.000000 1.000000
0.991074 1.000000 1.000000
0.992476 1.000000 1.000000
0.996686 1.000000 1.000000
1.000000 1.000000 1.000000
1.000000 1.000000 1.000000
1.000000 1.000000 1.000000
0.772489 0.858062 1.000000
0.773823 0.858303 1.000000
0.778800 0.859204 1.000000
0.796141 0.862433 1.000000
0.848770 0.868996 1.000000
0.936297 0.869451 1.000000
1.000000 0.859964 1.000000
1.000000 0.810229 1.000000
1.000000 0.997472 1.000000
0.772471 0.858398 1.000000
0.773823 0.858642 1.000000
0.778800 0.859559 1.000000
0.796139 0.862780 1.000000
0.848675 0.869323 1.000000
0.936230 0.869913 1.000000
1.000000 0.860449 1.000000
1.000000 0.811131 1.000000
1.000000 0.997481 1.000000
0.772430 0.859849 1.000000
0.773814 0.859990 1.000000
0.778815 0.860885 1.000000
0.796147 0.864077 1.000000
0.848332 0.870560 1.000000
0.935985 0.871619 1.000000
1.000000 0.862337 1.000000
1.000000 0.814491 1.000000
1.000000 0.997543 1.000000
0.772094 0.865390 1.000000
0.773494 0.865527 1.000000
0.778662 0.866031 1.000000
0.796202 0.868795 1.000000
0.847052 0.875067 1.000000
0.935138 0.877747 1.000000
1.000000 0.869153 1.000000
1.000000 0.826847 1.000000
1.000000 0.997764 1.000000
0.769463 0.882153 1.000000
0.770865 0.882283 1.000000
0.776096 0.882755 1.000000
0.794237 0.884449 1.000000
0.844669 0.889700 1.000000
0.932496 0.896255 1.000000
1.000000 0.890227 1.000000
1.000000 0.866888 1.000000
1.000000 0.998582 1.000000
0.755605 0.923039 1.000000
0.757101 0.923126 1.000000
0.762604 0.923448 1.000000
0.781575 0.924608 1.000000
0.833245 0.928643 1.000000
0.924588 0.940626 1.000000
1.000000 0.938893 1.000000
1.000000 0.928260 1.000000
1.000000 1.000000 1.000000
0.749298 0.988848 1.000000
0.751125 0.988873 1.000000
0.757737 0.988993 1.000000
0.777777 0.989815 1.000000
0.829235 0.991345 1.000000
0.916651 0.995884 1.000000
1.000000 1.000000 1.000000
1.000000 0.995584 1.000000
1.000000 1.000000 1.000000
0.772707 1.000000 1.000000
0.774907 1.000000 1.000000
0.782144 1.000000 1.000000
0.808312 1.000000 1.000000
0.866811 1.000000 1.000000
0.936404 1.000000 1.000000
0.995248 1.000000 1.000000
1.000000 1.000000 1.000000
1.000000 1.000000 1.000000
0.984454 1.000000 1.000000
0.984489 1.000000 1.000000
0.984612 1.000000 1.000000
0.985078 1.000000 1.000000
0.986703 1.000000 1.000000
0.991799 1.000000 1.000000
1.000000 1.000000 1.000000
1.000000 1.000000 1.000000
1.000000 1.000000 1.000000
0.937012 0.972867 1.000000
0.937172 0.972887 1.000000
0.937777 0.972963 1.000000
0.940016 0.973220 1.000000
0.948326 0.974111 1.000000
0.968697 0.976796 1.000000
1.000000 0.977435 1.000000
1.000000 0.973997 1.000000
1.000000 0.931612 1.000000
0.937009 0.972894 1.000000
0.937169 0.972914 1.000000
0.937774 0.972990 1.000000
0.940012 0.973247 1.000000
0.948288 0.974159 1.000000
0.968677 0.976843 1.000000
1.000000 0.977470 1.000000
1.000000 0.974058 1.000000
1.000000 0.931809 1.000000
0.936959 0.973025 1.000000
0.937119 0.973045 1.000000
0.937724 0.973121 1.000000
0.939963 0.973377 1.000000
0.948271 0.974290 1.000000
0.968656 0.976963 1.000000
1.000000 0.977682 1.000000
1.000000 0.974242 1.000000
1.000000 0.932396 1.000000
0.936829 0.973528 1.000000
0.936989 0.973548 1.000000
0.937594 0.973622 1.000000
0.939863 0.973879 1.000000
0.948148 0.974748 1.000000
0.968540 0.977412 1.000000
1.000000 0.978347 1.000000
1.000000 0.974910 1.000000
1.000000 0.934566 1.000000
0.936388 0.975313 1.000000
0.936548 0.975332 1.000000
0.937153 0.975403 1.000000
0.939388 0.975643 1.000000
0.947747 0.976498 1.000000
0.968136 0.979032 1.000000
1.000000 0.980772 1.000000
1.000000 0.977309 1.000000
1.000000 0.941989 1.000000
0.934865 0.981315 1.000000
0.935023 0.981333 1.000000
0.935622 0.981402 1.000000
0.937927 0.981627 1.000000
0.946284 0.982446 1.000000
0.966636 0.984857 1.000000
1.000000 0.987788 1.000000
1.000000 0.985260 1.000000
1.000000 0.964106 1.000000
0.933997 0.997339 1.000000
0.934139 0.997352 1.000000
0.934704 0.997402 1.000000
0.936795 0.997582 1.000000
0.943974 0.998167 1.000000
0.963331 0.999473 1.000000
0.997785 1.000000 1.000000
1.000000 1.000000 1.000000
1.000000 0.994499 1.000000
0.940257 1.000000 1.000000
0.940409 1.000000 1.000000
0.940987 1.000000 1.000000
0.943163 1.000000 1.000000
0.949752 1.000000 1.000000
0.966038 1.000000 1.000000
0.993696 1.000000 1.000000
1.000000 1.000000 1.000000
1.000000 1.000000 1.000000
0.912710 1.000000 1.000000
0.912991 1.000000 1.000000
0.914038 1.000000 1.000000
0.917824 1.000000 1.000000
0.929831 1.000000 1.000000
0.959187 1.000000 1.000000
0.992344 1.000000 1.000000
1.000000 1.000000 1.000000
1.000000 1.000000 1.000000
