Assets/Lutify-Free-LUTs-Pack/Lutify Free LUTs Pack/Print Film Pro - Print Film 2/Lutify.me-PrintFilm2-DJIDLog-to-Rec709.cube
# Created with: fylm.ai - Colour Grading and Collaboration Software in Cloud 
# Website: https://fylm.ai 
# META
# Option: Gamut compress
# Block 1: IDT | DJI D-Gamut D-Log
# Block 2: colourMatch | Blending Mode: Normal | {"ColorSpace":0,"CrossCovarianceLimit":50,"ReshapingIterations":1,"PercentSaturationShift":100,"PercentShadingShift":100,"ExtraShading":true,"PercentTint":100,"PercentModified":100}
# Block 3: HSL | Blending Mode: Normal | {"hue":{"Reds":0,"Yellows":0,"Greens":0,"Cyans":0,"Blues":0,"Magentas":0},"saturation":{"Reds":1,"Yellows":0.9,"Greens":0.95,"Cyans":1,"Blues":1,"Magentas":1},"luminance":{"Reds":0.8,"Yellows":0.95,"Greens":0.9,"Cyans":0.8,"Blues":0.8,"Magentas":0.8},"lum_sat":{"Blacks":1,"Shadows":1,"Midtones":1,"Highlights":1,"Whites":1},"sat_sat":{"10":1,"20":1,"30":1,"40":1,"50":1}}
# Block 4: LUT | Filmic Curve Response: Low Contrast 2 (100%)
# Block 5: ODT | Rec709
TITLE "Lutify.me-PrintFilm2-DJIDLog-to-Rec709" 
LUT_3D_SIZE 9
0.000000 0.000000 0.000000
0.000000 0.000000 0.000000
0.000000 0.000000 0.000000
0.156319 0.000000 0.000000
0.453728 0.000000 0.000000
0.825905 0.000000 0.029704
1.000000 0.382239 0.202058
1.000000 0.711668 0.483988
1.000000 0.888280 0.777513
0.000000 0.000000 0.000000
0.000000 0.000000 0.000000
0.094441 0.000000 0.000000
0.221913 0.000000 0.000000
0.480235 0.000000 0.000000
0.832722 0.000000 0.019072
1.000000 0.392505 0.202046
1.000000 0.713951 0.484519
1.000000 0.888629 0.777765
0.000000 0.062966 0.000000
0.000000 0.087427 0.000000
0.163085 0.096748 0.000000
0.325876 0.076106 0.000000
0.544707 0.000000 0.000000
0.846705 0.032923 0.000000
1.000000 0.413522 0.201936
1.000000 0.718682 0.485642
1.000000 0.889362 0.778292
0.000000 0.204873 0.000000
0.000000 0.233956 0.000000
0.156408 0.248985 0.000000
0.408597 0.240499 0.000000
0.652091 0.276733 0.000000
0.885726 0.290721 0.000000
1.000000 0.463440 0.203220
1.000000 0.729274 0.488245
1.000000 0.891045 0.779506
0.000000 0.500299 0.000000
0.000000 0.516814 0.000000
0.000000 0.529615 0.000000
0.367571 0.530284 0.000000
0.731700 0.520739 0.000000
0.920368 0.612232 0.000000
1.000000 0.630880 0.204966
1.000000 0.761623 0.498255
1.000000 0.895843 0.783015
0.000000 0.819024 0.000000
0.000000 0.820770 0.000000
0.000000 0.824096 0.000000
0.207221 0.830552 0.000000
0.656936 0.829316 0.000000
0.905994 0.817734 0.000000
0.999447 0.851638 0.243470
1.000000 0.850196 0.547399
1.000000 0.908421 0.791047
0.509502 0.946200 0.191696
0.524225 0.946219 0.190485
0.552448 0.946134 0.187174
0.607387 0.946005 0.180142
0.723420 0.946341 0.183843
0.881868 0.944427 0.184589
0.984770 0.938606 0.178186
1.000000 0.948415 0.638083
1.000000 0.946906 0.822697
0.824541 0.996724 0.645214
0.826006 0.996710 0.645300
0.829035 0.996683 0.645483
0.835894 0.996619 0.645938
0.854584 0.996489 0.647238
0.899925 0.995426 0.648205
0.966867 0.994556 0.657163
1.000000 0.992225 0.663333
1.000000 0.994711 0.879993
0.940606 1.000000 0.888091
0.940790 1.000000 0.888112
0.941177 1.000000 0.888159
0.942063 1.000000 0.888268
0.944697 1.000000 0.888600
0.952632 1.000000 0.889814
0.974012 1.000000 0.894858
1.000000 1.000000 0.901982
1.000000 1.000000 0.912076
0.000000 0.000000 0.000000
0.000000 0.000000 0.000000
0.014437 0.000000 0.000000
0.159767 0.000000 0.000000
0.456448 0.000000 0.000000
0.824100 0.000000 0.068144
1.000000 0.379243 0.216006
1.000000 0.710966 0.489194
1.000000 0.888177 0.778457
0.000000 0.000000 0.000000
0.000000 0.000000 0.000000
0.083035 0.000000 0.000000
0.214437 0.000000 0.000000
0.481046 0.000000 0.000000
0.833093 0.000000 0.065895
1.000000 0.389571 0.216175
1.000000 0.713256 0.489732
1.000000 0.888528 0.778708
0.000000 0.063725 0.000000
0.000000 0.090297 0.000000
0.133770 0.113728 0.000000
0.310098 0.102320 0.000000
0.542426 0.000000 0.000000
0.846961 0.000000 0.057849
1.000000 0.410702 0.216462
1.000000 0.718000 0.490863
1.000000 0.889261 0.779232
0.000000 0.218993 0.000000
0.000000 0.253364 0.000000
0.000000 0.283349 0.000000
0.359520 0.281730 0.000000
0.641525 0.292742 0.000000
0.886026 0.291412 0.000000
1.000000 0.460605 0.218701
1.000000 0.728623 0.493491
1.000000 0.890946 0.780440
0.000000 0.522544 0.000000
0.000000 0.535667 0.000000
0.000000 0.562932 0.000000
0.281697 0.577821 0.000000
0.685258 0.573195 0.000000
0.918532 0.612405 0.000000
1.000000 0.628751 0.226936
1.000000 0.760976 0.503490
1.000000 0.895842 0.783992
0.000000 0.822730 0.000000
0.000000 0.825392 0.000000
0.000000 0.828609 0.000000
0.196476 0.834648 0.000000
0.651705 0.836863 0.000000
0.898156 0.828324 0.000000
0.998635 0.851734 0.266329
1.000000 0.849844 0.552897
1.000000 0.908423 0.791988
0.509292 0.946422 0.241968
0.524145 0.946479 0.241100
0.552635 0.946385 0.237849
0.608123 0.946235 0.230962
0.722190 0.946699 0.231942
0.882798 0.945162 0.230661
0.984224 0.940032 0.220014
1.000000 0.948400 0.643000
1.000000 0.946837 0.823540
0.823530 0.996666 0.652868
0.825005 0.996652 0.652942
0.828049 0.996624 0.653104
0.834943 0.996560 0.653501
0.853729 0.996426 0.654878
0.899768 0.995480 0.656677
0.966419 0.994658 0.665259
1.000000 0.992353 0.670756
1.000000 0.994708 0.880461
0.940591 1.000000 0.888887
0.940776 1.000000 0.888907
0.941162 1.000000 0.888953
0.942048 1.000000 0.889060
0.944683 1.000000 0.889384
0.952617 1.000000 0.890579
0.973916 1.000000 0.895526
1.000000 1.000000 0.902619
1.000000 1.000000 0.912768
0.000000 0.000000 0.000000
0.000000 0.000000 0.000000
0.017386 0.000000 0.000000
0.144975 0.000000 0.031905
0.460252 0.000000 0.066946
0.826730 0.000000 0.111202
1.000000 0.372966 0.244182
1.000000 0.709494 0.499947
1.000000 0.887963 0.780421
0.000000 0.000000 0.000000
0.000000 0.000000 0.010333
0.058093 0.000000 0.039404
0.206024 0.000000 0.057390
0.488974 0.000000 0.071230
0.832426 0.000000 0.109541
1.000000 0.383424 0.244686
1.000000 0.711798 0.500496
1.000000 0.888314 0.780668
0.000000 0.047078 0.160570
0.000000 0.067937 0.146782
0.112811 0.115631 0.124584
0.298306 0.096413 0.098852
0.531466 0.000000 0.072802
0.848049 0.000000 0.109344
1.000000 0.404794 0.245690
1.000000 0.716571 0.501647
1.000000 0.889050 0.781187
0.000000 0.192702 0.165721
0.000000 0.240559 0.142976
0.000000 0.305270 0.118429
0.337280 0.318249 0.091968
0.633942 0.297526 0.029926
0.879472 0.273687 0.107837
1.000000 0.454655 0.249562
1.000000 0.727257 0.504320
1.000000 0.890737 0.782382
0.000000 0.537251 0.000000
0.000000 0.554389 0.000000
0.000000 0.573544 0.000000
0.206577 0.605160 0.000000
0.660527 0.607633 0.000000
0.914505 0.617619 0.000000
1.000000 0.624232 0.263196
1.000000 0.759615 0.514284
1.000000 0.895756 0.785969
0.000000 0.825128 0.000000
0.000000 0.827240 0.000000
0.000000 0.833060 0.000000
0.163942 0.840448 0.000000
0.637685 0.844100 0.000000
0.893925 0.838793 0.000000
0.996983 0.851852 0.312128
1.000000 0.849022 0.564019
1.000000 0.908428 0.793947
0.494451 0.945865 0.314735
0.510028 0.945947 0.313841
0.539970 0.946332 0.311375
0.596830 0.947261 0.306299
0.723257 0.947568 0.308024
0.880327 0.946580 0.306492
0.983569 0.941727 0.285384
1.000000 0.948365 0.652982
1.000000 0.946693 0.825293
0.822938 0.996507 0.668572
0.824413 0.996493 0.668623
0.827456 0.996465 0.668735
0.834351 0.996400 0.669021
0.853128 0.996268 0.670056
0.899467 0.995588 0.672629
0.965519 0.994850 0.680809
1.000000 0.992603 0.684738
1.000000 0.994703 0.881513
0.940542 1.000000 0.890526
0.940744 1.000000 0.890550
0.941130 1.000000 0.890593
0.942017 1.000000 0.890694
0.944652 1.000000 0.891008
0.952584 1.000000 0.892157
0.973717 1.000000 0.896907
1.000000 1.000000 0.903937
1.000000 1.000000 0.914192
0.000000 0.000000 0.000000
0.000000 0.000000 0.000000
0.000000 0.000000 0.040474
0.110786 0.000000 0.050055
0.427151 0.000000 0.140459
0.845582 0.000000 0.196851
1.000000 0.368425 0.298047
1.000000 0.707181 0.522435
1.000000 0.887468 0.784725
0.000000 0.000000 0.023443
0.000000 0.000000 0.063972
0.044630 0.000000 0.089712
0.157123 0.000000 0.092645
0.466437 0.000000 0.165024
0.850711 0.000000 0.199704
1.000000 0.378281 0.297624
1.000000 0.709467 0.523023
1.000000 0.887821 0.784973
0.000000 0.000000 0.287509
0.000000 0.024905 0.275352
0.028080 0.056973 0.253474
0.270500 0.000000 0.227572
0.530124 0.000000 0.205376
0.856644 0.000000 0.203867
1.000000 0.398327 0.296668
1.000000 0.714203 0.524260
1.000000 0.888559 0.785493
0.000000 0.118189 0.419673
0.000000 0.175461 0.377224
0.000000 0.261223 0.347381
0.302550 0.319369 0.339808
0.609085 0.276195 0.264716
0.873707 0.241788 0.211276
1.000000 0.449477 0.301518
1.000000 0.724805 0.527126
1.000000 0.890255 0.786692
0.000000 0.488229 0.363042
0.000000 0.516457 0.361745
0.000000 0.567906 0.353323
0.099451 0.620337 0.336008
0.652215 0.636300 0.301964
0.908493 0.609317 0.243528
1.000000 0.612151 0.328128
1.000000 0.756593 0.538360
1.000000 0.895296 0.790264
0.000000 0.835004 0.325326
0.000000 0.836200 0.318289
0.000000 0.837716 0.305560
0.000000 0.842457 0.281571
0.625404 0.850018 0.252916
0.889065 0.850643 0.214702
0.995069 0.850968 0.408098
1.000000 0.846947 0.586770
1.000000 0.908433 0.798386
0.484639 0.947495 0.440514
0.501030 0.947475 0.439693
0.532380 0.947789 0.436853
0.591356 0.948580 0.430891
0.713793 0.947422 0.420333
0.874553 0.948693 0.417495
0.979896 0.945620 0.395229
1.000000 0.948402 0.678171
1.000000 0.946335 0.828902
0.821882 0.996263 0.701314
0.823370 0.996247 0.701324
0.826451 0.996215 0.701348
0.833409 0.996143 0.701430
0.852340 0.995991 0.701861
0.898768 0.995808 0.704517
0.965128 0.995164 0.711796
1.000000 0.993016 0.712263
1.000000 0.994687 0.884223
0.939934 1.000000 0.894052
0.940132 1.000000 0.894077
0.940574 1.000000 0.894128
0.941597 1.000000 0.894250
0.944578 1.000000 0.894617
0.952505 1.000000 0.895675
0.973569 1.000000 0.900104
1.000000 1.000000 0.906863
1.000000 1.000000 0.916936
0.000000 0.000000 0.000000
0.000000 0.000000 0.057350
0.000000 0.000000 0.096597
0.099250 0.000000 0.117835
0.296334 0.000000 0.130635
0.820755 0.000000 0.385626
1.000000 0.374453 0.451894
1.000000 0.708411 0.584685
1.000000 0.886000 0.794881
0.000000 0.000000 0.149757
0.000000 0.000000 0.198821
0.000000 0.000000 0.216414
0.127253 0.000000 0.221072
0.371526 0.000000 0.221502
0.829960 0.000000 0.400813
1.000000 0.386525 0.454128
1.000000 0.710506 0.585020
1.000000 0.886357 0.795122
0.000000 0.000000 0.473506
0.000000 0.000000 0.459177
0.000000 0.000000 0.432238
0.160819 0.000000 0.392314
0.481635 0.000000 0.354932
0.845666 0.000000 0.422340
1.000000 0.409118 0.457662
1.000000 0.714846 0.585720
1.000000 0.887104 0.795627
0.000000 0.048029 0.641990
0.000000 0.088574 0.615655
0.000000 0.126820 0.593892
0.167295 0.176816 0.571768
0.592146 0.146917 0.525131
0.872786 0.172113 0.463024
1.000000 0.453247 0.462658
1.000000 0.724564 0.587318
1.000000 0.888817 0.796794
0.000000 0.356781 0.709313
0.000000 0.395618 0.695709
0.000000 0.455737 0.682372
0.000000 0.544115 0.665868
0.606559 0.627396 0.661190
0.891568 0.586283 0.559477
1.000000 0.585609 0.470444
1.000000 0.755527 0.597328
1.000000 0.893912 0.800318
0.000000 0.795572 0.665954
0.000000 0.801921 0.664910
0.000000 0.813243 0.665650
0.000000 0.836062 0.666456
0.593704 0.863075 0.659374
0.872875 0.863441 0.637444
0.988528 0.848545 0.572624
1.000000 0.841146 0.641441
1.000000 0.908022 0.809867
0.476624 0.952270 0.675793
0.492111 0.952356 0.675536
0.523390 0.952170 0.672586
0.580600 0.951332 0.664406
0.704070 0.950079 0.646834
0.865222 0.951309 0.635489
0.973701 0.949823 0.613142
1.000000 0.947573 0.739744
1.000000 0.945231 0.838637
0.818236 0.996986 0.776653
0.819755 0.996965 0.776447
0.822912 0.996919 0.776023
0.830009 0.996820 0.775077
0.849330 0.996593 0.772468
0.892218 0.996475 0.774158
0.961095 0.995800 0.776668
1.000000 0.994246 0.772153
1.000000 0.994941 0.892750
0.939103 1.000000 0.903951
0.939302 1.000000 0.903969
0.939719 1.000000 0.904007
0.940746 1.000000 0.904101
0.943791 1.000000 0.904390
0.952253 1.000000 0.905323
0.973469 1.000000 0.908570
1.000000 1.000000 0.915189
1.000000 1.000000 0.923142
0.000000 0.000000 0.254228
0.000000 0.000000 0.274178
0.000000 0.000000 0.289121
0.000000 0.000000 0.305762
0.286937 0.000000 0.339973
0.673440 0.000000 0.412424
1.000000 0.258318 0.698975
1.000000 0.718102 0.737215
1.000000 0.886376 0.829137
0.000000 0.000000 0.489680
0.000000 0.000000 0.487906
0.000000 0.000000 0.482291
0.000000 0.000000 0.474869
0.326320 0.000000 0.479244
0.727215 0.000000 0.490275
1.000000 0.278111 0.703521
1.000000 0.720330 0.737861
1.000000 0.886630 0.829147
0.000000 0.000000 0.719543
0.000000 0.000000 0.704273
0.000000 0.000000 0.684187
0.000000 0.000000 0.659739
0.373842 0.000000 0.614681
0.782707 0.000000 0.581430
1.000000 0.315672 0.711037
1.000000 0.724938 0.739204
1.000000 0.887165 0.829170
0.000000 0.000000 0.819239
0.000000 0.000000 0.810548
0.000000 0.056901 0.800213
0.000000 0.080455 0.781058
0.430745 0.000000 0.732740
0.844379 0.000000 0.687770
1.000000 0.383289 0.724696
1.000000 0.735206 0.742240
1.000000 0.888393 0.829222
0.000000 0.249431 0.877726
0.000000 0.265042 0.874180
0.000000 0.294023 0.867822
0.000000 0.336738 0.861373
0.454680 0.414428 0.846183
0.896634 0.432685 0.816244
1.000000 0.535037 0.760453
1.000000 0.760962 0.746630
1.000000 0.892059 0.829375
0.000000 0.678311 0.891263
0.000000 0.693879 0.889901
0.000000 0.713624 0.887594
0.000000 0.750389 0.882605
0.388481 0.815591 0.876584
0.842813 0.858121 0.879871
0.974452 0.837654 0.821486
1.000000 0.831045 0.757501
1.000000 0.904674 0.833894
0.000000 0.934838 0.868832
0.102327 0.935378 0.868686
0.245998 0.936613 0.868703
0.393656 0.939130 0.868955
0.625347 0.946017 0.870001
0.848925 0.955299 0.873798
0.959843 0.956567 0.862590
1.000000 0.945530 0.828306
1.000000 0.944296 0.860960
0.812564 0.999063 0.879820
0.814131 0.999061 0.879743
0.817394 0.999058 0.879584
0.824670 0.999052 0.879642
0.842336 0.998571 0.876829
0.886466 0.997551 0.870159
0.955008 0.997305 0.869164
1.000000 0.995859 0.864963
1.000000 0.994699 0.911328
0.936829 1.000000 0.927815
0.937032 1.000000 0.927819
0.937458 1.000000 0.927828
0.938435 1.000000 0.927851
0.941541 1.000000 0.927933
0.950635 1.000000 0.928338
0.971346 1.000000 0.929612
0.998932 1.000000 0.934392
1.000000 1.000000 0.937613
0.000000 0.000000 0.759074
0.000000 0.000000 0.757827
0.000000 0.000000 0.756057
0.000000 0.000000 0.748234
0.200939 0.000000 0.744331
0.647946 0.000000 0.756664
0.998631 0.000000 0.768082
1.000000 0.646563 0.885962
1.000000 0.892309 0.896951
0.000000 0.000000 0.834908
0.000000 0.000000 0.831363
0.000000 0.000000 0.825362
0.000000 0.000000 0.817097
0.216468 0.000000 0.804794
0.660379 0.000000 0.790407
1.000000 0.000000 0.786801
1.000000 0.649975 0.886354
1.000000 0.892601 0.897049
0.000000 0.000000 0.890963
0.000000 0.000000 0.886852
0.000000 0.000000 0.881462
0.000000 0.000000 0.872464
0.231427 0.000000 0.852219
0.694405 0.000000 0.829066
1.000000 0.000000 0.812521
1.000000 0.656989 0.887160
1.000000 0.893214 0.897252
0.000000 0.022979 0.934938
0.000000 0.041321 0.933381
0.000000 0.054315 0.928301
0.000000 0.067048 0.920685
0.255798 0.028549 0.902642
0.726473 0.000000 0.873610
1.000000 0.000000 0.847056
1.000000 0.672441 0.888939
1.000000 0.894620 0.897722
0.000000 0.207536 0.961378
0.000000 0.214351 0.959718
0.000000 0.222859 0.957731
0.000000 0.245960 0.955815
0.282391 0.272409 0.945376
0.775907 0.254584 0.919606
1.000000 0.284800 0.895183
1.000000 0.713354 0.893885
1.000000 0.898789 0.899131
0.000000 0.533492 0.973962
0.000000 0.539472 0.973189
0.000000 0.551410 0.971403
0.000000 0.581456 0.968524
0.155863 0.629282 0.963973
0.760862 0.713359 0.953971
0.990982 0.746297 0.937632
1.000000 0.809605 0.908155
1.000000 0.909094 0.900427
0.000000 0.886849 0.966434
0.000000 0.888355 0.966298
0.000000 0.891275 0.966033
0.000000 0.897377 0.965263
0.289511 0.911998 0.963057
0.765932 0.934418 0.961330
0.947490 0.954592 0.964454
1.000000 0.941343 0.936331
1.000000 0.937302 0.903896
0.720493 0.990392 0.956683
0.722920 0.990420 0.956639
0.727924 0.990479 0.956546
0.741055 0.990843 0.956684
0.779052 0.992169 0.957340
0.855764 0.995250 0.959296
0.948258 0.999405 0.963643
1.000000 0.998595 0.959589
1.000000 0.994196 0.943981
0.938072 1.000000 0.966262
0.938263 1.000000 0.966254
0.938665 1.000000 0.966236
0.939587 1.000000 0.966195
0.942315 1.000000 0.966254
0.949517 1.000000 0.966037
0.968771 1.000000 0.963161
0.996606 1.000000 0.964692
1.000000 1.000000 0.964873
0.000000 0.000000 0.973728
0.000000 0.000000 0.972845
0.000000 0.000000 0.971105
0.000000 0.000000 0.968653
0.273602 0.000000 0.963715
0.580939 0.000000 0.953618
0.961572 0.000000 0.942128
1.000000 0.000000 0.937687
1.000000 0.863903 0.964585
0.000000 0.000000 0.980404
0.000000 0.000000 0.979557
0.000000 0.000000 0.977883
0.000000 0.000000 0.975488
0.280712 0.000000 0.970481
0.586566 0.000000 0.959272
0.963805 0.000000 0.945910
1.000000 0.000000 0.939559
1.000000 0.864335 0.964680
0.000000 0.000000 0.989969
0.000000 0.000000 0.989174
0.000000 0.000000 0.987592
0.000000 0.000000 0.985329
0.286259 0.000000 0.979180
0.599566 0.000000 0.966596
0.968740 0.000000 0.952072
1.000000 0.000000 0.943156
1.000000 0.865234 0.964877
0.000000 0.122485 1.000000
0.000000 0.123920 1.000000
0.000000 0.126404 0.999593
0.000000 0.128205 0.996988
0.303824 0.119036 0.991542
0.606874 0.000000 0.979450
0.975530 0.000000 0.961977
1.000000 0.215002 0.950376
1.000000 0.867276 0.965327
0.000000 0.257335 1.000000
0.000000 0.260233 1.000000
0.000000 0.263943 1.000000
0.105753 0.267440 1.000000
0.334800 0.279001 1.000000
0.623383 0.272600 0.996313
0.977030 0.275417 0.979327
1.000000 0.395749 0.962382
1.000000 0.873171 0.966654
0.000000 0.472298 1.000000
0.000000 0.474352 1.000000
0.000000 0.478456 1.000000
0.000000 0.490396 1.000000
0.339996 0.514239 1.000000
0.635240 0.554946 1.000000
0.958724 0.584995 0.992065
1.000000 0.650618 0.977655
1.000000 0.889479 0.970071
0.000000 0.799140 1.000000
0.000000 0.800427 1.000000
0.000000 0.803005 1.000000
0.000000 0.808387 1.000000
0.293946 0.821178 1.000000
0.616797 0.848664 1.000000
0.905266 0.884677 0.999048
1.000000 0.900059 0.991832
1.000000 0.930058 0.976015
0.476710 0.968503 1.000000
0.484652 0.968614 1.000000
0.500494 0.968843 1.000000
0.532179 0.969388 1.000000
0.608702 0.971391 1.000000
0.750872 0.977760 1.000000
0.906372 0.987759 1.000000
0.993756 0.997234 1.000000
1.000000 0.992406 0.990190
0.893911 1.000000 0.997875
0.894234 1.000000 0.997871
0.894908 1.000000 0.997862
0.896448 1.000000 0.997842
0.901004 1.000000 0.997784
0.914562 1.000000 0.997869
0.954705 1.000000 0.999123
0.993425 1.000000 1.000000
1.000000 1.000000 0.999513
0.403829 0.182774 1.000000
0.410074 0.182164 1.000000
0.422849 0.180898 1.000000
0.449408 0.178120 1.000000
0.515723 0.170136 1.000000
0.657731 0.129590 1.000000
0.899281 0.029762 1.000000
1.000000 0.267222 1.000000
1.000000 0.549430 0.999667
0.404307 0.192733 1.000000
0.410553 0.192206 1.000000
0.423299 0.191080 1.000000
0.449817 0.188674 1.000000
0.516066 0.181934 1.000000
0.658120 0.146502 1.000000
0.900416 0.099072 1.000000
1.000000 0.278782 1.000000
1.000000 0.553530 0.999755
0.408963 0.211722 1.000000
0.414541 0.211432 1.000000
0.425957 0.210814 1.000000
0.450946 0.209396 1.000000
0.517669 0.204813 1.000000
0.661164 0.181407 1.000000
0.901613 0.153503 1.000000
1.000000 0.301127 1.000000
1.000000 0.562201 0.999999
0.417817 0.255899 1.000000
0.423361 0.255830 1.000000
0.434734 0.255637 1.000000
0.459588 0.255261 1.000000
0.525773 0.253626 1.000000
0.668504 0.243494 1.000000
0.904452 0.228943 1.000000
1.000000 0.342266 1.000000
1.000000 0.581837 1.000000
0.433208 0.357588 1.000000
0.438755 0.357736 1.000000
0.450151 0.358007 1.000000
0.472554 0.358776 1.000000
0.530854 0.361307 1.000000
0.670083 0.366407 1.000000
0.900352 0.364315 1.000000
1.000000 0.441723 1.000000
1.000000 0.634465 1.000000
0.460647 0.535575 1.000000
0.465942 0.536578 1.000000
0.476687 0.538900 1.000000
0.498953 0.542993 1.000000
0.554000 0.553387 1.000000
0.679491 0.563816 1.000000
0.883892 0.572999 1.000000
1.000000 0.622359 1.000000
1.000000 0.738161 1.000000
0.450000 0.751040 1.000000
0.454322 0.751858 1.000000
0.463207 0.753525 1.000000
0.482786 0.757231 1.000000
0.539179 0.764660 1.000000
0.675555 0.780202 1.000000
0.848593 0.805545 1.000000
1.000000 0.825744 1.000000
1.000000 0.861969 1.000000
0.574904 0.927275 1.000000
0.578119 0.927370 1.000000
0.584712 0.927570 1.000000
0.599183 0.928020 1.000000
0.637347 0.929599 1.000000
0.726732 0.934000 1.000000
0.842566 0.946263 1.000000
0.972870 0.963399 1.000000
1.000000 0.973784 1.000000
0.809231 1.000000 1.000000
0.809906 1.000000 1.000000
0.811308 1.000000 1.000000
0.814477 1.000000 1.000000
0.823710 1.000000 1.000000
0.848201 1.000000 1.000000
0.900016 1.000000 1.000000
0.976038 1.000000 1.000000
1.000000 1.000000 1.000000
