Assets/Lutify-Free-LUTs-Pack/Lutify Free LUTs Pack/Print Film Pro - Print Film 2/Lutify.me-PrintFilm2-CanonLog3-to-Rec709.cube
# Created with: fylm.ai - Colour Grading and Collaboration Software in Cloud 
# Website: https://fylm.ai 
# META
# Option: Gamut compress
# Block 1: IDT | CanonLog3 Cinema Gamut Daylight
# Block 2: colourMatch | Blending Mode: Normal | {"ColorSpace":0,"CrossCovarianceLimit":50,"ReshapingIterations":1,"PercentSaturationShift":100,"PercentShadingShift":100,"ExtraShading":true,"PercentTint":100,"PercentModified":100}
# Block 3: HSL | Blending Mode: Normal | {"hue":{"Reds":0,"Yellows":0,"Greens":0,"Cyans":0,"Blues":0,"Magentas":0},"saturation":{"Reds":1,"Yellows":0.9,"Greens":0.95,"Cyans":1,"Blues":1,"Magentas":1},"luminance":{"Reds":0.8,"Yellows":0.95,"Greens":0.9,"Cyans":0.8,"Blues":0.8,"Magentas":0.8},"lum_sat":{"Blacks":1,"Shadows":1,"Midtones":1,"Highlights":1,"Whites":1},"sat_sat":{"10":1,"20":1,"30":1,"40":1,"50":1}}
# Block 4: LUT | Filmic Curve Response: Low Contrast 2 (100%)
# Block 5: ODT | Rec709
TITLE "Lutify.me-PrintFilm2-CanonLog3-to-Rec709" 
LUT_3D_SIZE 9
0.000000 0.000000 0.000000
0.000000 0.000000 0.000000
0.000000 0.000000 0.000000
0.076734 0.000000 0.000000
0.378041 0.000000 0.000000
0.765879 0.000000 0.000000
0.994296 0.000000 0.126363
1.000000 0.384299 0.297251
1.000000 0.643602 0.519434
0.000000 0.000000 0.000000
0.000000 0.007791 0.000000
0.162188 0.000000 0.000000
0.341275 0.000000 0.000000
0.601284 0.000000 0.000000
0.817040 0.000000 0.000000
0.998258 0.000000 0.117451
1.000000 0.408403 0.294410
1.000000 0.653293 0.518745
0.000000 0.102855 0.000000
0.000000 0.144942 0.000000
0.272841 0.154164 0.000000
0.497947 0.058919 0.000000
0.692872 0.000000 0.000000
0.855799 0.000000 0.000000
1.000000 0.192201 0.110646
1.000000 0.430089 0.291875
1.000000 0.662510 0.517964
0.000000 0.239128 0.000000
0.000000 0.324848 0.000000
0.248774 0.348188 0.000000
0.591346 0.323635 0.000000
0.815637 0.269043 0.000000
0.930058 0.251447 0.000000
1.000000 0.353556 0.050848
1.000000 0.493937 0.290362
1.000000 0.680973 0.515991
0.000000 0.460716 0.000000
0.000000 0.551276 0.000000
0.000000 0.575256 0.000000
0.593064 0.564845 0.000000
0.855423 0.546959 0.000000
0.985929 0.521841 0.000000
1.000000 0.607899 0.000000
1.000000 0.616381 0.284868
1.000000 0.722173 0.516531
0.000000 0.750346 0.000000
0.000000 0.761995 0.000000
0.000000 0.768124 0.000000
0.522254 0.763449 0.000000
0.838172 0.750194 0.000000
0.969618 0.745202 0.000000
1.000000 0.735998 0.000000
1.000000 0.799687 0.227220
1.000000 0.796012 0.522898
0.000000 0.882335 0.000000
0.176627 0.883321 0.000000
0.397030 0.882211 0.000000
0.586728 0.878069 0.000000
0.810937 0.868151 0.000000
0.949877 0.860917 0.000000
1.000000 0.860637 0.000000
1.000000 0.859480 0.199855
1.000000 0.899805 0.530427
0.623616 0.947922 0.000000
0.659305 0.947087 0.000000
0.693646 0.946000 0.000000
0.752693 0.943796 0.000000
0.831905 0.940505 0.000000
0.931089 0.936082 0.000000
1.000000 0.932312 0.057282
1.000000 0.931663 0.322770
1.000000 0.944060 0.489964
0.844327 0.982248 0.180803
0.851800 0.981906 0.183876
0.858703 0.981588 0.186875
0.871944 0.980973 0.193138
0.896487 0.979810 0.206385
0.938857 0.977733 0.236292
0.990497 0.975153 0.310525
1.000000 0.973138 0.458159
1.000000 0.973545 0.647541
0.000000 0.000000 0.000000
0.000000 0.000000 0.000000
0.025071 0.000000 0.000000
0.123868 0.000000 0.000000
0.343200 0.000000 0.000000
0.790939 0.000000 0.082270
0.999806 0.000000 0.181740
1.000000 0.385279 0.329890
1.000000 0.644287 0.535676
0.000000 0.000000 0.000000
0.000000 0.000000 0.000000
0.103051 0.000000 0.000000
0.290192 0.000000 0.000000
0.551538 0.000000 0.017884
0.816601 0.000000 0.076017
1.000000 0.000000 0.177389
1.000000 0.411819 0.328457
1.000000 0.654072 0.535149
0.000000 0.091480 0.000000
0.000000 0.117722 0.000000
0.230654 0.147686 0.000000
0.439509 0.116748 0.000000
0.623841 0.000000 0.000000
0.844225 0.000000 0.061237
1.000000 0.177409 0.168358
1.000000 0.434702 0.326587
1.000000 0.663365 0.534530
0.000000 0.229851 0.000000
0.000000 0.304158 0.000000
0.227371 0.333290 0.000000
0.580349 0.309205 0.000000
0.760406 0.359212 0.000000
0.897996 0.313862 0.000000
1.000000 0.338377 0.154081
1.000000 0.484910 0.322312
1.000000 0.681965 0.532912
0.000000 0.426804 0.000000
0.000000 0.539652 0.000000
0.000000 0.569374 0.000000
0.582894 0.559310 0.000000
0.852957 0.541036 0.000000
0.941099 0.613629 0.000000
1.000000 0.604717 0.000000
1.000000 0.611458 0.320157
1.000000 0.719723 0.531763
0.000000 0.744873 0.000000
0.000000 0.758144 0.000000
0.000000 0.765936 0.000000
0.508905 0.761704 0.000000
0.836055 0.748209 0.000000
0.969315 0.742680 0.000000
0.997211 0.803075 0.000000
1.000000 0.798378 0.300538
1.000000 0.793964 0.541171
0.000000 0.881854 0.000000
0.093241 0.882871 0.000000
0.381201 0.881762 0.000000
0.578792 0.877701 0.000000
0.808484 0.867717 0.000000
0.949308 0.860401 0.000000
1.000000 0.860134 0.000000
1.000000 0.901715 0.078960
1.000000 0.898953 0.553329
0.618779 0.947889 0.000000
0.655290 0.947043 0.000000
0.689634 0.945997 0.000000
0.749940 0.943757 0.000000
0.830420 0.940424 0.000000
0.930422 0.935967 0.000000
1.000000 0.932172 0.052187
1.000000 0.931519 0.322147
1.000000 0.960812 0.462611
0.843373 0.982247 0.179895
0.850921 0.981902 0.182984
0.857892 0.981581 0.186002
0.871255 0.980961 0.192298
0.895893 0.979794 0.205569
0.938516 0.977706 0.235587
0.990353 0.975117 0.309860
1.000000 0.973095 0.457738
1.000000 0.973503 0.647242
0.000000 0.000000 0.000000
0.000000 0.000000 0.000000
0.041790 0.000000 0.000000
0.140797 0.000000 0.012605
0.283822 0.000000 0.023636
0.771035 0.000000 0.124195
1.000000 0.000000 0.231801
1.000000 0.384625 0.360607
1.000000 0.644825 0.551320
0.000000 0.000000 0.000000
0.000000 0.000000 0.000000
0.070296 0.000000 0.040801
0.253652 0.000000 0.064579
0.546111 0.000000 0.096844
0.832341 0.000000 0.144536
1.000000 0.000000 0.231419
1.000000 0.412518 0.359942
1.000000 0.654707 0.550947
0.000000 0.059949 0.264056
0.000000 0.078213 0.237996
0.167163 0.177800 0.191284
0.418791 0.106294 0.140401
0.628013 0.000000 0.110313
0.848334 0.000000 0.141024
1.000000 0.172360 0.227865
1.000000 0.435906 0.358897
1.000000 0.664089 0.550482
0.000000 0.203909 0.199306
0.000000 0.306666 0.141588
0.000000 0.421607 0.059193
0.469605 0.437276 0.000000
0.736937 0.391602 0.000000
0.890066 0.287389 0.124629
1.000000 0.326341 0.210613
1.000000 0.482012 0.353634
1.000000 0.682848 0.549195
0.000000 0.391589 0.000000
0.000000 0.593258 0.000000
0.000000 0.633579 0.000000
0.358909 0.662876 0.000000
0.748365 0.645954 0.000000
0.919831 0.657216 0.000000
1.000000 0.599709 0.181019
1.000000 0.605627 0.352946
1.000000 0.717554 0.546428
0.000000 0.738892 0.000000
0.000000 0.754108 0.000000
0.000000 0.763689 0.000000
0.495155 0.759915 0.000000
0.833977 0.745922 0.000000
0.969007 0.740111 0.000000
0.987123 0.828789 0.000000
1.000000 0.795591 0.357152
1.000000 0.791963 0.557579
0.000000 0.881361 0.000000
0.000000 0.882408 0.000000
0.364372 0.881304 0.000000
0.570313 0.877342 0.000000
0.805984 0.867281 0.000000
0.948735 0.859881 0.000000
1.000000 0.859626 0.000000
1.000000 0.911090 0.173996
1.000000 0.898078 0.575718
0.613830 0.947857 0.000000
0.651190 0.946999 0.000000
0.685536 0.945995 0.000000
0.747143 0.943719 0.000000
0.828919 0.940344 0.000000
0.929750 0.935852 0.000000
1.000000 0.932033 0.046297
1.000000 0.931374 0.321523
1.000000 0.963959 0.465407
0.842408 0.982246 0.178977
0.850034 0.981898 0.182089
0.857075 0.981574 0.185122
0.870560 0.980949 0.191454
0.895295 0.979778 0.204753
0.938175 0.977679 0.234879
0.990209 0.975081 0.309194
1.000000 0.973053 0.457317
1.000000 0.973462 0.646941
0.000000 0.000000 0.000000
0.000000 0.000000 0.000000
0.029577 0.000000 0.043855
0.143160 0.000000 0.049864
0.280974 0.000000 0.049626
0.721520 0.000000 0.191071
1.000000 0.000000 0.298458
1.000000 0.382316 0.427249
1.000000 0.647431 0.583282
0.000000 0.000000 0.000000
0.000000 0.000000 0.034133
0.055434 0.000000 0.080870
0.168072 0.000000 0.064673
0.463544 0.000000 0.160255
0.807612 0.000000 0.255825
1.000000 0.000000 0.311147
1.000000 0.412959 0.427157
1.000000 0.656672 0.582416
0.000000 0.000000 0.467009
0.000000 0.000000 0.430454
0.000000 0.061468 0.356041
0.366335 0.000000 0.293919
0.607533 0.000000 0.275286
0.848495 0.000000 0.282111
1.000000 0.157720 0.319297
1.000000 0.439201 0.426679
1.000000 0.665907 0.581931
0.000000 0.133675 0.607852
0.000000 0.172544 0.569289
0.000000 0.352086 0.483812
0.417633 0.438517 0.472759
0.711211 0.373821 0.387249
0.893664 0.246546 0.307048
1.000000 0.324773 0.321542
1.000000 0.484478 0.424379
1.000000 0.684351 0.580646
0.000000 0.313028 0.549682
0.000000 0.531340 0.438753
0.000000 0.622421 0.413276
0.251248 0.700415 0.391881
0.722522 0.705837 0.361856
0.907296 0.656389 0.304301
1.000000 0.571754 0.329931
1.000000 0.591782 0.418162
1.000000 0.718608 0.578270
0.000000 0.772707 0.246551
0.000000 0.820955 0.219614
0.000000 0.831562 0.184664
0.000000 0.842353 0.138236
0.668915 0.847725 0.056762
0.883558 0.839024 0.000000
0.980231 0.831384 0.292018
1.000000 0.787970 0.438171
1.000000 0.788066 0.586469
0.000000 0.896311 0.000000
0.000000 0.898782 0.000000
0.000000 0.900238 0.000000
0.425562 0.898321 0.000000
0.739209 0.887209 0.000000
0.928860 0.869768 0.000000
1.000000 0.858517 0.000000
1.000000 0.917658 0.375589
1.000000 0.896304 0.618093
0.602711 0.947791 0.000000
0.642019 0.946908 0.000000
0.676362 0.945996 0.000000
0.740907 0.943641 0.000000
0.825615 0.940171 0.000000
0.928277 0.935602 0.000000
1.000000 0.931729 0.027367
1.000000 0.931060 0.320173
1.000000 0.967287 0.548040
0.840315 0.982245 0.176986
0.848087 0.981891 0.180134
0.855280 0.981560 0.183207
0.869046 0.980923 0.189619
0.893990 0.979744 0.202974
0.937432 0.977620 0.233345
0.989894 0.975002 0.307751
1.000000 0.972960 0.456407
1.000000 0.973371 0.646293
0.000000 0.000000 0.000000
0.000000 0.000000 0.000000
0.000000 0.000000 0.071114
0.130594 0.000000 0.090299
0.282817 0.000000 0.088137
0.445578 0.000000 0.082180
0.983315 0.000000 0.435679
1.000000 0.353242 0.526608
1.000000 0.653977 0.644460
0.000000 0.000000 0.000000
0.000000 0.000000 0.063218
0.000000 0.000000 0.124003
0.140688 0.000000 0.104999
0.282328 0.000000 0.087027
0.729071 0.000000 0.329746
0.995773 0.000000 0.465697
1.000000 0.388509 0.532829
1.000000 0.664153 0.644974
0.000000 0.000000 0.639198
0.000000 0.000000 0.600691
0.000000 0.000000 0.531222
0.260682 0.000000 0.457253
0.527400 0.000000 0.362403
0.818056 0.000000 0.439825
1.000000 0.000000 0.488126
1.000000 0.420112 0.538211
1.000000 0.672921 0.645356
0.000000 0.000000 0.818762
0.000000 0.082036 0.781020
0.000000 0.204902 0.708194
0.281924 0.264147 0.674781
0.688366 0.191497 0.612024
0.883247 0.062602 0.537472
1.000000 0.286698 0.523412
1.000000 0.488342 0.548427
1.000000 0.690664 0.645824
0.000000 0.243968 0.852525
0.000000 0.288394 0.826501
0.000000 0.490309 0.755537
0.000000 0.628206 0.730334
0.679152 0.698037 0.727672
0.889811 0.637066 0.649469
1.000000 0.540482 0.557340
1.000000 0.594052 0.552154
1.000000 0.722195 0.641648
0.000000 0.603205 0.745398
0.000000 0.745789 0.702325
0.000000 0.783338 0.687290
0.000000 0.828021 0.674495
0.620684 0.863404 0.670030
0.865062 0.858725 0.657191
0.968525 0.830451 0.579643
1.000000 0.775999 0.565685
1.000000 0.784046 0.641897
0.000000 0.916042 0.545289
0.000000 0.923498 0.550991
0.000000 0.927902 0.544868
0.196190 0.930033 0.527274
0.615096 0.930340 0.497038
0.843755 0.929443 0.487930
0.956292 0.924290 0.455108
1.000000 0.917949 0.588696
1.000000 0.894909 0.686011
0.391371 0.973138 0.000000
0.454152 0.973590 0.000000
0.503345 0.973344 0.000000
0.589320 0.972652 0.000000
0.699095 0.971842 0.000000
0.841119 0.969320 0.124069
0.950183 0.963723 0.172642
1.000000 0.953796 0.277475
1.000000 0.969207 0.682038
0.835611 0.982282 0.173016
0.843668 0.981879 0.175763
0.851210 0.981535 0.178935
0.865622 0.980869 0.185526
0.891068 0.979672 0.199023
0.935772 0.977493 0.229950
0.989193 0.974829 0.304562
1.000000 0.972757 0.454407
1.000000 0.973171 0.644864
0.000000 0.000000 0.000000
0.000000 0.000000 0.052521
0.000000 0.000000 0.127087
0.095101 0.000000 0.147000
0.272219 0.000000 0.152400
0.452752 0.000000 0.139571
0.845689 0.000000 0.364635
1.000000 0.239453 0.673345
1.000000 0.627525 0.735625
0.000000 0.000000 0.000000
0.000000 0.000000 0.084720
0.000000 0.000000 0.141533
0.094763 0.000000 0.145937
0.272028 0.000000 0.151470
0.452412 0.000000 0.138577
0.953396 0.000000 0.551565
1.000000 0.308670 0.686262
1.000000 0.642310 0.738211
0.000000 0.000000 0.793860
0.000000 0.000000 0.749722
0.000000 0.000000 0.689182
0.000000 0.000000 0.617275
0.435650 0.000000 0.510187
0.561140 0.000000 0.257078
0.981467 0.000000 0.618277
1.000000 0.352273 0.694459
1.000000 0.655761 0.740281
0.000000 0.000000 0.915603
0.000000 0.000000 0.873481
0.000000 0.101519 0.835211
0.000000 0.139470 0.806865
0.547715 0.000000 0.750396
0.840730 0.000000 0.682141
1.000000 0.000000 0.687844
1.000000 0.431132 0.708723
1.000000 0.682236 0.744309
0.000000 0.154699 0.958510
0.000000 0.208721 0.932157
0.000000 0.353472 0.886952
0.000000 0.446021 0.872920
0.548501 0.525155 0.859443
0.894277 0.485280 0.826708
1.000000 0.436235 0.761133
1.000000 0.562475 0.737734
1.000000 0.727260 0.751576
0.000000 0.376241 0.959778
0.000000 0.420018 0.945586
0.000000 0.632508 0.893071
0.000000 0.738276 0.877852
0.433393 0.819392 0.869471
0.833516 0.850919 0.872787
0.955267 0.818131 0.826600
1.000000 0.763352 0.764408
1.000000 0.787066 0.754824
0.000000 0.859712 0.859440
0.000000 0.881553 0.855085
0.000000 0.894022 0.850767
0.000000 0.907041 0.844761
0.446972 0.922546 0.842864
0.811733 0.938307 0.848230
0.938589 0.935530 0.838317
0.998914 0.917686 0.790812
1.000000 0.888800 0.770037
0.185718 0.975700 0.771179
0.327636 0.976614 0.773672
0.418638 0.977425 0.775237
0.539455 0.978959 0.773717
0.672621 0.978654 0.764953
0.806237 0.977510 0.749582
0.925432 0.976678 0.746236
0.991713 0.974293 0.730415
1.000000 0.969759 0.804969
0.739207 1.000000 0.515948
0.748605 1.000000 0.516843
0.757359 1.000000 0.517721
0.774416 1.000000 0.520582
0.804872 1.000000 0.527824
0.856538 1.000000 0.534214
0.927107 0.998871 0.556706
0.988682 0.996163 0.573479
1.000000 0.992561 0.609531
0.000000 0.000000 0.000000
0.000000 0.000000 0.160055
0.000000 0.000000 0.214548
0.072834 0.000000 0.230998
0.217969 0.000000 0.239560
0.449654 0.000000 0.224404
0.651090 0.000000 0.209478
1.000000 0.000000 0.707283
1.000000 0.547129 0.832014
0.000000 0.000000 0.000000
0.000000 0.000000 0.156476
0.000000 0.000000 0.213592
0.072405 0.000000 0.230365
0.217752 0.000000 0.239044
0.449553 0.000000 0.223877
0.650930 0.000000 0.208998
1.000000 0.000000 0.751637
1.000000 0.567311 0.834438
0.000000 0.000000 0.861869
0.000000 0.000000 0.814387
0.000000 0.000000 0.765170
0.000000 0.000000 0.699697
0.271885 0.000000 0.560429
0.469040 0.000000 0.249633
0.650771 0.000000 0.208518
1.000000 0.000000 0.778651
1.000000 0.586137 0.837078
0.000000 0.000000 0.980217
0.000000 0.000000 0.936252
0.000000 0.052497 0.918395
0.000000 0.084254 0.898623
0.345447 0.000000 0.866151
0.744192 0.000000 0.815756
0.938079 0.000000 0.683149
1.000000 0.154967 0.816757
1.000000 0.621017 0.843295
0.000000 0.055589 1.000000
0.000000 0.159306 0.970491
0.000000 0.234524 0.950675
0.000000 0.287090 0.941077
0.363893 0.323175 0.927885
0.804380 0.265785 0.897711
1.000000 0.115165 0.859794
1.000000 0.418034 0.850670
1.000000 0.684364 0.851688
0.000000 0.291496 1.000000
0.000000 0.369282 0.994359
0.000000 0.517289 0.965833
0.000000 0.607283 0.953896
0.000000 0.683673 0.945566
0.763066 0.742759 0.939102
0.966096 0.733767 0.921525
1.000000 0.689648 0.883961
1.000000 0.769931 0.862739
0.000000 0.536678 1.000000
0.000000 0.556819 1.000000
0.000000 0.757322 0.962271
0.000000 0.833113 0.950453
0.000000 0.881539 0.944060
0.728942 0.912974 0.940905
0.923067 0.931100 0.944210
0.990979 0.913397 0.917620
1.000000 0.881798 0.882831
0.000000 0.949354 0.933663
0.000000 0.954566 0.932950
0.000000 0.958692 0.932651
0.000000 0.961841 0.930937
0.471738 0.965465 0.927928
0.739653 0.971776 0.926262
0.908274 0.980637 0.931511
0.980779 0.979561 0.926583
1.000000 0.968617 0.901446
0.689475 1.000000 0.888076
0.705056 1.000000 0.889089
0.719180 1.000000 0.890059
0.745690 1.000000 0.891753
0.786219 1.000000 0.891818
0.841416 1.000000 0.889408
0.907030 1.000000 0.881953
0.973762 1.000000 0.882335
1.000000 0.998699 0.878290
0.000000 0.000000 0.078443
0.000000 0.000000 0.312726
0.000000 0.000000 0.332391
0.000000 0.000000 0.349504
0.188755 0.000000 0.353608
0.390664 0.000000 0.352264
0.653981 0.000000 0.318736
0.855269 0.000000 0.296198
1.000000 0.032266 0.877974
0.000000 0.000000 0.067007
0.000000 0.000000 0.311654
0.000000 0.000000 0.331887
0.000000 0.000000 0.349084
0.188447 0.000000 0.353334
0.390563 0.000000 0.351979
0.653877 0.000000 0.318454
0.855209 0.000000 0.295942
1.000000 0.200478 0.887367
0.000000 0.000000 0.560840
0.000000 0.000000 0.603409
0.000000 0.000000 0.566071
0.000000 0.000000 0.479086
0.188139 0.000000 0.353059
0.390463 0.000000 0.351694
0.653772 0.000000 0.318172
0.855149 0.000000 0.295685
1.000000 0.275928 0.895074
0.000000 0.000000 1.000000
0.000000 0.000000 0.978250
0.000000 0.000000 0.967353
0.000000 0.000000 0.952265
0.248588 0.000000 0.931461
0.575677 0.000000 0.891656
0.856520 0.000000 0.742740
0.855018 0.000000 0.295132
1.000000 0.372182 0.904952
0.000000 0.074595 1.000000
0.000000 0.168837 1.000000
0.000000 0.202167 0.996989
0.000000 0.236235 0.990391
0.267595 0.255653 0.979927
0.631566 0.208446 0.960416
0.957277 0.000000 0.933431
1.000000 0.000000 0.881612
1.000000 0.503514 0.919150
0.000000 0.206988 1.000000
0.000000 0.325281 1.000000
0.000000 0.386632 1.000000
0.000000 0.440554 0.998990
0.172538 0.498344 0.991598
0.623128 0.540935 0.982343
0.949456 0.518936 0.965203
1.000000 0.485104 0.946039
1.000000 0.681867 0.933904
0.000000 0.457444 1.000000
0.000000 0.571115 1.000000
0.000000 0.678733 1.000000
0.000000 0.747547 0.996350
0.000000 0.803516 0.989352
0.533105 0.842773 0.984315
0.881725 0.873352 0.980724
0.994697 0.869519 0.972403
1.000000 0.842747 0.950073
0.000000 0.703711 1.000000
0.000000 0.703599 1.000000
0.000000 0.847300 1.000000
0.000000 0.899006 0.990402
0.000000 0.931116 0.985721
0.551246 0.949398 0.982500
0.858884 0.965036 0.981481
0.972739 0.976284 0.984236
1.000000 0.965487 0.969926
0.306864 0.991997 0.973945
0.383968 0.992385 0.973977
0.441016 0.992703 0.974022
0.528953 0.993225 0.973674
0.626904 0.993644 0.972504
0.740225 0.995052 0.970822
0.869753 0.998851 0.971410
0.964397 1.000000 0.976293
1.000000 1.000000 0.973822
0.000000 0.000000 0.469434
0.000000 0.000000 0.489404
0.000000 0.000000 0.492644
0.000000 0.000000 0.499436
0.171285 0.000000 0.495388
0.353772 0.000000 0.492467
0.605989 0.000000 0.477542
0.848710 0.000000 0.435105
1.000000 0.000000 0.408035
0.000000 0.000000 0.468461
0.000000 0.000000 0.489164
0.000000 0.000000 0.492456
0.000000 0.000000 0.499146
0.170937 0.000000 0.495221
0.353591 0.000000 0.492281
0.605920 0.000000 0.477340
0.848683 0.000000 0.434906
1.000000 0.000000 0.407872
0.000000 0.000000 0.467474
0.000000 0.000000 0.488923
0.000000 0.000000 0.492270
0.000000 0.000000 0.498856
0.170591 0.000000 0.495053
0.353411 0.000000 0.492094
0.605851 0.000000 0.477138
0.848656 0.000000 0.434708
1.000000 0.000000 0.407709
0.000000 0.000000 0.992379
0.000000 0.000000 0.982574
0.000000 0.000000 0.974692
0.000000 0.000000 0.960045
0.183378 0.000000 0.931617
0.414788 0.000000 0.813858
0.605703 0.000000 0.476702
0.848598 0.000000 0.434279
1.000000 0.000000 0.407358
0.000000 0.148355 1.000000
0.000000 0.172272 1.000000
0.000000 0.180057 1.000000
0.000000 0.195949 1.000000
0.261134 0.192926 1.000000
0.558344 0.133441 0.997595
0.835542 0.000000 0.978068
1.000000 0.000000 0.932576
1.000000 0.000000 0.406586
0.000000 0.305233 1.000000
0.000000 0.339617 1.000000
0.000000 0.363831 1.000000
0.000000 0.396431 1.000000
0.237062 0.437332 1.000000
0.551649 0.461838 1.000000
0.853970 0.434907 1.000000
1.000000 0.398115 0.988011
1.000000 0.248084 0.962849
0.000000 0.467142 1.000000
0.000000 0.532401 1.000000
0.000000 0.564134 1.000000
0.000000 0.603686 1.000000
0.000000 0.652125 1.000000
0.500468 0.706446 1.000000
0.805538 0.735611 1.000000
0.992859 0.737391 0.996986
1.000000 0.722494 0.987422
0.000000 0.605355 1.000000
0.000000 0.760804 1.000000
0.000000 0.808508 1.000000
0.000000 0.844141 1.000000
0.000000 0.877556 1.000000
0.420360 0.899846 1.000000
0.769022 0.919335 1.000000
0.943658 0.939091 1.000000
1.000000 0.934490 0.998164
0.000000 0.823849 1.000000
0.000000 0.823806 1.000000
0.000000 0.899243 1.000000
0.000000 0.944892 1.000000
0.000000 0.964531 1.000000
0.472632 0.975655 1.000000
0.781450 0.984291 1.000000
0.931883 0.993719 1.000000
0.996238 0.999242 1.000000
