Assets/Lutify-Free-LUTs-Pack/Lutify Free LUTs Pack/Print Film Pro - Print Film 2/Lutify.me-PrintFilm2-CanonLog1-to-Rec709.cube
# Created with: fylm.ai - Colour Grading and Collaboration Software in Cloud 
# Website: https://fylm.ai 
# META
# Option: Gamut compress
# Block 1: IDT | CanonLog Cinema Gamut Daylight
# Block 2: colourMatch | Blending Mode: Normal | {"ColorSpace":0,"CrossCovarianceLimit":50,"ReshapingIterations":1,"PercentSaturationShift":100,"PercentShadingShift":100,"ExtraShading":true,"PercentTint":100,"PercentModified":100}
# Block 3: HSL | Blending Mode: Normal | {"hue":{"Reds":0,"Yellows":0,"Greens":0,"Cyans":0,"Blues":0,"Magentas":0},"saturation":{"Reds":1,"Yellows":0.9,"Greens":0.95,"Cyans":1,"Blues":1,"Magentas":1},"luminance":{"Reds":0.8,"Yellows":0.95,"Greens":0.9,"Cyans":0.8,"Blues":0.8,"Magentas":0.8},"lum_sat":{"Blacks":1,"Shadows":1,"Midtones":1,"Highlights":1,"Whites":1},"sat_sat":{"10":1,"20":1,"30":1,"40":1,"50":1}}
# Block 4: LUT | Filmic Curve Response: Low Contrast 2 (100%)
# Block 5: ODT | Rec709
TITLE "Lutify.me-PrintFilm2-CanonLog1-to-Rec709" 
LUT_3D_SIZE 33
0.000000 0.000000 0.000000
0.000000 0.000000 0.000000
0.000000 0.000000 0.000000
0.000000 0.000000 0.000000
0.000000 0.000000 0.000000
0.000000 0.000000 0.000000
0.000000 0.000000 0.000000
0.000000 0.000000 0.000000
0.000000 0.000000 0.000000
0.000000 0.000000 0.000000
0.028708 0.000000 0.000000
0.058580 0.000000 0.000000
0.075026 0.000000 0.000000
0.093577 0.000000 0.000000
0.122260 0.000000 0.000000
0.191902 0.000000 0.000000
0.288462 0.000000 0.000000
0.387011 0.000000 0.000000
0.493416 0.000000 0.000000
0.582962 0.000000 0.000000
0.659555 0.000000 0.000000
0.726101 0.000000 0.000000
0.793974 0.000000 0.000000
0.855737 0.000000 0.016886
0.905815 0.000000 0.056495
0.947170 0.000000 0.083998
0.981571 0.000000 0.111032
1.000000 0.000000 0.142134
1.000000 0.074110 0.176722
1.000000 0.213465 0.211521
1.000000 0.295090 0.247849
1.000000 0.363814 0.284663
1.000000 0.422311 0.324551
0.000000 0.000000 0.000000
0.000000 0.000000 0.000000
0.000000 0.000000 0.000000
0.000000 0.000000 0.000000
0.000000 0.000000 0.000000
0.000000 0.000000 0.000000
0.000000 0.000000 0.000000
0.000000 0.000000 0.000000
0.000000 0.000000 0.000000
0.000000 0.000000 0.000000
0.042025 0.000000 0.000000
0.083942 0.000000 0.000000
0.126735 0.000000 0.000000
0.175926 0.000000 0.000000
0.244074 0.000000 0.000000
0.325440 0.000000 0.000000
0.413430 0.000000 0.000000
0.501930 0.000000 0.000000
0.567943 0.000000 0.000000
0.628794 0.000000 0.000000
0.687763 0.000000 0.000000
0.756563 0.000000 0.000000
0.814315 0.000000 0.000000
0.868789 0.000000 0.000000
0.913979 0.000000 0.049034
0.951193 0.000000 0.079096
0.982159 0.000000 0.106707
1.000000 0.000000 0.138344
1.000000 0.134621 0.174609
1.000000 0.234785 0.209785
1.000000 0.307718 0.246821
1.000000 0.373027 0.283446
1.000000 0.430011 0.323171
0.000000 0.000000 0.000000
0.000000 0.000000 0.000000
0.000000 0.000000 0.000000
0.000000 0.000000 0.000000
0.000000 0.000000 0.000000
0.000000 0.000000 0.000000
0.000000 0.000000 0.000000
0.000000 0.000000 0.000000
0.052869 0.000000 0.000000
0.084251 0.000000 0.000000
0.121707 0.000000 0.000000
0.165010 0.000000 0.000000
0.219623 0.000000 0.000000
0.280321 0.000000 0.000000
0.343008 0.000000 0.000000
0.412915 0.000000 0.000000
0.489482 0.000000 0.000000
0.559442 0.000000 0.000000
0.610012 0.000000 0.000000
0.658211 0.000000 0.000000
0.711953 0.000000 0.000000
0.773396 0.000000 0.000000
0.826404 0.000000 0.000000
0.876707 0.000000 0.000000
0.918887 0.000000 0.042245
0.955104 0.000000 0.075573
0.984838 0.000000 0.104411
1.000000 0.000000 0.136064
1.000000 0.166845 0.172185
1.000000 0.250670 0.208211
1.000000 0.319298 0.245776
1.000000 0.380195 0.282767
1.000000 0.436013 0.322407
0.000000 0.000000 0.000000
0.000000 0.000000 0.000000
0.000000 0.000000 0.000000
0.000000 0.000000 0.000000
0.000000 0.000000 0.000000
0.000000 0.000000 0.000000
0.039950 0.000000 0.000000
0.079533 0.000000 0.000000
0.114560 0.000000 0.000000
0.147234 0.000000 0.000000
0.189498 0.000000 0.000000
0.240495 0.000000 0.000000
0.293261 0.000000 0.000000
0.344895 0.000000 0.000000
0.402610 0.000000 0.000000
0.463335 0.000000 0.000000
0.528950 0.000000 0.000000
0.593930 0.000000 0.000000
0.646891 0.000000 0.000000
0.684840 0.000000 0.000000
0.733926 0.000000 0.000000
0.784404 0.000000 0.000000
0.835572 0.000000 0.000000
0.882295 0.000000 0.000000
0.922724 0.000000 0.033840
0.957828 0.000000 0.072056
0.986679 0.000000 0.102152
1.000000 0.081988 0.134602
1.000000 0.192953 0.170585
1.000000 0.264037 0.206730
1.000000 0.328920 0.244814
1.000000 0.386141 0.282151
1.000000 0.441029 0.321725
0.000000 0.000000 0.000000
0.000000 0.000000 0.000000
0.000000 0.000000 0.000000
0.000000 0.000000 0.000000
0.000000 0.014294 0.000000
0.061602 0.015425 0.000000
0.107463 0.000000 0.000000
0.144425 0.000000 0.000000
0.172750 0.000000 0.000000
0.206996 0.000000 0.000000
0.244725 0.000000 0.000000
0.294393 0.000000 0.000000
0.338839 0.000000 0.000000
0.385835 0.000000 0.000000
0.438952 0.000000 0.000000
0.494778 0.000000 0.000000
0.557815 0.000000 0.000000
0.617042 0.000000 0.000000
0.671139 0.000000 0.000000
0.703902 0.000000 0.000000
0.744368 0.000000 0.000000
0.793930 0.000000 0.000000
0.843371 0.000000 0.000000
0.887023 0.000000 0.000000
0.925852 0.000000 0.021318
0.959935 0.000000 0.068566
0.988117 0.000000 0.100180
1.000000 0.122617 0.134075
1.000000 0.214026 0.169547
1.000000 0.275482 0.205665
1.000000 0.336052 0.244011
1.000000 0.391100 0.281601
1.000000 0.445234 0.321122
0.000000 0.035754 0.000000
0.000000 0.033238 0.000000
0.000000 0.030837 0.000000
0.000000 0.040063 0.000000
0.000000 0.053948 0.000000
0.068440 0.058385 0.000000
0.129981 0.050509 0.000000
0.177673 0.033945 0.000000
0.221672 0.000000 0.000000
0.260598 0.000000 0.000000
0.298903 0.000000 0.000000
0.335840 0.000000 0.000000
0.371358 0.000000 0.000000
0.415252 0.000000 0.000000
0.462126 0.000000 0.000000
0.516073 0.000000 0.000000
0.579295 0.000000 0.000000
0.634941 0.000000 0.000000
0.687281 0.000000 0.000000
0.723211 0.000000 0.000000
0.760155 0.000000 0.000000
0.803907 0.000000 0.000000
0.850584 0.000000 0.000000
0.891455 0.000000 0.000000
0.929088 0.000000 0.000000
0.961901 0.000000 0.064485
0.989596 0.000000 0.098646
1.000000 0.150842 0.133407
1.000000 0.230734 0.168935
1.000000 0.288498 0.205419
1.000000 0.342977 0.243175
1.000000 0.395952 0.281029
1.000000 0.449372 0.320502
0.000000 0.059664 0.000000
0.000000 0.058520 0.000000
0.000000 0.057621 0.000000
0.000000 0.066614 0.000000
0.000000 0.084056 0.000000
0.063741 0.094940 0.000000
0.140661 0.093755 0.000000
0.205728 0.084093 0.000000
0.255780 0.070009 0.000000
0.299248 0.035205 0.000000
0.336963 0.000000 0.000000
0.380173 0.000000 0.000000
0.421349 0.000000 0.000000
0.456383 0.000000 0.000000
0.496328 0.000000 0.000000
0.546939 0.000000 0.000000
0.603221 0.000000 0.000000
0.655600 0.000000 0.000000
0.707858 0.000000 0.000000
0.745984 0.000000 0.000000
0.775647 0.000000 0.000000
0.814558 0.000000 0.000000
0.858933 0.000000 0.000000
0.898012 0.000000 0.000000
0.932613 0.000000 0.000000
0.964193 0.000000 0.058332
0.991247 0.082483 0.096663
1.000000 0.177590 0.132436
1.000000 0.248746 0.167683
1.000000 0.303132 0.204562
1.000000 0.351359 0.242438
1.000000 0.401519 0.280329
1.000000 0.454141 0.319752
0.000000 0.083337 0.000000
0.000000 0.082255 0.000000
0.000000 0.081330 0.000000
0.000000 0.094988 0.000000
0.000000 0.116985 0.000000
0.016972 0.131590 0.000000
0.140901 0.132245 0.000000
0.217763 0.126868 0.000000
0.275693 0.116735 0.000000
0.326824 0.104444 0.000000
0.372272 0.077795 0.000000
0.423732 0.000000 0.000000
0.467425 0.000000 0.000000
0.507186 0.000000 0.000000
0.540836 0.000000 0.000000
0.584196 0.000000 0.000000
0.635450 0.000000 0.000000
0.682956 0.000000 0.000000
0.731122 0.000000 0.000000
0.771801 0.000000 0.000000
0.792700 0.000000 0.000000
0.825169 0.000000 0.000000
0.867222 0.000000 0.000000
0.906060 0.000000 0.000000
0.936418 0.000000 0.000000
0.967388 0.000000 0.048540
0.993159 0.137018 0.093640
1.000000 0.204697 0.130882
1.000000 0.268543 0.166042
1.000000 0.319544 0.203014
1.000000 0.362154 0.242328
1.000000 0.407888 0.279471
1.000000 0.459626 0.318839
0.000000 0.108925 0.000000
0.000000 0.107958 0.000000
0.000000 0.108519 0.000000
0.000000 0.127196 0.000000
0.000000 0.154521 0.000000
0.000000 0.172228 0.000000
0.135018 0.173216 0.000000
0.219412 0.172509 0.000000
0.288397 0.162592 0.000000
0.345964 0.152551 0.000000
0.400560 0.142548 0.000000
0.454255 0.117067 0.000000
0.500176 0.087654 0.000000
0.545106 0.000000 0.000000
0.587708 0.000000 0.000000
0.627105 0.000000 0.000000
0.669053 0.000000 0.000000
0.710008 0.000000 0.000000
0.751632 0.000000 0.000000
0.794564 0.000000 0.000000
0.814652 0.000000 0.000000
0.839552 0.000000 0.000000
0.877638 0.000000 0.000000
0.913467 0.000000 0.000000
0.942605 0.000000 0.000000
0.971503 0.117504 0.031479
0.996377 0.177771 0.087520
1.000000 0.233494 0.128098
1.000000 0.290119 0.163908
1.000000 0.336624 0.201176
1.000000 0.375780 0.241422
1.000000 0.417020 0.279426
1.000000 0.465922 0.317729
0.000000 0.137273 0.000000
0.000000 0.136229 0.000000
0.000000 0.139835 0.000000
0.000000 0.168058 0.000000
0.000000 0.194521 0.000000
0.000000 0.211724 0.000000
0.112820 0.212497 0.000000
0.218893 0.212539 0.000000
0.296796 0.206292 0.000000
0.359384 0.196603 0.000000
0.422065 0.185651 0.000000
0.482823 0.174972 0.000000
0.530531 0.154762 0.000000
0.575926 0.129185 0.000000
0.618173 0.089907 0.000000
0.660769 0.000000 0.000000
0.705023 0.000000 0.000000
0.743617 0.000000 0.000000
0.777610 0.000000 0.000000
0.813959 0.000000 0.000000
0.836938 0.000000 0.000000
0.854166 0.000000 0.000000
0.889483 0.000000 0.000000
0.919312 0.067528 0.000000
0.950174 0.132303 0.000000
0.975881 0.178507 0.000000
0.999872 0.219535 0.079516
1.000000 0.260530 0.123205
1.000000 0.313602 0.161126
1.000000 0.355021 0.198907
1.000000 0.391221 0.239960
1.000000 0.429999 0.278761
1.000000 0.476455 0.317144
0.000000 0.172331 0.000000
0.000000 0.171301 0.000000
0.000000 0.183218 0.000000
0.000000 0.213666 0.000000
0.000000 0.236249 0.000000
0.000000 0.250547 0.000000
0.028026 0.258248 0.000000
0.207544 0.260932 0.000000
0.296084 0.257690 0.000000
0.362903 0.249997 0.000000
0.432977 0.239534 0.000000
0.505036 0.228052 0.000000
0.560798 0.221543 0.000000
0.606849 0.204021 0.000000
0.647864 0.181751 0.000000
0.690119 0.151910 0.000000
0.734667 0.113024 0.000000
0.774476 0.040935 0.000000
0.808775 0.000000 0.000000
0.841083 0.000000 0.000000
0.870693 0.000000 0.000000
0.876129 0.000000 0.000000
0.899160 0.121463 0.000000
0.929157 0.162463 0.000000
0.957717 0.189952 0.000000
0.980290 0.231235 0.000000
1.000000 0.260155 0.065706
1.000000 0.292535 0.116244
1.000000 0.337455 0.157508
1.000000 0.375569 0.195994
1.000000 0.408663 0.238049
1.000000 0.444764 0.277888
1.000000 0.488885 0.317726
0.000000 0.204437 0.000000
0.000000 0.203698 0.000000
0.000000 0.225898 0.000000
0.000000 0.259122 0.000000
0.000000 0.279219 0.000000
0.000000 0.291732 0.000000
0.000000 0.300386 0.000000
0.188319 0.300481 0.000000
0.286464 0.303169 0.000000
0.367062 0.296782 0.000000
0.438604 0.288556 0.000000
0.516025 0.278167 0.000000
0.576048 0.269476 0.000000
0.628521 0.264994 0.000000
0.672243 0.251804 0.000000
0.717854 0.231646 0.000000
0.761982 0.207632 0.000000
0.800366 0.183309 0.000000
0.836031 0.160277 0.000000
0.868052 0.117619 0.000000
0.896904 0.000000 0.000000
0.907091 0.090393 0.000000
0.917350 0.193414 0.000000
0.938489 0.227358 0.000000
0.964250 0.245378 0.000000
0.983656 0.281765 0.000000
1.000000 0.301947 0.032299
1.000000 0.326751 0.106434
1.000000 0.362146 0.152443
1.000000 0.396127 0.192190
1.000000 0.428050 0.235586
1.000000 0.461521 0.276742
1.000000 0.503059 0.318462
0.000000 0.236192 0.000000
0.000000 0.235561 0.000000
0.000000 0.268038 0.000000
0.000000 0.303120 0.000000
0.000000 0.321078 0.000000
0.000000 0.333370 0.000000
0.000000 0.341909 0.000000
0.153041 0.341290 0.000000
0.270312 0.344945 0.000000
0.359682 0.343998 0.000000
0.444981 0.336830 0.000000
0.521588 0.328331 0.000000
0.583953 0.319575 0.000000
0.637536 0.312322 0.000000
0.686691 0.309595 0.000000
0.735717 0.297582 0.000000
0.784560 0.277126 0.000000
0.822966 0.256798 0.000000
0.856653 0.236172 0.000000
0.887842 0.214795 0.000000
0.915983 0.186395 0.000000
0.939085 0.169966 0.000000
0.934397 0.257479 0.000000
0.947711 0.288241 0.000000
0.968759 0.305769 0.000000
0.986865 0.323665 0.000000
1.000000 0.344094 0.000000
1.000000 0.360995 0.092740
1.000000 0.386691 0.145594
1.000000 0.418587 0.187258
1.000000 0.447428 0.232270
1.000000 0.481341 0.275680
1.000000 0.518967 0.319057
0.000000 0.269273 0.000000
0.000000 0.274972 0.000000
0.000000 0.313838 0.000000
0.000000 0.346292 0.000000
0.000000 0.367123 0.000000
0.000000 0.379414 0.000000
0.000000 0.386375 0.000000
0.051820 0.387135 0.000000
0.242575 0.393029 0.000000
0.344881 0.394189 0.000000
0.440450 0.388978 0.000000
0.528189 0.381139 0.000000
0.594653 0.373434 0.000000
0.649744 0.365750 0.000000
0.700220 0.359507 0.000000
0.750516 0.357681 0.000000
0.799293 0.347128 0.000000
0.838348 0.330106 0.000000
0.871172 0.312779 0.000000
0.903877 0.292950 0.000000
0.930593 0.272324 0.000000
0.956804 0.251026 0.000000
0.960126 0.307293 0.000000
0.959011 0.360666 0.000000
0.972042 0.366281 0.000000
0.990735 0.369769 0.000000
1.000000 0.383346 0.000000
1.000000 0.399014 0.069137
1.000000 0.415853 0.135940
1.000000 0.443527 0.180780
1.000000 0.469228 0.227997
1.000000 0.505446 0.273899
1.000000 0.537346 0.318766
0.000000 0.304435 0.000000
0.000000 0.321953 0.000000
0.000000 0.369349 0.000000
0.000000 0.401841 0.000000
0.000000 0.416796 0.000000
0.000000 0.427670 0.000000
0.000000 0.433919 0.000000
0.000000 0.437863 0.000000
0.200915 0.441557 0.000000
0.328791 0.442802 0.000000
0.429234 0.439182 0.000000
0.527383 0.432317 0.000000
0.598507 0.425346 0.000000
0.656796 0.418442 0.000000
0.710049 0.411174 0.000000
0.763181 0.406197 0.000000
0.811705 0.404214 0.000000
0.849947 0.395667 0.000000
0.881100 0.381990 0.000000
0.912140 0.367197 0.000000
0.941170 0.351397 0.000000
0.966085 0.334941 0.000000
0.988548 0.320356 0.000000
0.973112 0.407941 0.000000
0.980040 0.427778 0.000000
0.994419 0.424595 0.000000
1.000000 0.429043 0.000000
1.000000 0.441546 0.000000
1.000000 0.452482 0.121708
1.000000 0.470970 0.173079
1.000000 0.499773 0.224452
1.000000 0.530684 0.273510
1.000000 0.559198 0.317739
0.000000 0.343638 0.000000
0.000000 0.390532 0.000000
0.000000 0.431270 0.000000
0.000000 0.453463 0.000000
0.000000 0.465692 0.000000
0.000000 0.475716 0.000000
0.000000 0.484013 0.000000
0.000000 0.494218 0.000000
0.110703 0.493973 0.000000
0.304857 0.494693 0.000000
0.419542 0.491778 0.000000
0.517520 0.487301 0.000000
0.592587 0.481194 0.000000
0.654709 0.475039 0.000000
0.711230 0.468555 0.000000
0.768145 0.464447 0.000000
0.821039 0.463447 0.000000
0.860639 0.459423 0.000000
0.893146 0.451471 0.000000
0.919722 0.439346 0.000000
0.945625 0.426065 0.000000
0.972260 0.411112 0.000000
0.995425 0.395553 0.000000
0.993838 0.440649 0.000000
0.985710 0.499434 0.000000
0.998273 0.491214 0.000000
1.000000 0.479699 0.000000
1.000000 0.490108 0.000000
1.000000 0.495628 0.098610
1.000000 0.510371 0.162513
1.000000 0.532598 0.219756
1.000000 0.558481 0.273115
1.000000 0.583494 0.317968
0.000000 0.396173 0.000000
0.000000 0.456198 0.000000
0.000000 0.488307 0.000000
0.000000 0.504659 0.000000
0.000000 0.515192 0.000000
0.000000 0.524309 0.000000
0.000000 0.533486 0.000000
0.000000 0.542793 0.000000
0.000000 0.544189 0.000000
0.268573 0.543105 0.000000
0.402885 0.540859 0.000000
0.505505 0.537599 0.000000
0.587406 0.532956 0.000000
0.652757 0.527580 0.000000
0.712154 0.521884 0.000000
0.768550 0.516234 0.000000
0.823595 0.516240 0.000000
0.864700 0.515620 0.000000
0.897436 0.511114 0.000000
0.926431 0.506122 0.000000
0.948978 0.495893 0.000000
0.973240 0.484106 0.000000
0.997857 0.471004 0.000000
1.000000 0.457420 0.000000
0.996936 0.536761 0.000000
0.998405 0.568310 0.000000
1.000000 0.559898 0.000000
1.000000 0.542641 0.000000
1.000000 0.546859 0.045448
1.000000 0.552557 0.148119
1.000000 0.569483 0.209561
1.000000 0.589844 0.271946
1.000000 0.608337 0.316528
0.000000 0.469730 0.000000
0.000000 0.519848 0.000000
0.000000 0.542848 0.000000
0.000000 0.555760 0.000000
0.000000 0.564306 0.000000
0.000000 0.571718 0.000000
0.000000 0.579191 0.000000
0.000000 0.585628 0.000000
0.000000 0.586484 0.000000
0.225615 0.585520 0.000000
0.381760 0.583597 0.000000
0.491984 0.580743 0.000000
0.581809 0.577255 0.000000
0.653743 0.572313 0.000000
0.715546 0.567101 0.000000
0.772478 0.561717 0.000000
0.823633 0.557096 0.000000
0.864608 0.558502 0.000000
0.896441 0.559070 0.000000
0.926319 0.555500 0.000000
0.952642 0.551792 0.000000
0.974385 0.542423 0.000000
0.996696 0.532248 0.000000
1.000000 0.521792 0.000000
1.000000 0.527609 0.000000
1.000000 0.618842 0.000000
1.000000 0.627966 0.000000
1.000000 0.616968 0.000000
1.000000 0.603480 0.000000
1.000000 0.602133 0.125771
1.000000 0.608414 0.195468
1.000000 0.619633 0.264105
1.000000 0.636142 0.314233
0.000000 0.544166 0.000000
0.000000 0.577417 0.000000
0.000000 0.593248 0.000000
0.000000 0.603274 0.000000
0.000000 0.610699 0.000000
0.000000 0.613732 0.000000
0.000000 0.620014 0.000000
0.000000 0.626758 0.000000
0.000000 0.627878 0.000000
0.152627 0.627133 0.000000
0.354146 0.625599 0.000000
0.475958 0.623152 0.000000
0.569606 0.620196 0.000000
0.648490 0.616508 0.000000
0.712940 0.611685 0.000000
0.774106 0.606574 0.000000
0.825405 0.601879 0.000000
0.865095 0.598720 0.000000
0.895977 0.601205 0.000000
0.923541 0.600226 0.000000
0.950609 0.597728 0.000000
0.975404 0.596749 0.000000
0.995537 0.587961 0.000000
1.000000 0.579030 0.000000
1.000000 0.569695 0.000000
1.000000 0.617238 0.000000
1.000000 0.676999 0.000000
1.000000 0.678101 0.000000
1.000000 0.670516 0.000000
1.000000 0.655411 0.085121
1.000000 0.646889 0.177961
1.000000 0.652019 0.252784
1.000000 0.663764 0.309720
0.000000 0.608986 0.000000
0.000000 0.629692 0.000000
0.000000 0.641990 0.000000
0.000000 0.650601 0.000000
0.000000 0.653659 0.000000
0.000000 0.654859 0.000000
0.000000 0.659185 0.000000
0.000000 0.665092 0.000000
0.000000 0.668570 0.000000
0.000000 0.668104 0.000000
0.310049 0.666992 0.000000
0.457225 0.664805 0.000000
0.555508 0.662284 0.000000
0.637779 0.659312 0.000000
0.705226 0.655560 0.000000
0.767747 0.650894 0.000000
0.825304 0.646268 0.000000
0.865012 0.642731 0.000000
0.896082 0.640746 0.000000
0.922545 0.640120 0.000000
0.946942 0.638027 0.000000
0.971871 0.639838 0.000000
0.993635 0.641177 0.000000
1.000000 0.633424 0.000000
1.000000 0.625395 0.000000
1.000000 0.616957 0.000000
1.000000 0.697711 0.000000
1.000000 0.721632 0.000000
1.000000 0.718581 0.000000
1.000000 0.714650 0.000000
1.000000 0.696515 0.157655
1.000000 0.687471 0.237456
1.000000 0.693366 0.303900
0.000000 0.668654 0.000000
0.000000 0.683666 0.000000
0.000000 0.693615 0.000000
0.000000 0.696693 0.000000
0.000000 0.697857 0.000000
0.000000 0.699931 0.000000
0.000000 0.704387 0.000000
0.000000 0.709043 0.000000
0.000000 0.710765 0.000000
0.000000 0.710642 0.000000
0.279334 0.709583 0.000000
0.432310 0.707608 0.000000
0.538441 0.705227 0.000000
0.624519 0.702435 0.000000
0.694434 0.699477 0.000000
0.758918 0.695530 0.000000
0.818017 0.691148 0.000000
0.860068 0.687705 0.000000
0.891586 0.684925 0.000000
0.920365 0.682396 0.000000
0.943886 0.680214 0.000000
0.966426 0.681488 0.000000
0.988124 0.684594 0.000000
1.000000 0.684529 0.000000
1.000000 0.677762 0.000000
1.000000 0.670649 0.000000
1.000000 0.663017 0.000000
1.000000 0.751284 0.000000
1.000000 0.763119 0.000000
1.000000 0.755913 0.000000
1.000000 0.749332 0.130551
1.000000 0.733335 0.220066
1.000000 0.728799 0.297967
0.000000 0.724420 0.000000
0.000000 0.734747 0.000000
0.000000 0.737297 0.000000
0.000000 0.738404 0.000000
0.000000 0.741076 0.000000
0.000000 0.744276 0.000000
0.000000 0.747621 0.000000
0.000000 0.749482 0.000000
0.000000 0.749963 0.000000
0.000000 0.750078 0.000000
0.274208 0.748970 0.000000
0.414990 0.747248 0.000000
0.520973 0.745107 0.000000
0.611117 0.742482 0.000000
0.682750 0.739763 0.000000
0.749193 0.736874 0.000000
0.809399 0.732933 0.000000
0.852005 0.729737 0.000000
0.884116 0.727139 0.000000
0.914138 0.724719 0.000000
0.940113 0.722643 0.000000
0.961724 0.723815 0.000000
0.980978 0.726623 0.000000
0.998453 0.727090 0.000000
1.000000 0.726008 0.000000
1.000000 0.720648 0.000000
1.000000 0.714463 0.000000
1.000000 0.724156 0.000000
1.000000 0.796647 0.000000
1.000000 0.796400 0.000000
1.000000 0.789886 0.077797
1.000000 0.780817 0.204576
1.000000 0.769971 0.288046
0.000000 0.766761 0.000000
0.000000 0.771405 0.000000
0.000000 0.772859 0.000000
0.000000 0.776326 0.000000
0.000000 0.778934 0.000000
0.000000 0.781268 0.000000
0.000000 0.782104 0.000000
0.000000 0.782444 0.000000
0.000000 0.782739 0.000000
0.000000 0.782788 0.000000
0.296816 0.781647 0.000000
0.413950 0.780157 0.000000
0.503349 0.778418 0.000000
0.597957 0.775903 0.000000
0.673176 0.773309 0.000000
0.740335 0.770638 0.000000
0.801697 0.767716 0.000000
0.844477 0.764802 0.000000
0.877107 0.762429 0.000000
0.907660 0.760202 0.000000
0.934608 0.758289 0.000000
0.957437 0.757682 0.000000
0.975716 0.760449 0.000000
0.991809 0.762458 0.000000
1.000000 0.761769 0.000000
1.000000 0.761156 0.000000
1.000000 0.757629 0.000000
1.000000 0.752681 0.000000
1.000000 0.787656 0.000000
1.000000 0.828804 0.000000
1.000000 0.827271 0.000000
1.000000 0.821044 0.187027
1.000000 0.813050 0.279154
0.000000 0.800281 0.000000
0.000000 0.803391 0.000000
0.000000 0.806618 0.000000
0.000000 0.808988 0.000000
0.000000 0.809873 0.000000
0.000000 0.810054 0.000000
0.000000 0.810246 0.000000
0.000000 0.810383 0.000000
0.000000 0.810451 0.000000
0.199281 0.810212 0.000000
0.338952 0.809014 0.000000
0.425703 0.807753 0.000000
0.499528 0.806259 0.000000
0.581947 0.804105 0.000000
0.665188 0.801386 0.000000
0.733393 0.798773 0.000000
0.794988 0.796167 0.000000
0.838006 0.793792 0.000000
0.871027 0.791521 0.000000
0.901993 0.789360 0.000000
0.929300 0.787474 0.000000
0.952417 0.785955 0.000000
0.971349 0.785673 0.000000
0.987238 0.788150 0.000000
1.000000 0.789944 0.000000
1.000000 0.789402 0.000000
1.000000 0.788899 0.000000
1.000000 0.786441 0.000000
1.000000 0.782269 0.000000
1.000000 0.830381 0.000000
1.000000 0.853657 0.000000
1.000000 0.851950 0.142172
1.000000 0.844930 0.260914
0.000000 0.830289 0.000000
0.000000 0.833099 0.000000
0.000000 0.834230 0.000000
0.000000 0.834341 0.000000
0.000000 0.834413 0.000000
0.000000 0.834444 0.000000
0.000000 0.834435 0.000000
0.000000 0.834355 0.000000
0.145812 0.834154 0.000000
0.296572 0.833587 0.000000
0.383319 0.832520 0.000000
0.449010 0.831384 0.000000
0.513117 0.829979 0.000000
0.582576 0.828104 0.000000
0.656237 0.825732 0.000000
0.727947 0.823079 0.000000
0.789259 0.820556 0.000000
0.832309 0.818658 0.000000
0.865638 0.816623 0.000000
0.896852 0.814529 0.000000
0.924444 0.812673 0.000000
0.948538 0.811132 0.000000
0.967580 0.810000 0.000000
0.983490 0.809915 0.000000
0.998347 0.812224 0.000000
1.000000 0.813936 0.000000
1.000000 0.813521 0.000000
1.000000 0.813270 0.000000
1.000000 0.811494 0.000000
1.000000 0.807876 0.000000
1.000000 0.861436 0.000000
1.000000 0.874829 0.000000
1.000000 0.870470 0.233520
0.000000 0.855794 0.000000
0.000000 0.855886 0.000000
0.000000 0.855903 0.000000
0.000000 0.855878 0.000000
0.000000 0.855822 0.000000
0.000000 0.855723 0.000000
0.000000 0.855558 0.000000
0.189028 0.855306 0.000000
0.296394 0.854985 0.000000
0.369609 0.854330 0.000000
0.425705 0.853433 0.000000
0.480509 0.852350 0.000000
0.535533 0.851040 0.000000
0.598370 0.849268 0.000000
0.658670 0.847319 0.000000
0.723468 0.844964 0.000000
0.784304 0.842537 0.000000
0.826867 0.840724 0.000000
0.860614 0.839203 0.000000
0.891909 0.837205 0.000000
0.919678 0.835391 0.000000
0.944436 0.833840 0.000000
0.965019 0.832655 0.000000
0.980785 0.831782 0.000000
0.994794 0.831847 0.000000
1.000000 0.834030 0.000000
1.000000 0.835640 0.000000
