Assets/Lutify-Free-LUTs-Pack/Lutify Free LUTs Pack/Print Film Pro - Print Film 2/Lutify.me-PrintFilm2-FLog2-to-Rec709.cube
# Created with: fylm.ai - Colour Grading and Collaboration Software in Cloud 
# Website: https://fylm.ai 
# META
# Option: Gamut compress
# Block 1: IDT | Fujifilm F-Gamut F-Log2
# Block 2: colourMatch | Blending Mode: Normal | {"ColorSpace":0,"CrossCovarianceLimit":50,"ReshapingIterations":1,"PercentSaturationShift":100,"PercentShadingShift":100,"ExtraShading":true,"PercentTint":100,"PercentModified":100}
# Block 3: HSL | Blending Mode: Normal | {"hue":{"Reds":0,"Yellows":0,"Greens":0,"Cyans":0,"Blues":0,"Magentas":0},"saturation":{"Reds":1,"Yellows":0.9,"Greens":0.95,"Cyans":1,"Blues":1,"Magentas":1},"luminance":{"Reds":0.8,"Yellows":0.95,"Greens":0.9,"Cyans":0.8,"Blues":0.8,"Magentas":0.8},"lum_sat":{"Blacks":1,"Shadows":1,"Midtones":1,"Highlights":1,"Whites":1},"sat_sat":{"10":1,"20":1,"30":1,"40":1,"50":1}}
# Block 4: LUT | Filmic Curve Response: Low Contrast 2 (100%)
# Block 5: ODT | Rec709
TITLE "Lutify.me-PrintFilm2-FLog2-to-Rec709" 
LUT_3D_SIZE 33
0.000000 0.000000 0.000000
0.000000 0.000000 0.000000
0.000000 0.000000 0.000000
0.000000 0.000000 0.000000
0.000000 0.000000 0.000000
0.000000 0.000000 0.000000
0.000000 0.000000 0.000000
0.000000 0.000000 0.000000
0.000000 0.000000 0.000000
0.041058 0.000000 0.000000
0.074641 0.000000 0.000000
0.115635 0.000000 0.000000
0.160081 0.000000 0.000000
0.233711 0.000000 0.000000
0.308359 0.000000 0.000000
0.390237 0.000000 0.000000
0.485038 0.000000 0.000000
0.582889 0.000000 0.004177
0.681893 0.000000 0.033394
0.772566 0.000000 0.062977
0.870207 0.000000 0.092161
0.939352 0.000000 0.127814
0.991589 0.191280 0.172452
1.000000 0.311010 0.228846
1.000000 0.405020 0.290198
1.000000 0.496497 0.355368
1.000000 0.589046 0.432041
1.000000 0.676074 0.519073
1.000000 0.740502 0.592394
1.000000 0.796348 0.669931
1.000000 0.842899 0.744661
1.000000 0.877801 0.800396
1.000000 0.904809 0.844454
0.000000 0.000000 0.000000
0.000000 0.000000 0.000000
0.000000 0.000000 0.000000
0.000000 0.000000 0.000000
0.000000 0.000000 0.000000
0.000000 0.000000 0.000000
0.000000 0.000000 0.000000
0.000000 0.000000 0.000000
0.000000 0.000000 0.000000
0.051705 0.000000 0.000000
0.083333 0.000000 0.000000
0.123470 0.000000 0.000000
0.169397 0.000000 0.000000
0.241761 0.000000 0.000000
0.314776 0.000000 0.000000
0.394748 0.000000 0.000000
0.488779 0.000000 0.000000
0.586420 0.000000 0.000000
0.683851 0.000000 0.033358
0.774275 0.000000 0.063016
0.871332 0.000000 0.092331
0.939970 0.000000 0.128044
0.991879 0.195026 0.172793
1.000000 0.313021 0.229085
1.000000 0.406189 0.290265
1.000000 0.497438 0.355541
1.000000 0.589533 0.432118
1.000000 0.676394 0.519135
1.000000 0.740716 0.592479
1.000000 0.796486 0.669996
1.000000 0.842963 0.744701
1.000000 0.877841 0.800410
1.000000 0.904834 0.844468
0.000000 0.000000 0.000000
0.000000 0.000000 0.000000
0.000000 0.000000 0.000000
0.000000 0.000000 0.000000
0.000000 0.000000 0.000000
0.000000 0.000000 0.000000
0.000000 0.000000 0.000000
0.000000 0.000000 0.000000
0.013211 0.000000 0.000000
0.059532 0.000000 0.000000
0.094684 0.000000 0.000000
0.131894 0.000000 0.000000
0.179599 0.000000 0.000000
0.249521 0.000000 0.000000
0.321080 0.000000 0.000000
0.399183 0.000000 0.000000
0.492458 0.000000 0.000000
0.589774 0.000000 0.000000
0.686073 0.000000 0.033209
0.775945 0.000000 0.063034
0.872445 0.000000 0.092497
0.940581 0.000000 0.128272
0.992165 0.198707 0.173134
1.000000 0.315020 0.229323
1.000000 0.407355 0.290331
1.000000 0.498379 0.355712
1.000000 0.590019 0.432194
1.000000 0.676715 0.519196
1.000000 0.740931 0.592564
1.000000 0.796623 0.670061
1.000000 0.843028 0.744741
1.000000 0.877881 0.800423
1.000000 0.904859 0.844482
0.000000 0.000000 0.000000
0.000000 0.000000 0.000000
0.000000 0.000000 0.000000
0.000000 0.000000 0.000000
0.000000 0.000000 0.000000
0.000000 0.000000 0.000000
0.000000 0.000000 0.000000
0.000000 0.000000 0.000000
0.027894 0.000000 0.000000
0.067388 0.000000 0.000000
0.102982 0.000000 0.000000
0.140151 0.000000 0.000000
0.189122 0.000000 0.000000
0.257021 0.000000 0.000000
0.327295 0.000000 0.000000
0.403556 0.000000 0.000000
0.496080 0.000000 0.000000
0.592978 0.000000 0.000000
0.688273 0.000000 0.033031
0.777542 0.000000 0.063064
0.873548 0.000000 0.092657
0.941186 0.000000 0.128498
0.992447 0.202329 0.173473
1.000000 0.317009 0.229562
1.000000 0.408517 0.290399
1.000000 0.499318 0.355883
1.000000 0.590505 0.432271
1.000000 0.677034 0.519258
1.000000 0.741146 0.592649
1.000000 0.796760 0.670126
1.000000 0.843093 0.744780
1.000000 0.877921 0.800436
1.000000 0.904884 0.844495
0.000000 0.000000 0.000000
0.000000 0.000000 0.000000
0.000000 0.000000 0.000000
0.000000 0.000000 0.000000
0.000000 0.000000 0.000000
0.000000 0.000000 0.000000
0.000000 0.000000 0.000000
0.004303 0.000000 0.000000
0.047644 0.000000 0.000000
0.077251 0.000000 0.000000
0.111753 0.000000 0.000000
0.148168 0.000000 0.000000
0.198148 0.000000 0.000000
0.265636 0.000000 0.000000
0.333235 0.000000 0.000000
0.408437 0.000000 0.000000
0.500108 0.000000 0.000000
0.596329 0.000000 0.000000
0.690729 0.000000 0.032793
0.779329 0.000000 0.063086
0.874499 0.000000 0.092850
0.941859 0.000000 0.128749
0.992761 0.206351 0.173854
1.000000 0.319240 0.229831
1.000000 0.409993 0.290582
1.000000 0.500374 0.356077
1.000000 0.591163 0.432453
1.000000 0.677395 0.519328
1.000000 0.741388 0.592746
1.000000 0.796915 0.670199
1.000000 0.843165 0.744825
1.000000 0.877967 0.800452
1.000000 0.904912 0.844511
0.000000 0.000000 0.000000
0.000000 0.000000 0.000000
0.000000 0.000000 0.000000
0.000000 0.000000 0.000000
0.000000 0.000000 0.000000
0.000000 0.000000 0.000000
0.000000 0.000000 0.000000
0.045399 0.000000 0.000000
0.068697 0.000000 0.000000
0.098603 0.000000 0.000000
0.125634 0.000000 0.000000
0.162636 0.000000 0.000000
0.210021 0.000000 0.000000
0.277005 0.000000 0.000000
0.339768 0.000000 0.000000
0.415123 0.000000 0.000000
0.505429 0.000000 0.000000
0.600768 0.000000 0.000000
0.693985 0.000000 0.032401
0.781709 0.000000 0.063191
0.875708 0.000000 0.093103
0.942659 0.000000 0.129088
0.993175 0.211647 0.174363
1.000000 0.322213 0.230192
1.000000 0.412129 0.290934
1.000000 0.501790 0.356336
1.000000 0.592082 0.432731
1.000000 0.677877 0.519421
1.000000 0.741712 0.592874
1.000000 0.797123 0.670296
1.000000 0.843263 0.744885
1.000000 0.878027 0.800472
1.000000 0.904950 0.844532
0.000000 0.000000 0.000000
0.000000 0.000000 0.000000
0.000000 0.000000 0.000000
0.000000 0.000000 0.000000
0.000000 0.000000 0.000000
0.000000 0.007181 0.000000
0.027977 0.014176 0.000000
0.057346 0.013122 0.000000
0.082843 0.000000 0.000000
0.116304 0.000000 0.000000
0.148631 0.000000 0.000000
0.183207 0.000000 0.000000
0.227972 0.000000 0.000000
0.289417 0.000000 0.000000
0.348880 0.000000 0.000000
0.424190 0.000000 0.000000
0.512714 0.000000 0.000000
0.606634 0.000000 0.000000
0.698282 0.000000 0.031707
0.784862 0.000000 0.063331
0.877305 0.000000 0.093426
0.943514 0.000000 0.129549
0.993718 0.218582 0.175041
1.000000 0.325938 0.230692
1.000000 0.414980 0.291406
1.000000 0.503681 0.356683
1.000000 0.593313 0.433103
1.000000 0.678526 0.519550
1.000000 0.742145 0.593047
1.000000 0.797400 0.670428
1.000000 0.843394 0.744967
1.000000 0.878108 0.800500
1.000000 0.905001 0.844560
0.000000 0.011537 0.000000
0.000000 0.014809 0.000000
0.000000 0.018157 0.000000
0.000000 0.022241 0.000000
0.000000 0.031631 0.000000
0.000000 0.040051 0.000000
0.032652 0.043329 0.000000
0.060180 0.044771 0.000000
0.090950 0.043822 0.000000
0.129425 0.036532 0.000000
0.168980 0.000000 0.000000
0.211006 0.000000 0.000000
0.252449 0.000000 0.000000
0.306056 0.000000 0.000000
0.364531 0.000000 0.000000
0.435852 0.000000 0.000000
0.523220 0.000000 0.000000
0.614161 0.000000 0.000000
0.703936 0.000000 0.030453
0.789021 0.000000 0.063476
0.879400 0.000000 0.093831
0.944694 0.032145 0.130209
0.994162 0.228964 0.175647
1.000000 0.330637 0.231382
1.000000 0.418779 0.292039
1.000000 0.506668 0.357524
1.000000 0.594958 0.433602
1.000000 0.679514 0.519857
1.000000 0.742724 0.593278
1.000000 0.797772 0.670605
1.000000 0.843570 0.745075
1.000000 0.878216 0.800537
1.000000 0.905069 0.844597
0.000000 0.042089 0.000000
0.000000 0.044351 0.000000
0.000000 0.046783 0.000000
0.000000 0.048809 0.000000
0.000000 0.052302 0.000000
0.000000 0.057862 0.000000
0.025267 0.063882 0.000000
0.062064 0.064575 0.000000
0.097436 0.065343 0.000000
0.145286 0.063282 0.000000
0.185645 0.054149 0.000000
0.231785 0.040777 0.000000
0.276260 0.000000 0.000000
0.330956 0.000000 0.000000
0.387315 0.000000 0.000000
0.451225 0.000000 0.000000
0.536840 0.000000 0.000000
0.623828 0.000000 0.000000
0.711366 0.000000 0.028099
0.794492 0.000000 0.063591
0.882133 0.000000 0.094319
0.946253 0.094960 0.131152
0.994709 0.242412 0.176429
1.000000 0.336851 0.232305
1.000000 0.423831 0.292888
1.000000 0.510765 0.358748
1.000000 0.597157 0.434271
1.000000 0.680784 0.520272
1.000000 0.743497 0.593588
1.000000 0.798269 0.670840
1.000000 0.843804 0.745219
1.000000 0.878361 0.800586
1.000000 0.905161 0.844647
0.000000 0.064165 0.000000
0.000000 0.066908 0.000000
0.000000 0.070107 0.000000
0.000000 0.074028 0.000000
0.000000 0.078085 0.000000
0.000000 0.087280 0.000000
0.000000 0.093408 0.000000
0.047119 0.098547 0.000000
0.096373 0.102030 0.000000
0.152627 0.098170 0.000000
0.207275 0.098059 0.000000
0.252579 0.092360 0.000000
0.302891 0.085564 0.000000
0.356996 0.066298 0.000000
0.418392 0.000000 0.000000
0.476080 0.000000 0.000000
0.553453 0.000000 0.000000
0.636707 0.000000 0.000000
0.720480 0.000000 0.023038
0.801668 0.000000 0.063590
0.885664 0.000000 0.094866
0.948235 0.134984 0.132367
0.995354 0.257154 0.177419
1.000000 0.345034 0.233545
1.000000 0.430037 0.293986
1.000000 0.515999 0.360406
1.000000 0.600090 0.435166
1.000000 0.682474 0.520826
1.000000 0.744527 0.594004
1.000000 0.798933 0.671156
1.000000 0.844117 0.745413
1.000000 0.878555 0.800652
1.000000 0.905283 0.844714
0.000000 0.092976 0.000000
0.000000 0.095411 0.000000
0.000000 0.098682 0.000000
0.000000 0.104100 0.000000
0.000000 0.110775 0.000000
0.000000 0.118282 0.000000
0.000000 0.130350 0.000000
0.000000 0.137444 0.000000
0.086544 0.137902 0.000000
0.154528 0.141550 0.000000
0.211319 0.137268 0.000000
0.267749 0.139625 0.000000
0.325150 0.136287 0.000000
0.384481 0.128665 0.000000
0.449661 0.115444 0.000000
0.508489 0.095799 0.000000
0.581980 0.000000 0.000000
0.652370 0.000000 0.000000
0.730883 0.000000 0.000000
0.809239 0.000000 0.064138
0.890165 0.063540 0.095373
0.950699 0.173836 0.133893
0.996113 0.274410 0.178687
1.000000 0.355767 0.235209
1.000000 0.437827 0.295422
1.000000 0.522742 0.362408
1.000000 0.603998 0.436365
1.000000 0.684788 0.521642
1.000000 0.745899 0.594560
1.000000 0.799818 0.671578
1.000000 0.844536 0.745672
1.000000 0.878815 0.800742
1.000000 0.905446 0.844804
0.000000 0.128202 0.000000
0.000000 0.134079 0.000000
0.000000 0.140230 0.000000
0.000000 0.147477 0.000000
0.000000 0.153099 0.000000
0.000000 0.159521 0.000000
0.000000 0.173161 0.000000
0.000000 0.182972 0.000000
0.000000 0.189806 0.000000
0.136721 0.190240 0.000000
0.208408 0.192073 0.000000
0.277798 0.185285 0.000000
0.340513 0.191169 0.000000
0.413156 0.190461 0.000000
0.474738 0.184135 0.000000
0.542266 0.172319 0.000000
0.611072 0.153570 0.000000
0.681360 0.118831 0.000000
0.745285 0.091770 0.000000
0.818999 0.087070 0.062695
0.895950 0.142336 0.097508
0.953657 0.216192 0.135744
0.996985 0.296521 0.180329
1.000000 0.369778 0.237446
1.000000 0.448099 0.297350
1.000000 0.531699 0.364757
1.000000 0.609438 0.438181
1.000000 0.688473 0.523419
1.000000 0.747718 0.595304
1.000000 0.800987 0.672143
1.000000 0.845095 0.746019
1.000000 0.879161 0.800861
1.000000 0.905665 0.844924
0.000000 0.183689 0.000000
0.000000 0.188271 0.000000
0.000000 0.193062 0.000000
0.000000 0.201468 0.000000
0.000000 0.207135 0.000000
0.000000 0.213577 0.000000
0.000000 0.225594 0.000000
0.000000 0.234139 0.000000
0.000000 0.242670 0.000000
0.068895 0.249886 0.000000
0.179440 0.255012 0.000000
0.264868 0.251795 0.000000
0.341575 0.245375 0.000000
0.424462 0.255279 0.000000
0.506903 0.256088 0.000000
0.569650 0.249591 0.000000
0.639305 0.241632 0.000000
0.709661 0.223073 0.000000
0.772073 0.195393 0.000000
0.832673 0.186224 0.058364
0.905771 0.203994 0.098279
0.956908 0.261030 0.139790
0.997941 0.324481 0.182494
1.000000 0.387992 0.240464
1.000000 0.461597 0.299944
1.000000 0.543531 0.367904
1.000000 0.617149 0.441047
1.000000 0.693136 0.525586
1.000000 0.750125 0.596299
1.000000 0.802542 0.672897
1.000000 0.845838 0.746482
1.000000 0.879623 0.801021
1.000000 0.905957 0.845085
0.000000 0.251459 0.000000
0.000000 0.258925 0.000000
0.000000 0.267223 0.000000
0.000000 0.271188 0.000000
0.000000 0.275126 0.000000
0.000000 0.283814 0.000000
0.000000 0.293066 0.000000
0.000000 0.300263 0.000000
0.000000 0.311893 0.000000
0.000000 0.319171 0.000000
0.101017 0.326849 0.000000
0.236788 0.332176 0.000000
0.330430 0.329291 0.000000
0.434821 0.325178 0.000000
0.520607 0.333794 0.000000
0.602699 0.335733 0.000000
0.672917 0.327665 0.000000
0.740768 0.319438 0.000000
0.800300 0.309977 0.000000
0.857683 0.298258 0.027797
0.916985 0.279051 0.097628
0.960186 0.316542 0.142503
0.999201 0.360640 0.185870
1.000000 0.411606 0.244564
1.000000 0.481743 0.303688
1.000000 0.559103 0.372126
1.000000 0.627339 0.444875
1.000000 0.698763 0.527935
1.000000 0.754259 0.598635
1.000000 0.804817 0.674253
1.000000 0.846826 0.747099
1.000000 0.880238 0.801234
1.000000 0.906347 0.845300
0.000000 0.324634 0.000000
0.000000 0.329148 0.000000
0.000000 0.335579 0.000000
0.000000 0.341417 0.000000
0.000000 0.346460 0.000000
0.000000 0.350390 0.000000
0.000000 0.356618 0.000000
0.000000 0.369846 0.000000
0.000000 0.381218 0.000000
0.000000 0.394128 0.000000
0.000000 0.403133 0.000000
0.156514 0.413182 0.000000
0.287145 0.417298 0.000000
0.412914 0.415733 0.000000
0.521488 0.409273 0.000000
0.606900 0.417724 0.000000
0.692247 0.419843 0.000000
0.763290 0.415010 0.000000
0.820813 0.407630 0.000000
0.873333 0.392481 0.000000
0.926658 0.381139 0.094162
0.963869 0.382862 0.146031
1.000000 0.407590 0.192464
1.000000 0.446499 0.252958
1.000000 0.511151 0.309250
1.000000 0.579524 0.377800
1.000000 0.640708 0.449989
1.000000 0.706093 0.531079
1.000000 0.760086 0.602060
1.000000 0.808296 0.676846
1.000000 0.848134 0.747922
1.000000 0.881057 0.801520
1.000000 0.906868 0.845588
0.000000 0.410463 0.000000
0.000000 0.417306 0.000000
0.000000 0.422609 0.000000
0.000000 0.427284 0.000000
0.000000 0.431879 0.000000
0.000000 0.434868 0.000000
0.000000 0.438658 0.000000
0.000000 0.447267 0.000000
0.000000 0.460679 0.000000
0.000000 0.471141 0.000000
0.000000 0.481677 0.000000
0.000000 0.492120 0.000000
0.213254 0.501605 0.000000
0.381921 0.499493 0.000000
0.500743 0.504185 0.000000
0.600688 0.499323 0.000000
0.694604 0.503301 0.000000
0.777897 0.504098 0.000000
0.836458 0.501627 0.000000
0.885347 0.488703 0.000000
0.933261 0.481583 0.091656
0.970331 0.465939 0.150329
1.000000 0.468746 0.202487
1.000000 0.494167 0.263216
1.000000 0.543019 0.319202
1.000000 0.604016 0.386444
1.000000 0.657881 0.456864
1.000000 0.715562 0.535291
1.000000 0.767586 0.606645
1.000000 0.812849 0.680288
1.000000 0.849894 0.748917
1.000000 0.882144 0.801901
1.000000 0.907559 0.845972
0.000000 0.506837 0.000000
0.000000 0.512358 0.000000
0.000000 0.517766 0.000000
0.000000 0.521588 0.000000
0.000000 0.525558 0.000000
0.000000 0.528417 0.000000
0.000000 0.531503 0.000000
0.000000 0.535177 0.000000
0.000000 0.541745 0.000000
0.000000 0.550473 0.000000
0.000000 0.566391 0.000000
0.000000 0.576940 0.000000
0.000000 0.586585 0.000000
0.332112 0.595260 0.000000
0.465608 0.592996 0.000000
0.576588 0.589481 0.000000
0.686116 0.587893 0.000000
0.776443 0.590996 0.000000
0.844768 0.596440 0.000000
0.891697 0.588972 0.000000
0.935421 0.583976 0.091492
0.970046 0.569776 0.164090
0.997840 0.564107 0.216310
1.000000 0.561204 0.275406
1.000000 0.589611 0.331209
1.000000 0.634978 0.396142
1.000000 0.679323 0.466048
1.000000 0.727652 0.540941
1.000000 0.777104 0.612788
1.000000 0.818478 0.684372
1.000000 0.853104 0.751011
1.000000 0.883648 0.802572
1.000000 0.908477 0.846483
0.000000 0.599189 0.000000
0.000000 0.601524 0.000000
0.000000 0.604973 0.000000
0.000000 0.607250 0.000000
0.000000 0.609328 0.000000
0.000000 0.612154 0.000000
0.000000 0.616670 0.000000
0.000000 0.621311 0.000000
0.000000 0.627700 0.000000
0.000000 0.632542 0.000000
0.000000 0.639389 0.000000
0.000000 0.649117 0.000000
0.000000 0.663350 0.000000
0.242653 0.672417 0.000000
0.418251 0.676625 0.000000
0.538356 0.681294 0.000000
0.661729 0.679920 0.000000
0.764427 0.673756 0.000000
0.836198 0.680021 0.000000
0.889365 0.683164 0.000000
0.932469 0.679825 0.103876
0.965236 0.667758 0.181168
0.990871 0.657715 0.240656
1.000000 0.653286 0.300618
1.000000 0.647715 0.351017
1.000000 0.674210 0.411241
1.000000 0.705283 0.478788
1.000000 0.743102 0.548849
1.000000 0.788995 0.621028
1.000000 0.825341 0.689108
1.000000 0.857390 0.753997
1.000000 0.886194 0.804661
1.000000 0.909683 0.847111
0.000000 0.686312 0.111015
0.000000 0.688117 0.106847
0.000000 0.689872 0.102595
0.000000 0.691559 0.098738
0.000000 0.693340 0.096133
0.000000 0.696022 0.092332
0.000000 0.699917 0.085084
0.000000 0.704256 0.074343
0.000000 0.709316 0.049583
0.000000 0.712016 0.000000
0.000000 0.715673 0.000000
0.000000 0.723669 0.000000
0.000000 0.730748 0.000000
0.127931 0.738043 0.000000
0.359532 0.745171 0.000000
0.503469 0.751727 0.000000
0.635988 0.750712 0.000000
0.745695 0.748307 0.000000
0.819315 0.743148 0.000000
0.879095 0.749229 0.000000
0.928626 0.748010 0.140375
0.959508 0.744741 0.209589
0.983155 0.734257 0.268129
1.000000 0.731839 0.331594
1.000000 0.720168 0.382166
1.000000 0.720262 0.432597
1.000000 0.737449 0.493826
1.000000 0.764493 0.560867
1.000000 0.803644 0.631747
1.000000 0.834079 0.695360
1.000000 0.862857 0.758034
1.000000 0.889513 0.807415
1.000000 0.911233 0.847663
0.000000 0.764881 0.213092
0.000000 0.765948 0.211467
0.000000 0.766980 0.210013
0.000000 0.767945 0.209331
0.000000 0.769006 0.208576
0.000000 0.770377 0.206671
0.000000 0.772223 0.203650
0.000000 0.774274 0.199453
0.000000 0.775611 0.193022
0.000000 0.777245 0.184303
0.000000 0.779508 0.177219
0.000000 0.782287 0.169432
0.000000 0.790059 0.155830
0.000000 0.798810 0.138277
0.322701 0.803509 0.120553
0.482386 0.807872 0.104143
0.624060 0.807556 0.098874
0.725114 0.806839 0.068730
0.802807 0.806963 0.000000
0.867726 0.802902 0.000000
0.919484 0.802576 0.178334
0.952259 0.805079 0.253558
0.976079 0.798115 0.309591
0.997160 0.792353 0.370926
1.000000 0.787234 0.422125
1.000000 0.777317 0.463849
1.000000 0.778750 0.516216
1.000000 0.792458 0.579156
1.000000 0.820095 0.643206
1.000000 0.845009 0.703778
1.000000 0.869646 0.764022
1.000000 0.893807 0.811032
1.000000 0.913775 0.849220
0.000000 0.831949 0.308872
0.000000 0.832483 0.308509
0.000000 0.833006 0.308155
0.000000 0.833515 0.307420
0.000000 0.834075 0.306226
0.000000 0.834806 0.304656
0.000000 0.835766 0.302637
0.000000 0.837043 0.300142
0.000000 0.838655 0.296936
0.000000 0.839547 0.291270
0.000000 0.840461 0.285541
0.000000 0.841512 0.278474
0.000000 0.842659 0.267681
0.000000 0.845329 0.259419
0.299035 0.849473 0.249034
0.474197 0.852023 0.241868
0.604470 0.854107 0.236038
0.709616 0.855188 0.238696
0.788336 0.855254 0.234463
0.853303 0.852908 0.226552
0.908906 0.852831 0.221611
0.941811 0.853377 0.294987
0.968981 0.852810 0.366380
0.989268 0.848300 0.421166
1.000000 0.843521 0.467000
1.000000 0.835421 0.506222
1.000000 0.832894 0.554656
1.000000 0.827185 0.605581
1.000000 0.840576 0.659938
1.000000 0.858234 0.715846
1.000000 0.878142 0.771589
1.000000 0.899309 0.815604
1.000000 0.917383 0.851802
0.000000 0.873568 0.405844
0.000000 0.873869 0.405214
0.000000 0.874165 0.404592
0.000000 0.874455 0.403978
0.000000 0.874934 0.403244
0.000000 0.875640 0.402251
0.000000 0.876563 0.400948
0.000000 0.877430 0.399350
0.000000 0.878447 0.397354
0.000000 0.880530 0.394951
0.000000 0.882130 0.390223
0.000000 0.883230 0.383814
0.000000 0.883553 0.376911
0.000000 0.884182 0.373018
0.309970 0.885534 0.366782
0.470845 0.886905 0.359313
0.603814 0.887926 0.354166
0.695655 0.889304 0.349242
0.776364 0.889639 0.349759
0.841103 0.887936 0.345023
0.893966 0.888665 0.337250
0.933862 0.886016 0.331599
0.962721 0.885740 0.403189
0.984198 0.886903 0.472095
1.000000 0.882646 0.514380
1.000000 0.876258 0.550939
1.000000 0.873992 0.599124
1.000000 0.867007 0.643137
1.000000 0.865730 0.684221
1.000000 0.874388 0.729875
1.000000 0.888665 0.780038
1.000000 0.906306 0.820942
1.000000 0.921975 0.855177
0.000000 0.909018 0.504591
0.000000 0.909175 0.504199
0.000000 0.909329 0.503812
0.000000 0.909480 0.503428
0.000000 0.909648 0.502999
0.000000 0.909868 0.502432
0.000000 0.910154 0.501684
0.000000 0.910523 0.500703
0.000000 0.911387 0.499426
0.000000 0.912489 0.497786
0.000000 0.913577 0.495600
0.000000 0.913801 0.491194
0.000000 0.913784 0.486293
0.241179 0.913834 0.482900
0.361030 0.915087 0.473576
0.480845 0.915893 0.467034
0.607549 0.915739 0.462227
0.695248 0.916240 0.463054
0.766475 0.915853 0.459949
0.832071 0.915000 0.460126
0.883781 0.915631 0.456244
0.923478 0.913750 0.450243
0.954174 0.911499 0.444231
0.978041 0.912771 0.508695
0.996453 0.913281 0.567622
1.000000 0.907533 0.597793
1.000000 0.906140 0.645109
1.000000 0.900104 0.684590
1.000000 0.896687 0.717115
1.000000 0.894252 0.748462
1.000000 0.901510 0.790779
1.000000 0.915075 0.829017
1.000000 0.928235 0.859985
0.000000 0.935737 0.599732
0.000000 0.935795 0.599457
0.000000 0.935852 0.599183
0.000000 0.935908 0.598912
0.000000 0.935970 0.598609
0.000000 0.936053 0.598204
0.000000 0.936160 0.597669
0.000000 0.936315 0.596962
0.000000 0.936514 0.596034
0.000000 0.936768 0.594822
0.154265 0.937082 0.593256
0.242684 0.937464 0.591249
0.315486 0.937837 0.590263
0.381578 0.937540 0.586523
0.449189 0.937962 0.579406
0.528014 0.937550 0.570589
0.617981 0.937050 0.565227
0.697944 0.937195 0.563213
0.761176 0.937804 0.562710
0.822663 0.937160 0.561593
0.874613 0.938228 0.563131
0.912119 0.936818 0.557917
0.944713 0.936613 0.552392
0.970869 0.934791 0.550666
0.990774 0.935681 0.606094
1.000000 0.934092 0.649473
1.000000 0.932526 0.692206
1.000000 0.927489 0.723753
1.000000 0.923134 0.749268
1.000000 0.920099 0.777880
1.000000 0.917068 0.805849
1.000000 0.925058 0.837647
1.000000 0.936551 0.866222
0.293105 0.957076 0.682993
0.298376 0.957143 0.682830
0.303512 0.957210 0.682668
0.308527 0.957276 0.682507
0.314044 0.957349 0.682326
0.321232 0.957447 0.682086
0.330518 0.957576 0.681766
0.340912 0.957753 0.681298
0.353892 0.957985 0.680674
0.371614 0.958175 0.680250
0.395234 0.958272 0.680215
0.423937 0.958383 0.680178
0.457987 0.958510 0.680136
0.498280 0.958648 0.679818
0.544119 0.958157 0.675172
0.593474 0.957354 0.668572
0.645655 0.956446 0.660215
0.702557 0.956025 0.654422
0.760696 0.956035 0.652118
0.815309 0.956165 0.649816
0.866004 0.956554 0.650677
0.902478 0.956397 0.651016
0.934341 0.955922 0.647608
0.960717 0.955348 0.644908
0.984258 0.954546 0.645780
1.000000 0.954045 0.690771
1.000000 0.954657 0.739419
1.000000 0.950550 0.764749
1.000000 0.947025 0.783822
1.000000 0.944815 0.806442
1.000000 0.940756 0.831728
1.000000 0.940449 0.851707
1.000000 0.946585 0.875207
0.492609 0.974022 0.754397
0.494700 0.974046 0.754305
0.496774 0.974069 0.754214
0.498827 0.974094 0.754123
0.501123 0.974120 0.754021
0.504309 0.974142 0.753889
0.508911 0.974132 0.753726
0.514691 0.974127 0.753510
0.521358 0.974143 0.753190
0.529903 0.974166 0.752763
0.541909 0.974182 0.752254
0.557730 0.974195 0.751626
0.577390 0.974211 0.750819
0.601358 0.974235 0.749795
0.629775 0.974249 0.748427
0.657356 0.973751 0.745277
0.687354 0.973198 0.740317
0.721163 0.972565 0.733856
0.763211 0.972455 0.732300
0.814352 0.972481 0.733037
0.861435 0.972350 0.733768
0.895924 0.972826 0.733935
0.926861 0.972668 0.734966
0.951573 0.972097 0.733067
0.974389 0.971351 0.730218
0.993715 0.971133 0.729575
1.000000 0.970901 0.771309
