Assets/Lutify-Free-LUTs-Pack/Lutify Free LUTs Pack/Print Film Pro - Print Film 2/Lutify.me-PrintFilm2-KineLog3-to-Rec709.cube
# Created with: fylm.ai - Colour Grading and Collaboration Software in Cloud 
# Website: https://fylm.ai 
# META
# Option: Gamut compress
# Block 1: IDT | Kinefinity KineLOG3 - BETA
# Block 2: colourMatch | Blending Mode: Normal | {"ColorSpace":0,"CrossCovarianceLimit":50,"ReshapingIterations":1,"PercentSaturationShift":100,"PercentShadingShift":100,"ExtraShading":true,"PercentTint":100,"PercentModified":100}
# Block 3: HSL | Blending Mode: Normal | {"hue":{"Reds":0,"Yellows":0,"Greens":0,"Cyans":0,"Blues":0,"Magentas":0},"saturation":{"Reds":1,"Yellows":0.9,"Greens":0.95,"Cyans":1,"Blues":1,"Magentas":1},"luminance":{"Reds":0.8,"Yellows":0.95,"Greens":0.9,"Cyans":0.8,"Blues":0.8,"Magentas":0.8},"lum_sat":{"Blacks":1,"Shadows":1,"Midtones":1,"Highlights":1,"Whites":1},"sat_sat":{"10":1,"20":1,"30":1,"40":1,"50":1}}
# Block 4: LUT | Filmic Curve Response: Low Contrast 2 (100%)
# Block 5: ODT | Rec709
TITLE "Lutify.me-PrintFilm2-KineLog3-to-Rec709" 
LUT_3D_SIZE 9
0.000000 0.000000 0.000000
0.000000 0.000000 0.000000
0.000000 0.000000 0.000000
0.080662 0.000000 0.000000
0.362204 0.000000 0.000000
0.779547 0.000000 0.042389
1.000000 0.259647 0.215648
1.000000 0.656338 0.511264
1.000000 0.873582 0.800940
0.000000 0.000000 0.000000
0.000000 0.000000 0.000000
0.000000 0.000000 0.000000
0.145874 0.000000 0.000000
0.407277 0.000000 0.000000
0.789788 0.000000 0.042136
1.000000 0.275191 0.216499
1.000000 0.659048 0.511894
1.000000 0.873869 0.801070
0.000000 0.018409 0.000000
0.000000 0.038045 0.000000
0.079704 0.049492 0.000000
0.233081 0.000000 0.000000
0.448811 0.000000 0.000000
0.801395 0.000000 0.038622
1.000000 0.294144 0.217961
1.000000 0.662333 0.512664
1.000000 0.874220 0.801229
0.000000 0.123814 0.000000
0.000000 0.153195 0.000000
0.000000 0.188934 0.000000
0.315804 0.179839 0.000000
0.566027 0.162519 0.000000
0.832294 0.000000 0.000000
1.000000 0.346839 0.223741
1.000000 0.671964 0.514960
1.000000 0.875266 0.801707
0.000000 0.416791 0.000000
0.000000 0.446547 0.000000
0.000000 0.465585 0.000000
0.000000 0.505291 0.000000
0.627927 0.496386 0.000000
0.901798 0.499325 0.000000
1.000000 0.474021 0.240520
1.000000 0.701813 0.524382
1.000000 0.878588 0.803256
0.000000 0.792309 0.080007
0.000000 0.795389 0.053201
0.000000 0.798089 0.000000
0.000000 0.808088 0.000000
0.480350 0.827333 0.000000
0.875988 0.816462 0.000000
1.000000 0.802539 0.333170
1.000000 0.784869 0.564827
1.000000 0.888833 0.807880
0.000000 0.947072 0.557093
0.000000 0.947402 0.555362
0.000000 0.947732 0.553182
0.283752 0.947305 0.543575
0.542130 0.945611 0.521765
0.832291 0.945805 0.513178
0.975553 0.941775 0.481193
1.000000 0.931070 0.708322
1.000000 0.923122 0.833601
0.740764 1.000000 0.846861
0.743606 1.000000 0.846698
0.747021 1.000000 0.846501
0.756839 1.000000 0.845929
0.782187 0.999897 0.843172
0.842681 0.998157 0.832714
0.944783 0.997486 0.833285
1.000000 0.994598 0.828636
1.000000 0.989688 0.905366
0.915891 1.000000 0.956583
0.916196 1.000000 0.956600
0.916567 1.000000 0.956621
0.917673 1.000000 0.956685
0.921159 1.000000 0.956893
0.931129 1.000000 0.957299
0.952882 1.000000 0.953965
0.994461 1.000000 0.955545
1.000000 1.000000 0.958244
0.000000 0.000000 0.000000
0.000000 0.000000 0.000000
0.000000 0.000000 0.000000
0.090205 0.000000 0.000000
0.373228 0.000000 0.000000
0.784700 0.000000 0.067191
1.000000 0.261508 0.229218
1.000000 0.656835 0.515832
1.000000 0.873681 0.801808
0.000000 0.000000 0.000000
0.000000 0.000000 0.000000
0.000000 0.000000 0.000000
0.144627 0.000000 0.000000
0.411440 0.000000 0.000000
0.789695 0.000000 0.068273
1.000000 0.277077 0.230216
1.000000 0.659546 0.516466
1.000000 0.873968 0.801937
0.000000 0.020104 0.000000
0.000000 0.040219 0.000000
0.065652 0.055614 0.000000
0.219769 0.000000 0.000000
0.447174 0.000000 0.000000
0.800208 0.000000 0.069602
1.000000 0.295025 0.231390
1.000000 0.662831 0.517240
1.000000 0.874317 0.802095
0.000000 0.126334 0.000000
0.000000 0.169702 0.000000
0.000000 0.212609 0.000000
0.279516 0.215984 0.000000
0.555768 0.179480 0.000000
0.833394 0.000000 0.068040
1.000000 0.344452 0.236538
1.000000 0.672464 0.519550
1.000000 0.875364 0.802573
0.000000 0.414579 0.000000
0.000000 0.458725 0.000000
0.000000 0.479064 0.000000
0.000000 0.525130 0.000000
0.612788 0.525215 0.000000
0.901182 0.498045 0.000000
1.000000 0.472008 0.255092
1.000000 0.701940 0.528597
1.000000 0.878683 0.804116
0.000000 0.792253 0.185179
0.000000 0.798583 0.177418
0.000000 0.801818 0.158374
0.000000 0.810433 0.114592
0.481433 0.829251 0.000000
0.873600 0.819026 0.000000
1.000000 0.802131 0.352119
1.000000 0.784573 0.568125
1.000000 0.888772 0.808401
0.000000 0.947050 0.574371
0.000000 0.947378 0.572630
0.000000 0.947765 0.570590
0.285127 0.947850 0.562480
0.540818 0.945921 0.538568
0.832093 0.946041 0.530685
0.975109 0.942333 0.497839
1.000000 0.931024 0.711459
1.000000 0.923137 0.834151
0.740189 1.000000 0.848722
0.743041 1.000000 0.848559
0.746464 1.000000 0.848363
0.756310 1.000000 0.847793
0.782366 0.999951 0.845411
0.842395 0.998194 0.834710
0.944728 0.997503 0.835042
1.000000 0.994629 0.830295
1.000000 0.989678 0.905651
0.915864 1.000000 0.956782
0.916169 1.000000 0.956799
0.916540 1.000000 0.956820
0.917647 1.000000 0.956883
0.921134 1.000000 0.957089
0.931107 1.000000 0.957492
0.952903 1.000000 0.954198
0.994451 1.000000 0.955720
1.000000 1.000000 0.958395
0.000000 0.000000 0.000000
0.000000 0.000000 0.000000
0.000000 0.000000 0.000000
0.099612 0.000000 0.000000
0.374771 0.000000 0.037254
0.793724 0.000000 0.091262
1.000000 0.263778 0.246532
1.000000 0.657432 0.521384
1.000000 0.873801 0.802866
0.000000 0.000000 0.000000
0.000000 0.000000 0.000000
0.005990 0.000000 0.000000
0.146777 0.000000 0.020593
0.419446 0.000000 0.042698
0.798772 0.000000 0.093516
1.000000 0.279379 0.247744
1.000000 0.660143 0.522022
1.000000 0.874087 0.802994
0.000000 0.015417 0.078932
0.000000 0.033316 0.074556
0.058462 0.059154 0.064971
0.221571 0.000000 0.050957
0.449764 0.000000 0.045793
0.806663 0.000000 0.095491
1.000000 0.297376 0.249180
1.000000 0.663430 0.522801
1.000000 0.874437 0.803153
0.000000 0.114878 0.121237
0.000000 0.155084 0.098750
0.000000 0.223506 0.080218
0.265895 0.243330 0.040273
0.552395 0.183397 0.000000
0.834973 0.000000 0.097100
1.000000 0.342372 0.252471
1.000000 0.673065 0.525127
1.000000 0.875482 0.803628
0.000000 0.390689 0.115404
0.000000 0.453972 0.079397
0.000000 0.490420 0.000000
0.000000 0.534040 0.000000
0.606679 0.544369 0.000000
0.897086 0.497398 0.076401
1.000000 0.469549 0.270957
1.000000 0.701997 0.533616
1.000000 0.878798 0.805166
0.000000 0.791365 0.258323
0.000000 0.798324 0.247687
0.000000 0.804347 0.237564
0.000000 0.811730 0.210979
0.483240 0.830496 0.154849
0.875033 0.821450 0.047314
1.000000 0.801612 0.372665
1.000000 0.784211 0.572127
1.000000 0.888860 0.809302
0.000000 0.946999 0.591376
0.000000 0.947327 0.589608
0.000000 0.947717 0.587538
0.285910 0.948392 0.581695
0.539215 0.946294 0.557032
0.830691 0.946292 0.548193
0.974573 0.942902 0.517321
1.000000 0.930980 0.715259
1.000000 0.923155 0.834824
0.739336 1.000000 0.850870
0.742197 1.000000 0.850708
0.745632 1.000000 0.850512
0.755511 1.000000 0.849941
0.782597 1.000000 0.848194
0.841872 0.998248 0.837214
0.944466 0.997528 0.837093
1.000000 0.994667 0.832296
1.000000 0.989665 0.905999
0.915832 1.000000 0.957025
0.916136 1.000000 0.957042
0.916508 1.000000 0.957062
0.917615 1.000000 0.957124
0.921103 1.000000 0.957328
0.931081 1.000000 0.957727
0.952927 1.000000 0.954483
0.994423 1.000000 0.955926
1.000000 1.000000 0.958580
0.000000 0.000000 0.000000
0.000000 0.000000 0.000000
0.000000 0.000000 0.008353
0.079616 0.000000 0.026398
0.353585 0.000000 0.083219
0.801441 0.000000 0.153990
1.000000 0.275005 0.286213
1.000000 0.659145 0.537766
1.000000 0.874158 0.806014
0.000000 0.000000 0.000000
0.000000 0.000000 0.046806
0.000000 0.000000 0.064948
0.121653 0.000000 0.060240
0.404562 0.000000 0.112432
0.814910 0.000000 0.158616
1.000000 0.288428 0.287622
1.000000 0.661860 0.538415
1.000000 0.874443 0.806142
0.000000 0.000000 0.197472
0.000000 0.000000 0.190518
0.000000 0.033159 0.176948
0.196696 0.000000 0.138245
0.452464 0.000000 0.134690
0.824821 0.000000 0.160966
1.000000 0.304015 0.289301
1.000000 0.665153 0.539211
1.000000 0.874793 0.806298
0.000000 0.075071 0.359359
0.000000 0.112517 0.323435
0.000000 0.184700 0.288663
0.244846 0.247812 0.274548
0.546154 0.172615 0.200337
0.837882 0.000000 0.172144
1.000000 0.346807 0.293569
1.000000 0.674799 0.541581
1.000000 0.875835 0.806768
0.000000 0.346476 0.372278
0.000000 0.411422 0.338462
0.000000 0.456427 0.320221
0.000000 0.551637 0.311430
0.596082 0.568806 0.273786
0.893830 0.494409 0.215693
1.000000 0.471254 0.307023
1.000000 0.702756 0.549150
1.000000 0.879142 0.808288
0.000000 0.775072 0.387007
0.000000 0.787869 0.386588
0.000000 0.799323 0.385909
0.000000 0.817546 0.377479
0.465131 0.832636 0.328892
0.870824 0.828748 0.284734
0.999922 0.800709 0.421367
1.000000 0.783531 0.584526
1.000000 0.889161 0.812117
0.000000 0.946824 0.638537
0.000000 0.947154 0.636706
0.000000 0.947552 0.634560
0.273220 0.948505 0.629000
0.540707 0.947786 0.613025
0.825674 0.946960 0.591282
0.974006 0.943768 0.567611
1.000000 0.930845 0.725702
1.000000 0.923209 0.836829
0.736807 1.000000 0.857042
0.739697 1.000000 0.856880
0.743166 1.000000 0.856684
0.753144 1.000000 0.856113
0.781402 1.000000 0.854931
0.841071 0.998477 0.845201
0.943696 0.997604 0.843023
1.000000 0.994789 0.838730
1.000000 0.989626 0.907037
0.915733 1.000000 0.957748
0.916038 1.000000 0.957765
0.916410 1.000000 0.957784
0.917519 1.000000 0.957845
0.921012 1.000000 0.958042
0.931002 1.000000 0.958428
0.953001 1.000000 0.955329
0.994338 1.000000 0.956542
1.000000 1.000000 0.959132
0.000000 0.000000 0.072707
0.000000 0.000000 0.128307
0.000000 0.000000 0.145194
0.099051 0.000000 0.137983
0.266350 0.000000 0.103229
0.784065 0.000000 0.309030
1.000000 0.277572 0.400083
1.000000 0.664289 0.585938
1.000000 0.875290 0.815877
0.000000 0.000000 0.279684
0.000000 0.000000 0.293029
0.000000 0.000000 0.280625
0.118608 0.000000 0.245962
0.343861 0.000000 0.182601
0.800208 0.000000 0.324529
1.000000 0.294144 0.403464
1.000000 0.667018 0.586565
1.000000 0.875573 0.815999
0.000000 0.000000 0.429939
0.000000 0.000000 0.412682
0.000000 0.000000 0.393122
0.131958 0.000000 0.338800
0.422565 0.000000 0.271765
0.812413 0.000000 0.341405
1.000000 0.312465 0.407107
1.000000 0.670323 0.587331
1.000000 0.875919 0.816149
0.000000 0.000000 0.620150
0.000000 0.075131 0.573501
0.000000 0.111831 0.541953
0.099072 0.165755 0.516542
0.542615 0.050687 0.442338
0.843819 0.000000 0.383663
1.000000 0.356745 0.416386
1.000000 0.680001 0.589612
1.000000 0.876952 0.816599
0.000000 0.218074 0.719147
0.000000 0.301447 0.671719
0.000000 0.366550 0.644097
0.000000 0.479961 0.617941
0.555162 0.576167 0.609875
0.886467 0.490180 0.493333
1.000000 0.477817 0.437009
1.000000 0.707562 0.596649
1.000000 0.880235 0.818052
0.000000 0.729560 0.677131
0.000000 0.743015 0.674270
0.000000 0.755002 0.668028
0.000000 0.784137 0.651721
0.436261 0.843893 0.658870
0.857038 0.844208 0.630717
0.995619 0.797819 0.541068
1.000000 0.784441 0.627160
1.000000 0.890241 0.821763
0.000000 0.940392 0.730173
0.000000 0.941386 0.730493
0.000000 0.942492 0.730891
0.135983 0.945510 0.732132
0.532832 0.949597 0.736045
0.818609 0.948694 0.704722
0.968526 0.946303 0.686394
1.000000 0.930368 0.755647
1.000000 0.923146 0.842775
0.730559 1.000000 0.874564
0.733524 1.000000 0.874402
0.737085 1.000000 0.874206
0.747319 1.000000 0.873633
0.776283 1.000000 0.872299
0.841173 0.999116 0.867467
0.941800 0.997829 0.860642
1.000000 0.995161 0.857411
1.000000 0.989498 0.910324
0.915336 1.000000 0.960012
0.915643 1.000000 0.960026
0.916018 1.000000 0.960043
0.917134 1.000000 0.960096
0.920649 1.000000 0.960267
0.930698 1.000000 0.960602
0.953019 1.000000 0.957987
0.994138 1.000000 0.958619
1.000000 1.000000 0.960825
0.000000 0.000000 0.702256
0.000000 0.000000 0.685374
0.000000 0.000000 0.664842
0.000000 0.000000 0.630442
0.358375 0.000000 0.556459
0.691318 0.000000 0.411848
1.000000 0.183362 0.638042
1.000000 0.677960 0.710719
1.000000 0.879242 0.840829
0.000000 0.000000 0.733225
0.000000 0.000000 0.721326
0.000000 0.000000 0.706262
0.000000 0.000000 0.669482
0.367866 0.000000 0.598855
0.738622 0.000000 0.477069
1.000000 0.213719 0.644102
1.000000 0.680781 0.711621
1.000000 0.879486 0.840940
0.000000 0.000000 0.759715
0.000000 0.000000 0.749056
0.000000 0.000000 0.739757
0.000000 0.000000 0.707146
0.387194 0.000000 0.639113
0.769684 0.000000 0.531850
1.000000 0.246010 0.651239
1.000000 0.684190 0.712717
1.000000 0.879785 0.841075
0.000000 0.014576 0.811572
0.000000 0.064649 0.798173
0.000000 0.085863 0.791130
0.000000 0.115634 0.773601
0.415100 0.065919 0.717432
0.830157 0.000000 0.628788
1.000000 0.317269 0.668976
1.000000 0.693785 0.715970
1.000000 0.880680 0.841480
0.000000 0.237429 0.872707
0.000000 0.268358 0.863336
0.000000 0.295501 0.854891
0.000000 0.345055 0.846614
0.405778 0.431136 0.830898
0.893720 0.388046 0.780232
1.000000 0.462757 0.705993
1.000000 0.722481 0.725662
1.000000 0.883594 0.842785
0.000000 0.578277 0.895889
0.000000 0.609720 0.887819
0.000000 0.642024 0.882645
0.000000 0.702391 0.874436
0.000000 0.793124 0.864745
0.825001 0.844506 0.866332
0.986542 0.796814 0.793307
1.000000 0.788985 0.744318
1.000000 0.893017 0.846277
0.000000 0.922461 0.881932
0.000000 0.924110 0.881272
0.000000 0.925622 0.880600
0.000000 0.928804 0.878540
0.303119 0.935092 0.873384
0.796610 0.951939 0.881334
0.958103 0.953229 0.871184
1.000000 0.929428 0.824789
1.000000 0.921485 0.859431
0.687161 0.996818 0.905895
0.691637 0.996894 0.906004
0.696990 0.996983 0.906137
0.712181 0.997245 0.906537
0.750253 0.998488 0.907473
0.837210 0.999745 0.910593
0.938589 0.998436 0.902520
1.000000 0.996818 0.899900
1.000000 0.989113 0.919964
0.913596 1.000000 0.966730
0.913983 1.000000 0.966781
0.914456 1.000000 0.966843
0.915863 1.000000 0.967028
0.919473 1.000000 0.967179
0.929650 1.000000 0.967350
0.953391 1.000000 0.965739
0.993468 1.000000 0.965048
1.000000 1.000000 0.966378
0.000000 0.119295 0.939362
0.000000 0.125174 0.938496
0.000000 0.129169 0.937593
0.000000 0.140590 0.930185
0.256104 0.134074 0.913213
0.742986 0.000000 0.871414
1.000000 0.000000 0.790800
1.000000 0.628807 0.869644
1.000000 0.884067 0.891699
0.000000 0.130905 0.941776
0.000000 0.137082 0.940396
0.000000 0.141334 0.939500
0.000000 0.153543 0.933269
0.258179 0.151323 0.917084
0.747204 0.000000 0.876349
1.000000 0.000000 0.801246
1.000000 0.632911 0.870373
1.000000 0.884375 0.891826
0.000000 0.144390 0.944070
0.000000 0.150804 0.942508
0.000000 0.155007 0.941625
0.000000 0.167412 0.937102
0.258705 0.168677 0.921096
0.752140 0.000000 0.881928
1.000000 0.000000 0.814787
1.000000 0.637861 0.871252
1.000000 0.884753 0.891983
0.000000 0.177947 0.949476
0.000000 0.183997 0.948001
0.000000 0.188471 0.947140
0.000000 0.204456 0.945484
0.252069 0.215418 0.930781
0.764435 0.101838 0.895663
1.000000 0.000000 0.837706
1.000000 0.651781 0.873087
1.000000 0.885919 0.892456
0.000000 0.275374 0.962586
0.000000 0.282576 0.961185
0.000000 0.291360 0.959135
0.000000 0.311215 0.956489
0.253265 0.355106 0.950190
0.779663 0.342674 0.922331
1.000000 0.269217 0.882346
1.000000 0.688531 0.878386
1.000000 0.890077 0.894019
0.000000 0.559791 0.972956
0.000000 0.567810 0.972309
0.000000 0.580326 0.970899
0.000000 0.604697 0.967063
0.000000 0.662111 0.960780
0.736943 0.745662 0.952733
0.997227 0.736305 0.930965
1.000000 0.780363 0.893554
1.000000 0.902154 0.898591
0.000000 0.852670 0.969824
0.000000 0.858035 0.969209
0.000000 0.863372 0.968705
0.000000 0.875593 0.967310
0.000000 0.900834 0.963838
0.701905 0.929720 0.959938
0.946166 0.953006 0.963281
1.000000 0.930073 0.929953
1.000000 0.925312 0.905391
0.565351 0.990116 0.965837
0.571830 0.990150 0.965763
0.579498 0.990198 0.965671
0.600754 0.990556 0.965307
0.657047 0.990982 0.964540
0.772991 0.992739 0.962917
0.929881 0.999299 0.969272
1.000000 0.999093 0.966797
1.000000 0.988618 0.944456
0.896569 1.000000 0.977829
0.897043 1.000000 0.977866
0.897619 1.000000 0.977911
0.899331 1.000000 0.978047
0.904641 1.000000 0.978482
0.919481 1.000000 0.979836
0.952637 1.000000 0.982069
0.992051 1.000000 0.979852
1.000000 1.000000 0.980030
0.000000 0.374665 1.000000
0.000000 0.377765 1.000000
0.051788 0.381459 1.000000
0.192293 0.390393 1.000000
0.370917 0.401544 1.000000
0.647951 0.403203 1.000000
0.991445 0.367207 0.980563
1.000000 0.283427 0.949589
1.000000 0.868143 0.960564
0.000000 0.379495 1.000000
0.000000 0.382648 1.000000
0.038851 0.386396 1.000000
0.191005 0.395410 1.000000
0.370500 0.406797 1.000000
0.648160 0.409000 1.000000
0.991296 0.374973 0.980906
1.000000 0.299204 0.950729
1.000000 0.868592 0.960650
0.000000 0.385368 1.000000
0.000000 0.388574 1.000000
0.000000 0.392364 1.000000
0.189332 0.401465 1.000000
0.369939 0.413143 1.000000
0.648325 0.416687 1.000000
0.991008 0.384119 0.981434
1.000000 0.314780 0.951645
1.000000 0.869139 0.960756
0.000000 0.402532 1.000000
0.000000 0.405724 1.000000
0.000000 0.409143 1.000000
0.186146 0.417292 1.000000
0.367959 0.431601 1.000000
0.648487 0.439896 1.000000
0.989744 0.413393 0.983067
1.000000 0.352951 0.954187
1.000000 0.870763 0.961073
0.000000 0.451408 1.000000
0.000000 0.454526 1.000000
0.000000 0.458199 1.000000
0.155235 0.466978 1.000000
0.357642 0.485708 1.000000
0.643051 0.511137 1.000000
0.983739 0.496842 0.987094
1.000000 0.454987 0.961448
1.000000 0.875644 0.962155
0.000000 0.576456 1.000000
0.000000 0.578538 1.000000
0.000000 0.580988 1.000000
0.000000 0.589476 1.000000
0.293808 0.615836 1.000000
0.628765 0.667026 1.000000
0.955719 0.674037 0.992332
1.000000 0.663101 0.974474
1.000000 0.888743 0.965673
0.000000 0.830109 1.000000
0.000000 0.831432 1.000000
0.000000 0.833563 1.000000
0.000000 0.838335 1.000000
0.000000 0.850889 1.000000
0.583872 0.874097 1.000000
0.900204 0.907288 0.999966
1.000000 0.903282 0.991447
1.000000 0.923126 0.972963
0.000000 0.964253 1.000000
0.000000 0.964861 1.000000
0.000000 0.965565 1.000000
0.000000 0.967448 1.000000
0.308357 0.970998 1.000000
0.640643 0.976248 1.000000
0.887649 0.988601 1.000000
0.994864 0.998161 1.000000
1.000000 0.989534 0.989974
0.848866 1.000000 1.000000
0.849457 1.000000 1.000000
0.850177 1.000000 1.000000
0.852323 1.000000 1.000000
0.859031 1.000000 1.000000
0.877732 1.000000 1.000000
0.919384 1.000000 1.000000
0.988579 1.000000 1.000000
1.000000 1.000000 1.000000
0.541796 0.681031 1.000000
0.546114 0.681569 1.000000
0.551332 0.682216 1.000000
0.566578 0.684119 1.000000
0.611560 0.690869 1.000000
0.720181 0.706905 1.000000
0.881175 0.709015 1.000000
1.000000 0.713830 1.000000
1.000000 0.695311 1.000000
0.541383 0.682339 1.000000
0.545700 0.682875 1.000000
0.550920 0.683530 1.000000
0.566187 0.685420 1.000000
0.611218 0.692171 1.000000
0.720037 0.708506 1.000000
0.880808 0.710451 1.000000
1.000000 0.715571 1.000000
1.000000 0.697586 1.000000
0.540870 0.683939 1.000000
0.545199 0.684474 1.000000
0.550432 0.685119 1.000000
0.565713 0.687003 1.000000
0.610795 0.693753 1.000000
0.719863 0.710471 1.000000
0.880360 0.712196 1.000000
1.000000 0.717675 1.000000
1.000000 0.700390 1.000000
0.539361 0.688662 1.000000
0.543701 0.689191 1.000000
0.548960 0.689830 1.000000
0.564312 0.691713 1.000000
0.609561 0.698428 1.000000
0.719352 0.716232 1.000000
0.879401 0.717987 1.000000
1.000000 0.723862 1.000000
1.000000 0.708537 1.000000
0.535505 0.705612 1.000000
0.539290 0.706056 1.000000
0.543868 0.706577 1.000000
0.558842 0.708226 1.000000
0.605031 0.714293 1.000000
0.717871 0.733947 1.000000
0.876354 0.736333 1.000000
1.000000 0.742266 1.000000
1.000000 0.731687 1.000000
0.523157 0.754527 1.000000
0.527181 0.754912 1.000000
0.532038 0.755374 1.000000
0.546195 0.756733 1.000000
0.590280 0.760949 1.000000
0.707903 0.775020 1.000000
0.863283 0.788483 1.000000
1.000000 0.792126 1.000000
1.000000 0.783172 1.000000
0.515353 0.831371 1.000000
0.520316 0.831832 1.000000
0.526259 0.832390 1.000000
0.543339 0.834022 1.000000
0.589748 0.837771 1.000000
0.697584 0.847639 1.000000
0.853374 0.868048 1.000000
1.000000 0.876179 1.000000
1.000000 0.874861 1.000000
0.557480 0.948943 1.000000
0.561607 0.949121 1.000000
0.566574 0.949299 1.000000
0.580894 0.949612 1.000000
0.617298 0.950558 1.000000
0.707809 0.954361 1.000000
0.836489 0.961891 1.000000
0.974671 0.977515 1.000000
1.000000 0.978119 1.000000
0.703369 1.000000 1.000000
0.705320 1.000000 1.000000
0.707682 1.000000 1.000000
0.714569 1.000000 1.000000
0.736576 1.000000 1.000000
0.791938 1.000000 1.000000
0.871859 1.000000 1.000000
0.969996 1.000000 1.000000
1.000000 1.000000 1.000000
