Assets/Lutify-Free-LUTs-Pack/Lutify Free LUTs Pack/Print Film Pro - Print Film 2/Lutify.me-PrintFilm2-NLog-to-Rec709.cube
# Created with: fylm.ai - Colour Grading and Collaboration Software in Cloud 
# Website: https://fylm.ai 
# META
# Option: Gamut compress
# Block 1: IDT | Nikon BT2020 N-Log
# Block 2: colourMatch | Blending Mode: Normal | {"ColorSpace":0,"CrossCovarianceLimit":50,"ReshapingIterations":1,"PercentSaturationShift":100,"PercentShadingShift":100,"ExtraShading":true,"PercentTint":100,"PercentModified":100}
# Block 3: HSL | Blending Mode: Normal | {"hue":{"Reds":0,"Yellows":0,"Greens":0,"Cyans":0,"Blues":0,"Magentas":0},"saturation":{"Reds":1,"Yellows":0.9,"Greens":0.95,"Cyans":1,"Blues":1,"Magentas":1},"luminance":{"Reds":0.8,"Yellows":0.95,"Greens":0.9,"Cyans":0.8,"Blues":0.8,"Magentas":0.8},"lum_sat":{"Blacks":1,"Shadows":1,"Midtones":1,"Highlights":1,"Whites":1},"sat_sat":{"10":1,"20":1,"30":1,"40":1,"50":1}}
# Block 4: LUT | Filmic Curve Response: Low Contrast 2 (100%)
# Block 5: ODT | Rec709
TITLE "Lutify.me-PrintFilm2-NLog-to-Rec709" 
LUT_3D_SIZE 33
0.000000 0.000000 0.000000
0.000000 0.000000 0.000000
0.000000 0.000000 0.000000
0.000000 0.000000 0.000000
0.000000 0.000000 0.000000
0.000000 0.000000 0.000000
0.000000 0.000000 0.000000
0.000000 0.000000 0.000000
0.044553 0.000000 0.000000
0.082375 0.000000 0.000000
0.123485 0.000000 0.000000
0.166451 0.000000 0.000000
0.228600 0.000000 0.000000
0.287932 0.000000 0.000000
0.342868 0.000000 0.000000
0.402016 0.000000 0.000000
0.467281 0.000000 0.000000
0.535124 0.000000 0.000000
0.607224 0.000000 0.022525
0.676884 0.000000 0.036258
0.741694 0.000000 0.056414
0.810587 0.000000 0.075571
0.877658 0.000000 0.097213
0.927744 0.000000 0.122437
0.969249 0.101658 0.153218
1.000000 0.231388 0.186397
1.000000 0.310018 0.229160
1.000000 0.379574 0.274710
1.000000 0.443788 0.317163
1.000000 0.512062 0.367318
1.000000 0.579602 0.423380
1.000000 0.644307 0.486717
1.000000 0.699850 0.545409
0.000000 0.000000 0.000000
0.000000 0.000000 0.000000
0.000000 0.000000 0.000000
0.000000 0.000000 0.000000
0.000000 0.000000 0.000000
0.000000 0.000000 0.000000
0.000000 0.000000 0.000000
0.000000 0.000000 0.000000
0.044920 0.000000 0.000000
0.082679 0.000000 0.000000
0.123697 0.000000 0.000000
0.166764 0.000000 0.000000
0.228863 0.000000 0.000000
0.288166 0.000000 0.000000
0.343079 0.000000 0.000000
0.402165 0.000000 0.000000
0.467409 0.000000 0.000000
0.535207 0.000000 0.000000
0.607323 0.000000 0.022517
0.676939 0.000000 0.036258
0.741739 0.000000 0.056416
0.810638 0.000000 0.075576
0.877694 0.000000 0.097219
0.927767 0.000000 0.122445
0.969263 0.101922 0.153232
1.000000 0.231493 0.186409
1.000000 0.310086 0.229168
1.000000 0.379618 0.274713
1.000000 0.443822 0.317166
1.000000 0.512092 0.367323
1.000000 0.579619 0.423383
1.000000 0.644320 0.486719
1.000000 0.699860 0.545413
0.000000 0.000000 0.000000
0.000000 0.000000 0.000000
0.000000 0.000000 0.000000
0.000000 0.000000 0.000000
0.000000 0.000000 0.000000
0.000000 0.000000 0.000000
0.000000 0.000000 0.000000
0.000000 0.000000 0.000000
0.047707 0.000000 0.000000
0.084850 0.000000 0.000000
0.125526 0.000000 0.000000
0.168994 0.000000 0.000000
0.230690 0.000000 0.000000
0.289867 0.000000 0.000000
0.344555 0.000000 0.000000
0.403209 0.000000 0.000000
0.468300 0.000000 0.000000
0.535898 0.000000 0.000000
0.608014 0.000000 0.022477
0.677324 0.000000 0.036255
0.742055 0.000000 0.056435
0.810997 0.000000 0.075612
0.877945 0.000000 0.097263
0.927932 0.000000 0.122498
0.969363 0.103739 0.153334
1.000000 0.232226 0.186491
1.000000 0.310561 0.229224
1.000000 0.379923 0.274727
1.000000 0.444057 0.317183
1.000000 0.512302 0.367364
1.000000 0.579737 0.423401
1.000000 0.644412 0.486735
1.000000 0.699930 0.545437
0.000000 0.000000 0.000000
0.000000 0.000000 0.000000
0.000000 0.000000 0.000000
0.000000 0.000000 0.000000
0.000000 0.000000 0.000000
0.000000 0.000000 0.000000
0.000000 0.000000 0.000000
0.000000 0.000000 0.000000
0.054108 0.000000 0.000000
0.091603 0.000000 0.000000
0.130792 0.000000 0.000000
0.175424 0.000000 0.000000
0.235555 0.000000 0.000000
0.294496 0.000000 0.000000
0.348535 0.000000 0.000000
0.406025 0.000000 0.000000
0.470704 0.000000 0.000000
0.538071 0.000000 0.000000
0.609869 0.000000 0.022253
0.678363 0.000000 0.036239
0.742907 0.000000 0.056483
0.811967 0.000000 0.075709
0.878623 0.000000 0.097381
0.928375 0.000000 0.122644
0.969632 0.108479 0.153609
1.000000 0.234206 0.186714
1.000000 0.311848 0.229377
1.000000 0.380751 0.274768
1.000000 0.444695 0.317230
1.000000 0.512871 0.367472
1.000000 0.580060 0.423451
1.000000 0.644660 0.486781
1.000000 0.700122 0.545505
0.000000 0.000000 0.000000
0.000000 0.000000 0.000000
0.000000 0.000000 0.000000
0.000000 0.000000 0.000000
0.000000 0.000000 0.000000
0.000000 0.000000 0.000000
0.000000 0.000000 0.000000
0.007795 0.000000 0.000000
0.064151 0.000000 0.000000
0.102745 0.000000 0.000000
0.141165 0.000000 0.000000
0.187394 0.000000 0.000000
0.244768 0.000000 0.000000
0.302297 0.000000 0.000000
0.354496 0.000000 0.000000
0.411437 0.000000 0.000000
0.475338 0.000000 0.000000
0.542322 0.000000 0.000000
0.613412 0.000000 0.021417
0.680925 0.000000 0.036125
0.744632 0.000000 0.056558
0.813843 0.000000 0.075891
0.879931 0.000000 0.097607
0.929229 0.000000 0.122923
0.970150 0.117048 0.154144
1.000000 0.238025 0.187145
1.000000 0.314340 0.229675
1.000000 0.382357 0.274846
1.000000 0.445937 0.317321
1.000000 0.513976 0.367683
1.000000 0.580739 0.423591
1.000000 0.645142 0.486868
1.000000 0.700495 0.545637
0.000000 0.000000 0.000000
0.000000 0.000000 0.000000
0.000000 0.000000 0.000000
0.000000 0.000000 0.000000
0.000000 0.000000 0.000000
0.000000 0.000000 0.000000
0.000000 0.000000 0.000000
0.052713 0.000000 0.000000
0.084769 0.000000 0.000000
0.119616 0.000000 0.000000
0.156857 0.000000 0.000000
0.203730 0.000000 0.000000
0.260114 0.000000 0.000000
0.314002 0.000000 0.000000
0.363453 0.000000 0.000000
0.420221 0.000000 0.000000
0.482845 0.000000 0.000000
0.549439 0.000000 0.000000
0.619159 0.000000 0.019599
0.685428 0.000000 0.035806
0.748322 0.000000 0.056584
0.816798 0.000000 0.076190
0.882010 0.000000 0.097968
0.930613 0.000000 0.123374
0.970986 0.129731 0.155021
1.000000 0.244228 0.187853
1.000000 0.318414 0.230166
1.000000 0.385537 0.275306
1.000000 0.447977 0.317472
1.000000 0.515674 0.368037
1.000000 0.582031 0.423976
1.000000 0.645936 0.487012
1.000000 0.701109 0.545854
0.000000 0.000000 0.000000
0.000000 0.000000 0.000000
0.000000 0.000000 0.000000
0.000000 0.000000 0.000000
0.000000 0.000000 0.000000
0.000000 0.012456 0.000000
0.037595 0.022191 0.000000
0.071350 0.024901 0.000000
0.112901 0.000000 0.000000
0.151944 0.000000 0.000000
0.189264 0.000000 0.000000
0.228583 0.000000 0.000000
0.280951 0.000000 0.000000
0.329503 0.000000 0.000000
0.376713 0.000000 0.000000
0.433419 0.000000 0.000000
0.493858 0.000000 0.000000
0.559822 0.000000 0.000000
0.627410 0.000000 0.015612
0.691995 0.000000 0.035089
0.753718 0.000000 0.056529
0.821034 0.000000 0.076616
0.884295 0.000000 0.098521
0.932287 0.000000 0.124049
0.972181 0.146459 0.156307
1.000000 0.252430 0.188559
1.000000 0.324360 0.230901
1.000000 0.390276 0.276014
1.000000 0.451049 0.317730
1.000000 0.518179 0.368566
1.000000 0.583953 0.424548
1.000000 0.647115 0.487226
1.000000 0.702020 0.546177
0.000000 0.033846 0.000000
0.000000 0.033946 0.000000
0.000000 0.034682 0.000000
0.000000 0.036725 0.000000
0.000000 0.040809 0.000000
0.000000 0.049196 0.000000
0.037415 0.055545 0.000000
0.079368 0.056330 0.000000
0.130301 0.054507 0.000000
0.175288 0.042221 0.000000
0.221804 0.012306 0.000000
0.264269 0.000000 0.000000
0.309751 0.000000 0.000000
0.354437 0.000000 0.000000
0.397784 0.000000 0.000000
0.450407 0.000000 0.000000
0.509967 0.000000 0.000000
0.574068 0.000000 0.000000
0.638221 0.000000 0.000000
0.700913 0.000000 0.033482
0.760894 0.000000 0.056471
0.826762 0.000000 0.077141
0.887380 0.000000 0.099230
0.934222 0.000000 0.124970
0.973310 0.169785 0.157553
1.000000 0.263458 0.189480
1.000000 0.331733 0.231985
1.000000 0.396816 0.277001
1.000000 0.456197 0.318733
1.000000 0.522414 0.369989
1.000000 0.586622 0.425346
1.000000 0.648751 0.487525
1.000000 0.703285 0.546628
0.000000 0.063025 0.000000
0.000000 0.063121 0.000000
0.000000 0.063809 0.000000
0.000000 0.065815 0.000000
0.000000 0.070309 0.000000
0.000000 0.079172 0.000000
0.000000 0.091154 0.000000
0.078791 0.095313 0.000000
0.141142 0.095182 0.000000
0.201752 0.095073 0.000000
0.250298 0.088463 0.000000
0.295699 0.081961 0.000000
0.342356 0.063538 0.000000
0.389920 0.000000 0.000000
0.432346 0.000000 0.000000
0.476817 0.000000 0.000000
0.532004 0.000000 0.000000
0.592171 0.000000 0.000000
0.652511 0.000000 0.000000
0.712701 0.000000 0.029516
0.769952 0.000000 0.056368
0.833133 0.000000 0.077691
0.891306 0.000000 0.100046
0.936889 0.098095 0.126310
0.974704 0.196698 0.159157
1.000000 0.277679 0.190679
1.000000 0.341332 0.233427
1.000000 0.405023 0.278288
1.000000 0.462977 0.320072
1.000000 0.528008 0.371883
1.000000 0.590154 0.426406
1.000000 0.650911 0.487922
1.000000 0.704955 0.547227
0.000000 0.096838 0.000000
0.000000 0.096990 0.000000
0.000000 0.097916 0.000000
0.000000 0.099704 0.000000
0.000000 0.104244 0.000000
0.000000 0.117719 0.000000
0.000000 0.133974 0.000000
0.039248 0.140264 0.000000
0.140440 0.143870 0.000000
0.206352 0.140281 0.000000
0.264923 0.143646 0.000000
0.319815 0.140076 0.000000
0.370124 0.133647 0.000000
0.425411 0.124216 0.000000
0.468927 0.113585 0.000000
0.514399 0.094322 0.000000
0.565969 0.045577 0.000000
0.615421 0.000000 0.000000
0.668224 0.000000 0.000000
0.724714 0.000000 0.020786
0.781077 0.000000 0.055334
0.840067 0.000000 0.078578
0.896061 0.070165 0.100851
0.940104 0.152887 0.128006
0.976311 0.227316 0.160968
1.000000 0.295165 0.192196
1.000000 0.353344 0.235280
1.000000 0.414529 0.279879
1.000000 0.471418 0.321776
1.000000 0.535123 0.374289
1.000000 0.594656 0.427763
1.000000 0.654300 0.489052
1.000000 0.707080 0.547994
0.000000 0.135366 0.000000
0.000000 0.135573 0.000000
0.000000 0.137052 0.000000
0.000000 0.140856 0.000000
0.000000 0.149899 0.000000
0.000000 0.160487 0.000000
0.000000 0.177857 0.000000
0.000000 0.192428 0.000000
0.116360 0.194673 0.000000
0.201986 0.197904 0.000000
0.274706 0.191271 0.000000
0.334605 0.194668 0.000000
0.398254 0.193901 0.000000
0.450429 0.188626 0.000000
0.501334 0.179857 0.000000
0.545064 0.172990 0.000000
0.595138 0.159632 0.000000
0.648759 0.138261 0.000000
0.692815 0.112817 0.000000
0.739849 0.092767 0.000000
0.792402 0.082212 0.052414
0.848252 0.104877 0.079229
0.901716 0.147421 0.103287
0.943721 0.201231 0.129960
0.978003 0.260305 0.162657
1.000000 0.315939 0.194072
1.000000 0.367917 0.237601
1.000000 0.426165 0.281868
1.000000 0.483397 0.324089
1.000000 0.543940 0.376661
1.000000 0.600452 0.429652
1.000000 0.658577 0.490559
1.000000 0.709949 0.549246
0.000000 0.187173 0.000000
0.000000 0.187302 0.000000
0.000000 0.188218 0.000000
0.000000 0.190775 0.000000
0.000000 0.200946 0.000000
0.000000 0.209619 0.000000
0.000000 0.226175 0.000000
0.000000 0.241710 0.000000
0.000000 0.251487 0.000000
0.173483 0.254498 0.000000
0.260500 0.254880 0.000000
0.333793 0.249016 0.000000
0.409247 0.253983 0.000000
0.477585 0.254703 0.000000
0.526881 0.252335 0.000000
0.572102 0.248794 0.000000
0.621488 0.241785 0.000000
0.674561 0.230808 0.000000
0.721958 0.211993 0.000000
0.765386 0.191621 0.000000
0.806982 0.180412 0.047762
0.860054 0.182705 0.078211
0.910001 0.204322 0.104914
0.947408 0.245520 0.134066
0.979633 0.292713 0.164537
1.000000 0.338468 0.196516
1.000000 0.385173 0.240453
1.000000 0.440067 0.284305
1.000000 0.497768 0.326935
1.000000 0.554560 0.379555
1.000000 0.607958 0.432394
1.000000 0.664070 0.492749
1.000000 0.713864 0.551329
0.000000 0.244627 0.000000
0.000000 0.244774 0.000000
0.000000 0.245774 0.000000
0.000000 0.251026 0.000000
0.000000 0.260565 0.000000
0.000000 0.267241 0.000000
0.000000 0.284110 0.000000
0.000000 0.296092 0.000000
0.000000 0.311979 0.000000
0.117637 0.315343 0.000000
0.238081 0.320581 0.000000
0.324668 0.317549 0.000000
0.411326 0.316844 0.000000
0.487690 0.321137 0.000000
0.549756 0.324357 0.000000
0.601503 0.318282 0.000000
0.649731 0.316337 0.000000
0.703436 0.306448 0.000000
0.745917 0.301333 0.000000
0.791132 0.289747 0.000000
0.833160 0.281228 0.000000
0.874758 0.265439 0.073169
0.919600 0.264042 0.105459
0.951627 0.294752 0.136261
0.981245 0.331883 0.166703
1.000000 0.365601 0.199629
1.000000 0.405243 0.243912
1.000000 0.456356 0.287245
1.000000 0.514312 0.330412
1.000000 0.567095 0.383025
1.000000 0.616842 0.435671
1.000000 0.670801 0.495651
1.000000 0.718042 0.553310
0.000000 0.302368 0.000000
0.000000 0.302559 0.000000
0.000000 0.303880 0.000000
0.000000 0.308265 0.000000
0.000000 0.316041 0.000000
0.000000 0.323189 0.000000
0.000000 0.334334 0.000000
0.000000 0.350674 0.000000
0.000000 0.368417 0.000000
0.000000 0.376023 0.000000
0.189864 0.384909 0.000000
0.295060 0.388560 0.000000
0.399805 0.386683 0.000000
0.484909 0.383326 0.000000
0.553961 0.390800 0.000000
0.611271 0.390722 0.000000
0.667515 0.389828 0.000000
0.723240 0.384167 0.000000
0.766424 0.379862 0.000000
0.809093 0.373273 0.000000
0.849525 0.362588 0.000000
0.888597 0.355774 0.059133
0.926767 0.340065 0.104400
0.954947 0.349777 0.138913
0.982982 0.372353 0.169765
1.000000 0.398095 0.205061
1.000000 0.430884 0.249717
1.000000 0.475845 0.290817
1.000000 0.532465 0.334657
1.000000 0.581647 0.387128
1.000000 0.627182 0.439528
1.000000 0.678329 0.498949
1.000000 0.722744 0.555393
0.000000 0.360450 0.000000
0.000000 0.360739 0.000000
0.000000 0.362739 0.000000
0.000000 0.367563 0.000000
0.000000 0.374681 0.000000
0.000000 0.381852 0.000000
0.000000 0.389753 0.000000
0.000000 0.409232 0.000000
0.000000 0.421442 0.000000
0.000000 0.433110 0.000000
0.084844 0.443839 0.000000
0.251693 0.452538 0.000000
0.382070 0.449669 0.000000
0.470351 0.451216 0.000000
0.551330 0.445967 0.000000
0.610172 0.450226 0.000000
0.673114 0.451586 0.000000
0.736507 0.451773 0.000000
0.780558 0.448071 0.000000
0.823254 0.444609 0.000000
0.861042 0.432032 0.000000
0.897464 0.423438 0.045610
0.933201 0.417045 0.104034
0.959122 0.411450 0.141733
0.984380 0.418545 0.175119
1.000000 0.435331 0.212242
1.000000 0.460908 0.257259
1.000000 0.500569 0.296874
1.000000 0.553181 0.339729
1.000000 0.596767 0.392703
1.000000 0.639044 0.444036
1.000000 0.685687 0.501859
1.000000 0.728090 0.557751
0.000000 0.423109 0.000000
0.000000 0.423343 0.000000
0.000000 0.424941 0.000000
0.000000 0.429185 0.000000
0.000000 0.436076 0.000000
0.000000 0.442424 0.000000
0.000000 0.448026 0.000000
0.000000 0.460831 0.000000
0.000000 0.476899 0.000000
0.000000 0.488915 0.000000
0.000000 0.499731 0.000000
0.191544 0.509387 0.000000
0.350675 0.509963 0.000000
0.454567 0.510221 0.000000
0.536718 0.512536 0.000000
0.604370 0.507680 0.000000
0.671263 0.509415 0.000000
0.741606 0.513842 0.000000
0.789687 0.509053 0.000000
0.833206 0.509850 0.000000
0.869654 0.500960 0.000000
0.903856 0.493652 0.000000
0.936776 0.488535 0.104472
0.963618 0.475988 0.144489
0.986186 0.470757 0.180232
1.000000 0.478327 0.220890
1.000000 0.497601 0.264327
1.000000 0.527771 0.304065
1.000000 0.574023 0.347195
1.000000 0.613552 0.399444
1.000000 0.652393 0.449303
1.000000 0.693988 0.505245
1.000000 0.734129 0.560491
0.000000 0.489844 0.000000
0.000000 0.490034 0.000000
0.000000 0.491360 0.000000
0.000000 0.494916 0.000000
0.000000 0.501613 0.000000
0.000000 0.507593 0.000000
0.000000 0.512659 0.000000
0.000000 0.518842 0.000000
0.000000 0.530561 0.000000
0.000000 0.549576 0.000000
0.000000 0.559651 0.000000
0.029786 0.568828 0.000000
0.314443 0.576666 0.000000
0.426759 0.575791 0.000000
0.515867 0.573835 0.000000
0.589148 0.570996 0.000000
0.664481 0.568976 0.000000
0.738707 0.573058 0.000000
0.792482 0.573511 0.000000
0.839662 0.575708 0.000000
0.875295 0.570711 0.000000
0.907724 0.564755 0.000000
0.938443 0.560799 0.104775
0.963835 0.549798 0.153059
0.986422 0.541718 0.189668
1.000000 0.539790 0.230987
1.000000 0.543973 0.272658
1.000000 0.563732 0.312109
1.000000 0.599398 0.356566
1.000000 0.634073 0.405380
1.000000 0.668269 0.455868
1.000000 0.703909 0.509445
1.000000 0.741358 0.563886
0.000000 0.557891 0.000000
0.000000 0.557981 0.000000
0.000000 0.558604 0.000000
0.000000 0.560313 0.000000
0.000000 0.565532 0.000000
0.000000 0.571908 0.000000
0.000000 0.579710 0.000000
0.000000 0.584856 0.000000
0.000000 0.591387 0.000000
0.000000 0.600998 0.000000
0.000000 0.617620 0.000000
0.000000 0.628733 0.000000
0.247687 0.636690 0.000000
0.389807 0.638478 0.000000
0.487629 0.638183 0.000000
0.562928 0.640458 0.000000
0.647518 0.637647 0.000000
0.730030 0.635078 0.000000
0.786856 0.637067 0.000000
0.837421 0.643308 0.000000
0.875609 0.643431 0.000000
0.907517 0.638206 0.000000
0.937305 0.634834 0.109583
0.961551 0.624449 0.164715
0.982837 0.616823 0.207868
1.000000 0.615136 0.247111
1.000000 0.606578 0.285466
1.000000 0.607569 0.323396
1.000000 0.630624 0.368728
1.000000 0.658639 0.413053
1.000000 0.686360 0.463051
1.000000 0.715674 0.514665
1.000000 0.749938 0.568092
0.000000 0.619224 0.000000
0.000000 0.619299 0.000000
0.000000 0.619831 0.000000
0.000000 0.621251 0.000000
0.000000 0.623929 0.000000
0.000000 0.628447 0.000000
0.000000 0.635000 0.000000
0.000000 0.643391 0.000000
0.000000 0.649479 0.000000
0.000000 0.656299 0.000000
0.000000 0.665138 0.000000
0.000000 0.677779 0.000000
0.171140 0.685586 0.000000
0.342232 0.692875 0.000000
0.457580 0.694583 0.000000
0.538507 0.698313 0.000000
0.627422 0.697442 0.000000
0.716691 0.693909 0.000000
0.776371 0.689352 0.000000
0.827699 0.693538 0.000000
0.870044 0.699042 0.000000
0.905327 0.695039 0.032885
0.934525 0.695890 0.124640
0.957995 0.687498 0.174078
0.978155 0.678371 0.224458
0.995100 0.675321 0.262339
1.000000 0.671533 0.306960
1.000000 0.661986 0.340706
1.000000 0.669076 0.384239
1.000000 0.686597 0.425068
1.000000 0.707323 0.473165
1.000000 0.731374 0.523474
1.000000 0.761934 0.574890
0.000000 0.681359 0.115707
0.000000 0.681420 0.115577
0.000000 0.681847 0.114659
0.000000 0.682994 0.112155
0.000000 0.685167 0.107207
0.000000 0.688462 0.102091
0.000000 0.695168 0.092982
0.000000 0.702155 0.077504
0.000000 0.707129 0.027988
0.000000 0.711126 0.000000
0.000000 0.718892 0.000000
0.000000 0.725751 0.000000
0.000000 0.732220 0.000000
0.300963 0.738099 0.000000
0.421973 0.743382 0.000000
0.514390 0.747879 0.000000
0.607833 0.747410 0.000000
0.699777 0.743895 0.000000
0.763778 0.742567 0.000000
0.815384 0.738421 0.000000
0.860729 0.743168 0.000000
0.899310 0.744930 0.074820
0.931733 0.743573 0.150199
0.953998 0.741717 0.198455
0.973113 0.733783 0.242150
0.989474 0.726818 0.282483
1.000000 0.726501 0.329445
1.000000 0.718730 0.368805
1.000000 0.713351 0.402239
1.000000 0.718727 0.438555
1.000000 0.731859 0.484044
1.000000 0.749652 0.534342
1.000000 0.775290 0.582129
0.000000 0.739138 0.187538
0.000000 0.739181 0.187467
0.000000 0.739479 0.186964
0.000000 0.740280 0.185606
0.000000 0.741772 0.183562
0.000000 0.744057 0.181663
0.000000 0.748949 0.178562
0.000000 0.751969 0.169549
0.000000 0.754348 0.156612
0.000000 0.757190 0.142398
0.000000 0.761953 0.131101
0.000000 0.770197 0.112014
0.000000 0.777291 0.089549
0.258709 0.781780 0.061848
0.398003 0.785832 0.032214
0.499296 0.789460 0.000000
0.597941 0.789667 0.000000
0.686084 0.786808 0.000000
0.746848 0.788394 0.000000
0.804187 0.787342 0.000000
0.851416 0.783917 0.000000
0.891523 0.784639 0.105216
0.927510 0.784262 0.180129
0.948979 0.786362 0.229321
0.968269 0.780980 0.269715
0.984143 0.774011 0.309390
0.999090 0.771487 0.355992
1.000000 0.768367 0.397637
1.000000 0.759032 0.425561
1.000000 0.754934 0.459523
1.000000 0.759905 0.499044
1.000000 0.772456 0.548648
1.000000 0.790715 0.591520
0.000000 0.792213 0.250881
0.000000 0.792240 0.250863
0.000000 0.792429 0.250738
0.000000 0.792938 0.250402
0.000000 0.793912 0.249669
0.000000 0.795458 0.246934
0.000000 0.797717 0.243115
0.000000 0.800627 0.238078
0.000000 0.802134 0.229763
0.000000 0.804069 0.223739
0.000000 0.806299 0.218054
0.000000 0.809092 0.208648
0.000000 0.816158 0.199022
0.224643 0.820637 0.189285
0.381644 0.823347 0.181719
0.487984 0.825653 0.174834
0.586598 0.826354 0.169749
0.675611 0.825071 0.167503
0.737001 0.826225 0.159539
0.791719 0.826000 0.148132
0.840422 0.823964 0.146643
0.884112 0.822584 0.142240
0.919284 0.822360 0.206262
0.943085 0.823794 0.260059
0.962866 0.823203 0.306905
0.978385 0.817466 0.345612
0.994168 0.813888 0.389581
1.000000 0.812221 0.427223
1.000000 0.804561 0.455557
1.000000 0.799475 0.486233
1.000000 0.797684 0.522378
1.000000 0.799179 0.567256
1.000000 0.810312 0.606424
0.000000 0.836698 0.322856
0.000000 0.836715 0.322844
0.000000 0.836832 0.322765
0.000000 0.837145 0.322550
0.000000 0.837744 0.322139
0.000000 0.838695 0.320316
0.000000 0.840210 0.317342
0.000000 0.842071 0.313604
0.000000 0.843919 0.308314
0.000000 0.844810 0.300702
0.000000 0.845791 0.293024
0.000000 0.846648 0.282264
0.000000 0.848508 0.275401
0.201609 0.850686 0.266918
0.372256 0.853514 0.260530
0.484636 0.855152 0.255801
0.578628 0.856552 0.251651
0.659887 0.857303 0.249112
0.725367 0.859132 0.254013
0.781008 0.859097 0.251899
0.830321 0.856862 0.245156
0.874403 0.856909 0.240538
0.911721 0.856701 0.237065
0.935296 0.856757 0.288019
0.955800 0.856961 0.340983
0.974027 0.854705 0.386728
0.988239 0.852115 0.425841
1.000000 0.849969 0.461148
1.000000 0.843391 0.487912
1.000000 0.838932 0.517428
1.000000 0.836975 0.553026
1.000000 0.831667 0.590152
1.000000 0.832250 0.624615
0.000000 0.866516 0.392031
0.000000 0.866528 0.392008
0.000000 0.866607 0.391850
0.000000 0.866821 0.391422
0.000000 0.867230 0.390601
0.000000 0.868105 0.389205
0.000000 0.869652 0.387097
0.000000 0.870902 0.384528
0.000000 0.872584 0.381319
0.000000 0.874820 0.376063
0.000000 0.876040 0.369072
0.000000 0.876382 0.361148
0.000000 0.877061 0.356916
0.224288 0.878284 0.351501
0.370600 0.879608 0.344983
0.481657 0.880633 0.340110
0.578583 0.881407 0.336380
0.654510 0.882404 0.333119
0.714237 0.883630 0.330203
0.772678 0.883958 0.333311
0.821531 0.882282 0.329818
0.862971 0.882185 0.323842
0.900823 0.882732 0.319355
0.929455 0.880453 0.314716
0.950487 0.880213 0.363503
0.970397 0.880355 0.418434
0.984346 0.880395 0.462418
0.996958 0.878148 0.495688
1.000000 0.872533 0.520931
1.000000 0.868870 0.549373
1.000000 0.867017 0.584957
1.000000 0.862386 0.619521
1.000000 0.857504 0.649678
0.000000 0.893049 0.456439
0.000000 0.893056 0.456421
0.000000 0.893106 0.456301
0.000000 0.893243 0.455976
0.000000 0.893512 0.455386
0.000000 0.893949 0.454460
0.000000 0.894574 0.453117
0.000000 0.895811 0.451303
0.000000 0.897644 0.449014
0.000000 0.899547 0.445765
0.000000 0.900658 0.440047
0.000000 0.900886 0.436261
0.068765 0.901106 0.433063
0.273564 0.901584 0.428766
0.386364 0.902853 0.424158
0.485003 0.903313 0.419487
0.580135 0.903513 0.416177
0.654014 0.903937 0.414566
0.710496 0.904576 0.411489
0.762496 0.904349 0.409637
0.814563 0.903267 0.410270
0.856871 0.903217 0.406950
0.891462 0.903430 0.402881
0.920723 0.902055 0.399383
0.944636 0.900092 0.394221
0.965192 0.899781 0.442755
0.980765 0.901556 0.493788
0.992953 0.901703 0.533977
1.000000 0.896455 0.556725
1.000000 0.893365 0.582019
1.000000 0.892138 0.617402
1.000000 0.887746 0.651957
1.000000 0.883845 0.677596
0.000000 0.916724 0.533898
0.000000 0.916728 0.533887
0.000000 0.916756 0.533811
0.000000 0.916832 0.533606
0.000000 0.916978 0.533208
0.000000 0.917211 0.532565
0.000000 0.917542 0.531626
0.000000 0.918101 0.530361
0.000000 0.918968 0.528691
0.000000 0.919573 0.526500
0.000000 0.920163 0.523601
0.122394 0.920067 0.517997
0.260484 0.920050 0.515051
0.345337 0.920909 0.508057
0.418262 0.921765 0.500381
0.498004 0.922103 0.495935
0.585237 0.921874 0.492380
0.655635 0.921932 0.491142
0.710386 0.922360 0.493627
0.760779 0.921853 0.491397
0.806918 0.920780 0.490326
0.849961 0.921341 0.491306
0.885225 0.921558 0.488260
0.914224 0.920188 0.483338
0.938317 0.919043 0.479334
0.958635 0.917295 0.474403
0.975305 0.918570 0.518738
0.988537 0.920342 0.565511
