Assets/Lutify-Free-LUTs-Pack/Lutify Free LUTs Pack/Print Film Pro - Print Film 2/Lutify.me-PrintFilm2-ACEScct-to-ACEScct.cube
# Created with: fylm.ai - Colour Grading and Collaboration Software in Cloud 
# Website: https://fylm.ai 
# META
# Option: Gamut compress
# Block 1: HSL | Blending Mode: Normal | {"hue":{"Reds":0,"Yellows":0,"Greens":0,"Cyans":0,"Blues":0,"Magentas":0},"saturation":{"Reds":1,"Yellows":0.9,"Greens":0.95,"Cyans":1,"Blues":1,"Magentas":1},"luminance":{"Reds":0.8,"Yellows":0.95,"Greens":0.9,"Cyans":0.8,"Blues":0.8,"Magentas":0.8},"lum_sat":{"Blacks":1,"Shadows":1,"Midtones":1,"Highlights":1,"Whites":1},"sat_sat":{"10":1,"20":1,"30":1,"40":1,"50":1}}
# Block 2: LUT | Filmic Curve Response: Low Contrast 2 (100%)
TITLE "Print Film Pro 2" 
LUT_3D_SIZE 33
0.039215 0.039215 0.039215
0.039215 0.039215 0.039215
0.039215 0.039215 0.039215
0.039810 0.039555 0.039555
0.040248 0.039741 0.039402
0.042027 0.040384 0.039563
0.046687 0.041496 0.040012
0.055459 0.043323 0.040398
0.070026 0.045107 0.040995
0.093028 0.047324 0.041504
0.129828 0.049491 0.042196
0.178604 0.054555 0.043799
0.236851 0.064488 0.046567
0.296762 0.079781 0.051310
0.351442 0.108323 0.062407
0.394078 0.152108 0.081678
0.431633 0.195189 0.111048
0.464900 0.243177 0.150507
0.494863 0.286547 0.195950
0.525564 0.323713 0.240706
0.552967 0.358543 0.281354
0.580637 0.397878 0.322333
0.607881 0.426636 0.363774
0.637744 0.453893 0.394047
0.667049 0.482948 0.426218
0.698777 0.509454 0.457216
0.733887 0.534448 0.483436
0.768529 0.561715 0.512257
0.805892 0.586972 0.539211
0.847318 0.610575 0.563197
0.868936 0.647540 0.592580
0.884760 0.683990 0.631197
0.903158 0.730631 0.669382
0.039215 0.039215 0.039215
0.039215 0.039215 0.039215
0.039215 0.039215 0.039215
0.039915 0.039607 0.039607
0.041303 0.040278 0.039594
0.043737 0.041250 0.040006
0.048620 0.042492 0.040284
0.058917 0.044725 0.040710
0.073833 0.046633 0.041000
0.100265 0.048964 0.041495
0.140095 0.051524 0.042476
0.189600 0.058119 0.044018
0.245622 0.068339 0.046709
0.303384 0.086199 0.051808
0.354552 0.113318 0.063007
0.395470 0.157169 0.082451
0.432501 0.199140 0.111591
0.465526 0.246405 0.151397
0.495261 0.288325 0.196423
0.525838 0.324870 0.241055
0.553163 0.359380 0.281597
0.580738 0.398329 0.322482
0.607959 0.426957 0.363890
0.637809 0.454141 0.394149
0.667079 0.483075 0.426262
0.698791 0.509529 0.457238
0.733897 0.534506 0.483451
0.768537 0.561745 0.512266
0.805897 0.586996 0.539214
0.847320 0.610593 0.563201
0.868945 0.647558 0.592587
0.884765 0.684003 0.631201
0.903162 0.730642 0.669387
0.039215 0.039215 0.039215
0.039215 0.039215 0.039215
0.039215 0.039215 0.039215
0.039915 0.039607 0.039607
0.042027 0.040642 0.039844
0.045713 0.042253 0.040445
0.051132 0.043776 0.040775
0.063214 0.046289 0.041105
0.080418 0.048417 0.041259
0.107164 0.051211 0.041877
0.149606 0.055033 0.042602
0.199287 0.062142 0.044163
0.254284 0.072433 0.046965
0.308541 0.092427 0.052292
0.357492 0.120515 0.063631
0.396826 0.162079 0.083206
0.433355 0.203014 0.112126
0.466115 0.249302 0.152019
0.495653 0.290064 0.196889
0.526101 0.325923 0.241383
0.553350 0.360216 0.281841
0.580838 0.398779 0.322631
0.608037 0.427277 0.364006
0.637874 0.454389 0.394251
0.667109 0.483201 0.426307
0.698804 0.509605 0.457261
0.733908 0.534563 0.483465
0.768545 0.561776 0.512275
0.805901 0.587020 0.539217
0.847322 0.610610 0.563206
0.868953 0.647576 0.592595
0.884770 0.684015 0.631206
0.903166 0.730653 0.669391
0.039783 0.040156 0.039783
0.040277 0.040642 0.039968
0.040445 0.040806 0.040033
0.041627 0.041426 0.040470
0.044628 0.042891 0.040957
0.049769 0.045198 0.041177
0.057449 0.046900 0.041545
0.069211 0.049115 0.041629
0.088371 0.051427 0.041907
0.114791 0.054660 0.042495
0.159661 0.060021 0.042969
0.207638 0.066619 0.044351
0.260612 0.078247 0.047602
0.312557 0.099053 0.052490
0.360123 0.128367 0.064243
0.398152 0.166855 0.083947
0.434195 0.206817 0.112653
0.466698 0.252163 0.152635
0.496042 0.291788 0.197352
0.526362 0.326969 0.241710
0.553498 0.361061 0.282096
0.580939 0.399228 0.322779
0.608116 0.427596 0.364122
0.637939 0.454637 0.394352
0.667140 0.483328 0.426352
0.698818 0.509681 0.457283
0.733918 0.534621 0.483480
0.768552 0.561807 0.512285
0.805905 0.587044 0.539220
0.847324 0.610627 0.563211
0.868962 0.647594 0.592602
0.884775 0.684028 0.631210
0.903170 0.730664 0.669396
0.041504 0.043642 0.041504
0.042029 0.044234 0.041522
0.043053 0.045225 0.041691
0.045915 0.047749 0.042433
0.050834 0.049852 0.043279
0.058225 0.052182 0.043281
0.068298 0.054337 0.043178
0.083347 0.057449 0.043157
0.103461 0.059554 0.042754
0.129213 0.061388 0.043107
0.170400 0.065584 0.043741
0.217138 0.071695 0.044768
0.266708 0.085901 0.048224
0.316408 0.105345 0.052685
0.362995 0.135915 0.064834
0.399450 0.171512 0.084674
0.435024 0.210553 0.113174
0.467276 0.254990 0.153247
0.496429 0.293498 0.197812
0.526621 0.328010 0.242036
0.553657 0.362003 0.282372
0.581039 0.399676 0.322927
0.608194 0.427915 0.364237
0.638004 0.454884 0.394453
0.667170 0.483455 0.426397
0.698831 0.509756 0.457306
0.733928 0.534679 0.483494
0.768560 0.561838 0.512294
0.805909 0.587068 0.539223
0.847326 0.610644 0.563216
0.868970 0.647612 0.592609
0.884780 0.684040 0.631215
0.903174 0.730675 0.669401
0.044311 0.050752 0.044311
0.045230 0.051632 0.044339
0.046740 0.052782 0.044401
0.049586 0.055803 0.044314
0.055332 0.060315 0.044526
0.065092 0.063519 0.044815
0.075910 0.066174 0.044432
0.096403 0.068341 0.044288
0.118671 0.070664 0.043991
0.149870 0.072407 0.043729
0.186802 0.074175 0.044420
0.228430 0.079278 0.045610
0.273666 0.094329 0.048639
0.320205 0.111767 0.053010
0.365623 0.143236 0.065414
0.400724 0.176283 0.085390
0.435841 0.214230 0.113689
0.467849 0.257786 0.153854
0.496813 0.295195 0.198270
0.526880 0.329045 0.242360
0.553816 0.362949 0.282648
0.581139 0.400123 0.323075
0.608272 0.428234 0.364353
0.638069 0.455131 0.394555
0.667200 0.483581 0.426441
0.698844 0.509831 0.457328
0.733938 0.534737 0.483508
0.768568 0.561869 0.512304
0.805913 0.587092 0.539226
0.847328 0.610662 0.563221
0.868979 0.647630 0.592616
0.884784 0.684053 0.631219
0.903178 0.730686 0.669405
0.046675 0.062279 0.045948
0.047863 0.063651 0.045979
0.049579 0.065694 0.046035
0.052863 0.068627 0.045964
0.061072 0.072397 0.045649
0.071029 0.075140 0.045603
0.086087 0.081355 0.045807
0.108165 0.084912 0.045172
0.134974 0.088160 0.045066
0.166591 0.091105 0.045102
0.205776 0.093490 0.045369
0.241650 0.095796 0.046351
0.282972 0.104650 0.048958
0.324875 0.122413 0.053765
0.367839 0.151061 0.066091
0.402294 0.182965 0.086288
0.436833 0.218679 0.114316
0.468547 0.261186 0.154596
0.497283 0.297265 0.198830
0.527171 0.330396 0.242782
0.554012 0.364109 0.282988
0.581262 0.400671 0.323257
0.608367 0.428621 0.364479
0.638149 0.455435 0.394679
0.667237 0.483736 0.426496
0.698861 0.509924 0.457356
0.733951 0.534809 0.483526
0.768577 0.561907 0.512315
0.805918 0.587122 0.539230
0.847330 0.610683 0.563226
0.868989 0.647652 0.592625
0.884790 0.684068 0.631225
0.903183 0.730700 0.669411
0.048992 0.078537 0.047296
0.050490 0.081055 0.047193
0.052335 0.083715 0.047241
0.057208 0.087851 0.047142
0.066748 0.093871 0.046643
0.077291 0.100311 0.046742
0.096143 0.104427 0.046339
0.120924 0.109166 0.046572
0.153672 0.112830 0.046082
0.185676 0.116292 0.046421
0.224707 0.118329 0.046319
0.262240 0.121857 0.047772
0.295526 0.126527 0.049844
0.331729 0.140314 0.055204
0.371296 0.162006 0.067051
0.404609 0.193272 0.087643
0.438331 0.225953 0.115310
0.469515 0.265617 0.155604
0.497963 0.300257 0.199642
0.527538 0.332540 0.243422
0.554297 0.365620 0.283482
0.581441 0.401469 0.323522
0.608494 0.429118 0.364644
0.638265 0.455878 0.394861
0.667292 0.483963 0.426577
0.698885 0.510060 0.457396
0.733969 0.534913 0.483551
0.768592 0.561962 0.512332
0.805926 0.587165 0.539235
0.847333 0.610714 0.563235
0.869005 0.647685 0.592638
0.884799 0.684091 0.631233
0.903190 0.730720 0.669419
0.050860 0.103381 0.048751
0.052849 0.105721 0.048452
0.056498 0.108444 0.048084
0.062128 0.112971 0.047822
0.071109 0.120182 0.047701
0.085048 0.127742 0.047479
0.104029 0.135085 0.047225
0.132488 0.140806 0.047116
0.165981 0.146127 0.046670
0.201889 0.152103 0.047388
0.242204 0.155026 0.047626
0.276482 0.157986 0.048777
0.311406 0.163248 0.050796
0.341676 0.165472 0.056626
0.375968 0.178679 0.068492
0.407827 0.206597 0.089494
0.440563 0.237323 0.117552
0.470887 0.271720 0.157024
0.498944 0.304562 0.200816
0.528069 0.335641 0.244342
0.554712 0.367766 0.284202
0.581701 0.402629 0.323907
0.608679 0.429841 0.364884
0.638435 0.456525 0.395109
0.667371 0.484294 0.426694
0.698956 0.510290 0.457493
0.733996 0.535065 0.483589
0.768612 0.562043 0.512357
0.805937 0.587228 0.539243
0.847338 0.610759 0.563248
0.869027 0.647732 0.592657
0.884811 0.684124 0.631244
0.903200 0.730749 0.669431
0.053833 0.135619 0.049976
0.057443 0.139476 0.050023
0.061557 0.143821 0.049929
0.067573 0.148683 0.049566
0.074918 0.155968 0.049090
0.091697 0.162851 0.048640
0.110634 0.170693 0.048612
0.142216 0.177751 0.048399
0.176425 0.180866 0.047755
0.213754 0.186451 0.047798
0.257091 0.193872 0.048623
0.290107 0.195295 0.049820
0.323620 0.201606 0.052596
0.354273 0.205049 0.059395
0.384321 0.211378 0.070983
0.412866 0.226408 0.092255
0.443742 0.252166 0.121670
0.472854 0.280420 0.159066
0.500355 0.310341 0.202508
0.528838 0.340106 0.245676
0.555314 0.370867 0.285247
0.582079 0.404311 0.324467
0.608949 0.430893 0.365234
0.638681 0.457470 0.395408
0.667487 0.484777 0.426865
0.699081 0.510644 0.457654
0.734036 0.535286 0.483644
0.768642 0.562161 0.512393
0.805953 0.587320 0.539254
0.847345 0.610826 0.563266
0.869060 0.647802 0.592685
0.884830 0.684172 0.631262
0.903216 0.730791 0.669449
0.058074 0.179974 0.052794
0.062672 0.184594 0.052369
0.068126 0.189604 0.051705
0.074069 0.195144 0.051336
0.084356 0.200532 0.050922
0.099662 0.206187 0.050600
0.118578 0.215630 0.050488
0.151481 0.222110 0.050442
0.187292 0.228469 0.049864
0.226143 0.233223 0.049622
0.268822 0.236024 0.049004
0.307251 0.243925 0.051509
0.336122 0.247144 0.054470
0.366427 0.253786 0.061800
0.395128 0.257299 0.073277
0.420138 0.259457 0.096955
0.448187 0.271242 0.127035
0.475677 0.292814 0.162012
0.502282 0.318077 0.204944
0.529947 0.346504 0.247602
0.556186 0.375335 0.286763
0.582627 0.406743 0.325280
0.609341 0.432418 0.365743
0.639039 0.458844 0.395845
0.667730 0.485547 0.427186
0.699263 0.511161 0.457890
0.734093 0.535610 0.483724
0.768685 0.562334 0.512445
0.805976 0.587454 0.539271
0.847355 0.610922 0.563293
0.869108 0.647903 0.592725
0.884856 0.684242 0.631287
0.903238 0.730854 0.669475
0.064843 0.226933 0.057308
0.069195 0.229522 0.056572
0.074448 0.232287 0.055807
0.084813 0.237818 0.055277
0.095541 0.243972 0.054661
0.108281 0.250608 0.054024
0.128497 0.255165 0.053822
0.159927 0.265242 0.053120
0.192454 0.271219 0.052750
0.233927 0.273753 0.052389
0.278957 0.279150 0.051667
0.313489 0.280039 0.051828
0.346688 0.288599 0.056012
0.377129 0.293439 0.065240
0.405852 0.297251 0.077644
0.430056 0.301718 0.102378
0.454750 0.302653 0.132486
0.479177 0.312151 0.166800
0.504596 0.330442 0.208933
0.531544 0.355636 0.250384
0.557445 0.381741 0.288958
0.583419 0.410244 0.326454
0.609909 0.434623 0.366480
0.639559 0.460700 0.396480
0.668101 0.486683 0.427673
0.699512 0.511857 0.458170
0.734274 0.536159 0.483923
0.768749 0.562586 0.512522
0.806011 0.587651 0.539295
0.847370 0.611064 0.563332
0.869178 0.648051 0.592784
0.884896 0.684345 0.631323
0.903270 0.730945 0.669513
0.072331 0.269840 0.065159
0.080182 0.274589 0.064415
0.090192 0.279009 0.063629
0.100485 0.284233 0.063078
0.111468 0.288105 0.062308
0.125184 0.290905 0.061648
0.142405 0.294733 0.061096
0.168877 0.301720 0.060505
0.203260 0.309448 0.059791
0.239439 0.314807 0.059157
0.282935 0.317069 0.057897
0.321667 0.322253 0.058098
0.355980 0.322398 0.056777
0.386490 0.331783 0.066567
0.415750 0.337178 0.082095
0.439586 0.339239 0.107697
0.463114 0.341261 0.143242
0.485849 0.340125 0.174510
0.507815 0.349107 0.214965
0.533889 0.367895 0.254564
0.559261 0.390887 0.292134
0.584559 0.415157 0.328147
0.610730 0.437798 0.367547
0.640314 0.463372 0.397403
0.668641 0.488331 0.428379
0.699858 0.512815 0.458519
0.734611 0.537017 0.484274
0.768841 0.562953 0.512634
0.806060 0.587937 0.539330
0.847391 0.611270 0.563389
0.869281 0.648267 0.592870
0.884953 0.684496 0.631377
0.903317 0.731078 0.669569
0.091531 0.318762 0.080972
0.100645 0.320886 0.079339
0.110324 0.323952 0.077473
0.122442 0.328377 0.076337
0.135542 0.331285 0.075498
0.147229 0.333039 0.074432
0.161727 0.335636 0.073304
0.182929 0.341103 0.072854
0.210890 0.346139 0.072228
0.247136 0.351417 0.071378
0.287799 0.357189 0.071000
0.324823 0.362541 0.069883
0.360492 0.363975 0.068633
0.392069 0.364427 0.067313
0.422400 0.373193 0.085459
0.448137 0.377236 0.114725
0.471563 0.378578 0.153599
0.494202 0.378500 0.187390
0.514263 0.376516 0.224410
0.538365 0.384178 0.260213
0.561805 0.402846 0.296859
0.586197 0.421574 0.330585
0.611912 0.442348 0.369085
0.641408 0.467220 0.398741
0.669424 0.490714 0.429403
0.700361 0.514205 0.459023
0.735102 0.538265 0.484786
0.769006 0.563559 0.512819
0.806133 0.588354 0.539381
0.847423 0.611572 0.563473
0.869430 0.648582 0.592996
0.885037 0.684715 0.631455
0.903386 0.731272 0.669650
0.119895 0.365014 0.113936
0.132504 0.368296 0.111126
0.144893 0.370137 0.108868
0.154811 0.371730 0.107831
0.164495 0.373374 0.107077
0.174613 0.375270 0.106308
0.189623 0.377880 0.104899
0.206691 0.380400 0.102942
0.227335 0.383460 0.102075
0.255501 0.388141 0.099577
0.294286 0.393380 0.097124
0.328304 0.397967 0.096235
0.365932 0.402397 0.093858
0.397587 0.404033 0.091657
0.428684 0.404940 0.088958
0.456180 0.412580 0.118647
0.480589 0.415189 0.164914
0.503393 0.415952 0.201876
0.523182 0.414820 0.239143
0.544970 0.411430 0.270032
0.565372 0.419088 0.303132
0.588738 0.431671 0.335160
0.613612 0.448841 0.371300
0.642987 0.472739 0.400676
0.670556 0.494146 0.430883
0.701090 0.516215 0.459705
0.735815 0.540073 0.485530
0.769411 0.564705 0.513214
0.806246 0.588965 0.539479
0.847469 0.612010 0.563595
0.869649 0.649042 0.593180
0.885159 0.685036 0.631570
0.903487 0.731555 0.669769
0.168539 0.404074 0.168147
0.178312 0.405822 0.165473
0.188110 0.407714 0.163015
0.197180 0.409467 0.160740
0.205669 0.411053 0.159031
0.213641 0.411800 0.157053
0.222599 0.412728 0.155127
0.233989 0.414050 0.152802
0.248830 0.415694 0.149759
0.271111 0.420051 0.148501
0.303256 0.424545 0.143730
0.334416 0.428804 0.139865
0.367117 0.433352 0.136922
0.399361 0.436872 0.134016
0.430924 0.437847 0.127820
0.460574 0.439225 0.124276
0.486412 0.445127 0.171269
0.510689 0.446559 0.212293
0.530867 0.446510 0.253254
0.552831 0.444210 0.284114
0.571804 0.441393 0.312049
0.592584 0.446854 0.342727
0.616412 0.459891 0.375438
0.645218 0.480388 0.403606
0.672186 0.499068 0.433015
0.702144 0.519110 0.460691
0.736850 0.542671 0.486608
0.770001 0.566367 0.513787
0.806443 0.589869 0.539717
0.847546 0.612643 0.563751
0.869967 0.649712 0.593448
0.885337 0.685503 0.631736
0.903634 0.731969 0.669942
0.222620 0.440941 0.229808
0.228911 0.441913 0.229132
0.235188 0.442872 0.227534
0.241405 0.443935 0.225701
0.247090 0.444948 0.223956
0.252448 0.445916 0.222288
0.258740 0.447054 0.220330
0.266862 0.448252 0.217635
0.277076 0.449287 0.214144
0.293963 0.450983 0.210869
0.315239 0.454858 0.207239
0.342187 0.458465 0.204627
0.371659 0.463708 0.197798
0.401687 0.467994 0.193007
0.434055 0.470115 0.190256
0.463329 0.472104 0.182034
0.490658 0.473592 0.176257
0.516788 0.477016 0.222866
0.539064 0.478745 0.266843
0.561426 0.478177 0.299714
0.581295 0.473803 0.326797
0.599198 0.472121 0.353713
0.620868 0.476039 0.381191
0.648234 0.490339 0.407885
0.674377 0.505294 0.435490
0.703674 0.523305 0.462142
0.738347 0.546413 0.488169
0.770857 0.568771 0.514618
0.807015 0.591392 0.540267
0.847711 0.613523 0.563858
0.870400 0.650664 0.593837
0.885598 0.686185 0.631980
0.903849 0.732573 0.670195
0.270166 0.474784 0.281642
0.274778 0.475484 0.280644
0.279213 0.476466 0.279665
0.283258 0.477155 0.278480
0.287148 0.477799 0.277314
0.290932 0.478121 0.276200
0.295436 0.478475 0.274877
0.301740 0.478971 0.273025
0.310067 0.479972 0.270456
0.320430 0.481129 0.266983
0.335119 0.483759 0.263555
0.355016 0.486073 0.261543
0.377900 0.490323 0.256589
0.405736 0.494362 0.250492
0.437705 0.499032 0.247061
0.465400 0.502130 0.243250
0.494059 0.502930 0.234689
0.520787 0.504228 0.227402
0.545271 0.508270 0.277849
0.569787 0.508538 0.314077
0.590512 0.506817 0.340297
0.608211 0.503722 0.367248
0.627975 0.499707 0.391535
0.652684 0.504553 0.414876
0.677654 0.514533 0.439320
0.706340 0.530944 0.465280
0.740148 0.551508 0.490128
0.772159 0.572214 0.515866
0.808121 0.593797 0.541265
0.847932 0.614841 0.564054
0.870911 0.651958 0.594394
0.885978 0.687177 0.632345
0.904163 0.733453 0.670564
0.318106 0.505675 0.330328
0.320905 0.506100 0.329762
0.323576 0.506510 0.329205
0.326186 0.506912 0.328661
0.328622 0.507272 0.328186
0.330631 0.507487 0.327847
0.333045 0.507745 0.327441
0.336464 0.508110 0.326865
0.341251 0.508621 0.326059
0.348293 0.509609 0.324341
0.358620 0.510972 0.321225
0.371722 0.512224 0.317464
0.389187 0.515235 0.314001
0.411913 0.519199 0.309360
0.439275 0.523252 0.304025
0.466941 0.527697 0.302150
0.495176 0.530713 0.297759
0.523553 0.532847 0.289138
0.547315 0.532939 0.281224
0.574706 0.535747 0.324687
0.597979 0.537101 0.353812
0.617106 0.532453 0.379301
0.637586 0.530251 0.406026
0.659124 0.524859 0.423295
0.682600 0.528486 0.444400
0.710371 0.541230 0.469172
0.742392 0.558515 0.492665
0.774390 0.577025 0.517910
0.809714 0.597285 0.542415
0.848524 0.617278 0.564853
0.871653 0.653834 0.595204
0.886534 0.688612 0.632970
0.904621 0.734734 0.671102
0.358659 0.537073 0.373233
0.360247 0.537347 0.373108
0.361811 0.537616 0.372985
0.363349 0.537880 0.372817
0.364801 0.538139 0.372487
0.366107 0.538393 0.372162
0.367689 0.538701 0.371769
0.369951 0.539143 0.371206
0.372983 0.539554 0.370233
0.377115 0.539992 0.368759
0.383254 0.540600 0.366734
0.392398 0.541522 0.365044
0.404646 0.542797 0.363136
0.422452 0.545349 0.359846
0.445506 0.549513 0.355657
0.470630 0.554756 0.350581
0.498629 0.558031 0.347314
0.525665 0.561076 0.342482
0.550199 0.562546 0.334674
0.577904 0.562365 0.326710
0.604453 0.566598 0.364596
0.627388 0.565498 0.393143
0.648540 0.563755 0.419514
0.670617 0.557464 0.435525
0.691517 0.553628 0.454349
0.716395 0.556744 0.475611
0.746083 0.568368 0.496689
0.777598 0.584010 0.520850
0.812011 0.602288 0.544072
0.850171 0.621461 0.566537
0.872730 0.656549 0.596379
0.887344 0.690695 0.633878
0.905287 0.736598 0.671886
0.393296 0.564296 0.411392
0.394240 0.564516 0.411160
0.395168 0.564803 0.410925
0.396086 0.565088 0.410693
0.396995 0.565370 0.410463
0.397895 0.565649 0.410236
0.398989 0.565988 0.409959
0.400565 0.566477 0.409561
0.402818 0.567176 0.408991
0.406013 0.568167 0.408184
0.410248 0.569273 0.406812
0.416133 0.570255 0.404834
0.425422 0.571088 0.402111
0.437834 0.572200 0.398462
0.453980 0.574330 0.395349
0.474191 0.577611 0.391618
0.500479 0.581975 0.387718
0.526844 0.586619 0.384243
0.552581 0.589474 0.382968
0.581051 0.591981 0.374114
0.608598 0.592375 0.369668
0.634824 0.594128 0.400129
0.657669 0.595962 0.432320
0.681999 0.589593 0.448074
0.701868 0.586307 0.467204
0.724354 0.579741 0.484619
0.751325 0.582882 0.501920
0.782214 0.594097 0.524468
0.815470 0.609435 0.546463
0.852551 0.627608 0.568968
0.874336 0.660462 0.598077
0.888518 0.693708 0.635195
0.906257 0.739302 0.673026
0.422719 0.592750 0.442209
0.423493 0.592902 0.442089
0.424261 0.593052 0.441969
0.425023 0.593201 0.441851
0.425780 0.593349 0.441733
0.426532 0.593496 0.441616
0.427450 0.593676 0.441473
0.428777 0.593936 0.441267
0.430689 0.594311 0.440970
0.433425 0.594847 0.440546
0.437306 0.595609 0.439944
0.442468 0.596316 0.438822
0.449010 0.597005 0.436985
0.457204 0.597951 0.435754
0.467473 0.599218 0.434138
0.481613 0.602806 0.431014
0.503296 0.607233 0.427909
0.528185 0.611731 0.424801
0.553421 0.614688 0.421808
0.583396 0.618724 0.418593
0.609293 0.619750 0.412229
0.636377 0.619312 0.404786
0.664352 0.624505 0.438503
0.692154 0.621914 0.460887
0.713920 0.618646 0.479176
0.737160 0.612319 0.496595
0.761465 0.606192 0.509887
0.788624 0.607724 0.529178
0.820018 0.619573 0.550467
0.855988 0.636402 0.572474
0.876689 0.666443 0.600526
0.890219 0.698049 0.637099
0.907666 0.743213 0.674681
0.455955 0.622703 0.476913
0.456418 0.622807 0.476834
0.456878 0.622910 0.476755
0.457337 0.623013 0.476677
0.457792 0.623115 0.476599
0.458246 0.623217 0.476522
0.458802 0.623342 0.476427
0.459560 0.623523 0.476290
0.460640 0.623785 0.476092
0.462195 0.624163 0.475806
0.464420 0.624703 0.475398
0.467575 0.625470 0.474819
0.472002 0.626547 0.474009
0.477515 0.627623 0.472834
0.484996 0.628470 0.470581
0.495098 0.629590 0.467463
0.510692 0.631689 0.464411
0.531106 0.635504 0.462768
0.555990 0.640436 0.460919
0.584904 0.645926 0.458646
0.611785 0.648618 0.455187
0.639921 0.651642 0.449049
0.666409 0.651326 0.442801
0.701055 0.653559 0.470412
0.727347 0.652859 0.491260
0.750621 0.645505 0.508162
0.775788 0.638895 0.522356
0.798830 0.631359 0.538710
0.826994 0.636536 0.557052
0.861462 0.648852 0.576929
0.880079 0.675084 0.604049
0.892676 0.704279 0.639847
0.909708 0.748848 0.677077
0.486115 0.654426 0.506995
0.486364 0.654528 0.506939
0.486612 0.654630 0.506882
0.486859 0.654731 0.506826
0.487105 0.654832 0.506770
0.487350 0.654933 0.506715
0.487651 0.655057 0.506647
0.488088 0.655236 0.506547
0.488723 0.655497 0.506403
0.489641 0.655874 0.506195
0.490962 0.656417 0.505896
0.492851 0.657194 0.505467
0.495531 0.658295 0.504861
0.499312 0.659824 0.504014
0.505358 0.661052 0.502783
0.513506 0.661930 0.500556
0.524033 0.663185 0.497883
0.537235 0.665223 0.494537
0.556575 0.669702 0.492114
0.584993 0.675403 0.489676
0.612339 0.680768 0.487256
0.640182 0.684068 0.484595
0.669712 0.684926 0.480992
0.702321 0.685049 0.472711
0.734831 0.689445 0.501086
0.764539 0.687491 0.522551
0.791587 0.681209 0.536910
0.814402 0.671669 0.553439
0.839280 0.665065 0.567721
0.868080 0.665667 0.582845
0.884644 0.686600 0.608751
0.896221 0.713915 0.643804
0.912660 0.756934 0.680537
0.514119 0.686894 0.535525
0.514311 0.686948 0.535492
0.514503 0.687002 0.535459
0.514694 0.687056 0.535426
0.514884 0.687110 0.535393
0.515074 0.687164 0.535361
0.515308 0.687230 0.535320
0.515648 0.687326 0.535262
0.516142 0.687466 0.535177
0.516859 0.687669 0.535053
0.517897 0.687963 0.534874
0.519391 0.688386 0.534617
0.521528 0.688992 0.534250
0.524559 0.689852 0.533730
0.528811 0.691059 0.533001
0.534430 0.692323 0.531735
0.541595 0.693330 0.530465
0.550394 0.694584 0.528247
0.562945 0.697649 0.524458
0.586872 0.702987 0.522320
0.613137 0.706843 0.521084
0.641246 0.713002 0.518818
0.672434 0.717594 0.516592
0.706190 0.720161 0.511225
0.737777 0.719451 0.505155
0.773624 0.723024 0.531539
0.806401 0.720514 0.549388
0.830872 0.710526 0.566137
0.855971 0.703754 0.580929
0.879400 0.693917 0.592882
0.891875 0.704671 0.614983
0.901638 0.728953 0.649333
0.916924 0.769528 0.685529
0.541761 0.723098 0.565583
0.541892 0.723140 0.565561
0.542022 0.723182 0.565540
0.542153 0.723224 0.565518
0.542283 0.723266 0.565496
0.542412 0.723308 0.565475
0.542572 0.723359 0.565448
0.542804 0.723434 0.565409
0.543143 0.723543 0.565353
0.543635 0.723703 0.565271
0.544350 0.723933 0.565152
0.545383 0.724267 0.564980
0.546871 0.724748 0.564733
0.549000 0.725437 0.564379
0.552019 0.726414 0.563878
0.556255 0.727788 0.563177
0.562121 0.729698 0.562557
0.568299 0.730713 0.560494
0.578090 0.731958 0.557471
0.594499 0.734128 0.554092
0.615247 0.738980 0.552649
0.642143 0.745233 0.550423
0.672146 0.751831 0.548374
0.707431 0.755899 0.546652
0.740808 0.756957 0.541194
0.777120 0.756284 0.535648
0.817609 0.760877 0.559216
0.848292 0.756976 0.580533
0.873042 0.747785 0.595575
0.896885 0.738399 0.608017
0.904421 0.738537 0.627024
0.910187 0.752308 0.657161
0.922592 0.786177 0.691758
0.567885 0.761178 0.593340
0.567975 0.761210 0.593326
0.568064 0.761242 0.593311
0.568153 0.761274 0.593296
0.568243 0.761306 0.593281
0.568332 0.761338 0.593267
