Assets/Lutify-Free-LUTs-Pack/Lutify Free LUTs Pack/Print Film Pro - Print Film 2/Lutify.me-PrintFilm2-BMDFilmGen5-to-Rec709.cube
# Created with: fylm.ai - Colour Grading and Collaboration Software in Cloud 
# Website: https://fylm.ai 
# META
# Option: Gamut compress
# Block 1: IDT | BMD Wide Gamut BMDFilm Gen 5
# Block 2: colourMatch | Blending Mode: Normal | {"ColorSpace":0,"CrossCovarianceLimit":50,"ReshapingIterations":1,"PercentSaturationShift":100,"PercentShadingShift":100,"ExtraShading":true,"PercentTint":100,"PercentModified":100}
# Block 3: HSL | Blending Mode: Normal | {"hue":{"Reds":0,"Yellows":0,"Greens":0,"Cyans":0,"Blues":0,"Magentas":0},"saturation":{"Reds":1,"Yellows":0.9,"Greens":0.95,"Cyans":1,"Blues":1,"Magentas":1},"luminance":{"Reds":0.8,"Yellows":0.95,"Greens":0.9,"Cyans":0.8,"Blues":0.8,"Magentas":0.8},"lum_sat":{"Blacks":1,"Shadows":1,"Midtones":1,"Highlights":1,"Whites":1},"sat_sat":{"10":1,"20":1,"30":1,"40":1,"50":1}}
# Block 4: LUT | Filmic Curve Response: Low Contrast 2 (100%)
# Block 5: ODT | Rec709
TITLE "Lutify.me-PrintFilm2-BMDFilmGen5-to-Rec709" 
LUT_3D_SIZE 5
0.000000 0.000000 0.000000
0.000000 0.000000 0.000000
0.588283 0.000000 0.000000
1.000000 0.693324 0.414574
1.000000 0.991097 0.952987
0.000000 0.048992 0.000000
0.097865 0.071407 0.000000
0.630482 0.000000 0.000000
1.000000 0.699291 0.415787
1.000000 0.991149 0.953029
0.000000 0.647979 0.000000
0.000000 0.659466 0.000000
0.828622 0.631700 0.000000
1.000000 0.781906 0.441028
1.000000 0.991898 0.953655
0.849721 0.995055 0.622043
0.852264 0.995040 0.621960
0.886135 0.994056 0.617968
1.000000 0.989459 0.585103
1.000000 1.000000 0.964472
1.000000 1.000000 0.985010
1.000000 1.000000 0.985010
1.000000 1.000000 0.985028
1.000000 1.000000 0.985287
1.000000 1.000000 0.969812
0.000000 0.000000 0.000000
0.000000 0.000000 0.000000
0.586577 0.000000 0.050841
1.000000 0.691454 0.427403
1.000000 0.991095 0.953120
0.000000 0.034876 0.099534
0.073204 0.077684 0.082365
0.624021 0.000000 0.046598
1.000000 0.697463 0.428660
1.000000 0.991148 0.953164
0.000000 0.670567 0.000000
0.000000 0.683068 0.000000
0.773722 0.706637 0.000000
1.000000 0.780445 0.454273
1.000000 0.991897 0.953789
0.848098 0.994971 0.642878
0.850658 0.994962 0.642875
0.884970 0.994242 0.640822
1.000000 0.990061 0.605151
1.000000 1.000000 0.964595
1.000000 1.000000 0.985123
1.000000 1.000000 0.985122
1.000000 1.000000 0.985140
1.000000 1.000000 0.985406
1.000000 1.000000 0.970000
0.000000 0.000000 0.083042
0.000000 0.000000 0.118594
0.384520 0.000000 0.183303
1.000000 0.686069 0.592814
1.000000 0.991073 0.955035
0.000000 0.000000 0.447386
0.000000 0.000000 0.432233
0.550532 0.000000 0.385669
1.000000 0.690872 0.592795
1.000000 0.991125 0.955077
0.000000 0.543876 0.788324
0.000000 0.578118 0.782373
0.724210 0.741311 0.770949
1.000000 0.763928 0.609137
1.000000 0.991878 0.955688
0.842465 0.995493 0.804744
0.845326 0.995458 0.804480
0.877043 0.995323 0.803413
1.000000 0.993237 0.780851
1.000000 1.000000 0.966353
1.000000 1.000000 0.986705
1.000000 1.000000 0.986705
1.000000 1.000000 0.986722
1.000000 1.000000 0.987077
1.000000 1.000000 0.972553
0.151064 0.000000 0.439987
0.165153 0.000000 0.439876
0.319755 0.000000 0.472477
1.000000 0.000000 0.913187
1.000000 0.989037 0.977450
0.077859 0.000000 0.772888
0.119597 0.000000 0.779513
0.382739 0.000000 0.835613
1.000000 0.000000 0.921761
1.000000 0.989080 0.977459
0.268280 0.302242 1.000000
0.293225 0.304753 1.000000
0.530589 0.316144 0.999655
1.000000 0.430800 0.963363
1.000000 0.989685 0.977590
0.655281 0.970749 1.000000
0.661304 0.970981 1.000000
0.749114 0.975647 0.999523
0.992335 0.995965 1.000000
1.000000 1.000000 0.984515
1.000000 1.000000 1.000000
1.000000 1.000000 1.000000
1.000000 1.000000 1.000000
1.000000 1.000000 1.000000
1.000000 1.000000 0.995545
0.850883 0.000000 0.865475
0.851933 0.000000 0.865421
0.866794 0.000000 0.864643
0.995500 0.000000 0.854369
1.000000 0.847530 1.000000
0.851021 0.000000 0.865467
0.852070 0.000000 0.865413
0.866901 0.000000 0.864638
0.995532 0.000000 0.854361
1.000000 0.848743 1.000000
0.980093 0.000000 1.000000
0.980730 0.000000 1.000000
0.989797 0.000000 1.000000
1.000000 0.192907 1.000000
1.000000 0.864401 1.000000
0.922684 0.907325 1.000000
0.923011 0.907343 1.000000
0.927542 0.907702 1.000000
0.976581 0.911386 1.000000
1.000000 0.952962 1.000000
0.992247 1.000000 1.000000
0.992278 1.000000 1.000000
0.992742 1.000000 1.000000
1.000000 1.000000 1.000000
1.000000 1.000000 1.000000
