Assets/Lutify-Free-LUTs-Pack/Lutify Free LUTs Pack/Print Film Pro - Print Film 2/Lutify.me-PrintFilm2-LogC4-to-Rec709.cube
# Created with: fylm.ai - Colour Grading and Collaboration Software in Cloud 
# Website: https://fylm.ai 
# META
# Option: Gamut compress
# Block 1: IDT | Arri Alexa 35 - LogC4
# Block 2: colourMatch | Blending Mode: Normal | {"ColorSpace":0,"CrossCovarianceLimit":50,"ReshapingIterations":1,"PercentSaturationShift":100,"PercentShadingShift":100,"ExtraShading":true,"PercentTint":100,"PercentModified":100}
# Block 3: HSL | Blending Mode: Normal | {"hue":{"Reds":0,"Yellows":0,"Greens":0,"Cyans":0,"Blues":0,"Magentas":0},"saturation":{"Reds":1,"Yellows":0.9,"Greens":0.95,"Cyans":1,"Blues":1,"Magentas":1},"luminance":{"Reds":0.8,"Yellows":0.95,"Greens":0.9,"Cyans":0.8,"Blues":0.8,"Magentas":0.8},"lum_sat":{"Blacks":1,"Shadows":1,"Midtones":1,"Highlights":1,"Whites":1},"sat_sat":{"10":1,"20":1,"30":1,"40":1,"50":1}}
# Block 4: LUT | Filmic Curve Response: Low Contrast 2 (100%)
# Block 5: ODT | Rec709
TITLE "Lutify.me-PrintFilm2-LogC4-to-Rec709" 
LUT_3D_SIZE 33
0.000000 0.000000 0.000000
0.000000 0.000000 0.000000
0.000000 0.000000 0.000000
0.000000 0.000000 0.000000
0.000000 0.000000 0.000000
0.000000 0.000000 0.000000
0.000000 0.000000 0.000000
0.060326 0.000000 0.000000
0.108927 0.000000 0.000000
0.175774 0.000000 0.000000
0.269021 0.000000 0.000000
0.375292 0.000000 0.000000
0.508888 0.000000 0.000000
0.621198 0.000000 0.020314
0.741318 0.000000 0.051262
0.854200 0.000000 0.084915
0.938431 0.000000 0.125707
1.000000 0.000000 0.183446
1.000000 0.222429 0.248647
1.000000 0.365635 0.314588
1.000000 0.473873 0.404774
1.000000 0.584089 0.496529
1.000000 0.676886 0.579335
1.000000 0.757946 0.670073
1.000000 0.819461 0.757024
1.000000 0.864160 0.813590
1.000000 0.900259 0.857533
1.000000 0.926214 0.893119
1.000000 0.948333 0.925609
1.000000 0.967143 0.948904
1.000000 0.981254 0.968948
1.000000 0.993325 0.987364
1.000000 1.000000 0.999469
0.000000 0.000000 0.000000
0.000000 0.000000 0.000000
0.000000 0.000000 0.000000
0.000000 0.000000 0.000000
0.000000 0.000000 0.000000
0.000000 0.000000 0.000000
0.011866 0.000000 0.000000
0.069303 0.000000 0.000000
0.119951 0.000000 0.000000
0.189602 0.000000 0.000000
0.280797 0.000000 0.000000
0.383933 0.000000 0.000000
0.513231 0.000000 0.000000
0.624154 0.000000 0.019367
0.743357 0.000000 0.050922
0.854820 0.000000 0.084815
0.938704 0.000000 0.125713
1.000000 0.000000 0.183721
1.000000 0.226357 0.248888
1.000000 0.367162 0.314819
1.000000 0.474879 0.404991
1.000000 0.584891 0.496672
1.000000 0.677332 0.579441
1.000000 0.758142 0.670110
1.000000 0.819597 0.757068
1.000000 0.864224 0.813616
1.000000 0.900290 0.857548
1.000000 0.926233 0.893127
1.000000 0.948346 0.925614
1.000000 0.967152 0.948907
1.000000 0.981254 0.968948
1.000000 0.993325 0.987364
1.000000 1.000000 0.999469
0.000000 0.000000 0.000000
0.000000 0.000000 0.000000
0.000000 0.000000 0.000000
0.000000 0.000000 0.000000
0.000000 0.000000 0.000000
0.000000 0.000000 0.000000
0.038154 0.000000 0.000000
0.083797 0.000000 0.000000
0.137877 0.000000 0.000000
0.208749 0.000000 0.000000
0.297369 0.000000 0.000000
0.396762 0.000000 0.000000
0.518950 0.000000 0.000000
0.628108 0.000000 0.017949
0.746121 0.000000 0.050444
0.855660 0.000000 0.084650
0.939116 0.000000 0.125867
1.000000 0.000000 0.184076
1.000000 0.231776 0.249218
1.000000 0.369280 0.315141
1.000000 0.476279 0.405294
1.000000 0.586008 0.496871
1.000000 0.677955 0.579592
1.000000 0.758413 0.670161
1.000000 0.819788 0.757132
1.000000 0.864316 0.813652
1.000000 0.900334 0.857569
1.000000 0.926260 0.893138
1.000000 0.948368 0.925622
1.000000 0.967161 0.948911
1.000000 0.981265 0.968953
1.000000 0.993329 0.987366
1.000000 1.000000 0.999469
0.000000 0.000000 0.000000
0.000000 0.000000 0.000000
0.000000 0.000000 0.000000
0.000000 0.000000 0.000000
0.000000 0.000000 0.000000
0.000000 0.000000 0.000000
0.065664 0.000000 0.000000
0.110822 0.000000 0.000000
0.159495 0.000000 0.000000
0.235834 0.000000 0.000000
0.316252 0.000000 0.000000
0.412831 0.000000 0.000000
0.526579 0.000000 0.000000
0.633543 0.000000 0.016350
0.748940 0.000000 0.050542
0.857820 0.000000 0.085103
0.939764 0.000000 0.126441
1.000000 0.000000 0.184545
1.000000 0.239149 0.249669
1.000000 0.372210 0.315586
1.000000 0.478224 0.405715
1.000000 0.587562 0.497149
1.000000 0.678820 0.579800
1.000000 0.758794 0.670231
1.000000 0.820055 0.757221
1.000000 0.864440 0.813701
1.000000 0.900394 0.857598
1.000000 0.926300 0.893154
1.000000 0.948391 0.925629
1.000000 0.967173 0.948916
1.000000 0.981271 0.968955
1.000000 0.993333 0.987367
1.000000 1.000000 0.999470
0.000000 0.000000 0.000000
0.000000 0.000000 0.000000
0.000000 0.000000 0.000000
0.000000 0.000000 0.000000
0.007938 0.000000 0.000000
0.065681 0.000000 0.000000
0.110184 0.000000 0.000000
0.143837 0.000000 0.000000
0.195876 0.000000 0.000000
0.263769 0.000000 0.000000
0.341183 0.000000 0.000000
0.429600 0.000000 0.000000
0.539214 0.000000 0.000000
0.643401 0.000000 0.014627
0.752027 0.000000 0.050914
0.861133 0.000000 0.085697
0.941436 0.000000 0.127237
1.000000 0.000000 0.185150
1.000000 0.247234 0.250370
1.000000 0.376254 0.316204
1.000000 0.480919 0.406298
1.000000 0.589722 0.497534
1.000000 0.680022 0.580091
1.000000 0.759321 0.670330
1.000000 0.820424 0.757344
1.000000 0.864617 0.813771
1.000000 0.900478 0.857638
1.000000 0.926353 0.893175
1.000000 0.948430 0.925643
1.000000 0.967191 0.948924
1.000000 0.981282 0.968958
1.000000 0.993342 0.987370
1.000000 1.000000 0.999470
0.000000 0.025111 0.000000
0.000000 0.029930 0.000000
0.000000 0.034105 0.000000
0.000000 0.039414 0.000000
0.000000 0.051785 0.000000
0.078013 0.051161 0.000000
0.140356 0.039885 0.000000
0.196423 0.000000 0.000000
0.244049 0.000000 0.000000
0.302432 0.000000 0.000000
0.368501 0.000000 0.000000
0.450540 0.000000 0.000000
0.557424 0.000000 0.000000
0.657938 0.000000 0.005828
0.757738 0.000000 0.051651
0.865509 0.000000 0.086584
0.943718 0.000000 0.128292
1.000000 0.056162 0.185127
1.000000 0.257914 0.251337
1.000000 0.381847 0.317072
1.000000 0.484646 0.407105
1.000000 0.592717 0.498069
1.000000 0.681686 0.580495
1.000000 0.760053 0.670467
1.000000 0.820942 0.757517
1.000000 0.864862 0.813866
1.000000 0.900594 0.857693
1.000000 0.926429 0.893205
1.000000 0.948479 0.925659
1.000000 0.967215 0.948934
1.000000 0.981299 0.968965
1.000000 0.993351 0.987373
1.000000 1.000000 0.999470
0.000000 0.058584 0.000000
0.000000 0.061448 0.000000
0.000000 0.065576 0.000000
0.000000 0.072787 0.000000
0.000000 0.089367 0.000000
0.073432 0.096582 0.000000
0.157674 0.093331 0.000000
0.230510 0.085332 0.000000
0.290131 0.063693 0.000000
0.351416 0.000000 0.000000
0.406834 0.000000 0.000000
0.479475 0.000000 0.000000
0.583323 0.000000 0.000000
0.675463 0.000000 0.000000
0.768747 0.000000 0.051310
0.871300 0.000000 0.087689
0.946662 0.000000 0.129645
1.000000 0.122203 0.185008
1.000000 0.273912 0.252594
1.000000 0.389485 0.318268
1.000000 0.491108 0.408121
1.000000 0.596858 0.498809
1.000000 0.683988 0.581056
1.000000 0.761068 0.670657
1.000000 0.821657 0.757756
1.000000 0.865202 0.814002
1.000000 0.900757 0.857772
1.000000 0.926533 0.893247
1.000000 0.948554 0.925684
1.000000 0.967251 0.948949
1.000000 0.981322 0.968973
1.000000 0.993364 0.987377
1.000000 1.000000 0.999471
0.000000 0.095788 0.000000
0.000000 0.099627 0.000000
0.000000 0.106034 0.000000
0.000000 0.116573 0.000000
0.000000 0.133744 0.000000
0.000000 0.150416 0.000000
0.153316 0.153742 0.000000
0.245415 0.145231 0.000000
0.320979 0.140151 0.000000
0.396143 0.125475 0.000000
0.463482 0.104599 0.000000
0.527835 0.010291 0.000000
0.609079 0.000000 0.000000
0.697054 0.000000 0.000000
0.784832 0.000000 0.048617
0.880903 0.000000 0.089265
0.950348 0.000000 0.131311
1.000000 0.171553 0.184675
1.000000 0.294696 0.254279
1.000000 0.399835 0.319900
1.000000 0.499740 0.409249
1.000000 0.602112 0.499869
1.000000 0.687159 0.581836
1.000000 0.762470 0.670923
1.000000 0.822649 0.758088
1.000000 0.865675 0.814189
1.000000 0.900986 0.857881
1.000000 0.926677 0.893305
1.000000 0.948651 0.925716
1.000000 0.967300 0.948969
1.000000 0.981356 0.968985
1.000000 0.993381 0.987383
1.000000 1.000000 0.999472
0.000000 0.146836 0.000000
0.000000 0.151660 0.000000
0.000000 0.162080 0.000000
0.000000 0.177336 0.000000
0.000000 0.193117 0.000000
0.000000 0.214793 0.000000
0.109900 0.219731 0.000000
0.226625 0.220815 0.000000
0.329484 0.207943 0.000000
0.425509 0.208377 0.000000
0.504197 0.207070 0.000000
0.578497 0.188213 0.000000
0.656896 0.152500 0.000000
0.724702 0.027291 0.000000
0.802838 0.000000 0.042538
0.891012 0.000000 0.089168
0.956594 0.088869 0.134243
1.000000 0.225840 0.185477
1.000000 0.321392 0.256508
1.000000 0.413737 0.322120
1.000000 0.510367 0.409762
1.000000 0.609113 0.501344
1.000000 0.691231 0.582647
1.000000 0.764396 0.671291
1.000000 0.824020 0.758550
1.000000 0.866328 0.814449
1.000000 0.901302 0.858032
1.000000 0.926877 0.893385
1.000000 0.948792 0.925764
1.000000 0.967366 0.948996
1.000000 0.981402 0.969002
1.000000 0.993406 0.987392
1.000000 1.000000 0.999474
0.000000 0.220580 0.000000
0.000000 0.229889 0.000000
0.000000 0.243900 0.000000
0.000000 0.254993 0.000000
0.000000 0.276629 0.000000
0.000000 0.290608 0.000000
0.000000 0.306853 0.000000
0.172675 0.314189 0.000000
0.313119 0.307276 0.000000
0.440214 0.299776 0.000000
0.536838 0.306035 0.000000
0.625309 0.308834 0.000000
0.703960 0.285236 0.000000
0.768081 0.248664 0.000000
0.828974 0.191783 0.000000
0.905679 0.174481 0.087044
0.962881 0.211203 0.137054
1.000000 0.280645 0.188798
1.000000 0.351987 0.259460
1.000000 0.432212 0.325113
1.000000 0.524362 0.410461
1.000000 0.618654 0.503356
1.000000 0.696321 0.583548
1.000000 0.767036 0.671807
1.000000 0.825905 0.759187
1.000000 0.867230 0.814810
1.000000 0.901744 0.858243
1.000000 0.927159 0.893499
1.000000 0.948982 0.925828
1.000000 0.967462 0.949036
1.000000 0.981465 0.969024
1.000000 0.993441 0.987403
1.000000 1.000000 0.999475
0.000000 0.303541 0.000000
0.000000 0.313387 0.000000
0.000000 0.327876 0.000000
0.000000 0.342899 0.000000
0.000000 0.359648 0.000000
0.000000 0.373810 0.000000
0.000000 0.399787 0.000000
0.000000 0.412186 0.000000
0.226887 0.419127 0.000000
0.407949 0.413594 0.000000
0.534339 0.410266 0.000000
0.633934 0.414065 0.000000
0.734246 0.418869 0.000000
0.804858 0.398023 0.000000
0.863728 0.361098 0.000000
0.924452 0.306768 0.076185
0.968394 0.313473 0.139225
1.000000 0.341224 0.192334
1.000000 0.393009 0.264311
1.000000 0.457012 0.328529
1.000000 0.542154 0.411421
1.000000 0.631554 0.506082
1.000000 0.703897 0.585614
1.000000 0.771528 0.673368
1.000000 0.828479 0.760065
1.000000 0.868471 0.815310
1.000000 0.902349 0.858533
1.000000 0.927546 0.893655
1.000000 0.949250 0.925918
1.000000 0.967594 0.949091
1.000000 0.981555 0.969057
1.000000 0.993488 0.987420
1.000000 1.000000 0.999478
0.000000 0.406925 0.000000
0.000000 0.424339 0.000000
0.000000 0.436087 0.000000
0.000000 0.448345 0.000000
0.000000 0.462663 0.000000
0.000000 0.473574 0.000000
0.000000 0.491973 0.000000
0.000000 0.513269 0.000000
0.000000 0.528899 0.000000
0.330343 0.528060 0.000000
0.491584 0.525343 0.000000
0.629385 0.518078 0.000000
0.738448 0.527480 0.000000
0.823854 0.515026 0.000000
0.881917 0.498129 0.000000
0.936561 0.467018 0.020647
0.974691 0.423922 0.140421
1.000000 0.418518 0.200848
1.000000 0.444770 0.270934
1.000000 0.502309 0.335724
1.000000 0.566608 0.413430
1.000000 0.648583 0.509767
1.000000 0.713940 0.588435
1.000000 0.777082 0.675513
1.000000 0.831697 0.761041
1.000000 0.870163 0.815998
1.000000 0.903188 0.858937
1.000000 0.928084 0.893873
1.000000 0.949623 0.926044
1.000000 0.967776 0.949167
1.000000 0.981680 0.969102
1.000000 0.993556 0.987443
1.000000 1.000000 0.999482
0.000000 0.537748 0.000000
0.000000 0.546096 0.000000
0.000000 0.555080 0.000000
0.000000 0.561736 0.000000
0.000000 0.568771 0.000000
0.000000 0.583163 0.000000
0.000000 0.593722 0.000000
0.000000 0.605120 0.000000
0.000000 0.627248 0.000000
0.150915 0.640708 0.000000
0.419493 0.643837 0.000000
0.586595 0.636294 0.000000
0.723410 0.634345 0.000000
0.820582 0.630056 0.000000
0.888349 0.630712 0.000000
0.938372 0.611506 0.000000
0.977819 0.571642 0.147051
1.000000 0.532542 0.215593
1.000000 0.523239 0.283228
1.000000 0.562558 0.347969
1.000000 0.604817 0.423937
1.000000 0.669488 0.513760
1.000000 0.727017 0.592268
1.000000 0.784377 0.678424
1.000000 0.835765 0.761783
1.000000 0.872447 0.816905
1.000000 0.904337 0.859490
1.000000 0.928824 0.894174
1.000000 0.950139 0.926219
1.000000 0.968029 0.949273
1.000000 0.981855 0.969166
1.000000 0.993649 0.987475
1.000000 1.000000 0.999487
0.000000 0.644082 0.000000
0.000000 0.648027 0.000000
0.000000 0.654902 0.000000
0.000000 0.661925 0.000000
0.000000 0.667801 0.000000
0.000000 0.674244 0.000000
0.000000 0.684899 0.000000
0.000000 0.696799 0.000000
0.000000 0.707273 0.000000
0.000000 0.718833 0.000000
0.344891 0.728948 0.000000
0.531722 0.732993 0.000000
0.693772 0.727991 0.000000
0.802856 0.719160 0.000000
0.876659 0.724767 0.000000
0.933786 0.714623 0.000000
0.969865 0.700911 0.152180
0.997730 0.673771 0.238981
1.000000 0.635434 0.305885
1.000000 0.633328 0.369321
1.000000 0.655362 0.440640
1.000000 0.697413 0.521970
1.000000 0.743642 0.597451
1.000000 0.793912 0.682329
1.000000 0.841161 0.762797
1.000000 0.875501 0.818180
1.000000 0.905976 0.860247
1.000000 0.929838 0.894589
1.000000 0.950847 0.926460
1.000000 0.968376 0.949419
1.000000 0.982090 0.969252
1.000000 0.993775 0.987519
1.000000 1.000000 0.999494
0.000000 0.738600 0.090096
0.000000 0.742448 0.082337
0.000000 0.747696 0.065247
0.000000 0.754397 0.018970
0.000000 0.761194 0.000000
0.000000 0.765256 0.000000
0.000000 0.768806 0.000000
0.000000 0.772424 0.000000
0.000000 0.781684 0.000000
0.000000 0.792407 0.000000
0.218535 0.799847 0.000000
0.473081 0.805710 0.000000
0.652634 0.802918 0.000000
0.774740 0.800787 0.000000
0.853458 0.794257 0.000000
0.918655 0.791253 0.000000
0.958350 0.790252 0.185616
0.986491 0.771236 0.270200
1.000000 0.754031 0.351631
1.000000 0.720754 0.402689
1.000000 0.715074 0.460902
1.000000 0.732497 0.535448
1.000000 0.768632 0.608762
1.000000 0.806714 0.687505
1.000000 0.848185 0.764173
1.000000 0.879518 0.819906
1.000000 0.908109 0.861275
1.000000 0.931177 0.895163
1.000000 0.951819 0.926793
1.000000 0.968855 0.949622
1.000000 0.982420 0.969373
1.000000 0.993955 0.987582
1.000000 1.000000 0.999504
0.000000 0.822672 0.235700
0.000000 0.823875 0.233416
0.000000 0.826407 0.230158
0.000000 0.829725 0.225832
0.000000 0.833925 0.220186
0.000000 0.837594 0.214929
0.000000 0.840178 0.204286
0.000000 0.842451 0.188969
0.000000 0.845111 0.178545
0.000000 0.847961 0.163188
0.000000 0.853925 0.143737
0.429772 0.859877 0.121720
0.626816 0.858818 0.102286
0.747850 0.859158 0.083211
0.831468 0.854810 0.000000
0.904137 0.848797 0.000000
0.947265 0.850849 0.215370
0.978733 0.845365 0.320795
1.000000 0.834784 0.402924
1.000000 0.812796 0.450269
1.000000 0.788505 0.496043
1.000000 0.780943 0.561886
1.000000 0.802456 0.630460
1.000000 0.825062 0.697289
1.000000 0.856791 0.766940
1.000000 0.884856 0.822214
1.000000 0.910932 0.862658
1.000000 0.933154 0.895677
1.000000 0.953121 0.927155
1.000000 0.969511 0.949902
1.000000 0.982871 0.969540
1.000000 0.994195 0.987666
1.000000 1.000000 0.999518
0.000000 0.877202 0.353956
0.000000 0.877805 0.353598
0.000000 0.878615 0.353114
0.000000 0.879687 0.352474
0.000000 0.881079 0.351639
0.000000 0.882838 0.350575
0.000000 0.885434 0.345106
0.000000 0.889217 0.336801
0.000000 0.891489 0.323932
0.000000 0.891931 0.308605
0.000000 0.893774 0.296724
0.389192 0.895489 0.285742
0.592699 0.896588 0.277016
0.725265 0.897452 0.271433
0.813697 0.895477 0.274701
0.886518 0.894060 0.257435
0.936827 0.890226 0.257476
0.971384 0.888005 0.345102
0.992049 0.887970 0.455724
1.000000 0.874806 0.503345
1.000000 0.863253 0.552701
1.000000 0.841412 0.603709
1.000000 0.838266 0.654962
1.000000 0.849118 0.712609
1.000000 0.868803 0.774289
1.000000 0.891694 0.824550
1.000000 0.914642 0.864498
1.000000 0.935946 0.896166
1.000000 0.954773 0.927439
1.000000 0.970430 0.950208
1.000000 0.983482 0.969769
1.000000 0.994543 0.987786
1.000000 1.000000 0.999538
0.000000 0.918393 0.467738
0.000000 0.918639 0.466912
0.000000 0.918971 0.465783
0.000000 0.919415 0.464251
0.000000 0.919997 0.462195
0.000000 0.920770 0.459466
0.000000 0.921771 0.455983
0.000000 0.923023 0.452206
0.000000 0.923847 0.446066
0.000000 0.923681 0.436750
0.167731 0.923540 0.431224
0.392658 0.925022 0.424444
0.567703 0.926310 0.416503
0.701815 0.926002 0.410213
0.794355 0.924601 0.407355
0.872244 0.924381 0.406108
0.920043 0.921824 0.395463
0.959794 0.918057 0.385790
0.985847 0.919415 0.479839
1.000000 0.915179 0.558741
1.000000 0.908127 0.605316
1.000000 0.895806 0.659406
1.000000 0.881338 0.693559
1.000000 0.876483 0.734244
1.000000 0.886639 0.788514
1.000000 0.900943 0.827757
1.000000 0.919678 0.866888
1.000000 0.939587 0.896838
1.000000 0.956808 0.927844
1.000000 0.971725 0.950449
1.000000 0.984300 0.970020
1.000000 0.995032 0.987949
1.000000 1.000000 0.999565
0.000000 0.945398 0.588560
0.000000 0.945614 0.588109
0.000000 0.945909 0.587490
0.000000 0.946307 0.586647
0.000000 0.946839 0.585505
0.000000 0.947581 0.583994
0.000000 0.948562 0.582013
0.000000 0.949737 0.579633
0.000000 0.950429 0.576240
0.181708 0.951182 0.571993
0.337232 0.950699 0.563510
0.454229 0.949720 0.551951
0.574958 0.948531 0.541882
0.686926 0.948093 0.540884
0.781748 0.948224 0.540431
0.857051 0.948620 0.539898
0.907190 0.947474 0.536667
0.946931 0.946648 0.528560
0.975849 0.944255 0.520196
1.000000 0.942602 0.597860
1.000000 0.940604 0.658599
1.000000 0.932913 0.709870
1.000000 0.922057 0.737995
1.000000 0.910197 0.765410
1.000000 0.907015 0.803280
1.000000 0.915488 0.837423
1.000000 0.926687 0.869869
1.000000 0.944458 0.898375
1.000000 0.959556 0.928401
1.000000 0.973429 0.950781
1.000000 0.985365 0.970221
1.000000 0.995687 0.988175
1.000000 1.000000 0.999602
0.000000 0.969667 0.685250
0.000000 0.969695 0.685230
0.000000 0.969733 0.685203
0.000000 0.969784 0.685165
0.067467 0.969849 0.685117
0.165936 0.969931 0.685054
0.231488 0.970028 0.684975
0.292850 0.970133 0.684883
0.354347 0.970306 0.683811
0.411974 0.971074 0.680759
0.473471 0.971970 0.676977
0.541418 0.971694 0.669414
0.616466 0.970251 0.658992
0.687444 0.969137 0.649822
0.760893 0.968849 0.644426
0.837514 0.968725 0.642790
0.891090 0.969211 0.643671
0.931336 0.968522 0.643428
0.963330 0.966471 0.641704
0.991918 0.963876 0.632429
1.000000 0.964226 0.698260
1.000000 0.961668 0.758095
1.000000 0.955638 0.782963
1.000000 0.947034 0.806062
1.000000 0.934475 0.828081
1.000000 0.933926 0.852942
1.000000 0.939957 0.879725
1.000000 0.952737 0.904566
1.000000 0.963891 0.930435
1.000000 0.976001 0.951792
1.000000 0.987223 0.971173
1.000000 0.996534 0.988482
1.000000 1.000000 0.999683
0.424108 0.985278 0.764437
0.427778 0.985275 0.764304
0.432805 0.985270 0.764119
0.439640 0.985262 0.763865
0.448842 0.985251 0.763516
0.461081 0.985235 0.763038
0.477110 0.985211 0.762389
0.497704 0.985175 0.761519
0.523304 0.985129 0.760366
0.554163 0.985088 0.758899
0.589898 0.985046 0.756986
0.630789 0.985000 0.754613
0.671122 0.984214 0.750191
0.714377 0.983372 0.746917
0.761814 0.983388 0.740860
0.824938 0.983345 0.739037
0.879224 0.982298 0.737624
0.919483 0.982056 0.737589
0.953653 0.981386 0.738841
0.981632 0.980699 0.736055
1.000000 0.979292 0.732267
1.000000 0.978496 0.784414
1.000000 0.977138 0.820413
1.000000 0.972192 0.840559
1.000000 0.965019 0.860436
1.000000 0.957984 0.874478
1.000000 0.954835 0.890534
1.000000 0.962004 0.912119
1.000000 0.970293 0.935271
1.000000 0.979940 0.954290
1.000000 0.989985 0.973115
1.000000 0.997836 0.989381
1.000000 1.000000 0.999855
0.594254 0.996239 0.828826
0.596286 0.996249 0.828903
0.599089 0.996263 0.829010
0.602937 0.996282 0.829159
0.608188 0.996307 0.829364
0.614602 0.996299 0.829384
0.622420 0.996239 0.829099
0.632782 0.996158 0.828716
0.646278 0.996066 0.828210
0.663455 0.995989 0.827572
0.683440 0.995925 0.826680
0.706154 0.995878 0.825444
0.733069 0.995825 0.823927
0.759163 0.995359 0.820003
0.785456 0.994726 0.814275
0.826660 0.993675 0.809149
0.871396 0.993309 0.810512
0.912239 0.993216 0.812472
0.944224 0.993396 0.813781
0.971765 0.992853 0.815585
0.992190 0.991496 0.812319
1.000000 0.990077 0.810209
1.000000 0.990156 0.843455
1.000000 0.988614 0.869242
1.000000 0.984103 0.884963
1.000000 0.979887 0.897680
1.000000 0.972715 0.906296
1.000000 0.972464 0.920975
1.000000 0.977648 0.941408
1.000000 0.985078 0.957822
1.000000 0.993259 0.975644
1.000000 0.999436 0.990649
1.000000 1.000000 1.000000
0.710771 1.000000 0.872754
0.711612 1.000000 0.872825
0.712776 1.000000 0.872923
0.714389 1.000000 0.873060
0.716503 1.000000 0.873205
0.719005 1.000000 0.873237
0.722398 1.000000 0.873283
0.726998 1.000000 0.873348
0.733167 1.000000 0.873440
0.741311 1.000000 0.873570
0.751861 1.000000 0.873757
0.765102 1.000000 0.873550
0.781276 1.000000 0.872766
0.800457 1.000000 0.871813
0.821824 1.000000 0.869620
0.846091 1.000000 0.865672
0.871991 1.000000 0.861816
0.903588 1.000000 0.860859
0.935436 1.000000 0.861319
0.964053 1.000000 0.863266
0.985691 1.000000 0.866342
0.999332 1.000000 0.864307
1.000000 0.999192 0.864662
1.000000 0.998672 0.888975
1.000000 0.997820 0.910519
1.000000 0.994310 0.919448
1.000000 0.990491 0.926838
1.000000 0.986409 0.934065
1.000000 0.986768 0.948511
1.000000 0.991473 0.963560
1.000000 0.997088 0.978876
1.000000 1.000000 0.992268
1.000000 1.000000 1.000000
0.785464 1.000000 0.906414
0.785902 1.000000 0.906442
0.786512 1.000000 0.906480
0.787359 1.000000 0.906533
0.788529 1.000000 0.906607
0.790142 1.000000 0.906711
0.792352 1.000000 0.906853
0.794957 1.000000 0.906865
0.798151 1.000000 0.906729
0.802429 1.000000 0.906545
0.808067 1.000000 0.906302
0.815349 1.000000 0.905986
0.824888 1.000000 0.905618
0.838125 1.000000 0.905269
0.854185 1.000000 0.904881
0.870145 1.000000 0.902962
0.886314 1.000000 0.899923
0.906176 1.000000 0.898528
0.932066 1.000000 0.899502
0.959049 1.000000 0.900544
0.979126 1.000000 0.902399
0.994843 1.000000 0.904850
1.000000 1.000000 0.904259
1.000000 1.000000 0.904732
1.000000 1.000000 0.925321
1.000000 1.000000 0.939440
1.000000 1.000000 0.945615
1.000000 0.999548 0.952661
1.000000 0.997708 0.960592
1.000000 0.998066 0.970626
1.000000 1.000000 0.982369
1.000000 1.000000 0.994161
1.000000 1.000000 1.000000
0.840240 1.000000 0.935586
0.840501 1.000000 0.935608
0.840867 1.000000 0.935638
0.841373 1.000000 0.935680
0.842076 1.000000 0.935738
0.843049 1.000000 0.935819
0.844393 1.000000 0.935932
0.846242 1.000000 0.936088
0.848763 1.000000 0.936304
0.852179 1.000000 0.936599
0.856370 1.000000 0.936815
0.861093 1.000000 0.936690
0.867267 1.000000 0.936530
0.874986 1.000000 0.936365
0.883679 1.000000 0.936054
0.894216 1.000000 0.935699
0.906359 1.000000 0.934810
0.918580 1.000000 0.932489
0.932734 1.000000 0.931039
0.954696 1.000000 0.932041
0.975801 1.000000 0.933472
0.990453 1.000000 0.935024
1.000000 1.000000 0.936877
1.000000 1.000000 0.937172
1.000000 1.000000 0.937836
1.000000 1.000000 0.950803
1.000000 1.000000 0.960585
1.000000 1.000000 0.966358
1.000000 1.000000 0.973961
1.000000 1.000000 0.979371
1.000000 1.000000 0.987098
1.000000 1.000000 0.996609
1.000000 1.000000 1.000000
0.886747 1.000000 0.956110
0.886871 1.000000 0.956121
0.887043 1.000000 0.956137
0.887284 1.000000 0.956159
0.887618 1.000000 0.956189
0.888083 1.000000 0.956232
0.888726 1.000000 0.956291
0.889612 1.000000 0.956373
0.890828 1.000000 0.956487
0.892490 1.000000 0.956645
0.894732 1.000000 0.956861
0.897195 1.000000 0.956881
0.900251 1.000000 0.956784
0.904391 1.000000 0.956660
0.909672 1.000000 0.956534
0.916446 1.000000 0.956919
0.924646 1.000000 0.957449
0.933976 1.000000 0.957517
0.943234 1.000000 0.955846
0.956000 1.000000 0.954150
0.972316 1.000000 0.954450
0.986456 1.000000 0.955197
0.997148 1.000000 0.957123
1.000000 1.000000 0.959203
1.000000 1.000000 0.959275
1.000000 1.000000 0.959883
1.000000 1.000000 0.969846
1.000000 1.000000 0.977374
