Assets/Lutify-Free-LUTs-Pack/Lutify Free LUTs Pack/Print Film Pro - Print Film 2/Lutify.me-PrintFilm2-SLog3Venice-to-Rec709.cube
# Created with: fylm.ai - Colour Grading and Collaboration Software in Cloud 
# Website: https://fylm.ai 
# META
# Option: Gamut compress
# Block 1: IDT | Sony Venice S-Log3 S-Gamut3
# Block 2: colourMatch | Blending Mode: Normal | {"ColorSpace":0,"CrossCovarianceLimit":50,"ReshapingIterations":1,"PercentSaturationShift":100,"PercentShadingShift":100,"ExtraShading":true,"PercentTint":100,"PercentModified":100}
# Block 3: HSL | Blending Mode: Normal | {"hue":{"Reds":0,"Yellows":0,"Greens":0,"Cyans":0,"Blues":0,"Magentas":0},"saturation":{"Reds":1,"Yellows":0.9,"Greens":0.95,"Cyans":1,"Blues":1,"Magentas":1},"luminance":{"Reds":0.8,"Yellows":0.95,"Greens":0.9,"Cyans":0.8,"Blues":0.8,"Magentas":0.8},"lum_sat":{"Blacks":1,"Shadows":1,"Midtones":1,"Highlights":1,"Whites":1},"sat_sat":{"10":1,"20":1,"30":1,"40":1,"50":1}}
# Block 4: LUT | Filmic Curve Response: Low Contrast 2 (100%)
# Block 5: ODT | Rec709
TITLE "Lutify.me-PrintFilm2-SLog3Venice-to-Rec709" 
LUT_3D_SIZE 33
0.000000 0.000000 0.000000
0.000000 0.000000 0.000000
0.000000 0.000000 0.000000
0.000000 0.000000 0.000000
0.000000 0.000000 0.000000
0.000000 0.000000 0.000000
0.000000 0.000000 0.000000
0.000000 0.000000 0.000000
0.000000 0.000000 0.000000
0.023479 0.000000 0.000000
0.062373 0.000000 0.000000
0.097153 0.000000 0.000000
0.135869 0.000000 0.000000
0.193287 0.000000 0.000000
0.265378 0.000000 0.000000
0.342435 0.000000 0.000000
0.437004 0.000000 0.000000
0.534489 0.000000 0.000000
0.623020 0.000000 0.000000
0.719905 0.000000 0.018371
0.816088 0.000000 0.051267
0.897052 0.000000 0.080706
0.958793 0.000000 0.114785
1.000000 0.101784 0.157748
1.000000 0.258983 0.209444
1.000000 0.365952 0.266866
1.000000 0.457310 0.326831
1.000000 0.548752 0.399121
1.000000 0.635980 0.480555
1.000000 0.705730 0.552062
1.000000 0.766992 0.627354
1.000000 0.818299 0.706952
1.000000 0.857862 0.770178
0.000000 0.000000 0.000000
0.000000 0.000000 0.000000
0.000000 0.000000 0.000000
0.000000 0.000000 0.000000
0.000000 0.000000 0.000000
0.000000 0.000000 0.000000
0.000000 0.000000 0.000000
0.000000 0.000000 0.000000
0.000000 0.000000 0.000000
0.042397 0.000000 0.000000
0.072924 0.000000 0.000000
0.110810 0.000000 0.000000
0.149844 0.000000 0.000000
0.209284 0.000000 0.000000
0.279877 0.000000 0.000000
0.353066 0.000000 0.000000
0.443574 0.000000 0.000000
0.540335 0.000000 0.000000
0.627683 0.000000 0.000000
0.722937 0.000000 0.017872
0.817791 0.000000 0.051546
0.898581 0.000000 0.081153
0.959315 0.000000 0.114998
1.000000 0.112589 0.157684
1.000000 0.262405 0.209620
1.000000 0.367666 0.267113
1.000000 0.458508 0.327040
1.000000 0.549642 0.399188
1.000000 0.636632 0.480696
1.000000 0.706121 0.552183
1.000000 0.767222 0.627445
1.000000 0.818435 0.707017
1.000000 0.857939 0.770197
0.000000 0.000000 0.000000
0.000000 0.000000 0.000000
0.000000 0.000000 0.000000
0.000000 0.000000 0.000000
0.000000 0.000000 0.000000
0.000000 0.000000 0.000000
0.000000 0.000000 0.000000
0.000000 0.000000 0.000000
0.014909 0.000000 0.000000
0.057389 0.000000 0.000000
0.086370 0.000000 0.000000
0.122770 0.000000 0.000000
0.161987 0.000000 0.000000
0.225512 0.000000 0.000000
0.291203 0.000000 0.000000
0.363236 0.000000 0.000000
0.449878 0.000000 0.000000
0.545973 0.000000 0.000000
0.632408 0.000000 0.000000
0.725523 0.000000 0.017156
0.819464 0.000000 0.051801
0.900081 0.000000 0.081592
0.959931 0.000000 0.115283
1.000000 0.123586 0.157937
1.000000 0.265779 0.209795
1.000000 0.369369 0.267359
1.000000 0.459704 0.327250
1.000000 0.550529 0.399254
1.000000 0.637281 0.480839
1.000000 0.706513 0.552305
1.000000 0.767453 0.627537
1.000000 0.818573 0.707083
1.000000 0.858018 0.770216
0.000000 0.000000 0.000000
0.000000 0.000000 0.000000
0.000000 0.000000 0.000000
0.000000 0.000000 0.000000
0.000000 0.000000 0.000000
0.000000 0.000000 0.000000
0.000000 0.000000 0.000000
0.000000 0.000000 0.000000
0.038457 0.000000 0.000000
0.070774 0.000000 0.000000
0.101085 0.000000 0.000000
0.136133 0.000000 0.000000
0.177189 0.000000 0.000000
0.238140 0.000000 0.000000
0.303064 0.000000 0.000000
0.372638 0.000000 0.000000
0.455962 0.000000 0.000000
0.551430 0.000000 0.000000
0.637024 0.000000 0.000000
0.728921 0.000000 0.014672
0.821646 0.000000 0.051992
0.901551 0.000000 0.082021
0.960750 0.000000 0.115724
1.000000 0.133761 0.158250
1.000000 0.269108 0.209967
1.000000 0.371062 0.267605
1.000000 0.460894 0.327458
1.000000 0.551412 0.399321
1.000000 0.637927 0.480980
1.000000 0.706903 0.552426
1.000000 0.767683 0.627628
1.000000 0.818708 0.707145
1.000000 0.858096 0.770235
0.000000 0.000000 0.000000
0.000000 0.000000 0.000000
0.000000 0.000000 0.000000
0.000000 0.000000 0.000000
0.000000 0.000000 0.000000
0.000000 0.000000 0.000000
0.000000 0.000000 0.000000
0.036399 0.000000 0.000000
0.061475 0.000000 0.000000
0.085708 0.000000 0.000000
0.114911 0.000000 0.000000
0.149633 0.000000 0.000000
0.190771 0.000000 0.000000
0.249207 0.000000 0.000000
0.315496 0.000000 0.000000
0.379421 0.000000 0.000000
0.461871 0.000000 0.000000
0.556725 0.000000 0.000000
0.641539 0.000000 0.000000
0.732255 0.000000 0.010938
0.823303 0.000000 0.051829
0.902996 0.000000 0.082444
0.961553 0.000000 0.116160
1.000000 0.143091 0.158557
1.000000 0.272392 0.210138
1.000000 0.372746 0.267850
1.000000 0.462080 0.327665
1.000000 0.552296 0.399386
1.000000 0.638573 0.481122
1.000000 0.707292 0.552546
1.000000 0.767912 0.627718
1.000000 0.818845 0.707211
1.000000 0.858173 0.770253
0.000000 0.000000 0.000000
0.000000 0.000000 0.000000
0.000000 0.000000 0.000000
0.000000 0.000000 0.000000
0.000000 0.000000 0.000000
0.000000 0.000000 0.000000
0.022448 0.000000 0.000000
0.054462 0.000000 0.000000
0.076446 0.000000 0.000000
0.106374 0.000000 0.000000
0.130175 0.000000 0.000000
0.161971 0.000000 0.000000
0.205481 0.000000 0.000000
0.260369 0.000000 0.000000
0.324865 0.000000 0.000000
0.386919 0.000000 0.000000
0.467637 0.000000 0.000000
0.561879 0.000000 0.000000
0.645959 0.000000 0.000000
0.735530 0.000000 0.000000
0.824849 0.000000 0.051591
0.904361 0.000000 0.082824
0.962341 0.000000 0.116591
1.000000 0.151771 0.158860
1.000000 0.275636 0.210307
1.000000 0.374420 0.268094
1.000000 0.463262 0.327872
1.000000 0.553176 0.399452
1.000000 0.639216 0.481264
1.000000 0.707681 0.552667
1.000000 0.768142 0.627811
1.000000 0.818980 0.707274
1.000000 0.858252 0.770272
0.000000 0.000000 0.000000
0.000000 0.000000 0.000000
0.000000 0.000000 0.000000
0.000000 0.000000 0.000000
0.000000 0.013339 0.000000
0.000000 0.022667 0.000000
0.031008 0.027199 0.000000
0.058324 0.028888 0.000000
0.085528 0.024858 0.000000
0.120723 0.000000 0.000000
0.151971 0.000000 0.000000
0.181274 0.000000 0.000000
0.222447 0.000000 0.000000
0.276331 0.000000 0.000000
0.334032 0.000000 0.000000
0.397685 0.000000 0.000000
0.475089 0.000000 0.000000
0.568764 0.000000 0.000000
0.651372 0.000000 0.000000
0.739546 0.000000 0.000000
0.826748 0.000000 0.051290
0.905565 0.000000 0.082978
0.963305 0.000000 0.117122
1.000000 0.161908 0.159231
1.000000 0.280271 0.210788
1.000000 0.376502 0.268398
1.000000 0.464736 0.328131
1.000000 0.554274 0.399534
1.000000 0.640019 0.481440
1.000000 0.708166 0.552818
1.000000 0.768427 0.627924
1.000000 0.819151 0.707356
1.000000 0.858348 0.770297
0.000000 0.018000 0.000000
0.000000 0.021984 0.000000
0.000000 0.026625 0.000000
0.000000 0.031004 0.000000
0.000000 0.037561 0.000000
0.000000 0.044763 0.000000
0.025602 0.048209 0.000000
0.059893 0.048628 0.000000
0.092452 0.047030 0.000000
0.133182 0.036547 0.000000
0.172167 0.000000 0.000000
0.208339 0.000000 0.000000
0.246211 0.000000 0.000000
0.294686 0.000000 0.000000
0.345718 0.000000 0.000000
0.409355 0.000000 0.000000
0.485324 0.000000 0.000000
0.578333 0.000000 0.000000
0.658333 0.000000 0.000000
0.745046 0.000000 0.000000
0.829355 0.000000 0.050980
0.907211 0.000000 0.083170
0.964417 0.000000 0.117671
1.000000 0.175074 0.159739
1.000000 0.286797 0.211518
1.000000 0.379400 0.268822
1.000000 0.466791 0.328492
1.000000 0.555809 0.399649
1.000000 0.641140 0.481688
1.000000 0.708844 0.553029
1.000000 0.768825 0.628083
1.000000 0.819389 0.707467
1.000000 0.858485 0.770329
0.000000 0.042761 0.000000
0.000000 0.046194 0.000000
0.000000 0.048812 0.000000
0.000000 0.051294 0.000000
0.000000 0.054524 0.000000
0.000000 0.060508 0.000000
0.000000 0.067304 0.000000
0.053865 0.070305 0.000000
0.093874 0.069806 0.000000
0.143712 0.066057 0.000000
0.187597 0.055229 0.000000
0.231097 0.033621 0.000000
0.271362 0.000000 0.000000
0.318257 0.000000 0.000000
0.364337 0.000000 0.000000
0.425276 0.000000 0.000000
0.498362 0.000000 0.000000
0.590685 0.000000 0.000000
0.666681 0.000000 0.000000
0.751751 0.000000 0.000000
0.832758 0.000000 0.050439
0.909316 0.000000 0.083353
0.965518 0.000000 0.118082
1.000000 0.191068 0.160396
1.000000 0.295237 0.212481
1.000000 0.383198 0.269381
1.000000 0.469685 0.328751
1.000000 0.557834 0.399800
1.000000 0.642617 0.482015
1.000000 0.709738 0.553308
1.000000 0.769353 0.628296
1.000000 0.819705 0.707618
1.000000 0.858666 0.770373
0.000000 0.059803 0.000000
0.000000 0.063299 0.000000
0.000000 0.067231 0.000000
0.000000 0.070597 0.000000
0.000000 0.076290 0.000000
0.000000 0.082520 0.000000
0.000000 0.093103 0.000000
0.000000 0.099693 0.000000
0.087479 0.101039 0.000000
0.145124 0.099898 0.000000
0.201653 0.095843 0.000000
0.249760 0.087636 0.000000
0.298123 0.072751 0.000000
0.349297 0.032928 0.000000
0.400058 0.000000 0.000000
0.451586 0.000000 0.000000
0.516445 0.000000 0.000000
0.603459 0.000000 0.000000
0.677360 0.000000 0.000000
0.759466 0.000000 0.000000
0.838796 0.000000 0.049356
0.912016 0.000000 0.083393
0.967012 0.000000 0.119193
1.000000 0.208275 0.161848
1.000000 0.306096 0.213747
1.000000 0.388160 0.270115
1.000000 0.473639 0.328906
1.000000 0.560497 0.399998
1.000000 0.644560 0.482448
1.000000 0.710915 0.553678
1.000000 0.770048 0.628576
1.000000 0.820110 0.707732
1.000000 0.858903 0.770431
0.000000 0.082529 0.000000
0.000000 0.087184 0.000000
0.000000 0.091848 0.000000
0.000000 0.096421 0.000000
0.000000 0.103354 0.000000
0.000000 0.109993 0.000000
0.000000 0.119463 0.000000
0.000000 0.132048 0.000000
0.046472 0.138033 0.000000
0.132658 0.139733 0.000000
0.201674 0.135022 0.000000
0.260580 0.130451 0.000000
0.317811 0.123204 0.000000
0.374354 0.111174 0.000000
0.431982 0.091793 0.000000
0.482983 0.051596 0.000000
0.544070 0.000000 0.000000
0.615868 0.000000 0.000000
0.690401 0.000000 0.000000
0.766883 0.000000 0.000000
0.846060 0.000000 0.047363
0.915616 0.000000 0.083112
0.968999 0.080002 0.120627
1.000000 0.229287 0.163526
1.000000 0.320042 0.214888
1.000000 0.395868 0.271707
1.000000 0.478818 0.329110
1.000000 0.563996 0.400259
1.000000 0.647110 0.483019
1.000000 0.712462 0.554166
1.000000 0.770960 0.628944
1.000000 0.820642 0.707862
1.000000 0.859217 0.770507
0.000000 0.110422 0.000000
0.000000 0.117001 0.000000
0.000000 0.121025 0.000000
0.000000 0.127838 0.000000
0.000000 0.136580 0.000000
0.000000 0.144003 0.000000
0.000000 0.157290 0.000000
0.000000 0.169197 0.000000
0.000000 0.180920 0.000000
0.085485 0.187080 0.000000
0.184497 0.186647 0.000000
0.259750 0.177703 0.000000
0.328196 0.173482 0.000000
0.398237 0.168645 0.000000
0.458483 0.161684 0.000000
0.516271 0.145287 0.000000
0.581240 0.118816 0.000000
0.641314 0.025544 0.000000
0.708457 0.000000 0.000000
0.776799 0.000000 0.000000
0.852785 0.000000 0.043840
0.920015 0.000000 0.082249
0.971436 0.147763 0.121491
1.000000 0.253582 0.164799
1.000000 0.336448 0.216281
1.000000 0.406776 0.273400
1.000000 0.487005 0.330441
1.000000 0.569451 0.401408
1.000000 0.650444 0.483771
1.000000 0.714491 0.554811
1.000000 0.772160 0.629433
1.000000 0.821341 0.708029
1.000000 0.859630 0.770608
0.000000 0.144011 0.000000
0.000000 0.152946 0.000000
0.000000 0.159155 0.000000
0.000000 0.169046 0.000000
0.000000 0.180244 0.000000
0.000000 0.187503 0.000000
0.000000 0.201005 0.000000
0.000000 0.212936 0.000000
0.000000 0.228740 0.000000
0.000000 0.237609 0.000000
0.141206 0.238842 0.000000
0.235294 0.237300 0.000000
0.320968 0.227170 0.000000
0.402372 0.225034 0.000000
0.480501 0.226395 0.000000
0.547285 0.223327 0.000000
0.609585 0.207556 0.000000
0.677675 0.181175 0.000000
0.733593 0.130207 0.000000
0.793928 0.098373 0.000000
0.861546 0.076146 0.034333
0.927137 0.138754 0.082093
0.974188 0.203757 0.122263
1.000000 0.281227 0.165797
1.000000 0.355270 0.218092
1.000000 0.421661 0.275298
1.000000 0.497984 0.332832
1.000000 0.577084 0.403448
1.000000 0.654789 0.484762
1.000000 0.717140 0.555659
1.000000 0.773730 0.630077
1.000000 0.822261 0.708254
1.000000 0.860176 0.770741
0.000000 0.188650 0.000000
0.000000 0.201231 0.000000
0.000000 0.208745 0.000000
0.000000 0.221327 0.000000
0.000000 0.234608 0.000000
0.000000 0.242931 0.000000
0.000000 0.257228 0.000000
0.000000 0.269280 0.000000
0.000000 0.283949 0.000000
0.000000 0.298860 0.000000
0.000000 0.309217 0.000000
0.172640 0.312277 0.000000
0.296867 0.305941 0.000000
0.400749 0.298201 0.000000
0.493376 0.299266 0.000000
0.568459 0.305239 0.000000
0.642829 0.298380 0.000000
0.708480 0.281370 0.000000
0.765796 0.259518 0.000000
0.819227 0.217970 0.000000
0.876308 0.193735 0.000000
0.936240 0.214067 0.079966
0.978164 0.261206 0.123587
1.000000 0.314811 0.166960
1.000000 0.377420 0.220391
1.000000 0.439316 0.277694
1.000000 0.512142 0.336592
1.000000 0.586983 0.406647
1.000000 0.660537 0.486176
1.000000 0.720587 0.556777
1.000000 0.775775 0.630928
1.000000 0.823468 0.708548
1.000000 0.860892 0.770917
0.000000 0.226288 0.000000
0.000000 0.236812 0.000000
0.000000 0.252830 0.000000
0.000000 0.269748 0.000000
0.000000 0.283261 0.000000
0.000000 0.298954 0.000000
0.000000 0.309647 0.000000
0.000000 0.326815 0.000000
0.000000 0.340408 0.000000
0.000000 0.356956 0.000000
0.000000 0.374716 0.000000
0.000000 0.388764 0.000000
0.213764 0.393372 0.000000
0.362138 0.386813 0.000000
0.480699 0.383088 0.000000
0.570114 0.384033 0.000000
0.655398 0.389472 0.000000
0.730985 0.385955 0.000000
0.793405 0.366736 0.000000
0.841890 0.344187 0.000000
0.896496 0.314069 0.000000
0.944841 0.290896 0.072559
0.981362 0.322822 0.123031
1.000000 0.354715 0.168673
1.000000 0.405244 0.223407
1.000000 0.460484 0.280749
1.000000 0.530716 0.340974
1.000000 0.599850 0.409956
1.000000 0.669627 0.489483
1.000000 0.725043 0.558245
1.000000 0.778426 0.632045
1.000000 0.825046 0.708938
1.000000 0.861829 0.771150
0.000000 0.264465 0.000000
0.000000 0.278170 0.000000
0.000000 0.292590 0.000000
0.000000 0.310401 0.000000
0.000000 0.330972 0.000000
0.000000 0.349456 0.000000
0.000000 0.374868 0.000000
0.000000 0.390105 0.000000
0.000000 0.410613 0.000000
0.000000 0.421459 0.000000
0.000000 0.442894 0.000000
0.000000 0.460112 0.000000
0.000000 0.473741 0.000000
0.280323 0.473396 0.000000
0.434559 0.475026 0.000000
0.553184 0.464954 0.000000
0.649595 0.466376 0.000000
0.740383 0.475937 0.000000
0.809861 0.458974 0.000000
0.859749 0.449514 0.000000
0.908760 0.425496 0.000000
0.951442 0.393848 0.049032
0.983839 0.389472 0.123131
1.000000 0.406307 0.173217
1.000000 0.440180 0.227410
1.000000 0.493293 0.285285
1.000000 0.555289 0.346292
1.000000 0.616361 0.414829
1.000000 0.681236 0.493039
1.000000 0.731158 0.560498
1.000000 0.781838 0.633514
1.000000 0.827101 0.709451
1.000000 0.863053 0.771456
0.000000 0.306268 0.058275
0.000000 0.324442 0.030477
0.000000 0.338787 0.000000
0.000000 0.361911 0.000000
0.000000 0.384427 0.000000
0.000000 0.410773 0.000000
0.000000 0.433897 0.000000
0.000000 0.464951 0.000000
0.000000 0.484180 0.000000
0.000000 0.498975 0.000000
0.000000 0.512910 0.000000
0.000000 0.532179 0.000000
0.000000 0.552260 0.000000
0.000000 0.564848 0.000000
0.358073 0.566175 0.000000
0.504240 0.560094 0.000000
0.629441 0.555584 0.000000
0.731549 0.558449 0.000000
0.815871 0.554453 0.000000
0.871279 0.545915 0.000000
0.915192 0.532325 0.000000
0.954865 0.510411 0.000000
0.988423 0.477267 0.122334
1.000000 0.473418 0.179974
1.000000 0.490854 0.234856
1.000000 0.534854 0.292775
1.000000 0.586356 0.353555
1.000000 0.637434 0.421816
1.000000 0.693992 0.497461
1.000000 0.740443 0.564442
1.000000 0.786401 0.635604
1.000000 0.829759 0.710122
1.000000 0.864648 0.771898
0.000000 0.358065 0.115108
0.000000 0.378810 0.106595
0.000000 0.396441 0.090787
0.000000 0.420285 0.073690
0.000000 0.443150 0.035338
0.000000 0.466648 0.000000
0.000000 0.498897 0.000000
0.000000 0.525628 0.000000
0.000000 0.560163 0.000000
0.000000 0.575787 0.000000
0.000000 0.592788 0.000000
0.000000 0.604263 0.000000
0.000000 0.617572 0.000000
0.000000 0.638497 0.000000
0.225867 0.650759 0.000000
0.437244 0.652478 0.000000
0.583006 0.645786 0.000000
0.710237 0.644389 0.000000
0.803038 0.639904 0.000000
0.867775 0.643983 0.000000
0.914386 0.635380 0.000000
0.952719 0.624454 0.000000
0.984738 0.598284 0.127841
1.000000 0.576842 0.187925
1.000000 0.560976 0.244940
1.000000 0.586338 0.303079
1.000000 0.621439 0.364483
1.000000 0.663559 0.431045
1.000000 0.709094 0.503096
1.000000 0.751102 0.569158
1.000000 0.794519 0.641090
1.000000 0.833702 0.711890
1.000000 0.866769 0.772946
0.000000 0.407627 0.176164
0.000000 0.427777 0.166597
0.000000 0.450968 0.158821
0.000000 0.470152 0.146402
0.000000 0.500065 0.130085
0.000000 0.521168 0.119351
0.000000 0.556701 0.092637
0.000000 0.584359 0.064969
0.000000 0.613433 0.000000
0.000000 0.641842 0.000000
0.000000 0.658794 0.000000
0.000000 0.669543 0.000000
0.000000 0.686743 0.000000
0.000000 0.699118 0.000000
0.000000 0.711375 0.000000
0.346216 0.721673 0.000000
0.517622 0.727687 0.000000
0.675241 0.720506 0.000000
0.777338 0.714735 0.000000
0.853015 0.714701 0.000000
0.906785 0.718177 0.000000
0.947541 0.706971 0.000000
0.976983 0.695176 0.126868
1.000000 0.676657 0.203527
1.000000 0.656012 0.265419
1.000000 0.645718 0.319788
1.000000 0.665415 0.379629
1.000000 0.692477 0.441626
1.000000 0.727566 0.510531
1.000000 0.766921 0.577974
1.000000 0.804681 0.648270
1.000000 0.839601 0.715648
1.000000 0.869473 0.774242
0.000000 0.460822 0.260454
0.000000 0.477647 0.247775
0.000000 0.498908 0.236328
0.000000 0.527599 0.224363
0.000000 0.558371 0.211473
0.000000 0.578345 0.198873
0.000000 0.604004 0.193579
0.000000 0.639843 0.174094
0.000000 0.668815 0.158179
0.000000 0.692905 0.148457
0.000000 0.715826 0.126934
0.000000 0.738625 0.077292
0.000000 0.747764 0.000000
0.000000 0.755429 0.000000
0.000000 0.770753 0.000000
0.131225 0.779910 0.000000
0.443434 0.786949 0.000000
0.617418 0.786961 0.000000
0.744948 0.783815 0.000000
0.829118 0.776084 0.000000
0.889861 0.776426 0.000000
0.938044 0.776595 0.000000
0.966807 0.771125 0.151443
0.990653 0.755011 0.229170
1.000000 0.742825 0.292499
1.000000 0.719763 0.347780
1.000000 0.716395 0.400105
1.000000 0.727564 0.454494
1.000000 0.749710 0.520414
1.000000 0.785620 0.589618
1.000000 0.817054 0.657423
1.000000 0.846995 0.720485
1.000000 0.873926 0.777077
0.000000 0.529136 0.336591
0.000000 0.546267 0.322316
0.000000 0.565377 0.308071
0.000000 0.589793 0.296954
0.000000 0.614100 0.286821
0.000000 0.640963 0.275081
0.000000 0.667145 0.266557
0.000000 0.695955 0.259196
0.000000 0.728948 0.248320
0.000000 0.751210 0.240481
0.000000 0.770689 0.236818
0.000000 0.791752 0.228188
0.000000 0.808920 0.205934
0.000000 0.815930 0.181854
0.000000 0.820134 0.156599
0.000000 0.827392 0.123720
0.348813 0.836689 0.066601
0.561329 0.838333 0.000000
0.708304 0.836239 0.000000
0.801309 0.834143 0.000000
0.869892 0.828486 0.000000
0.924614 0.825500 0.000000
0.958140 0.828964 0.190190
0.982875 0.819293 0.266550
1.000000 0.811315 0.332158
1.000000 0.795474 0.387042
1.000000 0.777107 0.427427
1.000000 0.771098 0.475252
1.000000 0.782075 0.540089
1.000000 0.807620 0.605015
1.000000 0.830738 0.666736
1.000000 0.856088 0.726734
1.000000 0.879619 0.781603
0.000000 0.588132 0.423377
0.000000 0.608819 0.406782
0.000000 0.623392 0.393403
0.000000 0.647145 0.374741
0.000000 0.670247 0.364748
0.000000 0.697731 0.356083
0.000000 0.724176 0.348666
0.000000 0.746448 0.342908
0.000000 0.773910 0.335532
0.000000 0.794291 0.328131
0.000000 0.814276 0.329423
0.000000 0.832179 0.326311
0.000000 0.847456 0.319799
0.000000 0.856815 0.310031
0.000000 0.864892 0.287193
0.000000 0.866698 0.264028
0.181764 0.870477 0.245558
0.488728 0.874979 0.226495
0.669506 0.874461 0.213838
0.773835 0.875016 0.201268
0.846592 0.871318 0.170866
0.909660 0.867532 0.137614
0.947407 0.867602 0.213976
0.976416 0.866544 0.302891
0.994491 0.863196 0.379514
1.000000 0.852936 0.431268
1.000000 0.841753 0.471262
1.000000 0.828997 0.512615
1.000000 0.819643 0.568064
1.000000 0.832287 0.623366
1.000000 0.847024 0.678687
1.000000 0.866947 0.735225
1.000000 0.886707 0.787577
0.000000 0.646829 0.507508
0.000000 0.665162 0.493065
0.000000 0.684234 0.476075
0.000000 0.704744 0.457753
0.000000 0.725770 0.442555
0.000000 0.745219 0.434613
0.000000 0.768464 0.430350
0.000000 0.792146 0.422643
0.000000 0.811853 0.420174
0.000000 0.828740 0.416122
0.000000 0.846301 0.416047
0.000000 0.861851 0.414810
0.000000 0.876713 0.416015
0.000000 0.887793 0.415508
0.000000 0.893470 0.404988
0.000000 0.899875 0.387560
0.000000 0.900592 0.369126
0.394661 0.903325 0.352834
0.615796 0.903940 0.338277
0.739145 0.904643 0.326282
0.823487 0.902200 0.321592
0.891274 0.901340 0.295105
0.934974 0.897845 0.280223
0.966971 0.895441 0.324156
0.988928 0.897262 0.416539
1.000000 0.891961 0.475227
1.000000 0.883913 0.515291
1.000000 0.876703 0.557537
1.000000 0.863062 0.603485
1.000000 0.859641 0.645788
1.000000 0.865956 0.694186
1.000000 0.879254 0.746922
1.000000 0.895414 0.795015
0.000000 0.708325 0.590330
0.000000 0.721686 0.577890
0.000000 0.741624 0.563514
0.000000 0.757941 0.544214
0.000000 0.776311 0.530006
0.000000 0.792506 0.521269
0.000000 0.807955 0.514744
0.000000 0.826748 0.509541
0.000000 0.846402 0.505850
0.000000 0.859525 0.508751
0.000000 0.872057 0.503964
0.000000 0.885727 0.503628
0.000000 0.899584 0.507905
0.000000 0.910916 0.509724
0.000000 0.919198 0.512457
0.000000 0.923879 0.499944
0.000000 0.925942 0.484248
0.321490 0.925758 0.468243
0.543829 0.927466 0.453646
0.700747 0.927385 0.445062
0.796724 0.926003 0.435233
0.872376 0.926113 0.427795
0.917596 0.923663 0.408435
0.954674 0.920410 0.386097
0.980925 0.920510 0.435133
1.000000 0.921068 0.515414
1.000000 0.914949 0.561735
1.000000 0.910424 0.602028
1.000000 0.901058 0.647142
1.000000 0.893175 0.680614
1.000000 0.887706 0.714665
1.000000 0.893868 0.759796
1.000000 0.905978 0.803357
0.000000 0.762658 0.674317
0.000000 0.776351 0.659463
0.000000 0.793453 0.644551
0.000000 0.807342 0.630119
0.000000 0.819924 0.614831
0.000000 0.833667 0.604582
0.000000 0.844063 0.597521
0.000000 0.857570 0.595043
0.000000 0.871435 0.591830
0.000000 0.886912 0.589433
0.000000 0.897049 0.591959
0.000000 0.908691 0.592465
0.000000 0.918652 0.592048
0.000000 0.927435 0.592446
0.000000 0.934487 0.596402
0.000000 0.941714 0.603197
0.000000 0.946724 0.595286
0.299806 0.948294 0.583713
0.494290 0.946787 0.563455
0.653935 0.945558 0.550855
0.766567 0.945809 0.548819
0.848971 0.946178 0.543460
0.901896 0.945416 0.535281
0.940784 0.944395 0.518242
0.970013 0.942402 0.499202
0.993334 0.941028 0.539637
1.000000 0.940604 0.609381
1.000000 0.937438 0.647432
1.000000 0.930470 0.690306
1.000000 0.922102 0.717531
1.000000 0.915694 0.746631
1.000000 0.910729 0.775135
1.000000 0.917330 0.812622
0.000000 0.816376 0.738894
0.000000 0.829233 0.725141
0.000000 0.842074 0.712943
0.000000 0.853900 0.702568
0.000000 0.862627 0.688766
0.000000 0.871401 0.680766
0.000000 0.880249 0.673731
0.000000 0.890780 0.672485
0.000000 0.900563 0.670420
0.000000 0.909979 0.668114
0.000000 0.921156 0.666277
0.000000 0.931765 0.666367
0.000000 0.939073 0.672467
0.000000 0.946282 0.673131
0.000000 0.952741 0.674443
0.000000 0.958497 0.678170
0.000000 0.963717 0.683443
0.313345 0.965177 0.681655
0.486604 0.967412 0.672284
0.620708 0.965039 0.653337
0.724023 0.963843 0.639991
0.815089 0.963521 0.631915
0.880605 0.964033 0.629035
0.923147 0.963438 0.623670
0.956416 0.961869 0.613182
0.983407 0.959622 0.598120
1.000000 0.958406 0.632748
