Assets/Lutify-Free-LUTs-Pack/Lutify Free LUTs Pack/Print Film Pro - Print Film 2/Lutify.me-PrintFilm2-FLog-to-Rec709.cube
# Created with: fylm.ai - Colour Grading and Collaboration Software in Cloud 
# Website: https://fylm.ai 
# META
# Option: Gamut compress
# Block 1: IDT | Fujifilm F-Gamut F-Log
# Block 2: colourMatch | Blending Mode: Normal | {"ColorSpace":0,"CrossCovarianceLimit":50,"ReshapingIterations":1,"PercentSaturationShift":100,"PercentShadingShift":100,"ExtraShading":true,"PercentTint":100,"PercentModified":100}
# Block 3: HSL | Blending Mode: Normal | {"hue":{"Reds":0,"Yellows":0,"Greens":0,"Cyans":0,"Blues":0,"Magentas":0},"saturation":{"Reds":1,"Yellows":0.9,"Greens":0.95,"Cyans":1,"Blues":1,"Magentas":1},"luminance":{"Reds":0.8,"Yellows":0.95,"Greens":0.9,"Cyans":0.8,"Blues":0.8,"Magentas":0.8},"lum_sat":{"Blacks":1,"Shadows":1,"Midtones":1,"Highlights":1,"Whites":1},"sat_sat":{"10":1,"20":1,"30":1,"40":1,"50":1}}
# Block 4: LUT | Filmic Curve Response: Low Contrast 2 (100%)
# Block 5: ODT | Rec709
TITLE "Lutify.me-PrintFilm2-FLog-to-Rec709" 
LUT_3D_SIZE 5
0.000000 0.000000 0.000000
0.000000 0.000000 0.000000
0.267975 0.000000 0.000000
0.794004 0.000000 0.068499
1.000000 0.488304 0.349518
0.000000 0.025878 0.000000
0.075490 0.052400 0.000000
0.340316 0.000000 0.000000
0.811619 0.000000 0.069637
1.000000 0.500361 0.352067
0.000000 0.285263 0.000000
0.000000 0.335579 0.000000
0.470424 0.367417 0.000000
0.878253 0.343084 0.033271
1.000000 0.561944 0.368630
0.000000 0.780748 0.232308
0.000000 0.789852 0.215553
0.182498 0.813068 0.164296
0.877618 0.814107 0.102006
1.000000 0.791078 0.468439
0.479585 0.972925 0.748506
0.504760 0.973192 0.747370
0.606691 0.973239 0.742962
0.825925 0.971291 0.726940
0.992986 0.970106 0.722688
0.000000 0.000000 0.000000
0.003208 0.000000 0.000000
0.287843 0.000000 0.039555
0.804653 0.000000 0.106508
1.000000 0.491169 0.365621
0.000000 0.031146 0.088391
0.067338 0.070222 0.075486
0.351158 0.000000 0.052150
0.815623 0.000000 0.107056
1.000000 0.502586 0.367773
0.000000 0.272610 0.133729
0.000000 0.356378 0.104434
0.465689 0.405768 0.000000
0.873699 0.345838 0.126890
1.000000 0.561098 0.383769
0.000000 0.780280 0.316914
0.000000 0.791490 0.307611
0.168321 0.814781 0.258231
0.875172 0.818687 0.221466
1.000000 0.791030 0.482788
0.475839 0.972956 0.760083
0.501715 0.973215 0.758986
0.606184 0.973235 0.754747
0.824577 0.971504 0.737606
0.992704 0.970320 0.733764
0.000000 0.000000 0.241830
0.000000 0.000000 0.226901
0.308952 0.000000 0.188496
0.826186 0.000000 0.272742
1.000000 0.507263 0.441351
0.000000 0.020930 0.363863
0.000000 0.056225 0.340090
0.379949 0.000000 0.281749
0.844478 0.000000 0.285406
1.000000 0.517259 0.443569
0.000000 0.229737 0.535555
0.000000 0.315405 0.500109
0.428217 0.449274 0.483785
0.879669 0.356125 0.353175
1.000000 0.566836 0.454048
0.000000 0.748579 0.573339
0.000000 0.766994 0.569791
0.153084 0.827406 0.574975
0.866040 0.834686 0.543127
1.000000 0.793122 0.550985
0.448306 0.971364 0.796868
0.482100 0.972013 0.797450
0.604437 0.973228 0.798716
0.820867 0.972462 0.782304
0.991551 0.971303 0.779402
0.000000 0.119396 0.790011
0.000000 0.130391 0.785956
0.307648 0.140088 0.748488
0.868157 0.000000 0.670654
1.000000 0.539672 0.709765
0.000000 0.146014 0.801988
0.000000 0.158366 0.798099
0.311142 0.175826 0.766059
0.877923 0.000000 0.688244
1.000000 0.550684 0.712777
0.000000 0.294820 0.846812
0.000000 0.314324 0.843687
0.284007 0.386540 0.834377
0.903665 0.377906 0.782015
1.000000 0.607936 0.727206
0.000000 0.693789 0.882342
0.000000 0.711837 0.880106
0.000000 0.783706 0.872811
0.835291 0.852291 0.874153
1.000000 0.805234 0.786041
0.240897 0.959356 0.894739
0.307004 0.960066 0.894720
0.506350 0.964177 0.895461
0.820300 0.975157 0.902915
0.984658 0.975435 0.896396
0.249180 0.479995 0.985554
0.284735 0.483409 0.985292
0.416117 0.500388 0.983773
0.800534 0.521875 0.968860
1.000000 0.541488 0.941068
0.244252 0.490038 0.985722
0.280814 0.493503 0.985458
0.412903 0.509667 0.983760
0.799006 0.532397 0.969543
1.000000 0.554185 0.942203
0.220371 0.533920 0.986745
0.260048 0.539516 0.986382
0.402098 0.557067 0.984495
0.795299 0.587767 0.972389
1.000000 0.613794 0.947167
0.000000 0.729111 0.987429
0.000000 0.733918 0.986757
0.289078 0.751122 0.984367
0.758141 0.801743 0.979459
1.000000 0.823930 0.963548
0.000000 0.939847 0.986707
0.000000 0.941001 0.986625
0.383224 0.944474 0.986423
0.749981 0.959051 0.984100
0.976279 0.979904 0.987453
