Assets/Lutify-Free-LUTs-Pack/Lutify Free LUTs Pack/Print Film Pro - Print Film 2/Lutify.me-PrintFilm2-LogC3-to-Rec709.cube
# Created with: fylm.ai - Colour Grading and Collaboration Software in Cloud 
# Website: https://fylm.ai 
# META
# Option: Gamut compress
# Block 1: IDT | Arri Alexa - LogC3
# Block 2: colourMatch | Blending Mode: Normal | {"ColorSpace":0,"CrossCovarianceLimit":50,"ReshapingIterations":1,"PercentSaturationShift":100,"PercentShadingShift":100,"ExtraShading":true,"PercentTint":100,"PercentModified":100}
# Block 3: HSL | Blending Mode: Normal | {"hue":{"Reds":0,"Yellows":0,"Greens":0,"Cyans":0,"Blues":0,"Magentas":0},"saturation":{"Reds":1,"Yellows":0.9,"Greens":0.95,"Cyans":1,"Blues":1,"Magentas":1},"luminance":{"Reds":0.8,"Yellows":0.95,"Greens":0.9,"Cyans":0.8,"Blues":0.8,"Magentas":0.8},"lum_sat":{"Blacks":1,"Shadows":1,"Midtones":1,"Highlights":1,"Whites":1},"sat_sat":{"10":1,"20":1,"30":1,"40":1,"50":1}}
# Block 4: LUT | Filmic Curve Response: Low Contrast 2 (100%)
# Block 5: ODT | Rec709
TITLE "Lutify.me-PrintFilm2-LogC3-to-Rec709" 
LUT_3D_SIZE 33
0.000000 0.000000 0.000000
0.000000 0.000000 0.000000
0.000000 0.000000 0.000000
0.000000 0.000000 0.000000
0.000000 0.000000 0.000000
0.000000 0.000000 0.000000
0.000000 0.000000 0.000000
0.000000 0.000000 0.000000
0.000000 0.000000 0.000000
0.024889 0.000000 0.000000
0.067760 0.000000 0.000000
0.111764 0.000000 0.000000
0.159818 0.000000 0.000000
0.236581 0.000000 0.000000
0.315150 0.000000 0.000000
0.395996 0.000000 0.000000
0.493962 0.000000 0.000000
0.597011 0.000000 0.000000
0.695081 0.000000 0.000000
0.784701 0.000000 0.053327
0.876439 0.000000 0.086856
0.944116 0.171498 0.125817
0.991709 0.293030 0.172969
1.000000 0.384863 0.230567
1.000000 0.477278 0.296109
1.000000 0.576677 0.369523
1.000000 0.655213 0.448758
1.000000 0.723016 0.531129
1.000000 0.785902 0.613042
1.000000 0.832115 0.687893
1.000000 0.866946 0.756405
1.000000 0.897633 0.810363
1.000000 0.920345 0.850420
0.000000 0.000000 0.000000
0.000000 0.000000 0.000000
0.000000 0.000000 0.000000
0.000000 0.000000 0.000000
0.000000 0.000000 0.000000
0.000000 0.000000 0.000000
0.000000 0.000000 0.000000
0.000000 0.000000 0.000000
0.000000 0.000000 0.000000
0.051228 0.000000 0.000000
0.084884 0.000000 0.000000
0.128857 0.000000 0.000000
0.179651 0.000000 0.000000
0.251631 0.000000 0.000000
0.328276 0.000000 0.000000
0.404674 0.000000 0.000000
0.501606 0.000000 0.000000
0.603337 0.000000 0.000000
0.699380 0.000000 0.000000
0.787829 0.000000 0.052274
0.877948 0.000000 0.086438
0.944906 0.181946 0.125782
0.991925 0.298014 0.172959
1.000000 0.387978 0.230726
1.000000 0.480150 0.296397
1.000000 0.578635 0.369867
1.000000 0.656432 0.449110
1.000000 0.723651 0.531321
1.000000 0.786369 0.613301
1.000000 0.832375 0.688039
1.000000 0.867098 0.756510
1.000000 0.897725 0.810429
1.000000 0.920402 0.850454
0.000000 0.000000 0.000000
0.000000 0.000000 0.000000
0.000000 0.000000 0.000000
0.000000 0.000000 0.000000
0.000000 0.000000 0.000000
0.000000 0.000000 0.000000
0.000000 0.000000 0.000000
0.000000 0.000000 0.000000
0.029411 0.000000 0.000000
0.069575 0.000000 0.000000
0.105490 0.000000 0.000000
0.146747 0.000000 0.000000
0.198558 0.000000 0.000000
0.266631 0.000000 0.000000
0.340159 0.000000 0.000000
0.413240 0.000000 0.000000
0.509501 0.000000 0.000000
0.609173 0.000000 0.000000
0.703635 0.000000 0.000000
0.790930 0.000000 0.051114
0.879434 0.000000 0.085972
0.945675 0.191916 0.125725
0.992134 0.302942 0.172943
1.000000 0.391079 0.230885
1.000000 0.483015 0.296686
1.000000 0.580589 0.370210
1.000000 0.657647 0.449461
1.000000 0.724283 0.531513
1.000000 0.786835 0.613559
1.000000 0.832635 0.688184
1.000000 0.867251 0.756616
1.000000 0.897817 0.810495
1.000000 0.920460 0.850487
0.000000 0.000000 0.000000
0.000000 0.000000 0.000000
0.000000 0.000000 0.000000
0.000000 0.000000 0.000000
0.000000 0.000000 0.000000
0.000000 0.000000 0.000000
0.000000 0.000000 0.000000
0.029220 0.000000 0.000000
0.061512 0.000000 0.000000
0.090989 0.000000 0.000000
0.123781 0.000000 0.000000
0.163876 0.000000 0.000000
0.217289 0.000000 0.000000
0.282054 0.000000 0.000000
0.349013 0.000000 0.000000
0.422830 0.000000 0.000000
0.517366 0.000000 0.000000
0.614802 0.000000 0.000000
0.706870 0.000000 0.000000
0.793552 0.000000 0.050229
0.880898 0.039302 0.085455
0.946423 0.201501 0.125645
0.992336 0.307817 0.172922
1.000000 0.394165 0.231043
1.000000 0.485869 0.296974
1.000000 0.582540 0.370555
1.000000 0.658858 0.449814
1.000000 0.724915 0.531705
1.000000 0.787300 0.613818
1.000000 0.832893 0.688330
1.000000 0.867403 0.756721
1.000000 0.897909 0.810561
1.000000 0.920517 0.850521
0.000000 0.000000 0.000000
0.000000 0.000000 0.000000
0.000000 0.000000 0.000000
0.000000 0.000000 0.000000
0.000000 0.000000 0.000000
0.000000 0.000000 0.000000
0.035401 0.000000 0.000000
0.060766 0.000000 0.000000
0.086462 0.000000 0.000000
0.117402 0.000000 0.000000
0.147138 0.000000 0.000000
0.185316 0.000000 0.000000
0.233432 0.000000 0.000000
0.296419 0.000000 0.000000
0.358107 0.000000 0.000000
0.434436 0.000000 0.000000
0.525060 0.000000 0.000000
0.620401 0.000000 0.000000
0.710174 0.000000 0.000000
0.795882 0.000000 0.048915
0.882289 0.077225 0.085180
0.947144 0.210492 0.125635
0.992531 0.312643 0.172897
1.000000 0.397237 0.231200
1.000000 0.488715 0.297262
1.000000 0.584486 0.370899
1.000000 0.660064 0.450166
1.000000 0.725544 0.531898
1.000000 0.787764 0.614076
1.000000 0.833153 0.688475
1.000000 0.867555 0.756827
1.000000 0.898000 0.810626
1.000000 0.920575 0.850555
0.000000 0.000000 0.000000
0.000000 0.000000 0.000000
0.000000 0.000000 0.000000
0.000000 0.000000 0.000000
0.000000 0.011109 0.000000
0.017050 0.017875 0.000000
0.049040 0.019962 0.000000
0.069199 0.022566 0.000000
0.098364 0.015159 0.000000
0.133429 0.000000 0.000000
0.168688 0.000000 0.000000
0.207790 0.000000 0.000000
0.252997 0.000000 0.000000
0.310243 0.000000 0.000000
0.367625 0.000000 0.000000
0.445257 0.000000 0.000000
0.532845 0.000000 0.000000
0.626030 0.000000 0.000000
0.713491 0.000000 0.000000
0.798240 0.000000 0.047292
0.883707 0.100934 0.084623
0.947828 0.218520 0.125876
0.992717 0.318013 0.172863
1.000000 0.400400 0.231407
1.000000 0.491573 0.297554
1.000000 0.586442 0.371245
1.000000 0.661275 0.450521
1.000000 0.726177 0.532091
1.000000 0.788231 0.614337
1.000000 0.833412 0.688622
1.000000 0.867708 0.756932
1.000000 0.898093 0.810693
1.000000 0.920632 0.850588
0.000000 0.002799 0.000000
0.000000 0.010137 0.000000
0.000000 0.016801 0.000000
0.000000 0.026605 0.000000
0.000000 0.037724 0.000000
0.026335 0.041610 0.000000
0.053799 0.043552 0.000000
0.078343 0.043190 0.000000
0.111155 0.039534 0.000000
0.147214 0.028617 0.000000
0.187981 0.000000 0.000000
0.227959 0.000000 0.000000
0.272138 0.000000 0.000000
0.326053 0.000000 0.000000
0.383370 0.000000 0.000000
0.459128 0.000000 0.000000
0.540638 0.000000 0.000000
0.631829 0.000000 0.000000
0.717563 0.000000 0.000000
0.801123 0.000000 0.044984
0.885471 0.121789 0.083878
0.948642 0.228126 0.126150
0.992933 0.324690 0.172810
1.000000 0.404678 0.231902
1.000000 0.494862 0.298001
1.000000 0.588835 0.371671
1.000000 0.662754 0.450956
1.000000 0.726949 0.532329
1.000000 0.788801 0.614655
1.000000 0.833731 0.688802
1.000000 0.867895 0.757062
1.000000 0.898206 0.810774
1.000000 0.920704 0.850630
0.000000 0.034492 0.000000
0.000000 0.037526 0.000000
0.000000 0.041771 0.000000
0.000000 0.047800 0.000000
0.000000 0.054096 0.000000
0.031855 0.057249 0.000000
0.057822 0.058814 0.000000
0.085953 0.060313 0.000000
0.125036 0.058202 0.000000
0.165461 0.054638 0.000000
0.205319 0.045291 0.000000
0.250106 0.029432 0.000000
0.295047 0.000000 0.000000
0.350881 0.000000 0.000000
0.410795 0.000000 0.000000
0.475308 0.000000 0.000000
0.551521 0.000000 0.000000
0.639116 0.000000 0.000000
0.723045 0.000000 0.000000
0.804973 0.000000 0.041178
0.888511 0.143261 0.082797
0.950120 0.240383 0.125914
0.993279 0.332628 0.172833
1.000000 0.410368 0.232566
1.000000 0.498976 0.298719
1.000000 0.591776 0.372199
1.000000 0.664722 0.451540
1.000000 0.727978 0.532647
1.000000 0.789562 0.615082
1.000000 0.834155 0.689042
1.000000 0.868144 0.757236
1.000000 0.898357 0.810882
1.000000 0.920798 0.850685
0.000000 0.054040 0.000000
0.000000 0.057449 0.000000
0.000000 0.062940 0.000000
0.000000 0.068539 0.000000
0.000000 0.077808 0.000000
0.000000 0.082448 0.000000
0.057694 0.085547 0.000000
0.096141 0.085774 0.000000
0.135045 0.087236 0.000000
0.184425 0.084341 0.000000
0.228030 0.084176 0.000000
0.270654 0.077374 0.000000
0.319804 0.069907 0.000000
0.376802 0.053071 0.000000
0.435898 0.028937 0.000000
0.495060 0.000000 0.000000
0.571845 0.000000 0.000000
0.652184 0.000000 0.000000
0.731909 0.000000 0.000000
0.810137 0.086316 0.034017
0.892642 0.167995 0.081100
0.952137 0.256299 0.125330
0.993717 0.343058 0.172854
1.000000 0.417927 0.233456
1.000000 0.504455 0.299683
1.000000 0.595557 0.372875
1.000000 0.667351 0.452121
1.000000 0.729347 0.533072
1.000000 0.790575 0.615654
1.000000 0.834722 0.689363
1.000000 0.868477 0.757467
1.000000 0.898559 0.811028
1.000000 0.920924 0.850759
0.000000 0.077256 0.000000
0.000000 0.082954 0.000000
0.000000 0.089191 0.000000
0.000000 0.097274 0.000000
0.000000 0.106275 0.000000
0.000000 0.111523 0.000000
0.047866 0.115945 0.000000
0.096297 0.116267 0.000000
0.145619 0.118527 0.000000
0.200145 0.116478 0.000000
0.245183 0.115651 0.000000
0.291838 0.117231 0.000000
0.342426 0.111537 0.000000
0.403414 0.109607 0.000000
0.459755 0.114754 0.000000
0.521530 0.114240 0.000000
0.598907 0.107040 0.000000
0.672788 0.095461 0.000000
0.745527 0.099533 0.000000
0.817445 0.144271 0.000000
0.897976 0.197278 0.078336
0.954090 0.277494 0.124405
0.994249 0.356799 0.172852
1.000000 0.427956 0.234651
1.000000 0.511401 0.301008
1.000000 0.600590 0.373783
1.000000 0.670839 0.452862
1.000000 0.731415 0.533955
1.000000 0.791909 0.616394
1.000000 0.835476 0.689793
1.000000 0.868921 0.757778
1.000000 0.898829 0.811222
1.000000 0.921093 0.850858
0.000000 0.108765 0.000000
0.000000 0.116217 0.000000
0.000000 0.125155 0.000000
0.000000 0.133724 0.000000
0.000000 0.143740 0.000000
0.000000 0.147288 0.000000
0.000000 0.152011 0.000000
0.092895 0.155076 0.000000
0.153713 0.156241 0.000000
0.203633 0.159875 0.000000
0.257213 0.155912 0.000000
0.312375 0.153354 0.000000
0.366756 0.155367 0.000000
0.432634 0.155234 0.000000
0.485861 0.165442 0.000000
0.552860 0.170851 0.000000
0.623860 0.177435 0.000000
0.693559 0.179386 0.000000
0.763879 0.175700 0.000000
0.830700 0.197158 0.000000
0.904818 0.233597 0.073428
0.956068 0.305598 0.122817
0.994864 0.374896 0.172800
1.000000 0.441251 0.236262
1.000000 0.520392 0.302820
1.000000 0.607288 0.375001
1.000000 0.675282 0.453868
1.000000 0.734158 0.535140
1.000000 0.793503 0.617115
1.000000 0.836475 0.690391
1.000000 0.869511 0.758191
1.000000 0.899190 0.811445
1.000000 0.921319 0.850991
0.000000 0.154058 0.000000
0.000000 0.161486 0.000000
0.000000 0.174599 0.000000
0.000000 0.182309 0.000000
0.000000 0.188833 0.000000
0.000000 0.194104 0.000000
0.000000 0.199864 0.000000
0.066173 0.202098 0.000000
0.149867 0.202685 0.000000
0.209199 0.201539 0.000000
0.267571 0.202709 0.000000
0.328762 0.199833 0.000000
0.388726 0.198585 0.000000
0.453711 0.206474 0.000000
0.516336 0.215287 0.000000
0.576475 0.231243 0.000000
0.648282 0.241553 0.000000
0.721557 0.245549 0.000000
0.782674 0.254648 0.000000
0.849461 0.271640 0.000000
0.913387 0.287119 0.062859
0.958454 0.340937 0.120438
0.995571 0.398744 0.173775
1.000000 0.458884 0.238453
1.000000 0.533358 0.304799
1.000000 0.616191 0.376637
1.000000 0.681083 0.455258
1.000000 0.737777 0.536729
1.000000 0.795609 0.618080
1.000000 0.837782 0.691324
1.000000 0.870296 0.758716
1.000000 0.899672 0.811726
1.000000 0.921619 0.851168
0.000000 0.215289 0.000000
0.000000 0.224572 0.000000
0.000000 0.234635 0.000000
0.000000 0.240152 0.000000
0.000000 0.245430 0.000000
0.000000 0.250838 0.000000
0.000000 0.256737 0.000000
0.000000 0.258166 0.000000
0.125639 0.259481 0.000000
0.198525 0.259739 0.000000
0.265757 0.263758 0.000000
0.331207 0.263524 0.000000
0.405278 0.261148 0.000000
0.482012 0.265563 0.000000
0.544720 0.276155 0.000000
0.610934 0.297925 0.000000
0.679397 0.321024 0.000000
0.744629 0.328125 0.000000
0.806568 0.338972 0.000000
0.862379 0.344526 0.000000
0.921022 0.357681 0.029291
0.961435 0.385774 0.117097
0.996233 0.430631 0.175622
1.000000 0.482350 0.241486
1.000000 0.551561 0.307040
1.000000 0.627994 0.379307
1.000000 0.688660 0.457832
1.000000 0.742532 0.538861
1.000000 0.798394 0.619373
1.000000 0.839513 0.692570
1.000000 0.871342 0.759306
1.000000 0.900315 0.812132
1.000000 0.922020 0.851405
0.000000 0.286530 0.000000
0.000000 0.294502 0.000000
0.000000 0.299109 0.000000
0.000000 0.303635 0.000000
0.000000 0.308157 0.000000
0.000000 0.312721 0.000000
0.000000 0.318003 0.000000
0.000000 0.319773 0.000000
0.000000 0.324851 0.000000
0.173197 0.325597 0.000000
0.252855 0.328620 0.000000
0.325974 0.328532 0.000000
0.409967 0.325390 0.000000
0.498015 0.325642 0.000000
0.565233 0.336812 0.000000
0.627260 0.361809 0.000000
0.698516 0.390005 0.000000
0.764144 0.405239 0.000000
0.823850 0.408731 0.000000
0.874849 0.417017 0.000000
0.928093 0.429224 0.000000
0.967117 0.441831 0.112085
0.997590 0.470239 0.176019
1.000000 0.517027 0.243904
1.000000 0.575821 0.310179
1.000000 0.643585 0.383869
1.000000 0.698565 0.461029
1.000000 0.748743 0.541730
1.000000 0.802065 0.621109
1.000000 0.841797 0.694232
1.000000 0.872748 0.760094
1.000000 0.901172 0.812761
1.000000 0.922553 0.851746
0.000000 0.360185 0.000000
0.000000 0.364841 0.000000
0.000000 0.369397 0.000000
0.000000 0.373831 0.000000
0.000000 0.378114 0.000000
0.000000 0.382388 0.000000
0.000000 0.387662 0.000000
0.000000 0.394202 0.000000
0.000000 0.401095 0.000000
0.100874 0.403050 0.000000
0.221977 0.404057 0.000000
0.309863 0.404396 0.000000
0.406873 0.403959 0.000000
0.496716 0.404302 0.000000
0.582751 0.409550 0.000000
0.640114 0.421851 0.000000
0.711383 0.454700 0.000000
0.785795 0.478521 0.000000
0.840643 0.484786 0.000000
0.887871 0.496037 0.000000
0.932916 0.507289 0.000000
0.969369 0.514043 0.103665
0.997849 0.533862 0.176239
1.000000 0.563171 0.248057
1.000000 0.606972 0.315515
1.000000 0.663877 0.390178
1.000000 0.711455 0.464331
1.000000 0.756982 0.545510
1.000000 0.806881 0.623442
1.000000 0.844797 0.696443
1.000000 0.874600 0.761146
1.000000 0.902310 0.813599
1.000000 0.923262 0.852266
0.000000 0.452140 0.000000
0.000000 0.457372 0.000000
0.000000 0.460918 0.000000
0.000000 0.464353 0.000000
0.000000 0.467768 0.000000
0.000000 0.469562 0.000000
0.000000 0.473738 0.000000
0.000000 0.479273 0.000000
0.000000 0.484093 0.000000
0.000000 0.485552 0.000000
0.162422 0.486571 0.000000
0.282142 0.487762 0.000000
0.391278 0.489705 0.000000
0.484252 0.492890 0.000000
0.574918 0.498694 0.000000
0.651518 0.498924 0.000000
0.724654 0.517745 0.000000
0.791252 0.545805 0.000000
0.850492 0.568615 0.000000
0.897017 0.578953 0.000000
0.935376 0.588188 0.000000
0.968582 0.595876 0.092078
0.994341 0.610937 0.181502
1.000000 0.628244 0.255327
1.000000 0.647244 0.323926
1.000000 0.689126 0.398961
1.000000 0.728032 0.468944
1.000000 0.768736 0.551460
1.000000 0.813236 0.626716
1.000000 0.848715 0.699388
1.000000 0.877021 0.762551
1.000000 0.903814 0.814709
1.000000 0.924229 0.852960
0.000000 0.553164 0.000000
0.000000 0.555805 0.000000
0.000000 0.558289 0.000000
0.000000 0.560712 0.000000
0.000000 0.563084 0.000000
0.000000 0.565432 0.000000
0.000000 0.568131 0.000000
0.000000 0.572048 0.000000
0.000000 0.576974 0.000000
0.000000 0.581143 0.000000
0.000000 0.583577 0.000000
0.210659 0.585914 0.000000
0.355199 0.591710 0.000000
0.455334 0.592034 0.000000
0.547589 0.593851 0.000000
0.639508 0.596884 0.000000
0.729550 0.596887 0.000000
0.794427 0.614867 0.000000
0.849212 0.639464 0.000000
0.897533 0.661246 0.000000
0.934772 0.661684 0.000000
0.965197 0.672988 0.042365
0.989851 0.674767 0.182226
1.000000 0.686690 0.263743
1.000000 0.700619 0.341823
1.000000 0.719182 0.409338
1.000000 0.749207 0.475597
1.000000 0.783537 0.558913
1.000000 0.822318 0.632663
1.000000 0.853800 0.703283
1.000000 0.880161 0.764425
1.000000 0.905797 0.816185
1.000000 0.925534 0.853883
0.000000 0.640047 0.000000
0.000000 0.641954 0.000000
0.000000 0.643819 0.000000
0.000000 0.645647 0.000000
0.000000 0.647439 0.000000
0.000000 0.649238 0.000000
0.000000 0.651418 0.000000
0.000000 0.654208 0.000000
0.000000 0.658032 0.000000
0.000000 0.662803 0.000000
0.000000 0.668327 0.000000
0.126455 0.674616 0.000000
0.319929 0.676030 0.000000
0.427202 0.676734 0.000000
0.520285 0.677665 0.000000
0.611894 0.678957 0.000000
0.713435 0.684646 0.000000
0.786413 0.684739 0.000000
0.845801 0.698619 0.000000
0.891229 0.716311 0.000000
0.932365 0.729862 0.000000
0.960948 0.735773 0.000000
0.984307 0.737566 0.182156
1.000000 0.743172 0.272964
1.000000 0.751705 0.358536
1.000000 0.757826 0.422022
1.000000 0.776695 0.487401
1.000000 0.802116 0.569320
1.000000 0.833031 0.638993
1.000000 0.860475 0.707405
1.000000 0.884241 0.766924
1.000000 0.908399 0.818148
1.000000 0.927414 0.855023
0.000000 0.724707 0.000000
0.000000 0.725943 0.000000
0.000000 0.727154 0.000000
0.000000 0.728342 0.000000
0.000000 0.729507 0.000000
0.000000 0.730659 0.000000
0.000000 0.732045 0.000000
0.000000 0.733858 0.000000
0.000000 0.736223 0.000000
0.000000 0.739261 0.000000
0.000000 0.743052 0.000000
0.069128 0.747405 0.000000
0.288049 0.752264 0.000000
0.404645 0.756854 0.000000
0.500759 0.756040 0.000000
0.599248 0.756787 0.000000
0.702336 0.756492 0.000000
0.773717 0.757256 0.000000
0.836703 0.757725 0.000000
0.885573 0.764203 0.000000
0.927482 0.778627 0.000000
0.957127 0.791322 0.000000
0.978449 0.791989 0.191650
0.996397 0.795351 0.286584
1.000000 0.800726 0.379063
1.000000 0.803099 0.441746
1.000000 0.815425 0.506832
1.000000 0.826321 0.582245
1.000000 0.846731 0.647888
1.000000 0.868937 0.712879
1.000000 0.889552 0.770255
1.000000 0.911795 0.820754
1.000000 0.929918 0.856513
0.000000 0.799156 0.000000
0.000000 0.799819 0.000000
0.000000 0.800464 0.000000
0.000000 0.801079 0.000000
0.000000 0.801682 0.000000
0.000000 0.802277 0.000000
0.000000 0.803021 0.000000
0.000000 0.803995 0.000000
0.000000 0.805260 0.000000
0.000000 0.806894 0.000000
0.000000 0.808996 0.000000
0.139558 0.811551 0.000000
0.304967 0.814258 0.000000
0.401898 0.817209 0.000000
0.499462 0.817400 0.000000
0.606661 0.816129 0.000000
0.696826 0.816861 0.000000
0.765070 0.815253 0.000000
0.826958 0.817613 0.000000
0.877219 0.817181 0.000000
0.922457 0.822132 0.000000
0.950246 0.833788 0.000000
0.975364 0.840577 0.198848
0.991961 0.842734 0.305537
1.000000 0.845435 0.403757
1.000000 0.844410 0.465343
1.000000 0.851172 0.529850
1.000000 0.854910 0.600925
1.000000 0.864092 0.662528
1.000000 0.879625 0.720260
1.000000 0.896428 0.774719
1.000000 0.915582 0.823132
1.000000 0.933153 0.858498
0.000000 0.851699 0.000000
0.000000 0.851986 0.000000
0.000000 0.852269 0.000000
0.000000 0.852546 0.000000
0.000000 0.852818 0.000000
0.000000 0.853301 0.000000
0.000000 0.853988 0.000000
0.000000 0.854892 0.000000
0.000000 0.856075 0.000000
0.000000 0.857033 0.000000
0.144968 0.857977 0.000000
0.276221 0.859191 0.000000
0.369299 0.860667 0.000000
0.446488 0.862294 0.000000
0.530953 0.862860 0.000000
0.627137 0.861821 0.000000
0.701607 0.861777 0.000000
0.761455 0.861620 0.000000
0.815632 0.860655 0.000000
0.869350 0.860670 0.000000
0.915148 0.859787 0.000000
0.943408 0.866362 0.000000
0.969042 0.871598 0.182014
0.989884 0.877993 0.320445
1.000000 0.879289 0.421197
1.000000 0.876900 0.488766
1.000000 0.881215 0.554698
1.000000 0.882159 0.623961
1.000000 0.886543 0.681666
1.000000 0.893361 0.730878
1.000000 0.904647 0.780307
1.000000 0.920451 0.826283
1.000000 0.937311 0.861684
0.000000 0.889700 0.000000
0.000000 0.890006 0.000000
0.056821 0.890308 0.000000
0.115710 0.890606 0.000000
0.148611 0.890900 0.000000
0.172411 0.891202 0.000000
0.196199 0.891574 0.000000
0.222955 0.892076 0.000000
0.256645 0.892470 0.000000
0.296411 0.892792 0.000000
0.337539 0.893216 0.000000
0.387143 0.893730 0.000000
0.447341 0.894325 0.000000
0.512737 0.894939 0.000000
0.586987 0.894939 0.000000
0.656776 0.894236 0.000000
0.715102 0.895358 0.000000
0.767754 0.895622 0.000000
0.817905 0.893949 0.000000
0.865865 0.893555 0.000000
0.907639 0.892656 0.000000
0.939303 0.894305 0.000000
0.964114 0.895874 0.138916
0.985395 0.901101 0.309418
1.000000 0.906269 0.436229
1.000000 0.903838 0.510977
1.000000 0.906435 0.579710
1.000000 0.906103 0.646996
1.000000 0.908393 0.702994
1.000000 0.911709 0.748374
1.000000 0.916192 0.790321
1.000000 0.927051 0.830610
1.000000 0.942580 0.865942
0.375801 0.919167 0.000000
0.383355 0.919197 0.000000
0.390725 0.919226 0.000000
0.397926 0.919255 0.000000
0.404969 0.919282 0.000000
0.411908 0.919309 0.000000
0.420227 0.919340 0.000000
0.431057 0.919379 0.000000
0.445061 0.919428 0.000000
0.463039 0.919487 0.000000
0.485928 0.919546 0.000000
0.517657 0.919564 0.000000
0.557201 0.919578 0.000000
0.598692 0.919745 0.000000
0.643988 0.919992 0.000000
0.685808 0.920445 0.000000
0.733069 0.920951 0.036199
0.778284 0.920332 0.068420
0.821119 0.919517 0.099603
0.866516 0.919791 0.118276
0.903664 0.919602 0.141759
0.934855 0.918964 0.169972
0.959976 0.918222 0.192852
0.981313 0.921276 0.290164
0.998555 0.925610 0.423515
1.000000 0.927537 0.532534
1.000000 0.927970 0.603433
1.000000 0.928033 0.671269
1.000000 0.926841 0.721996
1.000000 0.929347 0.765890
1.000000 0.932394 0.805613
1.000000 0.938100 0.839127
1.000000 0.949322 0.871616
0.548438 0.941655 0.242464
0.552033 0.941654 0.242311
0.555583 0.941654 0.242162
0.559091 0.941653 0.242016
0.562561 0.941653 0.241871
0.566013 0.941653 0.241729
0.570193 0.941652 0.241556
0.575698 0.941652 0.241332
0.582913 0.941652 0.241042
0.592311 0.941652 0.240670
0.604460 0.941654 0.240206
0.620029 0.941659 0.239426
0.641230 0.941673 0.240872
0.666021 0.941777 0.244979
0.694029 0.942001 0.249941
0.724145 0.942356 0.256018
0.755698 0.941988 0.258498
0.791751 0.941253 0.262379
0.832568 0.941296 0.271304
0.872426 0.941805 0.281867
0.901497 0.941034 0.286771
0.928269 0.940196 0.295133
0.955388 0.939504 0.309262
0.977017 0.940536 0.330031
0.995245 0.942371 0.407394
1.000000 0.945177 0.535220
1.000000 0.947395 0.628977
1.000000 0.947832 0.694684
1.000000 0.947614 0.746879
1.000000 0.947592 0.785356
1.000000 0.949727 0.822309
1.000000 0.952359 0.853497
1.000000 0.957645 0.878537
0.663590 0.960046 0.364658
0.665286 0.960045 0.364712
0.666968 0.960043 0.364768
0.668638 0.960042 0.364823
0.670295 0.960041 0.364882
0.671952 0.960040 0.364939
0.673966 0.960039 0.365011
0.676632 0.960038 0.365109
0.680152 0.960037 0.365241
0.684775 0.960036 0.365424
0.690815 0.960037 0.365675
0.698650 0.960042 0.366023
0.708721 0.960054 0.366512
0.723153 0.960060 0.368881
0.740281 0.960108 0.371167
0.760424 0.960208 0.372578
0.783525 0.960358 0.374647
0.811157 0.960027 0.377531
0.843391 0.960252 0.384105
0.874887 0.960686 0.393017
0.901701 0.960742 0.400701
0.926747 0.959957 0.405212
0.951024 0.959861 0.415222
0.972020 0.959553 0.433382
0.992204 0.959208 0.448706
1.000000 0.960683 0.527082
1.000000 0.964164 0.641392
1.000000 0.965978 0.719872
1.000000 0.965106 0.770538
1.000000 0.965554 0.806671
1.000000 0.964910 0.837818
1.000000 0.965419 0.866263
1.000000 0.968230 0.887044
0.739948 0.974707 0.478630
0.740875 0.974707 0.478690
0.741799 0.974708 0.478749
0.742718 0.974709 0.478811
0.743635 0.974710 0.478870
0.744552 0.974710 0.478933
0.745673 0.974711 0.479010
0.747162 0.974713 0.479110
0.749139 0.974715 0.479249
0.751756 0.974718 0.479434
0.755208 0.974723 0.479686
0.759744 0.974731 0.480030
0.765673 0.974742 0.480498
0.773371 0.974761 0.481143
0.783301 0.974793 0.482043
0.796021 0.974847 0.483305
0.814708 0.974876 0.485800
0.837619 0.974926 0.489837
0.861560 0.975079 0.495203
0.882673 0.975451 0.501090
0.903888 0.975951 0.508699
0.925716 0.975558 0.515840
0.947319 0.974665 0.520585
0.966833 0.973994 0.530332
0.986588 0.973416 0.545061
1.000000 0.973364 0.561285
1.000000 0.975046 0.630492
1.000000 0.976389 0.721514
