Assets/Lutify-Free-LUTs-Pack/Lutify Free LUTs Pack/Print Film Pro - Print Film 2/Lutify.me-PrintFilm2-LLog-to-Rec709.cube
# Created with: fylm.ai - Colour Grading and Collaboration Software in Cloud 
# Website: https://fylm.ai 
# META
# Option: Gamut compress
# Block 1: IDT | Leica BT2020 L-Log
# Block 2: colourMatch | Blending Mode: Normal | {"ColorSpace":0,"CrossCovarianceLimit":50,"ReshapingIterations":1,"PercentSaturationShift":100,"PercentShadingShift":100,"ExtraShading":true,"PercentTint":100,"PercentModified":100}
# Block 3: HSL | Blending Mode: Normal | {"hue":{"Reds":0,"Yellows":0,"Greens":0,"Cyans":0,"Blues":0,"Magentas":0},"saturation":{"Reds":1,"Yellows":0.9,"Greens":0.95,"Cyans":1,"Blues":1,"Magentas":1},"luminance":{"Reds":0.8,"Yellows":0.95,"Greens":0.9,"Cyans":0.8,"Blues":0.8,"Magentas":0.8},"lum_sat":{"Blacks":1,"Shadows":1,"Midtones":1,"Highlights":1,"Whites":1},"sat_sat":{"10":1,"20":1,"30":1,"40":1,"50":1}}
# Block 4: LUT | Filmic Curve Response: Low Contrast 2 (100%)
# Block 5: ODT | Rec709
TITLE "Lutify.me-PrintFilm2-LLog-to-Rec709" 
LUT_3D_SIZE 33
0.000000 0.000000 0.000000
0.000000 0.000000 0.000000
0.000000 0.000000 0.000000
0.000000 0.000000 0.000000
0.000000 0.000000 0.000000
0.000000 0.000000 0.000000
0.000000 0.000000 0.000000
0.000000 0.000000 0.000000
0.000000 0.000000 0.000000
0.000000 0.000000 0.000000
0.039396 0.000000 0.000000
0.070017 0.000000 0.000000
0.105292 0.000000 0.000000
0.142658 0.000000 0.000000
0.197115 0.000000 0.000000
0.267084 0.000000 0.000000
0.334338 0.000000 0.000000
0.413529 0.000000 0.000000
0.501169 0.000000 0.000000
0.590598 0.000000 0.005170
0.680130 0.000000 0.031953
0.762290 0.000000 0.059381
0.851641 0.000000 0.085336
0.920909 0.000000 0.115938
0.973282 0.115269 0.154419
1.000000 0.259923 0.198665
1.000000 0.351713 0.257284
1.000000 0.434627 0.310051
1.000000 0.519669 0.372600
1.000000 0.602741 0.445137
1.000000 0.680507 0.523581
1.000000 0.738663 0.590083
1.000000 0.790009 0.660032
0.000000 0.000000 0.000000
0.000000 0.000000 0.000000
0.000000 0.000000 0.000000
0.000000 0.000000 0.000000
0.000000 0.000000 0.000000
0.000000 0.000000 0.000000
0.000000 0.000000 0.000000
0.000000 0.000000 0.000000
0.000000 0.000000 0.000000
0.000000 0.000000 0.000000
0.051479 0.000000 0.000000
0.078765 0.000000 0.000000
0.115184 0.000000 0.000000
0.151531 0.000000 0.000000
0.209336 0.000000 0.000000
0.275578 0.000000 0.000000
0.341346 0.000000 0.000000
0.418443 0.000000 0.000000
0.505158 0.000000 0.000000
0.594282 0.000000 0.001736
0.682491 0.000000 0.031729
0.763619 0.000000 0.059547
0.853034 0.000000 0.085534
0.921735 0.000000 0.116175
0.973719 0.122373 0.154888
1.000000 0.262661 0.198911
1.000000 0.353109 0.257384
1.000000 0.435769 0.310130
1.000000 0.520554 0.372789
1.000000 0.603251 0.445220
1.000000 0.680885 0.523705
1.000000 0.738903 0.590178
1.000000 0.790170 0.660107
0.000000 0.000000 0.000000
0.000000 0.000000 0.000000
0.000000 0.000000 0.000000
0.000000 0.000000 0.000000
0.000000 0.000000 0.000000
0.000000 0.000000 0.000000
0.000000 0.000000 0.000000
0.000000 0.000000 0.000000
0.000000 0.000000 0.000000
0.022399 0.000000 0.000000
0.060263 0.000000 0.000000
0.090724 0.000000 0.000000
0.123702 0.000000 0.000000
0.162041 0.000000 0.000000
0.218872 0.000000 0.000000
0.283624 0.000000 0.000000
0.348225 0.000000 0.000000
0.423275 0.000000 0.000000
0.509076 0.000000 0.000000
0.597652 0.000000 0.000000
0.684947 0.000000 0.031380
0.765357 0.000000 0.059576
0.854413 0.000000 0.085726
0.922552 0.000000 0.116407
0.974150 0.129018 0.155354
1.000000 0.265377 0.199155
1.000000 0.354511 0.257490
1.000000 0.436907 0.310209
1.000000 0.521437 0.372976
1.000000 0.603761 0.445303
1.000000 0.681263 0.523829
1.000000 0.739144 0.590273
1.000000 0.790330 0.660182
0.000000 0.000000 0.000000
0.000000 0.000000 0.000000
0.000000 0.000000 0.000000
0.000000 0.000000 0.000000
0.000000 0.000000 0.000000
0.000000 0.000000 0.000000
0.000000 0.000000 0.000000
0.000000 0.000000 0.000000
0.000000 0.000000 0.000000
0.037959 0.000000 0.000000
0.069380 0.000000 0.000000
0.099959 0.000000 0.000000
0.132666 0.000000 0.000000
0.172008 0.000000 0.000000
0.227099 0.000000 0.000000
0.291491 0.000000 0.000000
0.353143 0.000000 0.000000
0.428045 0.000000 0.000000
0.512930 0.000000 0.000000
0.600897 0.000000 0.000000
0.687376 0.000000 0.031007
0.767170 0.000000 0.059587
0.855732 0.000000 0.085919
0.923359 0.000000 0.116636
0.974577 0.135288 0.155819
1.000000 0.268076 0.199399
1.000000 0.356178 0.257771
1.000000 0.438043 0.310288
1.000000 0.522319 0.373165
1.000000 0.604269 0.445385
1.000000 0.681640 0.523952
1.000000 0.739383 0.590366
1.000000 0.790491 0.660257
0.000000 0.000000 0.000000
0.000000 0.000000 0.000000
0.000000 0.000000 0.000000
0.000000 0.000000 0.000000
0.000000 0.000000 0.000000
0.000000 0.000000 0.000000
0.000000 0.000000 0.000000
0.000000 0.000000 0.000000
0.021733 0.000000 0.000000
0.054065 0.000000 0.000000
0.078879 0.000000 0.000000
0.109544 0.000000 0.000000
0.140542 0.000000 0.000000
0.180472 0.000000 0.000000
0.234993 0.000000 0.000000
0.299285 0.000000 0.000000
0.357983 0.000000 0.000000
0.432762 0.000000 0.000000
0.516755 0.000000 0.000000
0.604104 0.000000 0.000000
0.689779 0.000000 0.030720
0.768967 0.000000 0.059585
0.857010 0.000000 0.086099
0.924136 0.000000 0.116863
0.974998 0.141245 0.156282
1.000000 0.270755 0.199641
1.000000 0.357838 0.258053
1.000000 0.439175 0.310367
1.000000 0.523198 0.373353
1.000000 0.604776 0.445467
1.000000 0.682016 0.524076
1.000000 0.739623 0.590460
1.000000 0.790651 0.660332
0.000000 0.000000 0.000000
0.000000 0.000000 0.000000
0.000000 0.000000 0.000000
0.000000 0.000000 0.000000
0.000000 0.000000 0.000000
0.000000 0.000000 0.000000
0.000000 0.000000 0.000000
0.020390 0.000000 0.000000
0.050632 0.000000 0.000000
0.070518 0.000000 0.000000
0.095828 0.000000 0.000000
0.120364 0.000000 0.000000
0.151835 0.000000 0.000000
0.190739 0.000000 0.000000
0.243876 0.000000 0.000000
0.307585 0.000000 0.000000
0.363201 0.000000 0.000000
0.437509 0.000000 0.000000
0.521024 0.000000 0.000000
0.607563 0.000000 0.000000
0.692370 0.000000 0.030354
0.770908 0.000000 0.059569
0.858389 0.000000 0.086269
0.924759 0.000000 0.117120
0.975452 0.147435 0.156785
1.000000 0.273654 0.199905
1.000000 0.359640 0.258359
1.000000 0.440407 0.310452
1.000000 0.524156 0.373557
1.000000 0.605329 0.445557
1.000000 0.682426 0.524210
1.000000 0.739884 0.590563
1.000000 0.790826 0.660414
0.000000 0.000000 0.000000
0.000000 0.000000 0.000000
0.000000 0.000000 0.000000
0.000000 0.000000 0.000000
0.000000 0.000000 0.000000
0.000000 0.000000 0.000000
0.004356 0.000000 0.000000
0.040432 0.000000 0.000000
0.060661 0.000000 0.000000
0.082680 0.000000 0.000000
0.110286 0.000000 0.000000
0.138602 0.000000 0.000000
0.166636 0.000000 0.000000
0.206368 0.000000 0.000000
0.255425 0.000000 0.000000
0.315882 0.000000 0.000000
0.369705 0.000000 0.000000
0.443480 0.000000 0.000000
0.526497 0.000000 0.000000
0.611848 0.000000 0.000000
0.695579 0.000000 0.029804
0.773319 0.000000 0.059576
0.859936 0.000000 0.086478
0.925530 0.000000 0.117436
0.975940 0.155316 0.157331
1.000000 0.277251 0.200234
1.000000 0.362000 0.258751
1.000000 0.442274 0.310789
1.000000 0.525588 0.374026
1.000000 0.606135 0.445771
1.000000 0.682938 0.524379
1.000000 0.740210 0.590692
1.000000 0.791044 0.660517
0.000000 0.000000 0.000000
0.000000 0.000000 0.000000
0.000000 0.000000 0.000000
0.000000 0.002517 0.000000
0.000000 0.014958 0.000000
0.000000 0.023128 0.000000
0.000000 0.029438 0.000000
0.046675 0.032095 0.000000
0.065872 0.033714 0.000000
0.092559 0.030987 0.000000
0.125156 0.011342 0.000000
0.154277 0.000000 0.000000
0.187885 0.000000 0.000000
0.225259 0.000000 0.000000
0.268666 0.000000 0.000000
0.324937 0.000000 0.000000
0.379149 0.000000 0.000000
0.451279 0.000000 0.000000
0.533730 0.000000 0.000000
0.617285 0.000000 0.000000
0.699709 0.000000 0.028920
0.776433 0.000000 0.059647
0.861640 0.000000 0.086736
0.926516 0.000000 0.117836
0.976440 0.165816 0.157898
1.000000 0.281884 0.200662
1.000000 0.365344 0.259284
1.000000 0.444730 0.311250
1.000000 0.527491 0.374673
1.000000 0.607268 0.446124
1.000000 0.683604 0.524599
1.000000 0.740635 0.590860
1.000000 0.791329 0.660650
0.000000 0.020993 0.000000
0.000000 0.024222 0.000000
0.000000 0.028835 0.000000
0.000000 0.033459 0.000000
0.000000 0.040019 0.000000
0.000000 0.045219 0.000000
0.000000 0.048397 0.000000
0.048340 0.049360 0.000000
0.071091 0.049910 0.000000
0.101301 0.048617 0.000000
0.135604 0.042851 0.000000
0.170881 0.026669 0.000000
0.208867 0.000000 0.000000
0.245594 0.000000 0.000000
0.291804 0.000000 0.000000
0.337944 0.000000 0.000000
0.394666 0.000000 0.000000
0.461417 0.000000 0.000000
0.543245 0.000000 0.000000
0.624010 0.000000 0.000000
0.705012 0.000000 0.027417
0.780438 0.000000 0.059696
0.863823 0.000000 0.087042
0.927771 0.000000 0.118342
0.977071 0.178597 0.158627
1.000000 0.287833 0.201220
1.000000 0.369673 0.259980
1.000000 0.447921 0.311851
1.000000 0.529967 0.375517
1.000000 0.608744 0.446584
1.000000 0.684472 0.524886
1.000000 0.741187 0.591079
1.000000 0.791700 0.660825
0.000000 0.045414 0.000000
0.000000 0.047652 0.000000
0.000000 0.049988 0.000000
0.000000 0.052320 0.000000
0.000000 0.055593 0.000000
0.000000 0.060960 0.000000
0.000000 0.066506 0.000000
0.042295 0.069655 0.000000
0.072685 0.069987 0.000000
0.106462 0.069800 0.000000
0.148909 0.068292 0.000000
0.186442 0.061754 0.000000
0.226032 0.052317 0.000000
0.265720 0.038738 0.000000
0.313400 0.000000 0.000000
0.359655 0.000000 0.000000
0.414539 0.000000 0.000000
0.475548 0.000000 0.000000
0.555239 0.000000 0.000000
0.632674 0.000000 0.000000
0.711816 0.000000 0.024692
0.785577 0.000000 0.059683
0.866604 0.000000 0.087386
0.929356 0.000000 0.118970
0.977857 0.194096 0.159560
1.000000 0.295446 0.201944
1.000000 0.374854 0.260858
1.000000 0.452059 0.312636
1.000000 0.533183 0.376617
1.000000 0.610664 0.447184
1.000000 0.685599 0.525261
1.000000 0.741906 0.591365
1.000000 0.792183 0.661053
0.000000 0.064236 0.000000
0.000000 0.066978 0.000000
0.000000 0.070685 0.000000
0.000000 0.075105 0.000000
0.000000 0.079039 0.000000
0.000000 0.086553 0.000000
0.000000 0.091967 0.000000
0.000000 0.096666 0.000000
0.064956 0.099875 0.000000
0.106538 0.102452 0.000000
0.154935 0.098632 0.000000
0.203284 0.098497 0.000000
0.244334 0.094588 0.000000
0.287663 0.088055 0.000000
0.334858 0.077018 0.000000
0.384744 0.053152 0.000000
0.441525 0.000000 0.000000
0.496164 0.000000 0.000000
0.569524 0.000000 0.000000
0.643927 0.000000 0.000000
0.719541 0.000000 0.018646
0.792159 0.000000 0.059517
0.870125 0.000000 0.087738
0.931521 0.093559 0.119884
0.978817 0.212868 0.160746
1.000000 0.305144 0.202886
1.000000 0.381186 0.261978
1.000000 0.457177 0.313638
1.000000 0.537357 0.378052
1.000000 0.613158 0.447965
1.000000 0.687062 0.525750
1.000000 0.742840 0.591738
1.000000 0.792811 0.661349
0.000000 0.089257 0.000000
0.000000 0.091777 0.000000
0.000000 0.095190 0.000000
0.000000 0.101014 0.000000
0.000000 0.107880 0.000000
0.000000 0.113565 0.000000
0.000000 0.123582 0.000000
0.000000 0.129523 0.000000
0.016324 0.133331 0.000000
0.101254 0.134238 0.000000
0.157397 0.136127 0.000000
0.206162 0.132275 0.000000
0.255441 0.134154 0.000000
0.307482 0.131366 0.000000
0.356990 0.126951 0.000000
0.410907 0.115733 0.000000
0.468894 0.100766 0.000000
0.525292 0.072910 0.000000
0.591096 0.000000 0.000000
0.656800 0.000000 0.000000
0.728607 0.000000 0.000000
0.799590 0.000000 0.059321
0.874543 0.000000 0.087994
0.934234 0.140414 0.121074
0.979963 0.235640 0.161890
1.000000 0.317447 0.204109
1.000000 0.389329 0.263440
1.000000 0.463257 0.314894
1.000000 0.542772 0.379847
1.000000 0.616398 0.448984
1.000000 0.688956 0.526385
1.000000 0.744049 0.592223
1.000000 0.793626 0.661734
0.000000 0.118836 0.000000
0.000000 0.123737 0.000000
0.000000 0.130345 0.000000
0.000000 0.137834 0.000000
0.000000 0.143076 0.000000
0.000000 0.147916 0.000000
0.000000 0.157051 0.000000
0.000000 0.167071 0.000000
0.000000 0.174217 0.000000
0.062053 0.177735 0.000000
0.145617 0.179011 0.000000
0.205217 0.179991 0.000000
0.264090 0.173895 0.000000
0.319831 0.177646 0.000000
0.379476 0.178067 0.000000
0.438214 0.173560 0.000000
0.494414 0.164603 0.000000
0.552912 0.152706 0.000000
0.618808 0.127967 0.000000
0.679404 0.086097 0.000000
0.740772 0.057362 0.000000
0.808147 0.044001 0.057745
0.879806 0.115611 0.089320
0.937510 0.183855 0.122483
0.981241 0.261160 0.163239
1.000000 0.332054 0.205785
1.000000 0.399763 0.265301
1.000000 0.471714 0.316599
1.000000 0.549799 0.381760
1.000000 0.620620 0.450332
1.000000 0.691987 0.527870
1.000000 0.745614 0.592856
1.000000 0.794685 0.662237
0.000000 0.161786 0.000000
0.000000 0.169325 0.000000
0.000000 0.174584 0.000000
0.000000 0.184223 0.000000
0.000000 0.189362 0.000000
0.000000 0.193567 0.000000
0.000000 0.202907 0.000000
0.000000 0.212246 0.000000
0.000000 0.219107 0.000000
0.000000 0.225649 0.000000
0.109645 0.228448 0.000000
0.186089 0.232324 0.000000
0.255899 0.228791 0.000000
0.322145 0.222735 0.000000
0.387178 0.230888 0.000000
0.462285 0.233872 0.000000
0.520206 0.230548 0.000000
0.578474 0.224026 0.000000
0.643749 0.211813 0.000000
0.706281 0.190214 0.000000
0.761736 0.164306 0.000000
0.819436 0.157978 0.053322
0.888786 0.175487 0.089664
0.941194 0.225856 0.125791
0.982603 0.287786 0.164886
1.000000 0.349623 0.208053
1.000000 0.413091 0.267393
1.000000 0.484712 0.319061
1.000000 0.558865 0.384256
1.000000 0.626688 0.452625
1.000000 0.695887 0.529804
1.000000 0.747634 0.593681
1.000000 0.796056 0.662890
0.000000 0.220130 0.000000
0.000000 0.224901 0.000000
0.000000 0.234038 0.000000
0.000000 0.240128 0.000000
0.000000 0.243912 0.000000
0.000000 0.250672 0.000000
0.000000 0.259885 0.000000
0.000000 0.266130 0.000000
0.000000 0.274080 0.000000
0.000000 0.282150 0.000000
0.000000 0.289282 0.000000
0.137026 0.294638 0.000000
0.233447 0.296888 0.000000
0.311779 0.293773 0.000000
0.394146 0.287092 0.000000
0.470888 0.295166 0.000000
0.547605 0.301251 0.000000
0.607100 0.293198 0.000000
0.672380 0.287126 0.000000
0.731630 0.278912 0.000000
0.788609 0.260859 0.000000
0.839768 0.248882 0.037364
0.900414 0.238176 0.088921
0.946780 0.274145 0.127606
0.984053 0.325204 0.166866
1.000000 0.371763 0.211045
1.000000 0.430062 0.270138
1.000000 0.501356 0.322307
1.000000 0.570528 0.387512
1.000000 0.634514 0.455609
1.000000 0.700330 0.531694
1.000000 0.750631 0.595275
1.000000 0.797864 0.663797
0.000000 0.284771 0.000000
0.000000 0.290737 0.000000
0.000000 0.297260 0.000000
0.000000 0.302557 0.000000
0.000000 0.307211 0.000000
0.000000 0.311861 0.000000
0.000000 0.316987 0.000000
0.000000 0.325348 0.000000
0.000000 0.334668 0.000000
0.000000 0.344576 0.000000
0.000000 0.356037 0.000000
0.000000 0.360283 0.000000
0.182974 0.367891 0.000000
0.283489 0.366761 0.000000
0.380479 0.369349 0.000000
0.471304 0.367460 0.000000
0.555669 0.373566 0.000000
0.627155 0.376285 0.000000
0.697338 0.371508 0.000000
0.757335 0.365652 0.000000
0.809421 0.357486 0.000000
0.859910 0.347637 0.000000
0.910954 0.330748 0.083150
0.950806 0.336010 0.129504
0.985830 0.367033 0.170033
1.000000 0.403573 0.217181
1.000000 0.451789 0.273851
1.000000 0.521648 0.326683
1.000000 0.585309 0.391853
1.000000 0.644483 0.459500
1.000000 0.705966 0.534118
1.000000 0.755037 0.597775
1.000000 0.800771 0.665930
0.000000 0.353275 0.000000
0.000000 0.359771 0.000000
0.000000 0.366470 0.000000
0.000000 0.372672 0.000000
0.000000 0.376219 0.000000
0.000000 0.379175 0.000000
0.000000 0.382906 0.000000
0.000000 0.390427 0.000000
0.000000 0.402526 0.000000
0.000000 0.412067 0.000000
0.000000 0.420882 0.000000
0.000000 0.429961 0.000000
0.000000 0.439272 0.000000
0.220827 0.447881 0.000000
0.346991 0.448038 0.000000
0.456949 0.445497 0.000000
0.554719 0.439017 0.000000
0.627761 0.447645 0.000000
0.711758 0.452258 0.000000
0.774467 0.447635 0.000000
0.826605 0.443386 0.000000
0.872797 0.427738 0.000000
0.920110 0.419468 0.077063
0.956121 0.411862 0.133183
0.987332 0.420666 0.176549
1.000000 0.444068 0.225659
1.000000 0.483069 0.281089
1.000000 0.546541 0.332712
1.000000 0.602184 0.398552
1.000000 0.657060 0.464581
1.000000 0.713114 0.537279
1.000000 0.761001 0.601321
1.000000 0.804483 0.668692
0.000000 0.433166 0.000000
0.000000 0.440548 0.000000
0.000000 0.446478 0.000000
0.000000 0.451372 0.000000
0.000000 0.455549 0.000000
0.000000 0.457830 0.000000
0.000000 0.460459 0.000000
0.000000 0.463875 0.000000
0.000000 0.471871 0.000000
0.000000 0.483277 0.000000
0.000000 0.493129 0.000000
0.000000 0.502534 0.000000
0.000000 0.511744 0.000000
0.087213 0.520855 0.000000
0.303479 0.524391 0.000000
0.428934 0.524390 0.000000
0.534051 0.527688 0.000000
0.620980 0.521769 0.000000
0.711291 0.526627 0.000000
0.785434 0.528016 0.000000
0.838620 0.523756 0.000000
0.882633 0.516007 0.000000
0.925644 0.510078 0.070326
0.960610 0.498040 0.135563
0.989681 0.487978 0.183377
1.000000 0.498475 0.237459
1.000000 0.525689 0.289400
1.000000 0.574888 0.342578
1.000000 0.623733 0.406448
1.000000 0.672780 0.471232
1.000000 0.722104 0.541401
1.000000 0.768475 0.605945
1.000000 0.809210 0.672258
0.000000 0.523814 0.000000
0.000000 0.529455 0.000000
0.000000 0.535134 0.000000
0.000000 0.538990 0.000000
0.000000 0.542659 0.000000
0.000000 0.544849 0.000000
0.000000 0.547396 0.000000
0.000000 0.550028 0.000000
0.000000 0.553368 0.000000
0.000000 0.558086 0.000000
0.000000 0.564234 0.000000
0.000000 0.577831 0.000000
0.000000 0.589643 0.000000
0.000000 0.598150 0.000000
0.236165 0.606510 0.000000
0.390356 0.610209 0.000000
0.502984 0.608428 0.000000
0.598673 0.605250 0.000000
0.702854 0.604020 0.000000
0.780628 0.606107 0.000000
0.843888 0.613506 0.000000
0.886947 0.607726 0.000000
0.927178 0.603262 0.068186
0.959932 0.592787 0.148163
0.987190 0.583379 0.199884
1.000000 0.580235 0.252471
1.000000 0.580959 0.301197
1.000000 0.612223 0.355735
1.000000 0.651153 0.414423
1.000000 0.690062 0.478622
1.000000 0.733298 0.546787
1.000000 0.777692 0.611942
1.000000 0.815184 0.676855
0.000000 0.605662 0.000000
0.000000 0.608261 0.000000
0.000000 0.611313 0.000000
0.000000 0.613754 0.000000
0.000000 0.615549 0.000000
0.000000 0.617633 0.000000
0.000000 0.620951 0.000000
0.000000 0.625046 0.000000
0.000000 0.629634 0.000000
0.000000 0.634728 0.000000
0.000000 0.639025 0.000000
0.000000 0.644735 0.000000
0.000000 0.652770 0.000000
0.000000 0.665320 0.000000
0.048797 0.673769 0.000000
0.328012 0.682066 0.000000
0.465141 0.684056 0.000000
0.565148 0.688591 0.000000
0.682723 0.684946 0.000000
0.769536 0.679344 0.000000
0.833915 0.684582 0.000000
0.883427 0.690037 0.000000
0.924586 0.684364 0.082989
0.955803 0.678350 0.157918
0.981315 0.666752 0.221606
1.000000 0.666973 0.272130
1.000000 0.654210 0.322931
1.000000 0.659748 0.374649
1.000000 0.684018 0.427487
1.000000 0.712806 0.490215
1.000000 0.747338 0.554108
1.000000 0.788913 0.619731
1.000000 0.822084 0.681754
0.000000 0.684693 0.106219
0.000000 0.686696 0.101349
0.000000 0.688638 0.096331
0.000000 0.690502 0.091632
0.000000 0.692240 0.088827
0.000000 0.694213 0.085616
0.000000 0.697155 0.079685
0.000000 0.700530 0.071004
0.000000 0.704499 0.057969
0.000000 0.708494 0.000000
0.000000 0.710895 0.000000
0.000000 0.714107 0.000000
0.000000 0.721181 0.000000
0.000000 0.727337 0.000000
0.000000 0.733900 0.000000
0.267305 0.740377 0.000000
0.420639 0.746725 0.000000
0.537806 0.752360 0.000000
0.660201 0.748749 0.000000
0.752819 0.746847 0.000000
0.818761 0.742044 0.000000
0.873653 0.748275 0.000000
0.920889 0.747860 0.121636
0.950185 0.747334 0.187992
0.974749 0.737332 0.244976
0.994830 0.730169 0.297375
1.000000 0.727024 0.356930
1.000000 0.717761 0.397775
1.000000 0.723113 0.443737
1.000000 0.740381 0.503722
1.000000 0.766312 0.564361
1.000000 0.802399 0.629528
1.000000 0.830487 0.687746
0.000000 0.756259 0.201907
0.000000 0.757510 0.199996
0.000000 0.758704 0.198512
0.000000 0.759828 0.197691
0.000000 0.760923 0.196888
0.000000 0.762084 0.196032
0.000000 0.763539 0.194034
0.000000 0.765402 0.191004
0.000000 0.766576 0.185694
0.000000 0.767863 0.178699
0.000000 0.769409 0.169791
0.000000 0.771464 0.162137
0.000000 0.774027 0.154860
0.000000 0.781209 0.141941
0.000000 0.789859 0.124768
0.200603 0.794580 0.105953
0.390706 0.798924 0.085187
0.521352 0.803022 0.073889
0.646512 0.801208 0.060161
0.732388 0.800969 0.000000
0.804705 0.801098 0.000000
0.862297 0.797314 0.000000
0.911304 0.796456 0.153571
0.945323 0.799009 0.229085
0.968336 0.794848 0.281887
0.988409 0.786827 0.332878
1.000000 0.784792 0.391209
1.000000 0.776293 0.431202
1.000000 0.769434 0.470862
1.000000 0.774985 0.523470
1.000000 0.790463 0.579944
1.000000 0.817295 0.639791
1.000000 0.840776 0.695657
0.000000 0.820015 0.286669
0.000000 0.820697 0.286214
0.000000 0.821362 0.285771
0.000000 0.822005 0.284596
0.000000 0.822633 0.283346
0.000000 0.823302 0.282008
0.000000 0.824118 0.280364
0.000000 0.825207 0.278392
0.000000 0.826565 0.275899
0.000000 0.827759 0.272165
0.000000 0.828519 0.266641
0.000000 0.829525 0.262227
0.000000 0.830776 0.257953
0.000000 0.831823 0.247630
0.000000 0.835097 0.240775
0.149214 0.838674 0.230938
0.377877 0.842293 0.222869
0.511719 0.844716 0.216164
0.629674 0.845463 0.211864
0.720722 0.846798 0.215778
0.790205 0.846312 0.206192
0.849210 0.843844 0.201236
0.901486 0.843538 0.194535
0.935700 0.843983 0.263454
0.961447 0.845667 0.333137
0.981280 0.839362 0.381810
0.998333 0.837019 0.432295
1.000000 0.829991 0.470001
1.000000 0.824167 0.507926
1.000000 0.820965 0.554479
1.000000 0.820255 0.602688
1.000000 0.835493 0.654163
1.000000 0.853018 0.707011
0.000000 0.862306 0.379409
0.000000 0.862707 0.378631
0.000000 0.863101 0.377865
0.000000 0.863544 0.377092
0.000000 0.864161 0.376273
0.000000 0.864820 0.375393
0.000000 0.865629 0.374309
0.000000 0.866499 0.372974
0.000000 0.867278 0.371378
0.000000 0.868246 0.369362
0.000000 0.869431 0.366748
0.000000 0.870893 0.361907
0.000000 0.871839 0.355495
0.000000 0.872237 0.347363
0.000000 0.872835 0.340780
0.180913 0.874255 0.335202
0.368640 0.876011 0.327146
0.510525 0.877392 0.321343
0.623254 0.878547 0.316994
0.705385 0.880064 0.313027
0.779316 0.880657 0.317289
0.837863 0.878389 0.310903
0.888364 0.879226 0.303774
0.927443 0.877318 0.299462
0.953772 0.877116 0.362256
0.977173 0.877501 0.430063
0.992855 0.875712 0.476941
1.000000 0.869552 0.511605
1.000000 0.864943 0.547903
1.000000 0.861578 0.593903
1.000000 0.854941 0.634042
1.000000 0.857527 0.673741
1.000000 0.867750 0.719818
0.000000 0.895856 0.461599
0.000000 0.896087 0.461085
0.000000 0.896317 0.460589
0.000000 0.896549 0.460100
0.000000 0.896778 0.459618
0.000000 0.897022 0.459098
0.000000 0.897323 0.458457
0.000000 0.897703 0.457633
0.000000 0.898429 0.456580
0.000000 0.899481 0.455246
0.000000 0.900781 0.453574
0.000000 0.902118 0.450992
0.000000 0.902995 0.446384
0.000000 0.903151 0.442396
0.000000 0.903337 0.439362
0.258078 0.903617 0.435419
0.388854 0.905259 0.429182
0.514928 0.905668 0.423619
0.624349 0.905916 0.419778
0.701122 0.906599 0.417547
0.766444 0.906359 0.415074
0.829668 0.905318 0.416081
0.877917 0.905606 0.410441
0.916077 0.904400 0.405682
0.946464 0.902141 0.400281
0.971135 0.902132 0.461825
0.988201 0.905091 0.525269
1.000000 0.899711 0.557009
1.000000 0.895863 0.588634
1.000000 0.893503 0.633783
1.000000 0.887928 0.671223
1.000000 0.884861 0.703145
1.000000 0.885296 0.735682
0.000000 0.923959 0.558237
0.000000 0.924058 0.557915
0.000000 0.924157 0.557595
0.000000 0.924253 0.557279
0.000000 0.924347 0.556965
0.000000 0.924448 0.556627
0.000000 0.924572 0.556207
0.000000 0.924730 0.555638
0.000000 0.924929 0.554868
0.000000 0.925179 0.553884
0.000000 0.925487 0.552637
0.000000 0.925862 0.551066
0.000000 0.926353 0.549099
0.180050 0.926579 0.545719
0.279530 0.926408 0.541210
0.359843 0.927058 0.534766
0.437455 0.927874 0.526726
0.531533 0.927943 0.520185
0.629771 0.927650 0.515871
0.701874 0.927980 0.518459
0.764652 0.927657 0.518385
0.820965 0.926755 0.517287
0.870292 0.928068 0.518951
0.907571 0.926795 0.512341
0.938529 0.925629 0.506641
0.963217 0.923699 0.500706
0.981958 0.925711 0.555347
0.999733 0.925407 0.604658
