Assets/Lutify-Free-LUTs-Pack/Lutify Free LUTs Pack/Print Film Pro - Print Film 2/Lutify.me-PrintFilm2-KineLog3-to-Rec709.cube
# Created with: fylm.ai - Colour Grading and Collaboration Software in Cloud 
# Website: https://fylm.ai 
# META
# Option: Gamut compress
# Block 1: IDT | Kinefinity KineLOG3 - BETA
# Block 2: colourMatch | Blending Mode: Normal | {"ColorSpace":0,"CrossCovarianceLimit":50,"ReshapingIterations":1,"PercentSaturationShift":100,"PercentShadingShift":100,"ExtraShading":true,"PercentTint":100,"PercentModified":100}
# Block 3: HSL | Blending Mode: Normal | {"hue":{"Reds":0,"Yellows":0,"Greens":0,"Cyans":0,"Blues":0,"Magentas":0},"saturation":{"Reds":1,"Yellows":0.9,"Greens":0.95,"Cyans":1,"Blues":1,"Magentas":1},"luminance":{"Reds":0.8,"Yellows":0.95,"Greens":0.9,"Cyans":0.8,"Blues":0.8,"Magentas":0.8},"lum_sat":{"Blacks":1,"Shadows":1,"Midtones":1,"Highlights":1,"Whites":1},"sat_sat":{"10":1,"20":1,"30":1,"40":1,"50":1}}
# Block 4: LUT | Filmic Curve Response: Low Contrast 2 (100%)
# Block 5: ODT | Rec709
TITLE "Lutify.me-PrintFilm2-KineLog3-to-Rec709" 
LUT_3D_SIZE 33
0.000000 0.000000 0.000000
0.000000 0.000000 0.000000
0.000000 0.000000 0.000000
0.000000 0.000000 0.000000
0.000000 0.000000 0.000000
0.000000 0.000000 0.000000
0.000000 0.000000 0.000000
0.000000 0.000000 0.000000
0.000000 0.000000 0.000000
0.000000 0.000000 0.000000
0.000000 0.000000 0.000000
0.044334 0.000000 0.000000
0.080662 0.000000 0.000000
0.125589 0.000000 0.000000
0.188787 0.000000 0.000000
0.272443 0.000000 0.000000
0.362204 0.000000 0.000000
0.472416 0.000000 0.000000
0.576404 0.000000 0.000000
0.675628 0.000000 0.000000
0.779547 0.000000 0.042389
0.875130 0.000000 0.075474
0.945516 0.000000 0.112977
1.000000 0.074685 0.160496
1.000000 0.259647 0.215648
1.000000 0.374053 0.278850
1.000000 0.468540 0.347671
1.000000 0.565691 0.425301
1.000000 0.656338 0.511264
1.000000 0.726132 0.585804
1.000000 0.787990 0.668388
1.000000 0.837620 0.746367
1.000000 0.873582 0.800940
0.000000 0.000000 0.000000
0.000000 0.000000 0.000000
0.000000 0.000000 0.000000
0.000000 0.000000 0.000000
0.000000 0.000000 0.000000
0.000000 0.000000 0.000000
0.000000 0.000000 0.000000
0.000000 0.000000 0.000000
0.000000 0.000000 0.000000
0.000000 0.000000 0.000000
0.016992 0.000000 0.000000
0.060276 0.000000 0.000000
0.097118 0.000000 0.000000
0.141969 0.000000 0.000000
0.209069 0.000000 0.000000
0.288717 0.000000 0.000000
0.375038 0.000000 0.000000
0.480250 0.000000 0.000000
0.582717 0.000000 0.000000
0.680398 0.000000 0.000000
0.781837 0.000000 0.042663
0.876734 0.000000 0.075755
0.946255 0.000000 0.113227
1.000000 0.092094 0.160437
1.000000 0.263625 0.215864
1.000000 0.376001 0.279094
1.000000 0.469886 0.347922
1.000000 0.566671 0.425362
1.000000 0.657018 0.511422
1.000000 0.726525 0.585925
1.000000 0.788210 0.668483
1.000000 0.837745 0.746393
1.000000 0.873654 0.800973
0.000000 0.000000 0.000000
0.000000 0.000000 0.000000
0.000000 0.000000 0.000000
0.000000 0.000000 0.000000
0.000000 0.000000 0.000000
0.000000 0.000000 0.000000
0.000000 0.000000 0.000000
0.000000 0.000000 0.000000
0.000000 0.000000 0.000000
0.000000 0.000000 0.000000
0.040977 0.000000 0.000000
0.074238 0.000000 0.000000
0.114029 0.000000 0.000000
0.157571 0.000000 0.000000
0.228868 0.000000 0.000000
0.303751 0.000000 0.000000
0.387241 0.000000 0.000000
0.487716 0.000000 0.000000
0.588807 0.000000 0.000000
0.685265 0.000000 0.000000
0.784078 0.000000 0.042884
0.878775 0.000000 0.076240
0.946977 0.000000 0.113470
1.000000 0.105969 0.160370
1.000000 0.267540 0.216079
1.000000 0.377936 0.279338
1.000000 0.471228 0.348173
1.000000 0.567648 0.425423
1.000000 0.657697 0.511579
1.000000 0.726918 0.586046
1.000000 0.788428 0.668577
1.000000 0.837869 0.746420
1.000000 0.873726 0.801005
0.000000 0.000000 0.000000
0.000000 0.000000 0.000000
0.000000 0.000000 0.000000
0.000000 0.000000 0.000000
0.000000 0.000000 0.000000
0.000000 0.000000 0.000000
0.000000 0.000000 0.000000
0.000000 0.000000 0.000000
0.000000 0.000000 0.000000
0.016976 0.000000 0.000000
0.060235 0.000000 0.000000
0.092438 0.000000 0.000000
0.129901 0.000000 0.000000
0.175732 0.000000 0.000000
0.246339 0.000000 0.000000
0.318374 0.000000 0.000000
0.397066 0.000000 0.000000
0.494863 0.000000 0.000000
0.594615 0.000000 0.000000
0.690045 0.000000 0.000000
0.786648 0.000000 0.042775
0.880773 0.000000 0.076713
0.947684 0.000000 0.113702
1.000000 0.117817 0.160297
1.000000 0.271393 0.216290
1.000000 0.379859 0.279580
1.000000 0.472711 0.348244
1.000000 0.568622 0.425485
1.000000 0.658374 0.511737
1.000000 0.727309 0.586167
1.000000 0.788648 0.668671
1.000000 0.837994 0.746447
1.000000 0.873798 0.801037
0.000000 0.000000 0.000000
0.000000 0.000000 0.000000
0.000000 0.000000 0.000000
0.000000 0.000000 0.000000
0.000000 0.000000 0.000000
0.000000 0.000000 0.000000
0.000000 0.000000 0.000000
0.000000 0.000000 0.000000
0.000000 0.000000 0.000000
0.047167 0.000000 0.000000
0.076052 0.000000 0.000000
0.111200 0.000000 0.000000
0.145874 0.000000 0.000000
0.194488 0.000000 0.000000
0.260241 0.000000 0.000000
0.332123 0.000000 0.000000
0.407277 0.000000 0.000000
0.501736 0.000000 0.000000
0.600577 0.000000 0.000000
0.694612 0.000000 0.000000
0.789788 0.000000 0.042136
0.882729 0.000000 0.077172
0.948759 0.000000 0.114198
1.000000 0.129427 0.160496
1.000000 0.275191 0.216499
1.000000 0.381770 0.279821
1.000000 0.474193 0.348311
1.000000 0.569592 0.425546
1.000000 0.659048 0.511894
1.000000 0.727700 0.586288
1.000000 0.788866 0.668765
1.000000 0.838118 0.746474
1.000000 0.873869 0.801070
0.000000 0.000000 0.000000
0.000000 0.000000 0.000000
0.000000 0.000000 0.000000
0.000000 0.000000 0.000000
0.000000 0.000000 0.000000
0.000000 0.000000 0.000000
0.000000 0.000000 0.000000
0.019806 0.000000 0.000000
0.050451 0.000000 0.000000
0.071151 0.000000 0.000000
0.096422 0.000000 0.000000
0.127055 0.000000 0.000000
0.163124 0.000000 0.000000
0.211617 0.000000 0.000000
0.273997 0.000000 0.000000
0.342818 0.000000 0.000000
0.417719 0.000000 0.000000
0.508377 0.000000 0.000000
0.606392 0.000000 0.000000
0.698897 0.000000 0.000000
0.792872 0.000000 0.041398
0.884434 0.000000 0.077495
0.949827 0.000000 0.114700
1.000000 0.140546 0.160865
1.000000 0.278933 0.216706
1.000000 0.383669 0.280061
1.000000 0.475668 0.348375
1.000000 0.570561 0.425607
1.000000 0.659720 0.512050
1.000000 0.728089 0.586408
1.000000 0.789084 0.668858
1.000000 0.838242 0.746500
1.000000 0.873940 0.801102
0.000000 0.000000 0.000000
0.000000 0.000000 0.000000
0.000000 0.000000 0.000000
0.000000 0.000000 0.000000
0.000000 0.000000 0.000000
0.000000 0.000000 0.000000
0.003271 0.000000 0.000000
0.043407 0.000000 0.000000
0.065865 0.000000 0.000000
0.093469 0.000000 0.000000
0.121774 0.000000 0.000000
0.147356 0.000000 0.000000
0.182003 0.000000 0.000000
0.227010 0.000000 0.000000
0.289901 0.000000 0.000000
0.350742 0.000000 0.000000
0.427261 0.000000 0.000000
0.515051 0.000000 0.000000
0.611947 0.000000 0.000000
0.703123 0.000000 0.000000
0.795059 0.000000 0.040754
0.885767 0.000000 0.077593
0.950880 0.000000 0.115195
1.000000 0.150794 0.161231
1.000000 0.282647 0.216912
1.000000 0.385569 0.280301
1.000000 0.477148 0.348440
1.000000 0.571535 0.425668
1.000000 0.660395 0.512209
1.000000 0.728480 0.586529
1.000000 0.789303 0.668953
1.000000 0.838366 0.746527
1.000000 0.874012 0.801135
0.000000 0.000000 0.000000
0.000000 0.000000 0.000000
0.000000 0.000000 0.000000
0.000000 0.000724 0.000000
0.000000 0.010564 0.000000
0.000000 0.022534 0.000000
0.002023 0.029726 0.000000
0.049746 0.031913 0.000000
0.072836 0.030839 0.000000
0.104109 0.020342 0.000000
0.141810 0.000000 0.000000
0.172922 0.000000 0.000000
0.207520 0.000000 0.000000
0.248076 0.000000 0.000000
0.306413 0.000000 0.000000
0.362776 0.000000 0.000000
0.436738 0.000000 0.000000
0.523494 0.000000 0.000000
0.618715 0.000000 0.000000
0.708164 0.000000 0.000000
0.797560 0.000000 0.039871
0.887374 0.000000 0.077692
0.952147 0.000000 0.115797
1.000000 0.162442 0.161671
1.000000 0.287152 0.217161
1.000000 0.387895 0.280598
1.000000 0.478962 0.348520
1.000000 0.572727 0.425743
1.000000 0.661222 0.512402
1.000000 0.728961 0.586678
1.000000 0.789572 0.669069
1.000000 0.838519 0.746560
1.000000 0.874101 0.801175
0.000000 0.018409 0.000000
0.000000 0.023940 0.000000
0.000000 0.027869 0.000000
0.000000 0.031869 0.000000
0.000000 0.038045 0.000000
0.000000 0.045208 0.000000
0.000000 0.049688 0.000000
0.051513 0.050762 0.000000
0.079704 0.049492 0.000000
0.117601 0.044262 0.000000
0.155018 0.031190 0.000000
0.196329 0.000000 0.000000
0.233081 0.000000 0.000000
0.276118 0.000000 0.000000
0.325175 0.000000 0.000000
0.377054 0.000000 0.000000
0.448811 0.000000 0.000000
0.534433 0.000000 0.000000
0.627656 0.000000 0.000000
0.714472 0.000000 0.000000
0.801395 0.000000 0.038622
0.889484 0.000000 0.077786
0.953288 0.000000 0.116152
1.000000 0.176854 0.162246
1.000000 0.294144 0.217961
1.000000 0.391001 0.280994
1.000000 0.481391 0.348626
1.000000 0.574328 0.425844
1.000000 0.662333 0.512664
1.000000 0.729605 0.586878
1.000000 0.789934 0.669225
1.000000 0.838726 0.746604
1.000000 0.874220 0.801229
0.000000 0.044784 0.000000
0.000000 0.048007 0.000000
0.000000 0.049839 0.000000
0.000000 0.052828 0.000000
0.000000 0.057181 0.000000
0.000000 0.063655 0.000000
0.000000 0.069425 0.000000
0.045382 0.073126 0.000000
0.085054 0.072973 0.000000
0.127253 0.070181 0.000000
0.174836 0.064221 0.000000
0.215959 0.053349 0.000000
0.260274 0.020009 0.000000
0.303323 0.000000 0.000000
0.352523 0.000000 0.000000
0.399544 0.000000 0.000000
0.467176 0.000000 0.000000
0.548919 0.000000 0.000000
0.638276 0.000000 0.000000
0.722703 0.000000 0.000000
0.807404 0.000000 0.036762
0.892363 0.000000 0.077783
0.954740 0.000000 0.116570
1.000000 0.194341 0.163058
1.000000 0.303417 0.219072
1.000000 0.395138 0.281524
1.000000 0.484641 0.348768
1.000000 0.576475 0.425978
1.000000 0.663818 0.513014
1.000000 0.730468 0.587148
1.000000 0.790420 0.669435
1.000000 0.839002 0.746664
1.000000 0.874379 0.801302
0.000000 0.062984 0.000000
0.000000 0.066710 0.000000
0.000000 0.070433 0.000000
0.000000 0.076014 0.000000
0.000000 0.081085 0.000000
0.000000 0.088322 0.000000
0.000000 0.097134 0.000000
0.000000 0.102682 0.000000
0.079853 0.103649 0.000000
0.130314 0.104209 0.000000
0.189526 0.098080 0.000000
0.236358 0.094640 0.000000
0.283082 0.084327 0.000000
0.331859 0.067720 0.000000
0.387410 0.000000 0.000000
0.441100 0.000000 0.000000
0.490917 0.000000 0.000000
0.568460 0.000000 0.000000
0.649799 0.000000 0.000000
0.731716 0.000000 0.000000
0.815168 0.000000 0.033529
0.896186 0.000000 0.077549
0.956785 0.000000 0.117038
1.000000 0.213600 0.164485
1.000000 0.315528 0.220556
1.000000 0.400629 0.282231
1.000000 0.488973 0.348956
1.000000 0.579355 0.426215
1.000000 0.665805 0.513485
1.000000 0.731623 0.587510
1.000000 0.791071 0.669716
1.000000 0.839373 0.746744
1.000000 0.874593 0.801400
0.000000 0.088527 0.000000
0.000000 0.093771 0.000000
0.000000 0.098413 0.000000
0.000000 0.106078 0.000000
0.000000 0.111344 0.000000
0.000000 0.121728 0.000000
0.000000 0.128471 0.000000
0.000000 0.136726 0.000000
0.050230 0.141164 0.000000
0.126922 0.140889 0.000000
0.191837 0.141180 0.000000
0.247378 0.134542 0.000000
0.303257 0.130257 0.000000
0.356800 0.123614 0.000000
0.418565 0.110526 0.000000
0.471603 0.095917 0.000000
0.527628 0.061636 0.000000
0.596791 0.000000 0.000000
0.665293 0.000000 0.000000
0.742319 0.000000 0.000000
0.822540 0.000000 0.030172
0.901028 0.000000 0.076785
0.959527 0.110392 0.117789
1.000000 0.239939 0.165486
1.000000 0.330588 0.222093
1.000000 0.408551 0.283585
1.000000 0.494734 0.349205
1.000000 0.583276 0.426953
1.000000 0.668450 0.514115
1.000000 0.733166 0.587997
1.000000 0.791944 0.670094
1.000000 0.839871 0.746853
1.000000 0.874882 0.801532
0.000000 0.123814 0.000000
0.000000 0.131232 0.000000
0.000000 0.136172 0.000000
0.000000 0.146728 0.000000
0.000000 0.153195 0.000000
0.000000 0.165112 0.000000
0.000000 0.173120 0.000000
0.000000 0.184236 0.000000
0.000000 0.188934 0.000000
0.092680 0.192408 0.000000
0.182758 0.189244 0.000000
0.245686 0.188769 0.000000
0.315804 0.179839 0.000000
0.374945 0.174400 0.000000
0.447906 0.171669 0.000000
0.501234 0.171094 0.000000
0.566027 0.162519 0.000000
0.633291 0.136991 0.000000
0.693320 0.078421 0.000000
0.760764 0.000000 0.000000
0.832294 0.000000 0.000000
0.906772 0.082512 0.074977
0.962802 0.172815 0.118501
1.000000 0.266741 0.166453
1.000000 0.346839 0.223741
1.000000 0.420484 0.285839
1.000000 0.502467 0.349614
1.000000 0.588494 0.427937
1.000000 0.671964 0.514960
1.000000 0.735218 0.588650
1.000000 0.793111 0.670601
1.000000 0.840536 0.746997
1.000000 0.875266 0.801707
0.000000 0.175856 0.000000
0.000000 0.185311 0.000000
0.000000 0.193195 0.000000
0.000000 0.204743 0.000000
0.000000 0.212147 0.000000
0.000000 0.220191 0.000000
0.000000 0.230354 0.000000
0.000000 0.236699 0.000000
0.000000 0.244906 0.000000
0.000000 0.249607 0.000000
0.142078 0.251158 0.000000
0.228865 0.249404 0.000000
0.309249 0.245801 0.000000
0.389233 0.236964 0.000000
0.465729 0.239343 0.000000
0.534616 0.241459 0.000000
0.595512 0.244087 0.000000
0.664008 0.236493 0.000000
0.728344 0.211440 0.000000
0.785597 0.174829 0.000000
0.847667 0.154615 0.000000
0.916926 0.173993 0.072633
0.966916 0.232427 0.119381
1.000000 0.298851 0.167568
1.000000 0.367389 0.225913
1.000000 0.435672 0.288014
1.000000 0.515107 0.352152
1.000000 0.596006 0.429762
1.000000 0.676604 0.516090
1.000000 0.737939 0.589523
1.000000 0.794665 0.671279
1.000000 0.841426 0.747192
1.000000 0.875782 0.801945
0.000000 0.242171 0.000000
0.000000 0.252212 0.000000
0.000000 0.264074 0.000000
0.000000 0.272158 0.000000
0.000000 0.281334 0.000000
0.000000 0.288895 0.000000
0.000000 0.296728 0.000000
0.000000 0.302213 0.000000
0.000000 0.309436 0.000000
0.000000 0.318907 0.000000
0.000000 0.323613 0.000000
0.177383 0.326551 0.000000
0.282588 0.323023 0.000000
0.377749 0.315766 0.000000
0.478712 0.312799 0.000000
0.554999 0.318222 0.000000
0.624848 0.332541 0.000000
0.699850 0.338406 0.000000
0.761323 0.325548 0.000000
0.816507 0.302919 0.000000
0.872153 0.271380 0.000000
0.929187 0.255840 0.065061
0.971371 0.295927 0.119977
1.000000 0.336980 0.169062
1.000000 0.393660 0.228805
1.000000 0.455235 0.290906
1.000000 0.532441 0.355938
1.000000 0.607330 0.433419
1.000000 0.682698 0.517599
1.000000 0.741524 0.590693
1.000000 0.796729 0.672184
1.000000 0.842610 0.747453
1.000000 0.876468 0.802262
0.000000 0.319410 0.000000
0.000000 0.329675 0.000000
0.000000 0.339938 0.000000
0.000000 0.351653 0.000000
0.000000 0.357489 0.000000
0.000000 0.363322 0.000000
0.000000 0.367938 0.000000
0.000000 0.373224 0.000000
0.000000 0.385698 0.000000
0.000000 0.396387 0.000000
0.000000 0.404779 0.000000
0.000000 0.410910 0.000000
0.202694 0.413677 0.000000
0.340928 0.410249 0.000000
0.458468 0.409324 0.000000
0.554587 0.402250 0.000000
0.629939 0.415200 0.000000
0.716051 0.423207 0.000000
0.783269 0.423172 0.000000
0.838067 0.409952 0.000000
0.889423 0.389004 0.000000
0.939019 0.360674 0.033793
0.974918 0.366303 0.118960
1.000000 0.387283 0.172106
1.000000 0.427156 0.232682
1.000000 0.484712 0.295166
1.000000 0.555068 0.361033
1.000000 0.622040 0.438149
1.000000 0.690736 0.520142
1.000000 0.746217 0.592252
1.000000 0.799458 0.673391
1.000000 0.844180 0.747803
1.000000 0.877381 0.802688
0.000000 0.416791 0.000000
0.000000 0.423495 0.000000
0.000000 0.433641 0.000000
0.000000 0.442126 0.000000
0.000000 0.446547 0.000000
0.000000 0.450519 0.000000
0.000000 0.454334 0.000000
0.000000 0.458780 0.000000
0.000000 0.465585 0.000000
0.000000 0.478630 0.000000
0.000000 0.490832 0.000000
0.000000 0.501925 0.000000
0.000000 0.505291 0.000000
0.254001 0.509778 0.000000
0.413189 0.509186 0.000000
0.526396 0.502258 0.000000
0.627927 0.496386 0.000000
0.718837 0.506202 0.000000
0.797930 0.518966 0.000000
0.856083 0.509094 0.000000
0.901798 0.499325 0.000000
0.945910 0.480045 0.000000
0.981052 0.448468 0.118041
1.000000 0.452558 0.179490
1.000000 0.474021 0.240520
1.000000 0.525380 0.301497
1.000000 0.584357 0.367887
1.000000 0.641415 0.444660
1.000000 0.701813 0.524382
1.000000 0.752344 0.594327
1.000000 0.803044 0.674991
1.000000 0.846251 0.748270
1.000000 0.878588 0.803256
0.000000 0.525528 0.000000
0.000000 0.529957 0.000000
0.000000 0.536906 0.000000
0.000000 0.542666 0.000000
0.000000 0.548827 0.000000
0.000000 0.552220 0.000000
0.000000 0.555357 0.000000
0.000000 0.558584 0.000000
0.000000 0.562668 0.000000
0.000000 0.568523 0.000000
0.000000 0.578251 0.000000
0.000000 0.592393 0.000000
0.000000 0.602591 0.000000
0.000000 0.611818 0.000000
0.338352 0.611550 0.000000
0.471565 0.613254 0.000000
0.598378 0.607065 0.000000
0.709139 0.599735 0.000000
0.793047 0.608009 0.000000
0.860493 0.611377 0.000000
0.907477 0.604600 0.000000
0.947197 0.595142 0.000000
0.981085 0.568216 0.120084
1.000000 0.548879 0.186288
1.000000 0.543540 0.250258
1.000000 0.575405 0.311092
1.000000 0.617734 0.379315
1.000000 0.665809 0.453389
1.000000 0.715451 0.529555
1.000000 0.762866 0.599564
1.000000 0.807726 0.677105
1.000000 0.848964 0.748892
1.000000 0.880186 0.804012
0.000000 0.621134 0.000000
0.000000 0.623399 0.000000
0.000000 0.625824 0.000000
0.000000 0.630057 0.000000
0.000000 0.634024 0.000000
0.000000 0.637761 0.000000
0.000000 0.641670 0.000000
0.000000 0.645188 0.000000
0.000000 0.648373 0.000000
0.000000 0.652409 0.000000
0.000000 0.657531 0.000000
0.000000 0.664293 0.000000
0.000000 0.674467 0.000000
0.000000 0.683883 0.000000
0.251567 0.692906 0.000000
0.417315 0.698209 0.000000
0.561301 0.693780 0.000000
0.681160 0.694250 0.000000
0.779924 0.688491 0.000000
0.850632 0.691283 0.000000
0.903241 0.697661 0.000000
0.943985 0.686070 0.000000
0.974868 0.675997 0.116087
0.999537 0.659286 0.201294
1.000000 0.637588 0.267588
1.000000 0.635879 0.327812
1.000000 0.660352 0.394690
1.000000 0.692959 0.463171
1.000000 0.732460 0.536478
1.000000 0.776726 0.607726
1.000000 0.815661 0.681975
1.000000 0.852462 0.749801
1.000000 0.882326 0.805014
0.000000 0.711639 0.000000
0.000000 0.713047 0.000000
0.000000 0.714356 0.000000
0.000000 0.716015 0.000000
0.000000 0.717327 0.000000
0.000000 0.718434 0.000000
0.000000 0.719495 0.000000
0.000000 0.720736 0.000000
0.000000 0.724205 0.000000
0.000000 0.728844 0.000000
0.000000 0.735403 0.000000
0.000000 0.740956 0.000000
0.000000 0.746129 0.000000
0.000000 0.752470 0.000000
0.116867 0.759424 0.000000
0.373585 0.765523 0.000000
0.519578 0.770999 0.000000
0.655279 0.765407 0.000000
0.760404 0.761097 0.000000
0.833729 0.757699 0.000000
0.890718 0.761593 0.000000
0.937164 0.763023 0.000000
0.966154 0.757841 0.131598
0.990475 0.741994 0.223613
1.000000 0.729956 0.295450
1.000000 0.711004 0.356365
1.000000 0.710614 0.413189
1.000000 0.726521 0.475432
1.000000 0.753898 0.546376
1.000000 0.793552 0.618643
1.000000 0.825588 0.688182
1.000000 0.858025 0.753334
1.000000 0.885113 0.806270
0.000000 0.792309 0.080007
0.000000 0.793135 0.074195
0.000000 0.793921 0.067932
0.000000 0.794672 0.061057
0.000000 0.795389 0.053201
0.000000 0.795974 0.032270
0.000000 0.796542 0.000000
0.000000 0.797223 0.000000
0.000000 0.798089 0.000000
0.000000 0.799158 0.000000
0.000000 0.800462 0.000000
0.000000 0.802864 0.000000
0.000000 0.808088 0.000000
0.000000 0.815313 0.000000
0.000000 0.819940 0.000000
0.318379 0.823855 0.000000
0.480350 0.827333 0.000000
0.629885 0.825405 0.000000
0.736654 0.824028 0.000000
0.814877 0.821128 0.000000
0.875988 0.816462 0.000000
0.926495 0.815728 0.000000
0.958955 0.820555 0.172573
0.982881 0.810232 0.258654
1.000000 0.802539 0.333170
1.000000 0.787208 0.393357
1.000000 0.769511 0.438345
1.000000 0.768895 0.495133
1.000000 0.784869 0.564827
1.000000 0.813930 0.633226
1.000000 0.837921 0.696309
1.000000 0.865785 0.758810
1.000000 0.888833 0.807880
0.000000 0.849640 0.228864
0.000000 0.849965 0.226158
0.000000 0.850277 0.223508
0.000000 0.850576 0.220912
0.000000 0.850864 0.218365
0.000000 0.851141 0.215866
0.000000 0.851562 0.213370
0.000000 0.852441 0.210298
0.000000 0.853575 0.206252
0.000000 0.854797 0.201671
0.000000 0.855489 0.198446
0.000000 0.856302 0.194310
0.000000 0.857415 0.186853
0.000000 0.859139 0.179500
0.000000 0.861135 0.168976
0.304612 0.866646 0.154548
0.470438 0.869015 0.143606
0.621661 0.868420 0.123845
0.720167 0.869003 0.117529
0.798453 0.867178 0.084782
0.860790 0.864939 0.015295
0.915175 0.860389 0.000000
0.949919 0.862780 0.195615
0.977792 0.862437 0.298445
0.995450 0.858657 0.380299
1.000000 0.848590 0.436823
1.000000 0.837975 0.482241
1.000000 0.825140 0.531014
1.000000 0.821069 0.590724
1.000000 0.836511 0.649856
1.000000 0.852882 0.706917
1.000000 0.875184 0.766627
1.000000 0.895014 0.812730
0.000000 0.890614 0.349130
0.000000 0.891326 0.347836
0.000000 0.892018 0.346566
0.000000 0.892465 0.344875
0.000000 0.892863 0.343138
0.000000 0.893251 0.341434
0.000000 0.893639 0.339746
0.000000 0.894109 0.337705
0.000000 0.894631 0.335025
0.000000 0.894805 0.331540
0.000000 0.894991 0.327042
0.000000 0.895151 0.321310
0.000000 0.895298 0.314025
0.000000 0.896523 0.306760
0.000000 0.897645 0.300513
0.314376 0.898667 0.293143
0.468415 0.899705 0.284442
0.606912 0.900257 0.278169
0.709163 0.900877 0.272035
0.785622 0.900257 0.270672
0.847861 0.898494 0.263123
0.902675 0.897534 0.246745
0.940774 0.894292 0.241113
0.969999 0.893144 0.318343
0.990482 0.895862 0.420936
1.000000 0.889620 0.480858
1.000000 0.882492 0.526737
1.000000 0.875113 0.575449
1.000000 0.862501 0.623928
1.000000 0.862498 0.670861
1.000000 0.870411 0.720553
1.000000 0.886603 0.776562
1.000000 0.902780 0.818266
0.000000 0.922759 0.445509
0.000000 0.922951 0.444875
0.000000 0.923136 0.444249
0.000000 0.923316 0.443635
0.000000 0.923315 0.442585
0.000000 0.923300 0.441522
0.000000 0.923284 0.440465
0.000000 0.923261 0.439185
0.000000 0.923226 0.437493
0.000000 0.923170 0.435268
0.000000 0.923136 0.432324
0.000000 0.923141 0.429561
0.000000 0.923113 0.427337
0.000000 0.923062 0.424516
0.257919 0.923222 0.420471
0.376618 0.924675 0.416254
0.486353 0.926173 0.410200
0.608373 0.925950 0.404887
0.698969 0.925803 0.399095
0.773505 0.925117 0.395706
0.839330 0.924331 0.392207
0.892024 0.923871 0.384124
0.928184 0.921576 0.371249
0.961632 0.918527 0.359210
0.984184 0.920234 0.438318
1.000000 0.920674 0.524505
1.000000 0.915038 0.573667
1.000000 0.910061 0.619802
1.000000 0.901630 0.667476
1.000000 0.894244 0.702180
1.000000 0.890933 0.738228
1.000000 0.900430 0.787598
1.000000 0.912338 0.825019
0.000000 0.947072 0.557093
0.000000 0.947152 0.556654
0.000000 0.947233 0.556219
0.000000 0.947319 0.555788
0.000000 0.947402 0.555362
0.000000 0.947484 0.554941
0.000000 0.947564 0.554521
0.000000 0.947659 0.554012
0.000000 0.947732 0.553182
0.107654 0.947663 0.551608
0.178295 0.947567 0.549538
0.231713 0.947457 0.546820
0.283752 0.947305 0.543575
0.339972 0.947029 0.539102
0.398897 0.946633 0.533149
0.462181 0.946088 0.526538
0.542130 0.945611 0.521765
0.624114 0.945490 0.516377
0.700252 0.945612 0.517525
0.770586 0.945467 0.514068
0.832291 0.945805 0.513178
0.882719 0.946079 0.510519
0.918829 0.944342 0.501682
0.951110 0.943961 0.492820
0.975553 0.941775 0.481193
0.997366 0.941437 0.549531
1.000000 0.941294 0.620415
1.000000 0.937814 0.665392
1.000000 0.931070 0.708322
1.000000 0.924157 0.737198
1.000000 0.917275 0.766737
1.000000 0.915242 0.799768
1.000000 0.923122 0.833601
0.357167 0.966879 0.654241
0.362785 0.966962 0.653932
0.368269 0.967043 0.653627
0.373625 0.967123 0.653325
0.378862 0.967202 0.653024
0.383983 0.967280 0.652726
0.389028 0.967357 0.652430
0.395097 0.967450 0.652068
0.403041 0.967572 0.651586
0.413348 0.967732 0.650948
0.426526 0.967940 0.650107
0.442044 0.968087 0.648493
0.461245 0.968110 0.646266
0.487822 0.967774 0.643536
0.522485 0.967238 0.639277
0.562091 0.966564 0.633893
0.605867 0.965734 0.626511
0.654801 0.965071 0.620870
0.706722 0.964665 0.617332
0.762724 0.964447 0.614437
0.822662 0.964343 0.612471
0.871376 0.964726 0.611237
0.908061 0.965017 0.611739
0.939087 0.963778 0.605150
0.966140 0.962364 0.602420
0.990271 0.960161 0.588728
1.000000 0.960287 0.648443
