Assets/Lutify-Free-LUTs-Pack/Lutify Free LUTs Pack/Print Film Pro - Print Film 2/Lutify.me-PrintFilm2-BMDFilmGen5-to-Rec709.cube
# Created with: fylm.ai - Colour Grading and Collaboration Software in Cloud 
# Website: https://fylm.ai 
# META
# Option: Gamut compress
# Block 1: IDT | BMD Wide Gamut BMDFilm Gen 5
# Block 2: colourMatch | Blending Mode: Normal | {"ColorSpace":0,"CrossCovarianceLimit":50,"ReshapingIterations":1,"PercentSaturationShift":100,"PercentShadingShift":100,"ExtraShading":true,"PercentTint":100,"PercentModified":100}
# Block 3: HSL | Blending Mode: Normal | {"hue":{"Reds":0,"Yellows":0,"Greens":0,"Cyans":0,"Blues":0,"Magentas":0},"saturation":{"Reds":1,"Yellows":0.9,"Greens":0.95,"Cyans":1,"Blues":1,"Magentas":1},"luminance":{"Reds":0.8,"Yellows":0.95,"Greens":0.9,"Cyans":0.8,"Blues":0.8,"Magentas":0.8},"lum_sat":{"Blacks":1,"Shadows":1,"Midtones":1,"Highlights":1,"Whites":1},"sat_sat":{"10":1,"20":1,"30":1,"40":1,"50":1}}
# Block 4: LUT | Filmic Curve Response: Low Contrast 2 (100%)
# Block 5: ODT | Rec709
TITLE "Lutify.me-PrintFilm2-BMDFilmGen5-to-Rec709" 
LUT_3D_SIZE 9
0.000000 0.000000 0.000000
0.000000 0.000000 0.000000
0.000000 0.000000 0.000000
0.171209 0.000000 0.000000
0.588283 0.000000 0.000000
0.984802 0.240175 0.101217
1.000000 0.693324 0.414574
1.000000 0.907917 0.793855
1.000000 0.991097 0.952987
0.000000 0.000000 0.000000
0.000000 0.000000 0.000000
0.055852 0.000000 0.000000
0.220986 0.000000 0.000000
0.604122 0.000000 0.000000
0.986405 0.257494 0.099990
1.000000 0.695316 0.414976
1.000000 0.908099 0.793968
1.000000 0.991114 0.953000
0.000000 0.048992 0.000000
0.000000 0.061135 0.000000
0.097865 0.071407 0.000000
0.303643 0.018723 0.000000
0.630482 0.000000 0.000000
0.989278 0.288768 0.096187
1.000000 0.699291 0.415787
1.000000 0.908466 0.794196
1.000000 0.991149 0.953029
0.000000 0.245013 0.000000
0.000000 0.260526 0.000000
0.000000 0.273189 0.000000
0.416562 0.266643 0.000000
0.744051 0.313122 0.000000
0.995041 0.389704 0.074511
1.000000 0.715320 0.419217
1.000000 0.909994 0.795158
1.000000 0.991295 0.953150
0.000000 0.647979 0.000000
0.000000 0.651955 0.000000
0.000000 0.659466 0.000000
0.369447 0.666330 0.000000
0.828622 0.631700 0.000000
0.984474 0.728003 0.000000
1.000000 0.781906 0.441028
1.000000 0.916174 0.799227
1.000000 0.991898 0.953655
0.425501 0.917440 0.000000
0.439360 0.917497 0.000000
0.465855 0.917599 0.000000
0.572416 0.917698 0.000000
0.783117 0.916914 0.000000
0.966571 0.904650 0.000000
1.000000 0.922282 0.538371
1.000000 0.939818 0.818528
1.000000 0.994224 0.955750
0.849721 0.995055 0.622043
0.850567 0.995050 0.622015
0.852264 0.995040 0.621960
0.859325 0.994904 0.621425
0.886135 0.994056 0.617968
0.950874 0.993479 0.615691
1.000000 0.989459 0.585103
1.000000 0.993384 0.881679
1.000000 1.000000 0.964472
0.968061 1.000000 0.918433
0.968126 1.000000 0.918438
0.968258 1.000000 0.918446
0.968808 1.000000 0.918485
0.970883 1.000000 0.918807
0.979798 1.000000 0.920970
1.000000 1.000000 0.926362
1.000000 1.000000 0.929831
1.000000 1.000000 0.984061
1.000000 1.000000 0.985010
1.000000 1.000000 0.985008
1.000000 1.000000 0.985010
1.000000 1.000000 0.985012
1.000000 1.000000 0.985028
1.000000 1.000000 0.985089
1.000000 1.000000 0.985287
1.000000 1.000000 0.983132
1.000000 1.000000 0.969812
0.000000 0.000000 0.000000
0.000000 0.000000 0.000000
0.000000 0.000000 0.000000
0.173471 0.000000 0.000000
0.581232 0.000000 0.000000
0.983437 0.236181 0.115912
1.000000 0.692703 0.418879
1.000000 0.907911 0.794461
1.000000 0.991096 0.953031
0.000000 0.000000 0.000000
0.000000 0.000000 0.000000
0.046892 0.000000 0.000000
0.214162 0.000000 0.000000
0.598513 0.000000 0.000000
0.985064 0.254063 0.115401
1.000000 0.694700 0.419286
1.000000 0.908093 0.794574
1.000000 0.991114 0.953046
0.000000 0.048122 0.000000
0.000000 0.061257 0.000000
0.086960 0.076998 0.000000
0.290626 0.050489 0.000000
0.627431 0.000000 0.000000
0.987962 0.285561 0.112931
1.000000 0.698685 0.420108
1.000000 0.908460 0.794802
1.000000 0.991149 0.953073
0.000000 0.257067 0.000000
0.000000 0.276224 0.000000
0.000000 0.295925 0.000000
0.382467 0.296595 0.000000
0.738109 0.319930 0.000000
0.994084 0.390288 0.099724
1.000000 0.714751 0.423579
1.000000 0.909989 0.795761
1.000000 0.991295 0.953195
0.000000 0.658957 0.000000
0.000000 0.662725 0.000000
0.000000 0.670325 0.000000
0.309916 0.692026 0.000000
0.792662 0.674011 0.000000
0.983400 0.727925 0.000000
1.000000 0.781422 0.445479
1.000000 0.916171 0.799823
1.000000 0.991898 0.953700
0.419972 0.918444 0.000000
0.436356 0.918474 0.000000
0.467425 0.918519 0.000000
0.574786 0.918595 0.000000
0.782212 0.918218 0.000000
0.964435 0.906670 0.000000
1.000000 0.922230 0.543550
1.000000 0.939770 0.819033
1.000000 0.994224 0.955793
0.849388 0.995078 0.630016
0.850245 0.995075 0.630019
0.851963 0.995069 0.630028
0.858675 0.994979 0.629682
0.885493 0.994132 0.626278
0.950414 0.993555 0.623477
1.000000 0.989782 0.592925
1.000000 0.993379 0.882036
1.000000 1.000000 0.964514
0.968011 1.000000 0.918748
0.968076 1.000000 0.918754
0.968208 1.000000 0.918763
0.968759 1.000000 0.918801
0.970885 1.000000 0.919088
0.979801 1.000000 0.921234
1.000000 1.000000 0.926622
1.000000 1.000000 0.930149
1.000000 1.000000 0.984091
1.000000 1.000000 0.985046
1.000000 1.000000 0.985048
1.000000 1.000000 0.985046
1.000000 1.000000 0.985051
1.000000 1.000000 0.985064
1.000000 1.000000 0.985128
1.000000 1.000000 0.985324
1.000000 1.000000 0.983170
1.000000 1.000000 0.969877
0.000000 0.000000 0.000000
0.000000 0.000000 0.000000
0.000000 0.000000 0.000000
0.166711 0.000000 0.026534
0.586577 0.000000 0.050841
0.982737 0.230827 0.142053
1.000000 0.691454 0.427403
1.000000 0.907888 0.795659
1.000000 0.991095 0.953120
0.000000 0.000000 0.000000
0.000000 0.000000 0.000000
0.025853 0.000000 0.016485
0.212334 0.000000 0.044583
0.597900 0.000000 0.050254
0.983714 0.249935 0.141800
1.000000 0.693460 0.427819
1.000000 0.908074 0.795776
1.000000 0.991113 0.953135
0.000000 0.034876 0.099534
0.000000 0.051209 0.092649
0.073204 0.077684 0.082365
0.280240 0.025512 0.058870
0.624021 0.000000 0.046598
0.985545 0.278983 0.141078
1.000000 0.697463 0.428660
1.000000 0.908448 0.796016
1.000000 0.991148 0.953164
0.000000 0.255802 0.080495
0.000000 0.287939 0.058163
0.000000 0.316438 0.000000
0.348000 0.335675 0.000000
0.730639 0.318216 0.000000
0.991777 0.392037 0.136278
1.000000 0.713606 0.432211
1.000000 0.909977 0.796969
1.000000 0.991294 0.953285
0.000000 0.670567 0.000000
0.000000 0.674522 0.000000
0.000000 0.683068 0.000000
0.276632 0.704596 0.000000
0.773722 0.706637 0.000000
0.983381 0.726661 0.069945
1.000000 0.780445 0.454273
1.000000 0.916163 0.801015
1.000000 0.991897 0.953789
0.404242 0.920034 0.118022
0.420837 0.920072 0.115950
0.453310 0.920117 0.111961
0.576078 0.919989 0.095968
0.780881 0.919737 0.000000
0.960729 0.911780 0.000000
1.000000 0.922156 0.553411
1.000000 0.939671 0.820045
1.000000 0.994223 0.955881
0.848098 0.994971 0.642878
0.848949 0.994968 0.642883
0.850658 0.994962 0.642875
0.857725 0.994939 0.642856
0.884970 0.994242 0.640822
0.949500 0.993696 0.638815
1.000000 0.990061 0.605151
1.000000 0.993368 0.882756
1.000000 1.000000 0.964595
0.967912 1.000000 0.919383
0.967978 1.000000 0.919385
0.968110 1.000000 0.919395
0.968660 1.000000 0.919434
0.970888 1.000000 0.919655
0.979807 1.000000 0.921764
1.000000 1.000000 0.927142
1.000000 1.000000 0.930783
1.000000 1.000000 0.984155
1.000000 1.000000 0.985123
1.000000 1.000000 0.985124
1.000000 1.000000 0.985122
1.000000 1.000000 0.985128
1.000000 1.000000 0.985140
1.000000 1.000000 0.985203
1.000000 1.000000 0.985406
1.000000 1.000000 0.983252
1.000000 1.000000 0.970000
0.000000 0.000000 0.000000
0.000000 0.000000 0.000000
0.000000 0.000000 0.041467
0.120013 0.000000 0.056583
0.578220 0.000000 0.173450
0.988254 0.213822 0.237899
1.000000 0.686064 0.464560
1.000000 0.907383 0.799845
1.000000 0.991092 0.953497
0.000000 0.000000 0.035878
0.000000 0.000000 0.060854
0.000000 0.000000 0.082014
0.153668 0.000000 0.089875
0.598448 0.000000 0.184366
0.988858 0.229358 0.238339
1.000000 0.688112 0.464983
1.000000 0.907570 0.799961
1.000000 0.991109 0.953510
0.000000 0.000000 0.213995
0.000000 0.000000 0.216699
0.000000 0.000000 0.209326
0.238046 0.000000 0.186206
0.627623 0.000000 0.206169
0.989697 0.257916 0.238800
1.000000 0.692198 0.465836
1.000000 0.907945 0.800196
1.000000 0.991144 0.953539
0.000000 0.172488 0.413625
0.000000 0.204439 0.394109
0.000000 0.260543 0.376597
0.320376 0.339024 0.362349
0.708324 0.287001 0.252799
0.991112 0.366511 0.242234
1.000000 0.708673 0.469432
1.000000 0.909508 0.801182
1.000000 0.991290 0.953661
0.000000 0.675293 0.358111
0.000000 0.684102 0.354801
0.000000 0.700664 0.353318
0.218711 0.723864 0.316616
0.761261 0.735695 0.254664
0.979213 0.722694 0.281112
1.000000 0.776243 0.490924
1.000000 0.915838 0.805366
1.000000 0.991894 0.954164
0.399141 0.923659 0.385260
0.414801 0.923779 0.384286
0.444647 0.923818 0.382329
0.560087 0.923835 0.374574
0.774441 0.923459 0.352958
0.957027 0.918821 0.284905
1.000000 0.922189 0.594380
1.000000 0.939257 0.824190
1.000000 0.994222 0.956245
0.847303 0.994473 0.688249
0.848164 0.994470 0.688228
0.849889 0.994463 0.688187
0.856953 0.994440 0.688044
0.884072 0.994404 0.687977
0.947490 0.994084 0.687110
1.000000 0.991046 0.656282
1.000000 0.993321 0.885708
1.000000 1.000000 0.964945
0.967568 1.000000 0.921968
0.967633 1.000000 0.921972
0.967764 1.000000 0.921979
0.968310 1.000000 0.922013
0.970587 1.000000 0.922157
0.979828 1.000000 0.923939
1.000000 1.000000 0.929288
1.000000 1.000000 0.933231
1.000000 1.000000 0.984417
1.000000 1.000000 0.985437
1.000000 1.000000 0.985438
1.000000 1.000000 0.985440
1.000000 1.000000 0.985442
1.000000 1.000000 0.985454
1.000000 1.000000 0.985517
1.000000 1.000000 0.985741
1.000000 1.000000 0.983586
1.000000 1.000000 0.970520
0.000000 0.000000 0.083042
0.000000 0.000000 0.101415
0.000000 0.000000 0.118594
0.093438 0.000000 0.149010
0.384520 0.000000 0.183303
0.984032 0.082486 0.515599
1.000000 0.686069 0.592814
1.000000 0.905305 0.815873
1.000000 0.991073 0.955035
0.000000 0.000000 0.194934
0.000000 0.000000 0.206662
0.000000 0.000000 0.217559
0.107863 0.000000 0.235250
0.454407 0.000000 0.258138
0.985313 0.126592 0.519388
1.000000 0.687671 0.592808
1.000000 0.905495 0.815981
1.000000 0.991090 0.955050
0.000000 0.000000 0.447386
0.000000 0.000000 0.442820
0.000000 0.000000 0.432233
0.122114 0.000000 0.409187
0.550532 0.000000 0.385669
0.987543 0.182477 0.526692
1.000000 0.690872 0.592795
1.000000 0.905879 0.816201
1.000000 0.991125 0.955077
0.000000 0.067823 0.685667
0.000000 0.080185 0.680240
0.000000 0.094356 0.673017
0.133209 0.124883 0.641594
0.685330 0.000000 0.577407
0.995595 0.329454 0.560969
1.000000 0.705767 0.594852
1.000000 0.907472 0.817119
1.000000 0.991272 0.955194
0.000000 0.543876 0.788324
0.000000 0.555935 0.786056
0.000000 0.578118 0.782373
0.000000 0.650164 0.774348
0.724210 0.741311 0.770949
0.966259 0.698417 0.638728
1.000000 0.763928 0.609137
1.000000 0.913920 0.820989
1.000000 0.991878 0.955688
0.270884 0.921416 0.760960
0.297561 0.922239 0.760845
0.343920 0.923679 0.760639
0.508423 0.927526 0.761871
0.753499 0.930699 0.744764
0.941228 0.930904 0.710926
1.000000 0.920788 0.719619
1.000000 0.937725 0.838393
1.000000 0.994214 0.957728
0.842465 0.995493 0.804744
0.843470 0.995480 0.804709
0.845326 0.995458 0.804480
0.852508 0.995384 0.803325
0.877043 0.995323 0.803413
0.941424 0.995483 0.801368
1.000000 0.993237 0.780851
1.000000 0.993415 0.897642
1.000000 1.000000 0.966353
0.967348 1.000000 0.931969
0.967405 1.000000 0.931973
0.967518 1.000000 0.931986
0.967992 1.000000 0.932032
0.970285 1.000000 0.932113
0.979776 1.000000 0.932557
0.999526 1.000000 0.937869
1.000000 1.000000 0.940982
1.000000 1.000000 0.985483
1.000000 1.000000 0.986705
1.000000 1.000000 0.986706
1.000000 1.000000 0.986705
1.000000 1.000000 0.986709
1.000000 1.000000 0.986722
1.000000 1.000000 0.986775
1.000000 1.000000 0.987077
1.000000 1.000000 0.984932
1.000000 1.000000 0.972553
0.000000 0.000000 0.247974
0.000000 0.000000 0.253773
0.000000 0.000000 0.260481
0.081484 0.000000 0.294002
0.323326 0.000000 0.380241
0.882898 0.000000 0.598368
1.000000 0.642736 0.840649
1.000000 0.905610 0.869856
1.000000 0.990971 0.960447
0.000000 0.000000 0.395796
0.000000 0.000000 0.399776
0.000000 0.000000 0.403882
0.000000 0.000000 0.425754
0.352813 0.000000 0.503546
0.904325 0.000000 0.640423
1.000000 0.645760 0.841049
1.000000 0.905751 0.869892
1.000000 0.990989 0.960464
0.000000 0.000000 0.680078
0.000000 0.000000 0.679862
0.000000 0.000000 0.676903
0.000000 0.000000 0.671008
0.409229 0.000000 0.675147
0.928766 0.000000 0.695020
1.000000 0.651762 0.841846
1.000000 0.906034 0.869964
1.000000 0.991024 0.960495
0.000000 0.000000 0.882754
0.000000 0.000000 0.881051
0.000000 0.000000 0.877920
0.000000 0.000000 0.867111
0.486135 0.000000 0.835527
0.972988 0.000000 0.794770
1.000000 0.675508 0.845034
1.000000 0.907213 0.870265
1.000000 0.991173 0.960632
0.000000 0.327764 0.940050
0.000000 0.331052 0.939795
0.000000 0.337313 0.939314
0.000000 0.367749 0.935283
0.568350 0.417859 0.918903
0.997358 0.448146 0.888155
1.000000 0.747076 0.858761
1.000000 0.911989 0.871494
1.000000 0.991784 0.961199
0.000000 0.860458 0.944966
0.000000 0.861714 0.944854
0.000000 0.865062 0.944572
0.000000 0.875511 0.943653
0.634276 0.901117 0.941021
0.922017 0.930296 0.943430
1.000000 0.911409 0.892489
1.000000 0.932487 0.878632
1.000000 0.994142 0.963526
0.813093 0.994621 0.935227
0.814445 0.994667 0.935279
0.817137 0.994758 0.935385
0.827766 0.995129 0.935925
0.862787 0.996485 0.938495
0.931542 0.997198 0.933395
1.000000 0.996705 0.926144
1.000000 0.992271 0.926467
1.000000 1.000000 0.971534
0.966437 1.000000 0.958857
0.966510 1.000000 0.958859
0.966658 1.000000 0.958865
0.967214 1.000000 0.958875
0.969301 1.000000 0.958868
0.977644 1.000000 0.958695
0.997872 1.000000 0.961063
1.000000 1.000000 0.962467
1.000000 1.000000 0.989332
1.000000 1.000000 0.991584
1.000000 1.000000 0.991585
1.000000 1.000000 0.991588
1.000000 1.000000 0.991596
1.000000 1.000000 0.991623
1.000000 1.000000 0.991645
1.000000 1.000000 0.991736
1.000000 1.000000 0.989610
1.000000 1.000000 0.979357
0.151064 0.000000 0.439987
0.156037 0.000000 0.439949
0.165153 0.000000 0.439876
0.197826 0.000000 0.439585
0.319755 0.000000 0.472477
0.766335 0.000000 0.818544
1.000000 0.000000 0.913187
1.000000 0.894531 0.961097
1.000000 0.989037 0.977450
0.149488 0.000000 0.469894
0.153718 0.000000 0.473431
0.161622 0.000000 0.480582
0.193255 0.000000 0.511597
0.341360 0.000000 0.621370
0.785258 0.000000 0.855156
1.000000 0.000000 0.916635
1.000000 0.894730 0.961137
1.000000 0.989051 0.977452
0.077859 0.000000 0.772888
0.094302 0.000000 0.775231
0.119597 0.000000 0.779513
0.190276 0.000000 0.792238
0.382739 0.000000 0.835613
0.814193 0.000000 0.894110
1.000000 0.000000 0.921761
1.000000 0.895129 0.961215
1.000000 0.989080 0.977459
0.181667 0.000000 0.966179
0.192491 0.000000 0.965976
0.212440 0.000000 0.965580
0.280250 0.000000 0.964066
0.481243 0.000000 0.956720
0.868506 0.000000 0.944512
1.000000 0.000000 0.936560
1.000000 0.896783 0.961543
1.000000 0.989197 0.977484
0.268280 0.302242 1.000000
0.276806 0.303085 1.000000
0.293225 0.304753 1.000000
0.351493 0.311332 1.000000
0.530589 0.316144 0.999655
0.902504 0.306996 0.983839
1.000000 0.430800 0.963363
1.000000 0.903359 0.962859
1.000000 0.989685 0.977590
0.240981 0.693834 1.000000
0.254275 0.695115 1.000000
0.278698 0.697646 1.000000
0.360139 0.707554 1.000000
0.544188 0.731016 1.000000
0.863224 0.775109 0.997476
1.000000 0.813694 0.984187
1.000000 0.928757 0.968128
1.000000 0.992022 0.978652
0.655281 0.970749 1.000000
0.657298 0.970825 1.000000
0.661304 0.970981 1.000000
0.677525 0.971714 0.999824
0.749114 0.975647 0.999523
0.885626 0.984418 0.999366
0.992335 0.995965 1.000000
1.000000 0.989165 0.982825
1.000000 1.000000 0.984515
0.956278 1.000000 0.997257
0.956385 1.000000 0.997263
0.956601 1.000000 0.997274
0.957495 1.000000 0.997321
0.961060 1.000000 0.997517
0.973020 1.000000 0.998148
0.994495 1.000000 0.997608
1.000000 1.000000 0.996218
1.000000 1.000000 0.998867
1.000000 1.000000 1.000000
1.000000 1.000000 1.000000
1.000000 1.000000 1.000000
1.000000 1.000000 1.000000
1.000000 1.000000 1.000000
1.000000 1.000000 1.000000
1.000000 1.000000 1.000000
1.000000 1.000000 1.000000
1.000000 1.000000 0.995545
0.463165 0.000000 0.699606
0.464927 0.000000 0.699468
0.468478 0.000000 0.699190
0.483097 0.000000 0.698046
0.539845 0.000000 0.693552
0.685720 0.000000 0.682242
1.000000 0.000000 0.993163
1.000000 0.507670 1.000000
1.000000 0.983723 1.000000
0.463390 0.000000 0.699585
0.465152 0.000000 0.699447
0.468702 0.000000 0.699169
0.483306 0.000000 0.698027
0.540031 0.000000 0.693533
0.685815 0.000000 0.682238
1.000000 0.000000 0.995292
1.000000 0.511083 1.000000
1.000000 0.983745 1.000000
0.463838 0.000000 0.699543
0.465600 0.000000 0.699404
0.469151 0.000000 0.699126
0.483740 0.000000 0.697985
0.540412 0.000000 0.693495
0.724344 0.000000 0.859735
1.000000 0.000000 0.999231
1.000000 0.517825 1.000000
1.000000 0.983790 1.000000
0.604343 0.000000 0.992830
0.606182 0.000000 0.992886
0.609886 0.000000 0.993007
0.625122 0.000000 0.993509
0.683650 0.000000 0.995367
0.844184 0.000000 1.000000
1.000000 0.000000 1.000000
1.000000 0.547918 1.000000
1.000000 0.983973 1.000000
0.696747 0.244012 1.000000
0.698366 0.243893 1.000000
0.701630 0.243709 1.000000
0.715039 0.242988 1.000000
0.767888 0.240118 1.000000
0.890551 0.236356 1.000000
1.000000 0.339617 1.000000
1.000000 0.649321 1.000000
1.000000 0.984735 1.000000
0.716178 0.667643 1.000000
0.717393 0.667740 1.000000
0.719832 0.667961 1.000000
0.729754 0.668847 1.000000
0.764933 0.672458 1.000000
0.861982 0.682205 1.000000
1.000000 0.717299 1.000000
1.000000 0.813444 1.000000
1.000000 0.987674 1.000000
0.761018 0.908908 1.000000
0.761697 0.908961 1.000000
0.763054 0.909066 1.000000
0.768619 0.909503 1.000000
0.789774 0.911257 1.000000
0.851193 0.917796 1.000000
0.968684 0.932421 1.000000
1.000000 0.951261 1.000000
1.000000 0.997098 1.000000
0.902479 1.000000 1.000000
0.902640 1.000000 1.000000
0.902966 1.000000 1.000000
0.904317 1.000000 1.000000
0.910199 1.000000 1.000000
0.932410 1.000000 1.000000
0.979663 1.000000 1.000000
1.000000 1.000000 1.000000
1.000000 1.000000 1.000000
1.000000 1.000000 1.000000
1.000000 1.000000 1.000000
1.000000 1.000000 1.000000
1.000000 1.000000 1.000000
1.000000 1.000000 1.000000
1.000000 1.000000 1.000000
1.000000 1.000000 1.000000
1.000000 1.000000 1.000000
1.000000 1.000000 1.000000
0.850883 0.000000 0.865475
0.851242 0.000000 0.865456
0.851933 0.000000 0.865421
0.854876 0.000000 0.865268
0.866794 0.000000 0.864643
0.909765 0.000000 0.862301
0.995500 0.000000 0.854369
1.000000 0.380340 1.000000
1.000000 0.847530 1.000000
0.850938 0.000000 0.865472
0.851270 0.000000 0.865455
0.851988 0.000000 0.865418
0.854930 0.000000 0.865265
0.866821 0.000000 0.864642
0.909813 0.000000 0.862298
0.995510 0.000000 0.854366
1.000000 0.386495 1.000000
1.000000 0.847921 1.000000
0.851021 0.000000 0.865467
0.851353 0.000000 0.865451
0.852070 0.000000 0.865413
0.855013 0.000000 0.865261
0.866901 0.000000 0.864638
0.909861 0.000000 0.862295
0.995532 0.000000 0.854361
1.000000 0.398495 1.000000
1.000000 0.848743 1.000000
0.851380 0.000000 0.865449
0.851739 0.000000 0.865431
0.852429 0.000000 0.865395
0.855369 0.000000 0.865242
0.867248 0.000000 0.864620
0.910148 0.000000 0.862279
1.000000 0.000000 0.999080
1.000000 0.440111 1.000000
1.000000 0.852039 1.000000
0.980093 0.000000 1.000000
0.980304 0.000000 1.000000
0.980730 0.000000 1.000000
0.982535 0.000000 1.000000
0.989797 0.000000 1.000000
1.000000 0.000000 1.000000
1.000000 0.192907 1.000000
1.000000 0.557460 1.000000
1.000000 0.864401 1.000000
0.961917 0.646368 1.000000
0.962086 0.646399 1.000000
0.962381 0.646541 1.000000
0.963683 0.647045 1.000000
0.968856 0.649102 1.000000
0.986871 0.656661 1.000000
1.000000 0.681231 1.000000
1.000000 0.766006 1.000000
1.000000 0.895244 1.000000
0.922684 0.907325 1.000000
0.922796 0.907331 1.000000
0.923011 0.907343 1.000000
0.923902 0.907427 1.000000
0.927542 0.907702 1.000000
0.940814 0.908955 1.000000
0.976581 0.911386 1.000000
1.000000 0.921055 1.000000
1.000000 0.952962 1.000000
0.942560 0.995666 1.000000
0.942620 0.995670 1.000000
0.942736 0.995678 1.000000
0.943227 0.995712 1.000000
0.945233 0.995853 1.000000
0.952782 0.996415 1.000000
0.974894 0.998559 1.000000
1.000000 1.000000 1.000000
1.000000 1.000000 1.000000
0.992247 1.000000 1.000000
0.992257 1.000000 1.000000
0.992278 1.000000 1.000000
0.992368 1.000000 1.000000
0.992742 1.000000 1.000000
0.994282 1.000000 1.000000
1.000000 1.000000 1.000000
1.000000 1.000000 1.000000
1.000000 1.000000 1.000000
