Assets/Lutify-Free-LUTs-Pack/Lutify Free LUTs Pack/Print Film Pro - Print Film 2/Lutify.me-PrintFilm2-CanonLog2-to-Rec709.cube
# Created with: fylm.ai - Colour Grading and Collaboration Software in Cloud 
# Website: https://fylm.ai 
# META
# Option: Gamut compress
# Block 1: IDT | CanonLog2 Cinema Gamut Daylight
# Block 2: colourMatch | Blending Mode: Normal | {"ColorSpace":0,"CrossCovarianceLimit":50,"ReshapingIterations":1,"PercentSaturationShift":100,"PercentShadingShift":100,"ExtraShading":true,"PercentTint":100,"PercentModified":100}
# Block 3: HSL | Blending Mode: Normal | {"hue":{"Reds":0,"Yellows":0,"Greens":0,"Cyans":0,"Blues":0,"Magentas":0},"saturation":{"Reds":1,"Yellows":0.9,"Greens":0.95,"Cyans":1,"Blues":1,"Magentas":1},"luminance":{"Reds":0.8,"Yellows":0.95,"Greens":0.9,"Cyans":0.8,"Blues":0.8,"Magentas":0.8},"lum_sat":{"Blacks":1,"Shadows":1,"Midtones":1,"Highlights":1,"Whites":1},"sat_sat":{"10":1,"20":1,"30":1,"40":1,"50":1}}
# Block 4: LUT | Filmic Curve Response: Low Contrast 2 (100%)
# Block 5: ODT | Rec709
TITLE "Lutify.me-PrintFilm2-CanonLog2-to-Rec709" 
LUT_3D_SIZE 5
0.000000 0.000000 0.000000
0.000000 0.000000 0.000000
0.474145 0.000000 0.000000
1.000000 0.337696 0.279745
1.000000 0.894965 0.842273
0.000000 0.051008 0.000000
0.123947 0.072344 0.000000
0.539791 0.000000 0.000000
1.000000 0.361247 0.277919
1.000000 0.895429 0.842268
0.000000 0.484451 0.000000
0.000000 0.517572 0.000000
0.811709 0.503094 0.000000
1.000000 0.556284 0.265325
1.000000 0.899468 0.842168
0.570000 0.935296 0.000000
0.603553 0.934594 0.000000
0.793380 0.927884 0.000000
1.000000 0.917121 0.228186
1.000000 0.941850 0.853483
0.977376 1.000000 0.737519
0.977762 1.000000 0.737762
0.981130 1.000000 0.739982
1.000000 1.000000 0.757616
1.000000 1.000000 0.866406
0.000000 0.000000 0.000000
0.000000 0.000000 0.000000
0.468115 0.000000 0.056327
1.000000 0.341272 0.303175
1.000000 0.895076 0.843515
0.000000 0.034325 0.111224
0.076349 0.081748 0.086093
0.540203 0.000000 0.060097
1.000000 0.361882 0.302023
1.000000 0.895541 0.843511
0.000000 0.498792 0.000000
0.000000 0.542141 0.000000
0.772200 0.528780 0.000000
1.000000 0.550871 0.291825
1.000000 0.899582 0.843426
0.565556 0.935257 0.000000
0.599736 0.934549 0.000000
0.791923 0.927805 0.000000
1.000000 0.916963 0.227520
1.000000 0.941717 0.854434
0.977332 1.000000 0.737432
0.977718 1.000000 0.737676
0.981087 1.000000 0.739895
1.000000 1.000000 0.757540
1.000000 1.000000 0.866391
0.000000 0.000000 0.000000
0.000000 0.000000 0.049600
0.250841 0.000000 0.079134
1.000000 0.308094 0.486918
1.000000 0.896701 0.853958
0.000000 0.000000 0.399119
0.000000 0.000000 0.380632
0.370648 0.000000 0.198427
1.000000 0.340059 0.491530
1.000000 0.897101 0.853970
0.000000 0.215740 0.817069
0.000000 0.393796 0.725730
0.626682 0.647476 0.681031
1.000000 0.536497 0.505865
1.000000 0.900547 0.854015
0.295211 0.963831 0.000000
0.361688 0.963789 0.000000
0.648503 0.962533 0.000000
1.000000 0.946051 0.186096
1.000000 0.940532 0.862436
0.976930 1.000000 0.736655
0.977322 1.000000 0.736899
0.980696 1.000000 0.739109
1.000000 1.000000 0.756855
1.000000 1.000000 0.866264
0.000000 0.000000 0.257543
0.000000 0.000000 0.291021
0.165334 0.000000 0.324586
0.802483 0.000000 0.276279
1.000000 0.893614 0.920010
0.000000 0.000000 0.256020
0.000000 0.000000 0.290368
0.165098 0.000000 0.324301
0.802422 0.000000 0.276008
1.000000 0.894243 0.920173
0.000000 0.119066 0.995485
0.000000 0.159675 0.987680
0.197967 0.218855 0.965536
1.000000 0.000000 0.860834
1.000000 0.899660 0.921572
0.000000 0.657137 1.000000
0.000000 0.770365 1.000000
0.000000 0.914440 0.977180
0.960916 0.967136 0.975078
1.000000 0.940922 0.927288
0.932285 1.000000 0.893725
0.932733 1.000000 0.893835
0.936558 1.000000 0.894832
0.968073 1.000000 0.904099
1.000000 1.000000 0.930024
0.000000 0.000000 0.762855
0.000000 0.000000 0.761193
0.196516 0.000000 0.750546
0.720786 0.000000 0.723834
1.000000 0.000000 0.621387
0.000000 0.000000 0.762859
0.000000 0.000000 0.761194
0.196169 0.000000 0.750535
0.720748 0.000000 0.723806
1.000000 0.000000 0.621360
0.000000 0.000000 0.762888
0.000000 0.000000 0.761202
0.193210 0.000000 0.750425
0.720422 0.000000 0.723554
1.000000 0.000000 0.621111
0.000000 0.707997 1.000000
0.000000 0.713075 1.000000
0.264613 0.740919 1.000000
0.851048 0.794386 1.000000
1.000000 0.730441 1.000000
0.000000 0.951545 1.000000
0.000000 0.951542 1.000000
0.000000 1.000000 1.000000
0.857365 1.000000 1.000000
1.000000 1.000000 1.000000
