Assets/Lutify-Free-LUTs-Pack/Lutify Free LUTs Pack/Print Film Pro - Print Film 2/Lutify.me-PrintFilm2-SLog3-to-Rec709.cube
# Created with: fylm.ai - Colour Grading and Collaboration Software in Cloud 
# Website: https://fylm.ai 
# META
# Option: Gamut compress
# Block 1: IDT | Sony S-Log3 S-Gamut3
# Block 2: colourMatch | Blending Mode: Normal | {"ColorSpace":0,"CrossCovarianceLimit":50,"ReshapingIterations":1,"PercentSaturationShift":100,"PercentShadingShift":100,"ExtraShading":true,"PercentTint":100,"PercentModified":100}
# Block 3: HSL | Blending Mode: Normal | {"hue":{"Reds":0,"Yellows":0,"Greens":0,"Cyans":0,"Blues":0,"Magentas":0},"saturation":{"Reds":1,"Yellows":0.9,"Greens":0.95,"Cyans":1,"Blues":1,"Magentas":1},"luminance":{"Reds":0.8,"Yellows":0.95,"Greens":0.9,"Cyans":0.8,"Blues":0.8,"Magentas":0.8},"lum_sat":{"Blacks":1,"Shadows":1,"Midtones":1,"Highlights":1,"Whites":1},"sat_sat":{"10":1,"20":1,"30":1,"40":1,"50":1}}
# Block 4: LUT | Filmic Curve Response: Low Contrast 2 (100%)
# Block 5: ODT | Rec709
TITLE "Lutify.me-PrintFilm2-SLog3-to-Rec709" 
LUT_3D_SIZE 9
0.000000 0.000000 0.000000
0.000000 0.000000 0.000000
0.000000 0.000000 0.000000
0.130389 0.000000 0.000000
0.423321 0.000000 0.000000
0.800864 0.000000 0.058347
1.000000 0.259949 0.218481
1.000000 0.636389 0.494321
1.000000 0.857732 0.777520
0.000000 0.000000 0.000000
0.000000 0.000000 0.000000
0.059173 0.000000 0.000000
0.184878 0.000000 0.000000
0.449441 0.000000 0.000000
0.808301 0.000000 0.059427
1.000000 0.273573 0.219264
1.000000 0.639042 0.494896
1.000000 0.858053 0.777590
0.000000 0.044275 0.000000
0.000000 0.055490 0.000000
0.096530 0.068561 0.000000
0.266810 0.000000 0.000000
0.487533 0.000000 0.000000
0.820282 0.000000 0.059068
1.000000 0.293932 0.220507
1.000000 0.643182 0.495802
1.000000 0.858560 0.777703
0.000000 0.156751 0.000000
0.000000 0.194067 0.000000
0.000000 0.230820 0.000000
0.326975 0.223743 0.000000
0.602924 0.212195 0.000000
0.852059 0.102201 0.048583
1.000000 0.352874 0.227458
1.000000 0.655633 0.498585
1.000000 0.860116 0.778051
0.000000 0.440596 0.000000
0.000000 0.479297 0.000000
0.000000 0.502481 0.000000
0.000000 0.553883 0.000000
0.638242 0.551752 0.000000
0.910495 0.535936 0.000000
1.000000 0.494471 0.247270
1.000000 0.691803 0.509223
1.000000 0.864715 0.779108
0.000000 0.780613 0.202172
0.000000 0.792456 0.187946
0.000000 0.805171 0.170442
0.000000 0.814310 0.112753
0.472675 0.835899 0.000000
0.875152 0.825991 0.000000
0.999824 0.812523 0.346449
1.000000 0.783462 0.553476
1.000000 0.879098 0.787277
0.000000 0.938446 0.580986
0.000000 0.940213 0.581454
0.000000 0.942191 0.579372
0.000000 0.945454 0.570407
0.447337 0.945309 0.541429
0.817418 0.944685 0.525454
0.972004 0.941338 0.494128
1.000000 0.931437 0.699888
1.000000 0.917709 0.818202
0.592994 0.997428 0.840147
0.601829 0.997477 0.840465
0.615105 0.997592 0.840980
0.650075 0.997835 0.842079
0.711490 0.997800 0.839962
0.802287 0.996613 0.828867
0.935221 0.995204 0.825160
1.000000 0.992344 0.819089
1.000000 0.987197 0.894600
0.859040 1.000000 0.948170
0.859966 1.000000 0.948247
0.861414 1.000000 0.948368
0.865771 1.000000 0.948739
0.877893 1.000000 0.949828
0.898742 1.000000 0.949628
0.934427 1.000000 0.947448
0.989466 1.000000 0.947667
1.000000 1.000000 0.950167
0.000000 0.000000 0.000000
0.000000 0.000000 0.000000
0.000000 0.000000 0.000000
0.135593 0.000000 0.000000
0.427909 0.000000 0.005943
0.805013 0.000000 0.076653
1.000000 0.261198 0.230397
1.000000 0.636818 0.498503
1.000000 0.857828 0.778475
0.000000 0.000000 0.000000
0.000000 0.000000 0.000000
0.055680 0.000000 0.000000
0.185180 0.000000 0.000000
0.454295 0.000000 0.008722
0.809476 0.000000 0.077732
1.000000 0.274860 0.231298
1.000000 0.639476 0.499086
1.000000 0.858149 0.778546
0.000000 0.043821 0.000000
0.000000 0.058577 0.000000
0.086973 0.077207 0.000000
0.258731 0.018474 0.000000
0.487874 0.000000 0.000000
0.820780 0.000000 0.079030
1.000000 0.295136 0.232666
1.000000 0.643623 0.500006
1.000000 0.858655 0.778657
0.000000 0.149893 0.000000
0.000000 0.200694 0.000000
0.000000 0.246197 0.000000
0.308962 0.254867 0.000000
0.597531 0.221400 0.000000
0.852709 0.097251 0.079211
1.000000 0.350592 0.238300
1.000000 0.656095 0.502828
1.000000 0.860211 0.779003
0.000000 0.420352 0.000000
0.000000 0.477259 0.000000
0.000000 0.512874 0.000000
0.000000 0.561118 0.000000
0.628415 0.561134 0.000000
0.909406 0.534666 0.000000
1.000000 0.492361 0.259553
1.000000 0.691762 0.512992
1.000000 0.864807 0.780053
0.000000 0.775625 0.244377
0.000000 0.790533 0.241335
0.000000 0.804850 0.223894
0.000000 0.816792 0.185804
0.473732 0.837107 0.106780
0.874530 0.827612 0.000000
0.999636 0.812138 0.361499
1.000000 0.783131 0.556875
1.000000 0.879026 0.787827
0.000000 0.937704 0.590485
0.000000 0.939491 0.591505
0.000000 0.942107 0.591931
0.000000 0.945408 0.582931
0.448284 0.945700 0.555688
0.816798 0.944866 0.538844
0.971579 0.941730 0.507877
1.000000 0.931396 0.703476
1.000000 0.917718 0.818779
0.590878 0.997346 0.841425
0.599226 0.997391 0.841688
0.612624 0.997501 0.842195
0.649018 0.997831 0.843722
0.710778 0.997800 0.841638
0.802398 0.996668 0.831072
0.935018 0.995224 0.826766
1.000000 0.992377 0.820853
1.000000 0.987186 0.894905
0.858806 1.000000 0.948318
0.859733 1.000000 0.948395
0.861183 1.000000 0.948516
0.865549 1.000000 0.948885
0.877694 1.000000 0.949973
0.898710 1.000000 0.949842
0.934452 1.000000 0.947695
0.989440 1.000000 0.947851
1.000000 1.000000 0.950320
0.000000 0.000000 0.000000
0.000000 0.000000 0.000000
0.000000 0.000000 0.000000
0.132966 0.000000 0.006110
0.429516 0.000000 0.047266
0.813962 0.000000 0.101632
1.000000 0.262854 0.248811
1.000000 0.637397 0.504913
1.000000 0.857979 0.779974
0.000000 0.000000 0.000000
0.000000 0.000000 0.000000
0.041472 0.000000 0.016671
0.183356 0.000000 0.038770
0.459005 0.000000 0.051323
0.817851 0.000000 0.103548
1.000000 0.276588 0.249913
1.000000 0.640059 0.505503
1.000000 0.858300 0.780043
0.000000 0.031988 0.105191
0.000000 0.049050 0.098737
0.073872 0.078543 0.083154
0.258558 0.000000 0.064431
0.488016 0.000000 0.055950
0.825344 0.000000 0.105888
1.000000 0.296971 0.251595
1.000000 0.644210 0.506431
1.000000 0.858806 0.780154
0.000000 0.135074 0.152567
0.000000 0.180458 0.127445
0.000000 0.254424 0.106671
0.299722 0.276965 0.075841
0.593172 0.219639 0.042961
0.853412 0.083731 0.109591
1.000000 0.347364 0.254962
1.000000 0.656695 0.509280
1.000000 0.860361 0.780496
0.000000 0.397010 0.161878
0.000000 0.460537 0.137280
0.000000 0.513204 0.114845
0.000000 0.568549 0.000000
0.625863 0.580457 0.000000
0.905460 0.533119 0.105884
1.000000 0.489036 0.276503
1.000000 0.691846 0.518928
1.000000 0.864953 0.781536
0.000000 0.767958 0.298501
0.000000 0.783933 0.297187
0.000000 0.804297 0.290353
0.000000 0.820167 0.258161
0.477193 0.836275 0.203582
0.875630 0.831762 0.148067
0.999328 0.811506 0.383798
1.000000 0.782627 0.561517
1.000000 0.878910 0.788691
0.000000 0.936528 0.604461
0.000000 0.938306 0.605618
0.000000 0.941173 0.606867
0.000000 0.945330 0.601035
0.449593 0.946287 0.577426
0.814787 0.945121 0.556084
0.971206 0.942089 0.527549
1.000000 0.931336 0.708058
1.000000 0.917733 0.819687
0.587896 0.997214 0.843436
0.595850 0.997265 0.843652
0.608677 0.997357 0.844077
0.645642 0.997697 0.845583
0.709660 0.997801 0.844230
0.802570 0.996753 0.834478
0.934701 0.995255 0.829256
1.000000 0.992428 0.823592
1.000000 0.987168 0.895384
0.858434 1.000000 0.948552
0.859365 1.000000 0.948628
0.860818 1.000000 0.948748
0.865198 1.000000 0.949117
0.877383 1.000000 0.950200
0.898661 1.000000 0.950178
0.934492 1.000000 0.948083
0.989399 1.000000 0.948141
1.000000 1.000000 0.950562
0.000000 0.000000 0.000000
0.000000 0.000000 0.000000
0.000000 0.000000 0.036860
0.105867 0.000000 0.041550
0.401553 0.000000 0.105082
0.822325 0.000000 0.169767
1.000000 0.274430 0.292563
1.000000 0.639075 0.524353
1.000000 0.858442 0.784529
0.000000 0.000000 0.043725
0.000000 0.000000 0.067636
0.035268 0.000000 0.080509
0.145768 0.000000 0.071449
0.442119 0.000000 0.128736
0.833032 0.000000 0.174453
1.000000 0.286298 0.293869
1.000000 0.641748 0.524960
1.000000 0.858763 0.784596
0.000000 0.000000 0.232851
0.000000 0.000000 0.220494
0.000000 0.041378 0.203222
0.233726 0.000000 0.161657
0.487451 0.000000 0.154760
0.843899 0.000000 0.177767
1.000000 0.304030 0.295875
1.000000 0.645914 0.525912
1.000000 0.859267 0.784703
0.000000 0.087736 0.397389
0.000000 0.125858 0.359077
0.000000 0.208262 0.320803
0.272428 0.280964 0.303873
0.583494 0.205352 0.226543
0.856454 0.058663 0.190499
1.000000 0.351030 0.300636
1.000000 0.658441 0.528837
1.000000 0.860819 0.785035
0.000000 0.338742 0.423448
0.000000 0.418157 0.393466
0.000000 0.470306 0.359662
0.000000 0.577191 0.349662
0.616209 0.597511 0.313763
0.902762 0.522350 0.244394
1.000000 0.488207 0.317899
1.000000 0.691874 0.536756
1.000000 0.865400 0.786041
0.000000 0.745055 0.422313
0.000000 0.762081 0.424801
0.000000 0.786699 0.418651
0.000000 0.821243 0.418431
0.455848 0.839446 0.372076
0.871807 0.836699 0.328982
0.996730 0.810270 0.436446
1.000000 0.781053 0.575536
1.000000 0.878553 0.791333
0.000000 0.932854 0.643810
0.000000 0.934528 0.645198
0.000000 0.937751 0.646644
0.000000 0.944607 0.650427
0.452392 0.947907 0.639216
0.808794 0.945835 0.603030
0.970207 0.942992 0.581222
1.000000 0.931146 0.721081
1.000000 0.917777 0.822471
0.578549 0.996803 0.849376
0.586802 0.996859 0.849582
0.599178 0.996943 0.849904
0.635031 0.997276 0.851087
0.706227 0.997804 0.851856
0.803091 0.997011 0.844457
0.933740 0.995348 0.836636
1.000000 0.992582 0.831740
1.000000 0.987111 0.896853
0.857278 1.000000 0.949270
0.858218 1.000000 0.949345
0.859686 1.000000 0.949464
0.864108 1.000000 0.949828
0.876407 1.000000 0.950897
0.898505 1.000000 0.951209
0.934615 1.000000 0.949273
0.989274 1.000000 0.949030
1.000000 1.000000 0.951305
0.000000 0.000000 0.088920
0.000000 0.000000 0.126895
0.000000 0.000000 0.137415
0.114900 0.000000 0.129765
0.280358 0.000000 0.100456
0.798673 0.000000 0.320649
1.000000 0.262182 0.409328
1.000000 0.643220 0.577908
1.000000 0.859798 0.797516
0.000000 0.000000 0.256961
0.000000 0.000000 0.263664
0.000000 0.000000 0.253141
0.140970 0.000000 0.222216
0.348039 0.000000 0.167737
0.813064 0.000000 0.334963
1.000000 0.278899 0.412234
1.000000 0.645930 0.578502
1.000000 0.860117 0.797577
0.000000 0.000000 0.433439
0.000000 0.000000 0.416723
0.000000 0.000000 0.389392
0.164939 0.000000 0.336250
0.441295 0.000000 0.273019
0.826171 0.000000 0.352692
1.000000 0.302838 0.416658
1.000000 0.650152 0.579436
1.000000 0.860619 0.797675
0.000000 0.019605 0.634387
0.000000 0.083826 0.594116
0.000000 0.123133 0.561486
0.147895 0.176668 0.533405
0.574373 0.049752 0.460483
0.858337 0.000000 0.403388
1.000000 0.357850 0.429290
1.000000 0.662830 0.582293
1.000000 0.862160 0.797976
0.000000 0.206140 0.756683
0.000000 0.276061 0.711755
0.000000 0.370091 0.669618
0.000000 0.500609 0.639484
0.575535 0.596293 0.630114
0.893616 0.516575 0.519817
1.000000 0.487794 0.453229
1.000000 0.696333 0.589986
1.000000 0.866710 0.798894
0.000000 0.692770 0.713267
0.000000 0.716698 0.708395
0.000000 0.742666 0.696894
0.000000 0.781847 0.679835
0.407257 0.846686 0.678930
0.857777 0.849912 0.657710
0.992100 0.806608 0.562055
1.000000 0.780991 0.622192
1.000000 0.879259 0.802783
0.000000 0.922647 0.735797
0.000000 0.924292 0.736844
0.000000 0.927607 0.737442
0.000000 0.936759 0.740084
0.419379 0.946799 0.748169
0.801156 0.947791 0.720594
0.963989 0.945703 0.703455
1.000000 0.930511 0.754816
1.000000 0.917896 0.830617
0.549178 0.995540 0.865080
0.558402 0.995612 0.865253
0.572197 0.995721 0.865524
0.609833 0.996024 0.866346
0.691469 0.997263 0.869318
0.803629 0.997542 0.868874
0.931332 0.995609 0.856674
1.000000 0.992993 0.852834
1.000000 0.986935 0.901172
0.853719 1.000000 0.951390
0.854686 1.000000 0.951462
0.856195 1.000000 0.951576
0.860744 1.000000 0.951926
0.873403 1.000000 0.952955
0.898033 1.000000 0.954232
0.934982 1.000000 0.952751
0.988898 1.000000 0.951653
1.000000 1.000000 0.953595
0.000000 0.000000 0.592434
0.000000 0.000000 0.580932
0.000000 0.000000 0.559606
0.000000 0.000000 0.522512
0.355808 0.000000 0.437463
0.604540 0.000000 0.282804
1.000000 0.100301 0.629417
1.000000 0.648923 0.702281
1.000000 0.863457 0.827610
0.000000 0.000000 0.670304
0.000000 0.000000 0.651809
0.000000 0.000000 0.632056
0.000000 0.000000 0.594156
0.382706 0.000000 0.514907
0.682041 0.000000 0.381135
1.000000 0.143345 0.635026
1.000000 0.652217 0.703210
1.000000 0.863782 0.827727
0.000000 0.000000 0.725908
0.000000 0.000000 0.717192
0.000000 0.000000 0.698227
0.000000 0.000000 0.657842
0.409506 0.000000 0.585210
0.752622 0.000000 0.476808
1.000000 0.193270 0.643717
1.000000 0.657338 0.704663
1.000000 0.864294 0.827913
0.000000 0.000000 0.801454
0.000000 0.047871 0.791687
0.000000 0.075305 0.782287
0.000000 0.103398 0.760855
0.455157 0.000000 0.698915
0.834438 0.000000 0.614039
1.000000 0.293130 0.667706
1.000000 0.672159 0.709011
1.000000 0.865866 0.828487
0.000000 0.226099 0.879661
0.000000 0.261184 0.867568
0.000000 0.293580 0.858231
0.000000 0.349787 0.848316
0.445341 0.434341 0.831413
0.903237 0.386494 0.779340
1.000000 0.460123 0.709387
1.000000 0.707441 0.720960
1.000000 0.870492 0.830216
0.000000 0.432673 0.934608
0.000000 0.516202 0.912184
0.000000 0.593120 0.893918
0.000000 0.691101 0.878128
0.000000 0.794976 0.866773
0.827843 0.846539 0.868401
0.983371 0.801319 0.799702
1.000000 0.784079 0.742303
1.000000 0.882385 0.834223
0.000000 0.900345 0.888464
0.000000 0.903401 0.887957
0.000000 0.907529 0.887535
0.000000 0.918579 0.885422
0.000000 0.930534 0.878193
0.774511 0.948935 0.882104
0.954687 0.951839 0.874563
1.000000 0.928871 0.825686
1.000000 0.915818 0.849207
0.411438 0.991004 0.899812
0.428705 0.991117 0.899958
0.453885 0.991363 0.900188
0.518930 0.992271 0.900897
0.637644 0.993457 0.902802
0.790362 0.996628 0.906934
0.928144 0.996273 0.901132
1.000000 0.994673 0.897474
1.000000 0.986616 0.913081
0.842906 1.000000 0.957321
0.843938 1.000000 0.957385
0.845554 1.000000 0.957487
0.850420 1.000000 0.957798
0.864115 1.000000 0.958742
0.893009 1.000000 0.960861
0.935239 1.000000 0.961481
0.987813 1.000000 0.959287
1.000000 1.000000 0.960350
0.000000 0.000000 0.905982
0.000000 0.000000 0.903419
0.000000 0.000000 0.899512
0.000000 0.000000 0.887184
0.282323 0.000000 0.861309
0.732937 0.000000 0.804124
0.974365 0.000000 0.657895
1.000000 0.574653 0.857844
1.000000 0.866223 0.882464
0.000000 0.000000 0.913339
0.000000 0.011279 0.910318
0.000000 0.018074 0.906434
0.000000 0.000000 0.895862
0.285889 0.000000 0.871196
0.740321 0.000000 0.818901
0.986230 0.000000 0.693624
1.000000 0.579272 0.858686
1.000000 0.866635 0.882610
0.000000 0.063035 0.922810
0.000000 0.067776 0.920083
0.000000 0.070287 0.915451
0.000000 0.076304 0.906179
0.291770 0.000000 0.882006
0.750174 0.000000 0.836365
1.000000 0.000000 0.731976
1.000000 0.585881 0.859961
1.000000 0.867283 0.882841
0.000000 0.126022 0.936596
0.000000 0.131964 0.935432
0.000000 0.136829 0.934455
0.000000 0.150699 0.926996
0.300289 0.139245 0.907603
0.772171 0.000000 0.865994
1.000000 0.000000 0.798345
1.000000 0.605755 0.863716
1.000000 0.869264 0.883550
0.000000 0.244701 0.956341
0.000000 0.250028 0.955564
0.000000 0.257744 0.953324
0.000000 0.283020 0.949478
0.296859 0.317119 0.940091
0.802446 0.276931 0.909636
1.000000 0.165849 0.866368
1.000000 0.658623 0.872284
1.000000 0.874846 0.885649
0.000000 0.521734 0.973413
0.000000 0.536030 0.971349
0.000000 0.550010 0.969987
0.000000 0.587949 0.964672
0.000000 0.652800 0.957597
0.752738 0.733798 0.948807
0.999156 0.722042 0.925963
1.000000 0.768031 0.889288
1.000000 0.889139 0.891421
0.000000 0.754857 0.984561
0.000000 0.779430 0.979364
0.000000 0.807491 0.974601
0.000000 0.844795 0.967661
0.000000 0.890780 0.961951
0.683090 0.926082 0.957177
0.943531 0.949954 0.960811
1.000000 0.927404 0.928268
1.000000 0.918270 0.898765
0.000000 0.981890 0.966530
0.000000 0.982159 0.966505
0.000000 0.982595 0.966338
0.237163 0.983797 0.965687
0.499161 0.986214 0.964499
0.711669 0.988778 0.961514
0.917271 0.996314 0.966031
0.998498 0.997097 0.965057
1.000000 0.986477 0.940483
0.809509 1.000000 0.971628
0.810767 1.000000 0.971671
0.812721 1.000000 0.971738
0.818710 1.000000 0.971946
0.835615 1.000000 0.972571
0.871628 1.000000 0.974011
0.929767 1.000000 0.977657
0.986616 1.000000 0.976271
1.000000 1.000000 0.976536
0.000000 0.230786 1.000000
0.000000 0.231074 1.000000
0.080764 0.231491 1.000000
0.194617 0.232316 1.000000
0.381985 0.229457 0.994075
0.662782 0.180258 0.980316
1.000000 0.000000 0.953175
1.000000 0.000000 0.897643
1.000000 0.837193 0.952492
0.000000 0.238860 1.000000
0.000000 0.239172 1.000000
0.083880 0.239648 1.000000
0.196644 0.240687 1.000000
0.382199 0.240264 0.995071
0.664333 0.195220 0.981334
1.000000 0.000000 0.954679
1.000000 0.000000 0.902562
1.000000 0.837866 0.952580
0.000000 0.251373 1.000000
0.000000 0.251778 1.000000
0.083931 0.252326 1.000000
0.199279 0.253684 1.000000
0.382573 0.255393 0.996656
0.666575 0.216473 0.982820
1.000000 0.000000 0.956894
1.000000 0.000000 0.909330
1.000000 0.838802 0.952724
0.000000 0.285791 1.000000
0.000000 0.286272 1.000000
0.000000 0.286943 1.000000
0.204872 0.291227 1.000000
0.381951 0.298579 1.000000
0.666277 0.268621 0.987391
1.000000 0.141357 0.963995
1.000000 0.000000 0.922330
1.000000 0.841669 0.953167
0.000000 0.357594 1.000000
0.000000 0.360550 1.000000
0.000000 0.365058 1.000000
0.159767 0.377769 1.000000
0.372261 0.391307 1.000000
0.661994 0.391874 0.994501
0.998204 0.349427 0.973858
1.000000 0.302607 0.943926
1.000000 0.849958 0.954479
0.000000 0.522247 1.000000
0.000000 0.524894 1.000000
0.000000 0.528439 1.000000
0.000000 0.537991 1.000000
0.301695 0.566395 1.000000
0.642945 0.607001 1.000000
0.970382 0.613475 0.986330
1.000000 0.595851 0.966621
1.000000 0.869522 0.958667
0.000000 0.796683 1.000000
0.000000 0.799904 1.000000
0.000000 0.803531 1.000000
0.000000 0.812387 1.000000
0.000000 0.832945 1.000000
0.556957 0.863536 1.000000
0.901924 0.897851 0.996709
1.000000 0.892155 0.986973
1.000000 0.912677 0.967929
0.000000 0.925740 1.000000
0.000000 0.928975 1.000000
0.000000 0.932651 1.000000
0.000000 0.941233 1.000000
0.000000 0.956796 1.000000
0.529768 0.969820 1.000000
0.872928 0.984718 0.999009
0.992151 0.995789 1.000000
1.000000 0.986756 0.986885
0.725878 1.000000 1.000000
0.727743 1.000000 1.000000
0.730645 1.000000 1.000000
0.739256 1.000000 1.000000
0.763967 1.000000 1.000000
0.819403 1.000000 1.000000
0.890349 1.000000 0.999777
0.981881 1.000000 1.000000
1.000000 1.000000 1.000000
0.520320 0.510781 1.000000
0.524318 0.511314 1.000000
0.530185 0.511583 1.000000
0.547751 0.512062 1.000000
0.596138 0.513172 1.000000
0.727319 0.512767 1.000000
0.914852 0.500037 1.000000
1.000000 0.474633 1.000000
1.000000 0.420112 0.985972
0.520532 0.513968 1.000000
0.524451 0.514499 1.000000
0.530211 0.515210 1.000000
0.547821 0.515704 1.000000
0.596290 0.516888 1.000000
0.727080 0.516734 1.000000
0.914192 0.504508 1.000000
1.000000 0.479505 1.000000
1.000000 0.426132 0.986441
0.520843 0.518930 1.000000
0.524611 0.519501 1.000000
0.530354 0.520376 1.000000
0.547898 0.521404 1.000000
0.596514 0.522686 1.000000
0.726677 0.522914 1.000000
0.913139 0.511483 1.000000
1.000000 0.486450 1.000000
1.000000 0.435345 0.987145
0.521253 0.533985 1.000000
0.524969 0.534564 1.000000
0.530759 0.535477 1.000000
0.548072 0.538185 1.000000
0.597024 0.540181 1.000000
0.725379 0.541215 1.000000
0.910140 0.531039 1.000000
1.000000 0.510877 1.000000
1.000000 0.462000 0.989094
0.517315 0.572060 1.000000
0.521523 0.572924 1.000000
0.527746 0.574006 1.000000
0.545663 0.576683 1.000000
0.595565 0.580464 1.000000
0.719192 0.583917 1.000000
0.904949 0.578881 1.000000
1.000000 0.569719 1.000000
1.000000 0.539524 0.992028
0.483785 0.649327 1.000000
0.488576 0.649939 1.000000
0.496020 0.650899 1.000000
0.518130 0.653772 1.000000
0.576838 0.663907 1.000000
0.706059 0.677528 1.000000
0.884744 0.684659 1.000000
1.000000 0.686973 1.000000
1.000000 0.685168 0.997893
0.411440 0.784813 1.000000
0.417933 0.785285 1.000000
0.427905 0.786019 1.000000
0.455932 0.788399 1.000000
0.517713 0.796674 1.000000
0.663276 0.811300 1.000000
0.851805 0.836138 1.000000
1.000000 0.841836 1.000000
1.000000 0.842132 1.000000
0.246256 0.932517 1.000000
0.265081 0.932788 1.000000
0.291557 0.933040 1.000000
0.355954 0.933831 1.000000
0.472541 0.935551 1.000000
0.628138 0.940649 1.000000
0.817901 0.952693 1.000000
0.973146 0.970238 1.000000
1.000000 0.970902 1.000000
0.000000 0.999331 1.000000
0.000000 0.999499 1.000000
0.000000 0.999734 1.000000
0.000000 1.000000 1.000000
0.325034 1.000000 1.000000
0.629815 1.000000 1.000000
0.822806 1.000000 1.000000
0.959483 1.000000 1.000000
1.000000 1.000000 1.000000
