Assets/Lutify-Free-LUTs-Pack/Lutify Free LUTs Pack/Print Film Pro - Print Film 2/Lutify.me-PrintFilm2-SLog3Cine-to-Rec709.cube
# Created with: fylm.ai - Colour Grading and Collaboration Software in Cloud 
# Website: https://fylm.ai 
# META
# Option: Gamut compress
# Block 1: IDT | Sony S-Log3 S-Gamut3.Cine
# Block 2: colourMatch | Blending Mode: Normal | {"ColorSpace":0,"CrossCovarianceLimit":50,"ReshapingIterations":1,"PercentSaturationShift":100,"PercentShadingShift":100,"ExtraShading":true,"PercentTint":100,"PercentModified":100}
# Block 3: HSL | Blending Mode: Normal | {"hue":{"Reds":0,"Yellows":0,"Greens":0,"Cyans":0,"Blues":0,"Magentas":0},"saturation":{"Reds":1,"Yellows":0.9,"Greens":0.95,"Cyans":1,"Blues":1,"Magentas":1},"luminance":{"Reds":0.8,"Yellows":0.95,"Greens":0.9,"Cyans":0.8,"Blues":0.8,"Magentas":0.8},"lum_sat":{"Blacks":1,"Shadows":1,"Midtones":1,"Highlights":1,"Whites":1},"sat_sat":{"10":1,"20":1,"30":1,"40":1,"50":1}}
# Block 4: LUT | Filmic Curve Response: Low Contrast 2 (100%)
# Block 5: ODT | Rec709
TITLE "Lutify.me-PrintFilm2-SLog3Cine-to-Rec709" 
LUT_3D_SIZE 9
0.000000 0.000000 0.000000
0.000000 0.000000 0.000000
0.000000 0.000000 0.000000
0.098351 0.000000 0.000000
0.345286 0.000000 0.000000
0.726268 0.000000 0.000000
1.000000 0.000000 0.130610
1.000000 0.526946 0.355080
1.000000 0.806497 0.661720
0.000000 0.000000 0.000000
0.000000 0.000000 0.000000
0.054094 0.000000 0.000000
0.159920 0.000000 0.000000
0.393747 0.000000 0.000000
0.742603 0.000000 0.000000
1.000000 0.056980 0.131826
1.000000 0.531963 0.356166
1.000000 0.807125 0.661999
0.000000 0.052552 0.000000
0.000000 0.067229 0.000000
0.103962 0.071445 0.000000
0.258794 0.000000 0.000000
0.446726 0.000000 0.000000
0.765330 0.000000 0.000000
1.000000 0.140076 0.134233
1.000000 0.539779 0.357877
1.000000 0.808113 0.662439
0.000000 0.209477 0.000000
0.000000 0.229720 0.000000
0.081874 0.238654 0.000000
0.345682 0.222969 0.000000
0.584801 0.202065 0.000000
0.815941 0.000000 0.000000
1.000000 0.256556 0.139036
1.000000 0.563128 0.364674
1.000000 0.811349 0.664169
0.000000 0.531276 0.000000
0.000000 0.544781 0.000000
0.000000 0.555903 0.000000
0.271393 0.562106 0.000000
0.660361 0.534407 0.000000
0.899719 0.537601 0.000000
1.000000 0.457232 0.137992
1.000000 0.628245 0.381597
1.000000 0.823213 0.672484
0.000000 0.832519 0.000000
0.000000 0.834691 0.000000
0.000000 0.836099 0.000000
0.307758 0.839519 0.000000
0.641904 0.838873 0.000000
0.884557 0.823136 0.000000
0.997394 0.814795 0.187172
1.000000 0.761802 0.427050
1.000000 0.852802 0.693066
0.618267 0.948995 0.461121
0.626633 0.949114 0.459769
0.638335 0.949151 0.459016
0.671644 0.948784 0.456553
0.753870 0.947158 0.445235
0.877140 0.947442 0.422483
0.977164 0.940186 0.342629
1.000000 0.932988 0.589962
1.000000 0.907199 0.746656
0.859590 0.996925 0.795616
0.860422 0.996917 0.795510
0.861730 0.996904 0.795343
0.865745 0.996866 0.794832
0.877580 0.996787 0.794925
0.910936 0.996536 0.793453
0.963110 0.995461 0.785976
1.000000 0.992429 0.748156
1.000000 0.988227 0.858711
0.955927 1.000000 0.937402
0.956078 1.000000 0.937403
0.956316 1.000000 0.937405
0.957052 1.000000 0.937412
0.959266 1.000000 0.937441
0.965515 1.000000 0.937567
0.979099 1.000000 0.937055
0.999696 1.000000 0.938172
1.000000 1.000000 0.931173
0.000000 0.000000 0.000000
0.000000 0.000000 0.000000
0.000000 0.000000 0.000000
0.102259 0.000000 0.000000
0.351017 0.000000 0.000000
0.730846 0.000000 0.031756
1.000000 0.000000 0.143753
1.000000 0.527485 0.362160
1.000000 0.806765 0.663770
0.000000 0.000000 0.000000
0.000000 0.000000 0.000000
0.042411 0.000000 0.000000
0.154614 0.000000 0.000000
0.393375 0.000000 0.000000
0.741795 0.000000 0.028426
1.000000 0.000000 0.143970
1.000000 0.531414 0.362314
1.000000 0.807393 0.664050
0.000000 0.051958 0.000000
0.000000 0.068491 0.000000
0.088186 0.079718 0.000000
0.242084 0.033964 0.000000
0.441316 0.000000 0.000000
0.761805 0.000000 0.021438
1.000000 0.138863 0.145435
1.000000 0.538520 0.363415
1.000000 0.808379 0.664489
0.000000 0.222406 0.000000
0.000000 0.243259 0.000000
0.000000 0.267024 0.000000
0.309903 0.258902 0.000000
0.577358 0.219435 0.000000
0.809001 0.000000 0.000000
1.000000 0.256487 0.151692
1.000000 0.561971 0.369565
1.000000 0.811394 0.665843
0.000000 0.540877 0.000000
0.000000 0.549147 0.000000
0.000000 0.564653 0.000000
0.204655 0.582609 0.000000
0.641739 0.564377 0.000000
0.899440 0.536394 0.000000
1.000000 0.454921 0.155295
1.000000 0.627214 0.386702
1.000000 0.823014 0.673905
0.000000 0.832215 0.000000
0.000000 0.834373 0.000000
0.000000 0.836751 0.000000
0.302519 0.841267 0.000000
0.635648 0.840873 0.000000
0.881144 0.827661 0.000000
0.996576 0.814713 0.213665
1.000000 0.761159 0.432367
1.000000 0.852644 0.694410
0.617851 0.948818 0.478721
0.626257 0.948936 0.477338
0.638089 0.948981 0.476465
0.671249 0.948969 0.475456
0.753651 0.947399 0.463298
0.876745 0.947693 0.440917
0.976542 0.940627 0.361415
1.000000 0.932959 0.595304
1.000000 0.907113 0.747726
0.859452 0.996956 0.798420
0.860285 0.996947 0.798315
0.861594 0.996934 0.798146
0.865613 0.996895 0.797635
0.877458 0.996815 0.797714
0.910840 0.996561 0.796230
0.962916 0.995492 0.788818
1.000000 0.992474 0.751529
1.000000 0.988222 0.859279
0.955871 1.000000 0.937701
0.956022 1.000000 0.937702
0.956260 1.000000 0.937704
0.956997 1.000000 0.937711
0.959213 1.000000 0.937739
0.965501 1.000000 0.937868
0.979089 1.000000 0.937352
0.999668 1.000000 0.938442
1.000000 1.000000 0.931439
0.000000 0.000000 0.000000
0.000000 0.000000 0.000000
0.000000 0.000000 0.000000
0.102952 0.000000 0.000000
0.343637 0.000000 0.031996
0.743208 0.000000 0.067359
1.000000 0.000000 0.165181
1.000000 0.528162 0.373092
1.000000 0.807109 0.667145
0.000000 0.000000 0.000000
0.000000 0.000000 0.000000
0.022817 0.000000 0.011436
0.148773 0.000000 0.027985
0.396347 0.000000 0.040749
0.753877 0.000000 0.066622
1.000000 0.000000 0.165821
1.000000 0.532235 0.373377
1.000000 0.807741 0.667421
0.000000 0.038713 0.106764
0.000000 0.055775 0.095452
0.073872 0.078543 0.083154
0.238714 0.000000 0.061470
0.442133 0.000000 0.044539
0.763180 0.000000 0.068449
1.000000 0.126618 0.165260
1.000000 0.538375 0.373636
1.000000 0.808731 0.667853
0.000000 0.201502 0.118736
0.000000 0.243550 0.103326
0.000000 0.277385 0.082420
0.300092 0.282092 0.041545
0.572584 0.220263 0.000000
0.808524 0.000000 0.067228
1.000000 0.255887 0.169250
1.000000 0.560133 0.377393
1.000000 0.811748 0.669184
0.000000 0.548441 0.000000
0.000000 0.553495 0.000000
0.000000 0.567762 0.000000
0.175482 0.590517 0.000000
0.625520 0.580364 0.000000
0.894552 0.536527 0.000000
1.000000 0.451276 0.178940
1.000000 0.625589 0.394611
1.000000 0.822697 0.676200
0.000000 0.832488 0.179761
0.000000 0.833381 0.174670
0.000000 0.835572 0.165582
0.300649 0.843357 0.134056
0.638261 0.843015 0.026338
0.877931 0.831635 0.000000
0.995349 0.814515 0.249346
1.000000 0.760140 0.440592
1.000000 0.852395 0.696512
0.617027 0.948556 0.505400
0.625496 0.948670 0.503971
0.637541 0.948729 0.502896
0.670883 0.948705 0.501848
0.753200 0.947781 0.492419
0.876716 0.948077 0.470033
0.975584 0.941259 0.389612
1.000000 0.932911 0.603449
1.000000 0.906977 0.749401
0.859235 0.997003 0.802744
0.860068 0.996995 0.802638
0.861379 0.996982 0.802471
0.865404 0.996942 0.801959
0.877265 0.996858 0.802014
0.910689 0.996600 0.800512
0.962748 0.995616 0.793346
1.000000 0.992543 0.756694
1.000000 0.988214 0.860168
0.955782 1.000000 0.938176
0.955933 1.000000 0.938176
0.956172 1.000000 0.938176
0.956910 1.000000 0.938179
0.959128 1.000000 0.938204
0.965480 1.000000 0.938340
0.979074 1.000000 0.937820
0.999643 1.000000 0.938879
1.000000 1.000000 0.931854
0.000000 0.000000 0.000000
0.000000 0.000000 0.000000
0.000000 0.000000 0.005443
0.071229 0.000000 0.023483
0.288630 0.000000 0.064216
0.740388 0.000000 0.127677
1.000000 0.000000 0.221509
1.000000 0.529864 0.405769
1.000000 0.807933 0.677900
0.000000 0.000000 0.007858
0.000000 0.000000 0.048588
0.000000 0.000000 0.063713
0.109227 0.000000 0.056668
0.357334 0.000000 0.099107
0.757920 0.000000 0.137431
1.000000 0.000000 0.223015
1.000000 0.534426 0.406504
1.000000 0.808563 0.678169
0.000000 0.000000 0.212267
0.000000 0.000000 0.204184
0.000000 0.025908 0.189579
0.193420 0.000000 0.144353
0.430147 0.000000 0.137974
0.779327 0.000000 0.149001
1.000000 0.121487 0.225118
1.000000 0.540670 0.406866
1.000000 0.809553 0.678596
0.000000 0.132600 0.362800
0.000000 0.178459 0.336637
0.000000 0.232850 0.317423
0.272428 0.280964 0.303873
0.553521 0.201680 0.220989
0.810800 0.000000 0.161382
1.000000 0.246157 0.227633
1.000000 0.559273 0.407814
1.000000 0.812571 0.679905
0.000000 0.513421 0.349864
0.000000 0.532313 0.342942
0.000000 0.565346 0.341194
0.044505 0.603545 0.319203
0.618562 0.605561 0.281791
0.886629 0.525560 0.198717
1.000000 0.437894 0.245473
1.000000 0.620403 0.419978
1.000000 0.821693 0.683792
0.000000 0.839206 0.374236
0.000000 0.839522 0.368485
0.000000 0.840720 0.359503
0.258767 0.843205 0.336907
0.623802 0.847212 0.309842
0.875879 0.840182 0.241915
0.993337 0.812795 0.342149
1.000000 0.757071 0.466033
1.000000 0.851613 0.703618
0.612541 0.949083 0.573532
0.621362 0.949011 0.572777
0.634267 0.948915 0.571551
0.668296 0.948746 0.567819
0.748175 0.948740 0.563836
0.875409 0.949019 0.548322
0.972746 0.942953 0.471622
1.000000 0.933830 0.627999
1.000000 0.906527 0.754736
0.858566 0.997149 0.815352
0.859402 0.997140 0.815260
0.860720 0.997126 0.815107
0.864762 0.997083 0.814594
0.876671 0.996991 0.814575
0.910226 0.996715 0.813029
0.962247 0.995978 0.806517
1.000000 0.992741 0.771535
1.000000 0.988187 0.862881
0.955580 1.000000 0.939594
0.955730 1.000000 0.939595
0.955967 1.000000 0.939598
0.956701 1.000000 0.939604
0.958908 1.000000 0.939632
0.965250 1.000000 0.939771
0.979025 1.000000 0.939244
0.999597 1.000000 0.940232
1.000000 1.000000 0.933124
0.000000 0.000000 0.000000
0.000000 0.000000 0.012452
0.000000 0.000000 0.052220
0.061095 0.000000 0.060555
0.197788 0.000000 0.061220
0.675413 0.000000 0.244114
1.000000 0.000000 0.339027
1.000000 0.532482 0.487628
1.000000 0.810102 0.708235
0.000000 0.000000 0.094448
0.000000 0.000000 0.130832
0.000000 0.000000 0.144696
0.086448 0.000000 0.130390
0.222659 0.000000 0.080762
0.701400 0.000000 0.272882
1.000000 0.000000 0.343843
1.000000 0.537228 0.488425
1.000000 0.810807 0.708490
0.000000 0.000000 0.366290
0.000000 0.000000 0.357821
0.000000 0.000000 0.337519
0.113504 0.000000 0.288484
0.336262 0.000000 0.194413
0.738644 0.000000 0.304378
1.000000 0.000000 0.350366
1.000000 0.544611 0.489663
1.000000 0.811865 0.708893
0.000000 0.059470 0.593675
0.000000 0.085191 0.570367
0.000000 0.108510 0.552466
0.138929 0.138260 0.516493
0.520550 0.000000 0.434661
0.805694 0.000000 0.378683
1.000000 0.232821 0.368983
1.000000 0.566664 0.493268
1.000000 0.814877 0.710131
0.000000 0.396720 0.668707
0.000000 0.427269 0.662801
0.000000 0.459839 0.655343
0.000000 0.530908 0.638542
0.575535 0.596293 0.630114
0.872267 0.506236 0.511968
1.000000 0.432842 0.401095
1.000000 0.624175 0.503344
1.000000 0.823580 0.713376
0.000000 0.811661 0.667964
0.000000 0.815699 0.667253
0.000000 0.821669 0.666294
0.000000 0.839168 0.671100
0.594110 0.858730 0.657851
0.858822 0.853395 0.626226
0.986504 0.810436 0.518388
1.000000 0.748267 0.540070
1.000000 0.849242 0.723813
0.608380 0.952330 0.721875
0.616507 0.952167 0.720551
0.628930 0.951914 0.718463
0.661083 0.951287 0.711911
0.740488 0.950326 0.697748
0.866693 0.950462 0.682737
0.967981 0.946661 0.638248
1.000000 0.932900 0.698516
1.000000 0.905672 0.771140
0.854975 0.997562 0.842835
0.855834 0.997550 0.842737
0.857185 0.997532 0.842582
0.861331 0.997478 0.842110
0.875068 0.997286 0.841032
0.906473 0.997043 0.839397
0.960160 0.996526 0.835530
1.000000 0.993411 0.810804
1.000000 0.988079 0.871853
0.955335 1.000000 0.943263
0.955486 1.000000 0.943263
0.955724 1.000000 0.943263
0.956459 1.000000 0.943265
0.958672 1.000000 0.943276
0.965024 1.000000 0.943371
0.978879 1.000000 0.942939
0.999457 1.000000 0.944181
1.000000 1.000000 0.937462
0.000000 0.000000 0.095710
0.000000 0.000000 0.119614
0.000000 0.000000 0.130511
0.046519 0.000000 0.124259
0.185790 0.000000 0.134953
0.406520 0.000000 0.121819
0.996689 0.000000 0.548780
1.000000 0.509778 0.631532
1.000000 0.814063 0.770506
0.000000 0.000000 0.303657
0.000000 0.000000 0.305621
0.000000 0.000000 0.294919
0.000000 0.000000 0.263198
0.207916 0.000000 0.177363
0.406969 0.000000 0.121755
1.000000 0.000000 0.559757
1.000000 0.515385 0.633053
1.000000 0.814764 0.770714
0.000000 0.000000 0.600269
0.000000 0.000000 0.583030
0.000000 0.000000 0.563244
0.000000 0.000000 0.511035
0.267918 0.000000 0.381056
0.407678 0.000000 0.121653
1.000000 0.000000 0.574809
1.000000 0.523931 0.635399
1.000000 0.815871 0.771044
0.000000 0.000000 0.782429
0.000000 0.000000 0.773661
0.000000 0.000000 0.763931
0.000000 0.026690 0.734474
0.364937 0.000000 0.663366
0.729999 0.000000 0.532543
1.000000 0.000000 0.613251
1.000000 0.553120 0.643008
1.000000 0.819246 0.772055
0.000000 0.262815 0.860130
0.000000 0.272830 0.856554
0.000000 0.291809 0.852165
0.000000 0.324279 0.844973
0.427067 0.378946 0.826199
0.872363 0.275458 0.765573
1.000000 0.362703 0.687721
1.000000 0.626056 0.667246
1.000000 0.829097 0.775014
0.000000 0.717843 0.878227
0.000000 0.723946 0.877283
0.000000 0.734046 0.876131
0.000000 0.768545 0.872759
0.403732 0.813024 0.867166
0.827843 0.846539 0.868401
0.975810 0.796844 0.795304
1.000000 0.749966 0.698113
1.000000 0.851837 0.780975
0.439093 0.939418 0.872479
0.455728 0.939808 0.872479
0.480376 0.940410 0.872486
0.545940 0.942414 0.872609
0.687602 0.947693 0.873698
0.851724 0.954238 0.875625
0.956111 0.952495 0.862275
1.000000 0.929751 0.801807
1.000000 0.904312 0.809925
0.853127 0.999057 0.900463
0.854121 0.999057 0.900461
0.855682 0.999056 0.900459
0.859806 0.998990 0.899985
0.870477 0.998635 0.897400
0.901001 0.997782 0.891639
0.956497 0.997076 0.887267
1.000000 0.994971 0.875277
1.000000 0.987664 0.893927
0.954674 1.000000 0.953015
0.954803 1.000000 0.952990
0.955007 1.000000 0.952949
0.955737 1.000000 0.952926
0.957964 1.000000 0.952894
0.964359 1.000000 0.952858
0.978006 1.000000 0.952190
0.998459 1.000000 0.952778
1.000000 1.000000 0.948348
0.000000 0.000000 0.297608
0.000000 0.000000 0.292001
0.000000 0.000000 0.282144
0.000000 0.000000 0.247160
0.147921 0.000000 0.256697
0.402436 0.000000 0.245482
0.684628 0.000000 0.220606
1.000000 0.310784 0.821727
1.000000 0.802476 0.851896
0.000000 0.000000 0.528298
0.000000 0.000000 0.518515
0.000000 0.000000 0.498845
0.000000 0.000000 0.446983
0.152785 0.000000 0.314595
0.403031 0.000000 0.245401
0.684790 0.000000 0.220581
1.000000 0.323908 0.823416
1.000000 0.803510 0.852172
0.000000 0.000000 0.785929
0.000000 0.000000 0.776764
0.000000 0.000000 0.762686
0.000000 0.000000 0.726283
0.153677 0.000000 0.604481
0.403971 0.000000 0.245272
0.685048 0.000000 0.220542
1.000000 0.343348 0.825940
1.000000 0.805132 0.852606
0.000000 0.000000 0.908828
0.000000 0.000000 0.905694
0.000000 0.000000 0.900922
0.000000 0.000000 0.888313
0.186991 0.000000 0.854935
0.617443 0.000000 0.771929
0.685850 0.000000 0.220389
1.000000 0.391196 0.834674
1.000000 0.810048 0.853932
0.000000 0.187770 0.951027
0.000000 0.193357 0.949449
0.000000 0.197843 0.948422
0.000000 0.213013 0.946351
0.225476 0.225109 0.932766
0.722083 0.125259 0.897550
1.000000 0.000000 0.828954
1.000000 0.497228 0.851901
1.000000 0.823976 0.857803
0.000000 0.555234 0.966562
0.000000 0.559072 0.966069
0.000000 0.566675 0.965501
0.000000 0.590954 0.962611
0.149534 0.626647 0.958574
0.742690 0.684685 0.947713
1.000000 0.637974 0.924056
1.000000 0.706314 0.883040
1.000000 0.856348 0.867859
0.000000 0.901275 0.961920
0.000000 0.902023 0.961797
0.000000 0.903404 0.961503
0.000000 0.906880 0.961099
0.485268 0.919147 0.958764
0.775887 0.934914 0.958065
0.943531 0.949954 0.960811
1.000000 0.925530 0.927368
1.000000 0.903746 0.880534
0.796781 0.992504 0.959760
0.798498 0.992561 0.959796
0.801175 0.992651 0.959854
0.809255 0.992932 0.960035
0.830135 0.993768 0.960452
0.880493 0.996129 0.961822
0.949939 0.998988 0.964967
0.999207 0.997311 0.959515
1.000000 0.987625 0.932264
0.954683 1.000000 0.975784
0.954818 1.000000 0.975778
0.955030 1.000000 0.975770
0.955688 1.000000 0.975745
0.957662 1.000000 0.975668
0.962720 1.000000 0.974891
0.975628 1.000000 0.972212
0.996930 1.000000 0.972317
1.000000 1.000000 0.968847
0.000000 0.000000 0.511356
0.000000 0.000000 0.501350
0.000000 0.000000 0.484587
0.000000 0.000000 0.432207
0.165003 0.000000 0.430715
0.354870 0.000000 0.429897
0.687676 0.000000 0.398242
0.951547 0.000000 0.352258
1.000000 0.698000 0.938624
0.000000 0.000000 0.733312
0.000000 0.000000 0.724084
0.000000 0.000000 0.707563
0.000000 0.000000 0.657579
0.158623 0.000000 0.510607
0.355332 0.000000 0.429885
0.687865 0.000000 0.398209
0.951586 0.000000 0.352249
1.000000 0.700006 0.938910
0.000000 0.000000 0.899308
0.000000 0.000000 0.896169
0.000000 0.000000 0.891084
0.000000 0.000000 0.873988
0.114233 0.000000 0.799113
0.356064 0.000000 0.429867
0.688163 0.000000 0.398157
0.951647 0.000000 0.352235
1.000000 0.703133 0.939356
0.000000 0.000000 0.975071
0.000000 0.000000 0.973758
0.000000 0.000000 0.971729
0.000000 0.000000 0.965980
0.203025 0.000000 0.953408
0.489905 0.000000 0.911963
0.689089 0.000000 0.397993
0.951837 0.000000 0.352191
1.000000 0.712461 0.940691
0.000000 0.194922 1.000000
0.000000 0.196024 1.000000
0.000000 0.197590 1.000000
0.000000 0.200197 1.000000
0.263978 0.195154 0.996497
0.575784 0.123661 0.980914
0.944642 0.000000 0.944254
0.952422 0.000000 0.352057
1.000000 0.739903 0.943611
0.000000 0.448961 1.000000
0.000000 0.450469 1.000000
0.000000 0.453102 1.000000
0.000000 0.464312 1.000000
0.311465 0.480636 1.000000
0.608852 0.507024 1.000000
0.957180 0.472726 0.985097
1.000000 0.365998 0.955793
1.000000 0.796542 0.950402
0.000000 0.814817 1.000000
0.000000 0.815535 1.000000
0.000000 0.816633 1.000000
0.000000 0.819942 1.000000
0.359202 0.829334 1.000000
0.616841 0.849606 1.000000
0.899782 0.874843 0.996648
1.000000 0.857973 0.985773
1.000000 0.886846 0.964511
0.650358 0.973551 1.000000
0.653384 0.973651 1.000000
0.658075 0.973808 1.000000
0.671747 0.974410 0.999896
0.709997 0.976238 0.999608
0.799546 0.980679 0.999332
0.911790 0.988162 0.999418
0.992151 0.995789 1.000000
1.000000 0.985848 0.986517
0.921994 1.000000 0.998821
0.922277 1.000000 0.998828
0.922724 1.000000 0.998838
0.924102 1.000000 0.998872
0.928226 1.000000 0.998976
0.940144 1.000000 0.999247
0.965982 1.000000 1.000000
0.994205 1.000000 1.000000
1.000000 1.000000 0.999747
0.157598 0.000000 0.709232
0.164485 0.000000 0.700004
0.174640 0.000000 0.684784
0.205244 0.000000 0.647651
0.271155 0.000000 0.646165
0.398028 0.000000 0.637618
0.647919 0.000000 0.619616
0.942956 0.000000 0.570269
1.000000 0.000000 0.526056
0.141807 0.000000 0.865886
0.151295 0.000000 0.860454
0.164857 0.000000 0.851573
0.202802 0.000000 0.822794
0.269410 0.000000 0.706887
0.398381 0.000000 0.637616
0.648093 0.000000 0.619597
0.943003 0.000000 0.570260
1.000000 0.000000 0.526050
0.199276 0.000000 0.964458
0.207268 0.000000 0.962846
0.219091 0.000000 0.960221
0.250750 0.000000 0.951380
0.310175 0.000000 0.910497
0.398947 0.000000 0.637612
0.648367 0.000000 0.619566
0.943076 0.000000 0.570244
1.000000 0.000000 0.526042
0.286162 0.000000 1.000000
0.294549 0.000000 1.000000
0.307412 0.000000 1.000000
0.339941 0.000000 1.000000
0.417167 0.000000 1.000000
0.535916 0.000000 0.982884
0.649219 0.000000 0.619471
0.943306 0.000000 0.570198
1.000000 0.000000 0.526016
0.351432 0.200916 1.000000
0.357846 0.199990 1.000000
0.367708 0.198501 1.000000
0.394804 0.193947 1.000000
0.466864 0.177890 1.000000
0.615155 0.080200 1.000000
0.846777 0.000000 1.000000
0.944009 0.000000 0.570053
1.000000 0.000000 0.525938
0.415018 0.463798 1.000000
0.419859 0.463817 1.000000
0.427351 0.463819 1.000000
0.449505 0.463826 1.000000
0.508137 0.464787 1.000000
0.641100 0.459188 1.000000
0.870930 0.432805 1.000000
1.000000 0.315548 1.000000
1.000000 0.000000 0.525696
0.445788 0.734323 1.000000
0.449527 0.735005 1.000000
0.455330 0.736067 1.000000
0.474280 0.738814 1.000000
0.531271 0.744004 1.000000
0.660269 0.759730 1.000000
0.839331 0.775541 1.000000
1.000000 0.766872 1.000000
1.000000 0.719852 1.000000
0.638849 0.931940 1.000000
0.641036 0.932066 1.000000
0.644447 0.932265 1.000000
0.654667 0.932873 1.000000
0.683140 0.933969 1.000000
0.745346 0.937013 1.000000
0.843942 0.946671 1.000000
0.970797 0.958319 1.000000
1.000000 0.951142 1.000000
0.863025 1.000000 1.000000
0.863376 1.000000 1.000000
0.863930 1.000000 1.000000
0.865638 1.000000 1.000000
0.870728 1.000000 1.000000
0.885002 1.000000 1.000000
0.925021 1.000000 1.000000
0.978835 1.000000 1.000000
1.000000 1.000000 1.000000
