Assets/Lutify-Free-LUTs-Pack/Lutify Free LUTs Pack/Print Film Pro - Print Film 2/Lutify.me-PrintFilm2-Cineon-to-Rec709.cube
# Created with: fylm.ai - Colour Grading and Collaboration Software in Cloud 
# Website: https://fylm.ai 
# META
# Option: Gamut compress
# Block 1: IDT | ADX10
# Block 2: colourMatch | Blending Mode: Normal | {"ColorSpace":0,"CrossCovarianceLimit":50,"ReshapingIterations":1,"PercentSaturationShift":100,"PercentShadingShift":100,"ExtraShading":true,"PercentTint":100,"PercentModified":100}
# Block 3: HSL | Blending Mode: Normal | {"hue":{"Reds":0,"Yellows":0,"Greens":0,"Cyans":0,"Blues":0,"Magentas":0},"saturation":{"Reds":1,"Yellows":0.9,"Greens":0.95,"Cyans":1,"Blues":1,"Magentas":1},"luminance":{"Reds":0.8,"Yellows":0.95,"Greens":0.9,"Cyans":0.8,"Blues":0.8,"Magentas":0.8},"lum_sat":{"Blacks":1,"Shadows":1,"Midtones":1,"Highlights":1,"Whites":1},"sat_sat":{"10":1,"20":1,"30":1,"40":1,"50":1}}
# Block 4: LUT | Filmic Curve Response: Low Contrast 2 (100%)
# Block 5: ODT | Rec709
TITLE "Lutify.me-PrintFilm2-Cineon-to-Rec709" 
LUT_3D_SIZE 9
0.000000 0.000000 0.000000
0.000000 0.000000 0.000000
0.000000 0.000000 0.000000
0.067734 0.000000 0.000000
0.166680 0.000000 0.000000
0.339879 0.000000 0.000000
0.576930 0.000000 0.035138
0.825649 0.059920 0.103210
0.993809 0.363058 0.219502
0.000000 0.000000 0.000000
0.000000 0.000000 0.000000
0.035297 0.000000 0.000000
0.114586 0.000000 0.000000
0.230620 0.000000 0.000000
0.410373 0.000000 0.017271
0.658501 0.000000 0.051034
0.894472 0.180493 0.133566
1.000000 0.437218 0.275421
0.000000 0.031084 0.000000
0.000000 0.049895 0.000000
0.073628 0.064614 0.000000
0.181275 0.074187 0.000000
0.327553 0.071991 0.000000
0.512828 0.052472 0.008994
0.745787 0.098395 0.076618
0.947196 0.297836 0.172853
1.000000 0.526631 0.329195
0.000000 0.114572 0.000000
0.000000 0.150781 0.000000
0.000000 0.192844 0.000000
0.235434 0.220953 0.000000
0.441812 0.239187 0.000000
0.646439 0.254856 0.000000
0.840641 0.320083 0.111694
0.983812 0.431429 0.223279
1.000000 0.623686 0.399383
0.000000 0.293500 0.069195
0.000000 0.345031 0.045619
0.000000 0.400131 0.000000
0.133278 0.449806 0.000000
0.501056 0.488265 0.000000
0.761573 0.517724 0.053055
0.911621 0.555405 0.179255
0.999608 0.633249 0.320513
1.000000 0.728031 0.482938
0.000000 0.575058 0.232417
0.000000 0.614017 0.239145
0.000000 0.672366 0.249957
0.000000 0.715319 0.239953
0.453491 0.752531 0.242540
0.776955 0.776201 0.268595
0.928587 0.797721 0.352047
0.991184 0.816625 0.474522
1.000000 0.848493 0.618780
0.000000 0.830148 0.505429
0.000000 0.845496 0.526675
0.000000 0.864250 0.546820
0.000000 0.890302 0.571842
0.453882 0.903252 0.575479
0.771015 0.910135 0.591469
0.917798 0.917235 0.615300
0.987632 0.925564 0.689183
1.000000 0.929951 0.764228
0.000000 0.945023 0.772862
0.000000 0.950595 0.786914
0.000000 0.956743 0.799904
0.378611 0.964979 0.812247
0.627725 0.971685 0.827544
0.787973 0.975991 0.834817
0.907102 0.978514 0.839183
0.977777 0.981780 0.854130
1.000000 0.984761 0.883408
0.600821 0.994380 0.907708
0.634959 0.996170 0.913709
0.673033 0.998185 0.919726
0.718675 1.000000 0.925498
0.774670 1.000000 0.931384
0.850965 1.000000 0.939438
0.920463 1.000000 0.945789
0.974700 1.000000 0.947528
1.000000 1.000000 0.955801
0.000000 0.000000 0.000000
0.000000 0.000000 0.000000
0.000000 0.000000 0.000000
0.081837 0.000000 0.000000
0.181940 0.000000 0.000000
0.349679 0.000000 0.035694
0.588213 0.000000 0.059629
0.834170 0.070755 0.123189
0.997135 0.369323 0.239775
0.000000 0.000000 0.000000
0.000000 0.000000 0.000000
0.055288 0.000000 0.000000
0.124619 0.000000 0.000000
0.241126 0.000000 0.023537
0.420460 0.000000 0.042044
0.668014 0.000000 0.077306
0.901378 0.188796 0.153929
1.000000 0.446510 0.291087
0.000000 0.029986 0.000000
0.000000 0.051530 0.000000
0.075630 0.070389 0.024900
0.189114 0.074952 0.035340
0.331654 0.070262 0.038683
0.520894 0.036321 0.053820
0.754064 0.096930 0.102725
0.951543 0.307382 0.191166
1.000000 0.534718 0.345240
0.000000 0.110635 0.037649
0.000000 0.151107 0.040264
0.000000 0.198282 0.037258
0.239834 0.226582 0.037826
0.447155 0.238789 0.035300
0.646768 0.253679 0.075134
0.845572 0.317563 0.140683
0.986704 0.435986 0.246605
1.000000 0.628389 0.413832
0.000000 0.286722 0.090983
0.000000 0.337480 0.093756
0.000000 0.402420 0.080682
0.157549 0.450579 0.080703
0.509621 0.488619 0.104395
0.761858 0.513625 0.132281
0.914947 0.549634 0.208718
1.000000 0.630877 0.339447
1.000000 0.729582 0.496759
0.000000 0.565454 0.242136
0.000000 0.604550 0.253909
0.000000 0.665717 0.270285
0.000000 0.711890 0.264134
0.468586 0.749365 0.273442
0.783289 0.773737 0.303059
0.931575 0.792961 0.378659
0.992714 0.812988 0.486945
1.000000 0.846939 0.625844
0.000000 0.824954 0.504341
0.000000 0.840829 0.527713
0.000000 0.860376 0.548603
0.000000 0.887118 0.575205
0.466666 0.901225 0.579801
0.778562 0.908468 0.597810
0.921275 0.915671 0.622672
0.988931 0.923058 0.694433
1.000000 0.928076 0.766425
0.000000 0.942550 0.769004
0.000000 0.948359 0.783596
0.000000 0.954780 0.797146
0.370531 0.963353 0.809815
0.629315 0.970402 0.825882
0.792572 0.974823 0.832275
0.910565 0.977482 0.838275
0.979989 0.980747 0.853073
1.000000 0.983897 0.883790
0.587122 0.993525 0.905155
0.624534 0.995319 0.911397
0.665266 0.997358 0.917568
0.713500 0.999528 0.923611
0.772003 1.000000 0.929744
0.850888 1.000000 0.938155
0.921991 1.000000 0.943929
0.976013 1.000000 0.946504
1.000000 1.000000 0.954664
0.000000 0.000000 0.000000
0.000000 0.000000 0.000000
0.000000 0.000000 0.000000
0.079110 0.000000 0.031575
0.193569 0.000000 0.053736
0.370946 0.000000 0.077035
0.608535 0.000000 0.102621
0.842157 0.092385 0.161270
1.000000 0.375055 0.275577
0.000000 0.000000 0.000000
0.000000 0.000000 0.008996
0.045983 0.000000 0.040492
0.125848 0.000000 0.053053
0.254421 0.000000 0.069033
0.441032 0.000000 0.090415
0.680909 0.000000 0.119430
0.907550 0.203806 0.187272
1.000000 0.454283 0.319025
0.000000 0.030293 0.057447
0.000000 0.052696 0.068396
0.070689 0.074466 0.079403
0.192616 0.081008 0.090251
0.342692 0.075814 0.098041
0.531411 0.051343 0.110966
0.761284 0.096192 0.144013
0.956344 0.315979 0.229158
1.000000 0.544615 0.374201
0.000000 0.106041 0.102745
0.000000 0.147822 0.112373
0.000000 0.200575 0.124091
0.239389 0.238776 0.140365
0.445780 0.247213 0.143623
0.651231 0.255116 0.147097
0.851271 0.314818 0.186280
0.990060 0.436756 0.286480
1.000000 0.636889 0.437821
0.000000 0.274205 0.161425
0.000000 0.323236 0.178907
0.000000 0.403639 0.190717
0.167126 0.455462 0.198683
0.518139 0.502576 0.217229
0.766249 0.514512 0.224278
0.918008 0.544374 0.261056
1.000000 0.628341 0.375790
1.000000 0.732447 0.520626
0.000000 0.552113 0.277874
0.000000 0.591589 0.295595
0.000000 0.654088 0.316744
0.000000 0.712337 0.332072
0.483105 0.748596 0.348780
0.793234 0.773915 0.385554
0.932670 0.789061 0.429123
0.994079 0.809065 0.511692
1.000000 0.845251 0.639670
0.000000 0.818184 0.516305
0.000000 0.834972 0.539254
0.000000 0.855443 0.561091
0.000000 0.882934 0.589817
0.485102 0.899398 0.600769
0.785145 0.907731 0.620664
0.923453 0.914747 0.648885
0.989523 0.920715 0.709674
1.000000 0.926291 0.772836
0.000000 0.939625 0.767936
0.000000 0.945806 0.782755
0.000000 0.952533 0.796656
0.359061 0.961486 0.809773
0.629583 0.968736 0.826795
0.797751 0.973829 0.833590
0.914164 0.976455 0.841250
0.982085 0.979816 0.855568
1.000000 0.982895 0.885274
0.572113 0.992593 0.902974
0.613186 0.994455 0.909471
0.656299 0.996455 0.915730
0.707630 0.998711 0.922109
0.769005 1.000000 0.928453
0.850624 1.000000 0.937317
0.923569 1.000000 0.942761
0.977537 1.000000 0.945967
1.000000 1.000000 0.954153
0.000000 0.000000 0.009469
0.000000 0.000000 0.038282
0.000000 0.000000 0.060975
0.084271 0.000000 0.082795
0.207058 0.000000 0.114911
0.383381 0.000000 0.153077
0.634232 0.000000 0.198666
0.864995 0.144603 0.248051
1.000000 0.400237 0.338689
0.000000 0.000000 0.037339
0.000000 0.000000 0.061651
0.046295 0.000000 0.087437
0.128356 0.000000 0.115651
0.267296 0.000000 0.144547
0.456756 0.000000 0.178977
0.711289 0.000000 0.219097
0.921799 0.233398 0.275063
1.000000 0.470576 0.382722
0.000000 0.030021 0.126120
0.000000 0.050495 0.147957
0.051905 0.073713 0.168485
0.195574 0.086857 0.188951
0.355703 0.091710 0.203534
0.556396 0.079236 0.217917
0.788013 0.150321 0.249587
0.963379 0.334526 0.310500
1.000000 0.556390 0.426350
0.000000 0.095913 0.204317
0.000000 0.138855 0.218050
0.000000 0.194924 0.234490
0.238855 0.241076 0.268447
0.449003 0.255571 0.268687
0.657538 0.268151 0.269555
0.858536 0.320575 0.295710
0.990378 0.441960 0.353731
1.000000 0.642620 0.487981
0.000000 0.263858 0.273202
0.000000 0.312865 0.292039
0.000000 0.386471 0.304565
0.118035 0.469027 0.335019
0.524264 0.511638 0.373127
0.759227 0.518770 0.365390
0.914099 0.546132 0.377388
1.000000 0.625926 0.436855
1.000000 0.733614 0.564057
0.000000 0.532179 0.356683
0.000000 0.572676 0.386636
0.000000 0.634374 0.419210
0.000000 0.709958 0.456799
0.485476 0.752822 0.485982
0.793951 0.777518 0.523048
0.931945 0.785773 0.519173
0.994347 0.805411 0.560954
1.000000 0.843255 0.668816
0.000000 0.808087 0.548149
0.000000 0.826347 0.573254
0.000000 0.847732 0.599651
0.000000 0.876321 0.632982
0.504547 0.898803 0.663036
0.784025 0.907235 0.678648
0.924718 0.914323 0.710984
0.989263 0.918954 0.740889
1.000000 0.924479 0.786451
0.000000 0.936032 0.772699
0.000000 0.942701 0.788094
0.000000 0.949615 0.801934
0.337410 0.958926 0.815630
0.625628 0.966654 0.833516
0.803674 0.972946 0.843364
0.917383 0.975617 0.851524
0.983321 0.979163 0.865319
1.000000 0.982112 0.890521
0.554652 0.991515 0.901769
0.599489 0.993443 0.908601
0.645369 0.995377 0.915092
0.699694 0.997770 0.921648
0.764916 1.000000 0.928252
0.849964 1.000000 0.937421
0.925337 1.000000 0.943170
0.979108 1.000000 0.946763
1.000000 1.000000 0.955001
0.000000 0.000000 0.107949
0.000000 0.000000 0.143359
0.000000 0.000000 0.182105
0.081502 0.017397 0.214062
0.215616 0.000000 0.250362
0.416584 0.000000 0.288582
0.652801 0.000000 0.346385
0.880179 0.178507 0.407426
1.000000 0.439489 0.478397
0.000000 0.000000 0.134897
0.000000 0.000000 0.177465
0.000000 0.022388 0.212143
0.115273 0.025030 0.244586
0.270475 0.000000 0.285131
0.495412 0.000000 0.325286
0.725217 0.000000 0.374916
0.937906 0.278669 0.441156
1.000000 0.503855 0.513493
0.000000 0.030952 0.237376
0.000000 0.048327 0.264757
0.000000 0.072123 0.293346
0.157999 0.093193 0.322769
0.364487 0.095721 0.355783
0.590549 0.091171 0.383573
0.800318 0.175987 0.414999
0.974798 0.378070 0.471663
1.000000 0.584229 0.554009
0.000000 0.092923 0.331617
0.000000 0.130341 0.353620
0.000000 0.178744 0.386266
0.182176 0.232824 0.423085
0.456060 0.259693 0.448354
0.686155 0.280448 0.456731
0.877073 0.358040 0.477111
1.000000 0.486518 0.514944
1.000000 0.660253 0.588031
0.000000 0.239943 0.421598
0.000000 0.289910 0.450551
0.000000 0.365855 0.477331
0.000000 0.446778 0.513916
0.503877 0.525745 0.559701
0.753577 0.540402 0.551430
0.917542 0.564919 0.551647
1.000000 0.641859 0.569165
1.000000 0.737183 0.633019
0.000000 0.519666 0.516999
0.000000 0.560655 0.547491
0.000000 0.617796 0.572320
0.000000 0.687833 0.597982
0.466372 0.760644 0.637847
0.789618 0.790055 0.673840
0.924110 0.790183 0.665994
0.989488 0.805578 0.670280
1.000000 0.842674 0.719181
0.000000 0.790964 0.623175
0.000000 0.811773 0.651901
0.000000 0.834609 0.682723
0.000000 0.864723 0.713539
0.495837 0.895360 0.751653
0.786059 0.908496 0.776609
0.922099 0.917702 0.797316
0.986308 0.919048 0.796538
1.000000 0.923378 0.813785
0.000000 0.931093 0.789621
0.000000 0.938288 0.804262
0.000000 0.945276 0.818763
0.288023 0.954941 0.833448
0.606449 0.963531 0.850589
0.809240 0.972335 0.867542
0.916971 0.975319 0.876170
0.983039 0.979429 0.890489
1.000000 0.981553 0.902532
0.533099 0.990132 0.902885
0.580033 0.992134 0.910002
0.630080 0.994128 0.916863
0.686964 0.996525 0.923493
0.758508 1.000000 0.930537
0.847814 1.000000 0.940036
0.927551 1.000000 0.947251
0.980520 1.000000 0.950755
1.000000 1.000000 0.958977
0.000000 0.000000 0.303601
0.000000 0.004557 0.352288
0.000000 0.031101 0.397124
0.000000 0.052374 0.439917
0.186507 0.065559 0.478464
0.419561 0.000000 0.518549
0.693071 0.000000 0.564359
0.902946 0.209709 0.612706
1.000000 0.464304 0.676192
0.000000 0.000000 0.331315
0.000000 0.023986 0.381365
0.000000 0.043206 0.429352
0.000000 0.066233 0.465857
0.243732 0.081507 0.509773
0.495157 0.032757 0.551350
0.766777 0.000000 0.590184
0.944846 0.307807 0.641377
1.000000 0.534831 0.697612
0.000000 0.031196 0.400287
0.000000 0.050812 0.442166
0.000000 0.078102 0.488955
0.000000 0.109522 0.526855
0.317777 0.129730 0.559878
0.586884 0.137048 0.596890
0.840147 0.194495 0.631380
0.974793 0.396938 0.672865
1.000000 0.614331 0.719046
0.000000 0.106690 0.503433
0.000000 0.132970 0.535867
0.000000 0.171217 0.568587
0.039720 0.222665 0.612106
0.397832 0.262439 0.644105
0.691353 0.304655 0.671008
0.899392 0.382694 0.689343
0.995884 0.506562 0.708824
1.000000 0.696409 0.748447
0.000000 0.239404 0.595436
0.000000 0.286441 0.625947
0.000000 0.340307 0.659828
0.000000 0.417556 0.693071
0.434210 0.494512 0.729498
0.759772 0.542953 0.750700
0.924549 0.582243 0.745157
0.997242 0.671637 0.754706
1.000000 0.771019 0.782351
0.000000 0.483895 0.670835
0.000000 0.524075 0.703562
0.000000 0.580606 0.735075
0.000000 0.661396 0.763368
0.410441 0.738529 0.791373
0.774478 0.790783 0.818338
0.917930 0.798536 0.810016
0.986687 0.816296 0.804596
1.000000 0.851175 0.814657
0.000000 0.777182 0.754617
0.000000 0.799736 0.782049
0.000000 0.826569 0.803227
0.000000 0.855007 0.820510
0.435766 0.884212 0.833238
0.778747 0.908612 0.857075
0.920811 0.921262 0.876230
0.981674 0.919908 0.870104
1.000000 0.924603 0.867117
0.000000 0.923497 0.825846
0.000000 0.930848 0.841654
0.000000 0.938146 0.856320
0.128389 0.946720 0.870426
0.565626 0.957775 0.885834
0.803744 0.969493 0.904262
0.917386 0.976990 0.914272
0.983138 0.980996 0.926105
1.000000 0.980661 0.924833
0.499678 0.987526 0.909181
0.548622 0.989891 0.916479
0.602964 0.992269 0.923641
0.665762 0.994500 0.930739
0.745464 0.998192 0.938203
0.841264 1.000000 0.947400
0.928584 1.000000 0.957711
0.980282 1.000000 0.961438
1.000000 1.000000 0.969516
0.000000 0.041487 0.558930
0.000000 0.062594 0.615521
0.000000 0.089846 0.663572
0.000000 0.121848 0.710101
0.000000 0.166585 0.742555
0.380594 0.200270 0.763335
0.669047 0.218883 0.789579
0.912069 0.316392 0.819169
1.000000 0.495598 0.838876
0.000000 0.052784 0.587726
0.000000 0.075008 0.640705
0.000000 0.105893 0.688429
0.000000 0.141458 0.731275
0.133745 0.185040 0.758893
0.458555 0.221025 0.781371
0.743887 0.255796 0.807385
0.957982 0.366067 0.829701
1.000000 0.565361 0.850808
0.000000 0.079505 0.630048
0.000000 0.101755 0.676294
0.000000 0.134837 0.721594
0.000000 0.176969 0.757632
0.239464 0.219452 0.781759
0.537938 0.255650 0.803761
0.815776 0.319371 0.826912
0.985777 0.440797 0.843415
1.000000 0.645515 0.862414
0.000000 0.129970 0.684616
0.000000 0.157311 0.724799
0.000000 0.190281 0.759976
0.000000 0.237377 0.791800
0.315251 0.291701 0.816650
0.630380 0.344855 0.833829
0.879956 0.421762 0.850893
1.000000 0.542714 0.859956
1.000000 0.711875 0.869851
0.000000 0.268557 0.762470
0.000000 0.301501 0.789679
0.000000 0.341714 0.815843
0.000000 0.402414 0.838936
0.365607 0.477127 0.858730
0.694332 0.536794 0.870441
0.915061 0.608233 0.879953
0.999089 0.695897 0.880664
1.000000 0.781638 0.884117
0.000000 0.472533 0.818278
0.000000 0.514069 0.836416
0.000000 0.565033 0.852905
0.000000 0.624551 0.870603
0.351232 0.706554 0.886311
0.721337 0.769237 0.901121
0.916210 0.803385 0.907108
0.986458 0.831209 0.904729
1.000000 0.864273 0.903252
0.000000 0.742501 0.850353
0.000000 0.765845 0.867310
0.000000 0.793910 0.883631
0.000000 0.829277 0.897736
0.388543 0.869756 0.909206
0.749075 0.896661 0.921092
0.911992 0.922651 0.935903
0.978490 0.926365 0.932004
1.000000 0.929303 0.925595
0.000000 0.919460 0.888003
0.000000 0.925228 0.901807
0.000000 0.933083 0.913443
0.000000 0.942522 0.923448
0.537344 0.953362 0.932916
0.773882 0.963067 0.939550
0.912371 0.976573 0.953244
0.982883 0.983072 0.962124
1.000000 0.981185 0.955135
0.437226 0.983951 0.925751
0.496171 0.986334 0.933184
0.559237 0.988896 0.940512
0.630559 0.991246 0.947423
0.718063 0.994145 0.954479
0.825383 0.998847 0.962853
0.921680 1.000000 0.972687
0.980962 1.000000 0.978849
1.000000 1.000000 0.985078
0.000000 0.142813 0.786090
0.000000 0.169165 0.824606
0.000000 0.202472 0.856568
0.000000 0.246262 0.881996
0.000000 0.300064 0.904287
0.324423 0.363940 0.917561
0.613816 0.424528 0.921752
0.866151 0.486500 0.926161
0.995488 0.596273 0.933140
0.000000 0.155692 0.804773
0.000000 0.182857 0.840614
0.000000 0.221412 0.869359
0.000000 0.267808 0.892956
0.111875 0.329284 0.913316
0.391527 0.390527 0.923915
0.690647 0.452830 0.926143
0.915141 0.520692 0.930711
1.000000 0.644982 0.939257
0.000000 0.176926 0.826438
0.000000 0.207781 0.857904
0.000000 0.252532 0.882995
0.000000 0.298201 0.904493
0.207795 0.362036 0.921832
0.471892 0.422809 0.929640
0.767793 0.488495 0.931024
0.949090 0.574730 0.935920
1.000000 0.688530 0.943534
0.000000 0.213399 0.849198
0.000000 0.252869 0.876241
0.000000 0.295523 0.897918
0.000000 0.345239 0.915312
0.279809 0.409191 0.929562
0.565825 0.477099 0.934565
0.832617 0.538593 0.937067
0.972506 0.637235 0.943040
1.000000 0.746432 0.947311
0.000000 0.311437 0.879502
0.000000 0.339863 0.899083
0.000000 0.378920 0.915993
0.000000 0.433903 0.926812
0.321301 0.496063 0.937625
0.638009 0.570603 0.944095
0.878455 0.636119 0.945887
0.983066 0.722382 0.950602
1.000000 0.806063 0.953709
0.000000 0.504777 0.908234
0.000000 0.542022 0.921359
0.000000 0.576371 0.931435
0.000000 0.626249 0.940021
0.313983 0.678198 0.949133
0.676157 0.751037 0.954156
0.884759 0.792211 0.957605
0.979150 0.835761 0.963268
1.000000 0.876484 0.963798
0.000000 0.724495 0.924296
0.000000 0.752201 0.934439
0.000000 0.782170 0.943027
0.000000 0.815496 0.949866
0.330348 0.848750 0.957215
0.701154 0.879424 0.963617
0.890973 0.909272 0.971754
0.976881 0.923853 0.976099
1.000000 0.936126 0.974245
0.000000 0.899623 0.936551
0.000000 0.907109 0.945979
0.000000 0.915994 0.954479
0.000000 0.926740 0.961551
0.476592 0.940324 0.967082
0.754302 0.955502 0.973841
0.898371 0.970133 0.981516
0.978718 0.982586 0.989593
1.000000 0.983567 0.987125
0.407343 0.982255 0.955581
0.476749 0.984448 0.962852
0.546964 0.986616 0.969245
0.619863 0.989334 0.975051
0.707153 0.992116 0.981134
0.814896 0.996653 0.985855
0.909169 1.000000 0.990212
0.977965 1.000000 0.996231
1.000000 1.000000 0.999751
0.000000 0.294477 0.920861
0.000000 0.329800 0.937590
0.000000 0.378669 0.950081
0.000000 0.428890 0.960734
0.219312 0.478569 0.971394
0.385458 0.546506 0.980177
0.580419 0.616584 0.985875
0.793873 0.678267 0.986427
0.939175 0.739020 0.986316
0.000000 0.310280 0.929052
0.000000 0.350667 0.943919
0.000000 0.403382 0.954972
0.000000 0.449529 0.965754
0.274624 0.506081 0.976193
0.443606 0.573073 0.983429
0.641839 0.643502 0.987717
0.847017 0.701777 0.987580
0.960279 0.765185 0.987686
0.000000 0.332511 0.937165
0.000000 0.379090 0.949808
0.000000 0.429215 0.960275
0.146214 0.475528 0.971098
0.323670 0.539543 0.980439
0.499212 0.603312 0.986218
0.695271 0.674621 0.989239
0.886653 0.731500 0.988735
0.982319 0.789316 0.988836
0.000000 0.365703 0.944908
0.000000 0.415187 0.955398
0.000000 0.460758 0.965703
0.208620 0.513234 0.976313
0.373931 0.576588 0.984333
0.553510 0.641389 0.988602
0.755175 0.704846 0.990617
0.918303 0.756964 0.990069
1.000000 0.816622 0.990218
0.000000 0.428224 0.951287
0.000000 0.471419 0.961716
0.000000 0.520151 0.972229
0.239504 0.570809 0.980979
0.425808 0.624755 0.987758
0.608564 0.691278 0.990726
0.812431 0.742229 0.991966
0.939449 0.794403 0.991709
1.000000 0.845973 0.993165
0.000000 0.563299 0.961184
0.000000 0.592574 0.969181
0.000000 0.622943 0.978171
0.212245 0.660974 0.984880
0.449171 0.711325 0.989870
0.649247 0.758166 0.992998
0.845392 0.812008 0.994182
0.953291 0.850108 0.994458
1.000000 0.886308 0.996315
0.000000 0.751879 0.967986
0.000000 0.774880 0.975068
0.000000 0.797673 0.982024
0.000000 0.818295 0.987843
0.454993 0.843724 0.990981
0.675710 0.867217 0.994788
0.862871 0.898264 0.997577
0.959848 0.918116 0.999276
1.000000 0.936248 1.000000
0.000000 0.885921 0.974333
0.000000 0.895782 0.981584
0.000000 0.906476 0.986979
0.161151 0.918193 0.990936
0.518468 0.929857 0.994661
0.727619 0.944666 0.997280
0.874587 0.960059 1.000000
0.964311 0.975004 1.000000
1.000000 0.982897 1.000000
0.286697 0.973225 0.982363
0.374665 0.974405 0.987766
0.469614 0.976981 0.991687
0.561772 0.980163 0.995289
0.667924 0.984258 0.998312
0.790783 0.989598 1.000000
0.897902 0.996730 1.000000
0.969993 1.000000 1.000000
1.000000 1.000000 1.000000
