Assets/Lutify-Free-LUTs-Pack/Lutify Free LUTs Pack/Print Film Pro - Print Film 2/Lutify.me-PrintFilm2-CanonLog2-to-Rec709.cube
# Created with: fylm.ai - Colour Grading and Collaboration Software in Cloud 
# Website: https://fylm.ai 
# META
# Option: Gamut compress
# Block 1: IDT | CanonLog2 Cinema Gamut Daylight
# Block 2: colourMatch | Blending Mode: Normal | {"ColorSpace":0,"CrossCovarianceLimit":50,"ReshapingIterations":1,"PercentSaturationShift":100,"PercentShadingShift":100,"ExtraShading":true,"PercentTint":100,"PercentModified":100}
# Block 3: HSL | Blending Mode: Normal | {"hue":{"Reds":0,"Yellows":0,"Greens":0,"Cyans":0,"Blues":0,"Magentas":0},"saturation":{"Reds":1,"Yellows":0.9,"Greens":0.95,"Cyans":1,"Blues":1,"Magentas":1},"luminance":{"Reds":0.8,"Yellows":0.95,"Greens":0.9,"Cyans":0.8,"Blues":0.8,"Magentas":0.8},"lum_sat":{"Blacks":1,"Shadows":1,"Midtones":1,"Highlights":1,"Whites":1},"sat_sat":{"10":1,"20":1,"30":1,"40":1,"50":1}}
# Block 4: LUT | Filmic Curve Response: Low Contrast 2 (100%)
# Block 5: ODT | Rec709
TITLE "Lutify.me-PrintFilm2-CanonLog2-to-Rec709" 
LUT_3D_SIZE 9
0.000000 0.000000 0.000000
0.000000 0.000000 0.000000
0.000000 0.000000 0.000000
0.138557 0.000000 0.000000
0.474145 0.000000 0.000000
0.871101 0.000000 0.082473
1.000000 0.337696 0.279745
1.000000 0.702821 0.582496
1.000000 0.894965 0.842273
0.000000 0.000000 0.000000
0.000000 0.000000 0.000000
0.063807 0.000000 0.000000
0.201844 0.000000 0.000000
0.498742 0.000000 0.000000
0.876184 0.000000 0.079872
1.000000 0.346692 0.279109
1.000000 0.704445 0.582413
1.000000 0.895135 0.842272
0.000000 0.051008 0.000000
0.000000 0.063020 0.000000
0.123947 0.072344 0.000000
0.303655 0.000000 0.000000
0.539791 0.000000 0.000000
0.886831 0.000000 0.075534
1.000000 0.361247 0.277919
1.000000 0.707242 0.582259
1.000000 0.895429 0.842268
0.000000 0.186372 0.000000
0.000000 0.218353 0.000000
0.000000 0.243068 0.000000
0.419192 0.222870 0.000000
0.678153 0.195370 0.000000
0.911564 0.130437 0.013917
1.000000 0.401180 0.274578
1.000000 0.716094 0.581678
1.000000 0.896396 0.842255
0.000000 0.484451 0.000000
0.000000 0.498719 0.000000
0.000000 0.517572 0.000000
0.393063 0.527434 0.000000
0.811709 0.503094 0.000000
0.955961 0.582942 0.000000
1.000000 0.556284 0.265325
1.000000 0.741505 0.578623
1.000000 0.899468 0.842168
0.000000 0.798390 0.000000
0.000000 0.800920 0.000000
0.000000 0.801728 0.000000
0.306584 0.800993 0.000000
0.784256 0.788275 0.000000
0.984095 0.779957 0.000000
1.000000 0.848092 0.130264
1.000000 0.829578 0.599548
1.000000 0.907572 0.841514
0.570000 0.935296 0.000000
0.582786 0.935035 0.000000
0.603553 0.934594 0.000000
0.659160 0.932972 0.000000
0.793380 0.927884 0.000000
0.958007 0.920496 0.000000
1.000000 0.917121 0.228186
1.000000 0.952285 0.608659
1.000000 0.941850 0.853483
0.876844 0.988898 0.282757
0.878075 0.988840 0.283226
0.880191 0.988740 0.284041
0.886851 0.988424 0.286693
0.909826 0.986668 0.290404
0.955718 0.984243 0.319683
1.000000 0.980995 0.454563
1.000000 0.980920 0.730330
1.000000 0.998467 0.888605
0.977376 1.000000 0.737519
0.977517 1.000000 0.737607
0.977762 1.000000 0.737762
0.978554 1.000000 0.738270
0.981130 1.000000 0.739982
0.988797 1.000000 0.745761
1.000000 1.000000 0.757616
1.000000 1.000000 0.853829
1.000000 1.000000 0.866406
0.000000 0.000000 0.000000
0.000000 0.000000 0.000000
0.000000 0.000000 0.000000
0.141156 0.000000 0.000000
0.475191 0.000000 0.025946
0.875180 0.000000 0.100218
1.000000 0.338255 0.288350
1.000000 0.702968 0.585563
1.000000 0.895005 0.842727
0.000000 0.000000 0.000000
0.000000 0.000000 0.000000
0.051668 0.000000 0.000000
0.197206 0.000000 0.000000
0.504330 0.000000 0.017942
0.877562 0.000000 0.098271
1.000000 0.346685 0.287817
1.000000 0.704594 0.585486
1.000000 0.895175 0.842726
0.000000 0.049352 0.000000
0.000000 0.062782 0.000000
0.098766 0.079191 0.000000
0.281268 0.000000 0.000000
0.535883 0.000000 0.000000
0.885569 0.000000 0.094680
1.000000 0.361864 0.286735
1.000000 0.707396 0.585343
1.000000 0.895472 0.842723
0.000000 0.188697 0.000000
0.000000 0.218988 0.000000
0.000000 0.254610 0.000000
0.389271 0.239493 0.000000
0.664452 0.230453 0.000000
0.911841 0.131428 0.071055
1.000000 0.401602 0.282674
1.000000 0.716264 0.584796
1.000000 0.896437 0.842710
0.000000 0.480589 0.000000
0.000000 0.495407 0.000000
0.000000 0.514663 0.000000
0.388136 0.525656 0.000000
0.810611 0.501236 0.000000
0.952857 0.584996 0.000000
1.000000 0.554201 0.275862
1.000000 0.741716 0.581863
1.000000 0.899509 0.842627
0.000000 0.797682 0.000000
0.000000 0.800260 0.000000
0.000000 0.801328 0.000000
0.299220 0.800697 0.000000
0.783180 0.787951 0.000000
0.984050 0.779607 0.000000
1.000000 0.848986 0.170278
1.000000 0.829252 0.602546
1.000000 0.907646 0.841986
0.568393 0.935282 0.000000
0.581269 0.935020 0.000000
0.602173 0.934578 0.000000
0.658149 0.932958 0.000000
0.792852 0.927855 0.000000
0.957916 0.920450 0.000000
1.000000 0.917063 0.227944
1.000000 0.952218 0.613536
1.000000 0.941802 0.853831
0.876696 0.988897 0.282613
0.877929 0.988839 0.283081
0.880048 0.988739 0.283896
0.886719 0.988422 0.286551
0.909698 0.986670 0.290297
0.955661 0.984239 0.319562
1.000000 0.980988 0.454450
1.000000 0.980913 0.730289
1.000000 0.998465 0.888950
0.977360 1.000000 0.737487
0.977501 1.000000 0.737576
0.977746 1.000000 0.737731
0.978539 1.000000 0.738239
0.981115 1.000000 0.739950
0.988784 1.000000 0.745730
1.000000 1.000000 0.757588
1.000000 1.000000 0.853818
1.000000 1.000000 0.866400
0.000000 0.000000 0.000000
0.000000 0.000000 0.000000
0.000000 0.000000 0.000000
0.131670 0.000000 0.012849
0.468115 0.000000 0.056327
0.882931 0.000000 0.128027
1.000000 0.341272 0.303175
1.000000 0.703575 0.591269
1.000000 0.895076 0.843515
0.000000 0.000000 0.000000
0.000000 0.000000 0.000000
0.033693 0.000000 0.016615
0.183095 0.000000 0.040874
0.504892 0.000000 0.061034
0.885288 0.000000 0.126782
1.000000 0.348916 0.302793
1.000000 0.704893 0.590854
1.000000 0.895247 0.843515
0.000000 0.034325 0.111224
0.000000 0.048371 0.104225
0.076349 0.081748 0.086093
0.277130 0.000000 0.063776
0.540203 0.000000 0.060097
0.888622 0.000000 0.125321
1.000000 0.361882 0.302023
1.000000 0.707653 0.590673
1.000000 0.895541 0.843511
0.000000 0.175768 0.053204
0.000000 0.230055 0.000000
0.000000 0.283980 0.000000
0.326880 0.299553 0.000000
0.653492 0.235314 0.000000
0.910868 0.114322 0.111539
1.000000 0.403055 0.298633
1.000000 0.716547 0.590186
1.000000 0.896508 0.843501
0.000000 0.498792 0.000000
0.000000 0.522055 0.000000
0.000000 0.542141 0.000000
0.240760 0.556639 0.000000
0.772200 0.528780 0.000000
0.949094 0.584758 0.000000
1.000000 0.550871 0.291825
1.000000 0.742354 0.587808
1.000000 0.899582 0.843426
0.000000 0.796423 0.000000
0.000000 0.799086 0.000000
0.000000 0.800622 0.000000
0.285749 0.800175 0.000000
0.781279 0.787382 0.000000
0.983970 0.778994 0.000000
1.000000 0.850261 0.223317
1.000000 0.828683 0.607704
1.000000 0.907775 0.842806
0.565556 0.935257 0.000000
0.578590 0.934993 0.000000
0.599736 0.934549 0.000000
0.656367 0.932934 0.000000
0.791923 0.927805 0.000000
0.957756 0.920370 0.000000
1.000000 0.916963 0.227520
1.000000 0.952101 0.621849
1.000000 0.941717 0.854434
0.876438 0.988894 0.282359
0.877674 0.988836 0.282828
0.879799 0.988736 0.283644
0.886487 0.988419 0.286303
0.909474 0.986674 0.290108
0.955562 0.984230 0.319348
1.000000 0.980977 0.454253
1.000000 0.980902 0.730218
1.000000 0.998463 0.889549
0.977332 1.000000 0.737432
0.977473 1.000000 0.737521
0.977718 1.000000 0.737676
0.978512 1.000000 0.738185
0.981087 1.000000 0.739895
0.988764 1.000000 0.745677
1.000000 1.000000 0.757540
1.000000 1.000000 0.853799
1.000000 1.000000 0.866391
0.000000 0.000000 0.000000
0.000000 0.000000 0.000000
0.000000 0.000000 0.014192
0.089485 0.000000 0.031002
0.397855 0.000000 0.102419
0.883376 0.000000 0.205690
1.000000 0.340902 0.351795
1.000000 0.706491 0.610734
1.000000 0.895397 0.846062
0.000000 0.000000 0.000000
0.000000 0.000000 0.042310
0.000000 0.000000 0.068477
0.128946 0.000000 0.062160
0.457737 0.000000 0.136882
0.892829 0.000000 0.208874
1.000000 0.349619 0.351366
1.000000 0.707821 0.610349
1.000000 0.895541 0.846062
0.000000 0.000000 0.223694
0.000000 0.000000 0.221814
0.000000 0.000000 0.207360
0.219497 0.000000 0.159661
0.522250 0.000000 0.174491
0.903694 0.000000 0.213586
1.000000 0.363443 0.351206
1.000000 0.710110 0.609671
1.000000 0.895793 0.846063
0.000000 0.091110 0.435358
0.000000 0.127810 0.400315
0.000000 0.220987 0.350243
0.291619 0.305311 0.326754
0.636036 0.203904 0.237745
0.915265 0.066313 0.210548
1.000000 0.404702 0.349915
1.000000 0.717384 0.607425
1.000000 0.896738 0.846060
0.000000 0.475135 0.246995
0.000000 0.526492 0.236218
0.000000 0.573812 0.223111
0.000000 0.632417 0.167984
0.683967 0.645362 0.093373
0.941635 0.581505 0.188585
1.000000 0.544853 0.341226
1.000000 0.743465 0.605724
1.000000 0.899817 0.846009
0.000000 0.829302 0.000000
0.000000 0.831861 0.000000
0.000000 0.837424 0.000000
0.000000 0.842630 0.000000
0.638459 0.841125 0.000000
0.948199 0.812596 0.000000
1.000000 0.849658 0.335767
1.000000 0.826816 0.624064
1.000000 0.908178 0.845457
0.555944 0.935175 0.000000
0.569524 0.934907 0.000000
0.591509 0.934454 0.000000
0.650369 0.932857 0.000000
0.788818 0.927650 0.000000
0.957224 0.920105 0.000000
1.000000 0.916629 0.226117
1.000000 0.951702 0.647459
1.000000 0.941439 0.856384
0.875579 0.988887 0.281521
0.876827 0.988828 0.281992
0.878972 0.988727 0.282812
0.885720 0.988408 0.285483
0.908730 0.986686 0.289485
0.955234 0.984204 0.318646
1.000000 0.980939 0.453603
1.000000 0.980862 0.729983
1.000000 0.998453 0.891474
0.977239 1.000000 0.737252
0.977380 1.000000 0.737340
0.977626 1.000000 0.737495
0.978423 1.000000 0.738005
0.980997 1.000000 0.739712
0.988696 1.000000 0.745502
1.000000 1.000000 0.757381
1.000000 1.000000 0.853734
1.000000 1.000000 0.866362
0.000000 0.000000 0.000000
0.000000 0.000000 0.000000
0.000000 0.000000 0.049600
0.071066 0.000000 0.076004
0.250841 0.000000 0.079134
0.828455 0.000000 0.354415
1.000000 0.308094 0.486918
1.000000 0.714315 0.669754
1.000000 0.896701 0.853958
0.000000 0.000000 0.036901
0.000000 0.000000 0.096406
0.000000 0.000000 0.138210
0.088687 0.000000 0.127990
0.250697 0.000000 0.078763
0.846436 0.000000 0.373697
1.000000 0.320623 0.488650
1.000000 0.715720 0.669447
1.000000 0.896847 0.853962
0.000000 0.000000 0.399119
0.000000 0.000000 0.408058
0.000000 0.000000 0.380632
0.116628 0.000000 0.314898
0.370648 0.000000 0.198427
0.871561 0.000000 0.402880
1.000000 0.340059 0.491530
1.000000 0.718140 0.668907
1.000000 0.897101 0.853970
0.000000 0.000000 0.710765
0.000000 0.000000 0.670553
0.000000 0.073047 0.620220
0.072078 0.114192 0.580255
0.590064 0.000000 0.485978
0.906909 0.000000 0.455637
1.000000 0.399760 0.500194
1.000000 0.725631 0.667096
1.000000 0.897925 0.853989
0.000000 0.215740 0.817069
0.000000 0.273990 0.778395
0.000000 0.393796 0.725730
0.000000 0.541390 0.691141
0.626682 0.647476 0.681031
0.936731 0.542051 0.559530
1.000000 0.536497 0.505865
1.000000 0.747170 0.660780
1.000000 0.900547 0.854015
0.000000 0.812023 0.566778
0.000000 0.822391 0.564330
0.000000 0.834511 0.565919
0.000000 0.859291 0.568602
0.538890 0.879838 0.539604
0.900769 0.877964 0.510211
1.000000 0.843071 0.542598
1.000000 0.821269 0.668705
1.000000 0.909019 0.853719
0.295211 0.963831 0.000000
0.321850 0.963822 0.000000
0.361688 0.963789 0.000000
0.459137 0.963636 0.000000
0.648503 0.962533 0.000000
0.881439 0.957808 0.000000
1.000000 0.946051 0.186096
1.000000 0.950724 0.720161
1.000000 0.940532 0.862436
0.872692 0.988863 0.278736
0.873978 0.988803 0.279215
0.876189 0.988699 0.280047
0.883139 0.988371 0.282757
0.906232 0.986729 0.287424
0.954138 0.984116 0.316317
1.000000 0.980812 0.451450
1.000000 0.980733 0.729208
1.000000 0.998362 0.898121
0.976930 1.000000 0.736655
0.977073 1.000000 0.736743
0.977322 1.000000 0.736899
0.978127 1.000000 0.737412
0.980696 1.000000 0.739109
0.988470 1.000000 0.744923
1.000000 1.000000 0.756855
1.000000 1.000000 0.853521
1.000000 1.000000 0.866264
0.000000 0.000000 0.000000
0.000000 0.000000 0.079295
0.000000 0.000000 0.124025
0.044281 0.000000 0.159382
0.224411 0.000000 0.175324
0.502202 0.000000 0.155415
1.000000 0.000000 0.690070
1.000000 0.693225 0.777192
1.000000 0.899178 0.875559
0.000000 0.000000 0.055564
0.000000 0.000000 0.126881
0.000000 0.000000 0.163464
0.044203 0.000000 0.159124
0.224405 0.000000 0.175105
0.502182 0.000000 0.155218
1.000000 0.000000 0.695374
1.000000 0.695739 0.777606
1.000000 0.899333 0.875571
0.000000 0.000000 0.542698
0.000000 0.000000 0.540115
0.000000 0.000000 0.516820
0.000000 0.000000 0.450638
0.265527 0.000000 0.295600
0.502148 0.000000 0.154872
1.000000 0.000000 0.705109
1.000000 0.699979 0.778318
1.000000 0.899600 0.875592
0.000000 0.000000 0.880169
0.000000 0.000000 0.853014
0.000000 0.000000 0.832312
0.000000 0.000000 0.800267
0.384952 0.000000 0.724408
0.805269 0.000000 0.558450
1.000000 0.237593 0.731864
1.000000 0.712913 0.780577
1.000000 0.900466 0.875653
0.000000 0.089906 0.953602
0.000000 0.152117 0.930901
0.000000 0.211827 0.907478
0.000000 0.279856 0.889405
0.420954 0.351425 0.869191
0.936080 0.242776 0.808710
1.000000 0.463994 0.772665
1.000000 0.749250 0.784692
1.000000 0.903227 0.875827
0.000000 0.423269 0.977527
0.000000 0.474831 0.960178
0.000000 0.601810 0.928422
0.000000 0.729390 0.907449
0.000000 0.831698 0.895416
0.866277 0.876549 0.897323
1.000000 0.826381 0.833559
1.000000 0.822536 0.795506
1.000000 0.911731 0.876063
0.000000 0.953072 0.830462
0.000000 0.953850 0.831124
0.000000 0.955084 0.832238
0.000000 0.958410 0.835092
0.544452 0.966561 0.838682
0.840485 0.969686 0.831499
0.976871 0.967779 0.822066
1.000000 0.949545 0.827325
1.000000 0.937729 0.879195
0.788719 1.000000 0.592490
0.790262 1.000000 0.592672
0.792907 1.000000 0.592989
0.801164 1.000000 0.594024
0.825283 1.000000 0.600610
0.882028 1.000000 0.610984
0.970927 1.000000 0.648544
1.000000 0.997456 0.690376
1.000000 0.998004 0.916396
0.975882 1.000000 0.734667
0.976031 1.000000 0.734757
0.976290 1.000000 0.734915
0.977126 1.000000 0.735436
0.979728 1.000000 0.737130
0.987708 1.000000 0.742997
1.000000 1.000000 0.755107
1.000000 1.000000 0.852815
1.000000 1.000000 0.865942
0.000000 0.000000 0.257543
0.000000 0.000000 0.274692
0.000000 0.000000 0.291021
0.000000 0.000000 0.309176
0.165334 0.000000 0.324586
0.480745 0.000000 0.312061
0.802483 0.000000 0.276279
1.000000 0.543564 0.895313
1.000000 0.893614 0.920010
0.000000 0.000000 0.256992
0.000000 0.000000 0.274361
0.000000 0.000000 0.290784
0.000000 0.000000 0.309038
0.165249 0.000000 0.324482
0.480728 0.000000 0.311945
0.802460 0.000000 0.276180
1.000000 0.548082 0.895755
1.000000 0.893844 0.920069
0.000000 0.000000 0.256020
0.000000 0.000000 0.273780
0.000000 0.000000 0.290368
0.000000 0.000000 0.308797
0.165098 0.000000 0.324301
0.480699 0.000000 0.311743
0.802422 0.000000 0.276008
1.000000 0.556168 0.896549
1.000000 0.894243 0.920173
0.000000 0.000000 0.941598
0.000000 0.000000 0.935592
0.000000 0.000000 0.926482
0.000000 0.000000 0.907839
0.174021 0.000000 0.861979
0.589183 0.000000 0.609877
0.802294 0.000000 0.275440
1.000000 0.581366 0.898925
1.000000 0.895546 0.920512
0.000000 0.119066 0.995485
0.000000 0.137444 0.991056
0.000000 0.159675 0.987680
0.000000 0.192634 0.979433
0.197967 0.218855 0.965536
0.771040 0.000000 0.931953
1.000000 0.000000 0.860834
1.000000 0.652903 0.905363
1.000000 0.899660 0.921572
0.000000 0.343178 1.000000
0.000000 0.384846 1.000000
0.000000 0.435676 1.000000
0.000000 0.504027 0.993351
0.000000 0.589337 0.983825
0.751225 0.669528 0.970368
1.000000 0.643049 0.948073
1.000000 0.782449 0.919828
1.000000 0.913039 0.923324
0.000000 0.657137 1.000000
0.000000 0.662627 1.000000
0.000000 0.770365 1.000000
0.000000 0.861439 0.985171
0.000000 0.914440 0.977180
0.708751 0.945141 0.972434
0.960916 0.967136 0.975078
1.000000 0.942609 0.943898
1.000000 0.940922 0.927288
0.650013 1.000000 0.944651
0.654026 1.000000 0.944696
0.660797 1.000000 0.944776
0.681428 1.000000 0.945039
0.732450 1.000000 0.945682
0.840159 1.000000 0.949301
0.949987 1.000000 0.949111
1.000000 1.000000 0.948166
1.000000 0.996377 0.948646
0.932285 1.000000 0.893725
0.932449 1.000000 0.893764
0.932733 1.000000 0.893835
0.933655 1.000000 0.894070
0.936558 1.000000 0.894832
0.945822 1.000000 0.897454
0.968073 1.000000 0.904099
1.000000 1.000000 0.920918
1.000000 1.000000 0.930024
0.000000 0.000000 0.534009
0.000000 0.000000 0.534337
0.000000 0.000000 0.534620
0.000000 0.000000 0.534833
0.136957 0.000000 0.541578
0.401007 0.000000 0.528682
0.784214 0.000000 0.486593
1.000000 0.000000 0.436912
1.000000 0.835057 0.973254
0.000000 0.000000 0.533964
0.000000 0.000000 0.534292
0.000000 0.000000 0.534581
0.000000 0.000000 0.534791
0.136830 0.000000 0.541542
0.400956 0.000000 0.528653
0.784212 0.000000 0.486561
1.000000 0.000000 0.436878
1.000000 0.835743 0.973317
0.000000 0.000000 0.533884
0.000000 0.000000 0.534213
0.000000 0.000000 0.534513
0.000000 0.000000 0.534717
0.136617 0.000000 0.541480
0.400867 0.000000 0.528602
0.784205 0.000000 0.486504
1.000000 0.000000 0.436818
1.000000 0.836951 0.973426
0.000000 0.000000 0.533620
0.000000 0.000000 0.533953
0.000000 0.000000 0.534288
0.000000 0.000000 0.534472
0.135901 0.000000 0.541275
0.400576 0.000000 0.528432
0.784186 0.000000 0.486317
1.000000 0.000000 0.436623
1.000000 0.840813 0.973775
0.000000 0.125367 1.000000
0.000000 0.127455 1.000000
0.000000 0.129497 1.000000
0.000000 0.135090 1.000000
0.188703 0.127320 1.000000
0.603111 0.000000 0.992230
0.945438 0.000000 0.916258
1.000000 0.000000 0.435978
1.000000 0.852431 0.974859
0.000000 0.390437 1.000000
0.000000 0.397550 1.000000
0.000000 0.406218 1.000000
0.000000 0.428853 1.000000
0.113649 0.477415 1.000000
0.608213 0.517351 1.000000
0.982997 0.477270 1.000000
1.000000 0.343238 0.974555
1.000000 0.877467 0.977724
0.000000 0.679444 1.000000
0.000000 0.693161 1.000000
0.000000 0.709144 1.000000
0.000000 0.740992 1.000000
0.000000 0.787956 1.000000
0.537035 0.838689 1.000000
0.906725 0.873505 1.000000
1.000000 0.865848 0.998387
1.000000 0.926085 0.983952
0.000000 0.852657 1.000000
0.000000 0.852650 1.000000
0.000000 0.852636 1.000000
0.000000 0.942775 1.000000
0.000000 0.969563 1.000000
0.564417 0.984394 1.000000
0.890798 0.995656 1.000000
1.000000 1.000000 1.000000
1.000000 0.994265 0.995972
0.883311 1.000000 0.994152
0.883719 1.000000 0.994162
0.884428 1.000000 0.994177
0.886710 1.000000 0.994230
0.893691 1.000000 0.994399
0.912685 1.000000 0.994963
0.952503 1.000000 0.996679
0.994462 1.000000 0.997186
1.000000 1.000000 0.997197
0.000000 0.000000 0.762855
0.000000 0.000000 0.762238
0.000000 0.000000 0.761193
0.000000 0.000000 0.758034
0.196516 0.000000 0.750546
0.409439 0.000000 0.741628
0.720786 0.000000 0.723834
1.000000 0.000000 0.672224
1.000000 0.000000 0.621387
0.000000 0.000000 0.762857
0.000000 0.000000 0.762240
0.000000 0.000000 0.761193
0.000000 0.000000 0.758031
0.196388 0.000000 0.750542
0.409397 0.000000 0.741618
0.720771 0.000000 0.723824
1.000000 0.000000 0.672212
1.000000 0.000000 0.621377
0.000000 0.000000 0.762859
0.000000 0.000000 0.762239
0.000000 0.000000 0.761194
0.000000 0.000000 0.758031
0.196169 0.000000 0.750535
0.409312 0.000000 0.741601
0.720748 0.000000 0.723806
1.000000 0.000000 0.672190
1.000000 0.000000 0.621360
0.000000 0.000000 0.762867
0.000000 0.000000 0.762245
0.000000 0.000000 0.761194
0.000000 0.000000 0.758025
0.195496 0.000000 0.750508
0.409045 0.000000 0.741545
0.720674 0.000000 0.723747
1.000000 0.000000 0.672119
1.000000 0.000000 0.621302
0.000000 0.000000 0.762888
0.000000 0.000000 0.762263
0.000000 0.000000 0.761202
0.000000 0.000000 0.758006
0.193210 0.000000 0.750425
0.408162 0.000000 0.741359
0.720422 0.000000 0.723554
1.000000 0.000000 0.671883
1.000000 0.000000 0.621111
0.201655 0.381479 1.000000
0.217283 0.383115 1.000000
0.241977 0.385967 1.000000
0.302944 0.392310 1.000000
0.425302 0.398168 1.000000
0.628930 0.396974 1.000000
0.912073 0.304561 1.000000
1.000000 0.000000 1.000000
1.000000 0.000000 0.620479
0.000000 0.707997 1.000000
0.000000 0.710276 1.000000
0.000000 0.713075 1.000000
0.000000 0.719800 1.000000
0.264613 0.740919 1.000000
0.596485 0.774297 1.000000
0.851048 0.794386 1.000000
1.000000 0.782641 1.000000
1.000000 0.730441 1.000000
0.000000 0.901771 1.000000
0.000000 0.903389 1.000000
0.000000 0.906216 1.000000
0.000000 0.912959 1.000000
0.000000 0.923039 1.000000
0.567896 0.933920 1.000000
0.824756 0.948316 1.000000
0.978231 0.962480 1.000000
1.000000 0.959228 1.000000
0.000000 0.951545 1.000000
0.000000 0.951544 1.000000
0.000000 0.951542 1.000000
0.000000 0.951536 1.000000
0.000000 1.000000 1.000000
0.639320 1.000000 1.000000
0.857365 1.000000 1.000000
0.974017 1.000000 1.000000
1.000000 1.000000 1.000000
