Assets/Lutify-Free-LUTs-Pack/Lutify Free LUTs Pack/Print Film Pro - Print Film 2/Lutify.me-PrintFilm2-ProTune-to-Rec709.cube
# Created with: fylm.ai - Colour Grading and Collaboration Software in Cloud 
# Website: https://fylm.ai 
# META
# Option: Gamut compress
# Block 1: IDT | GoPro ProTune Native ProTune Flat
# Block 2: colourMatch | Blending Mode: Normal | {"ColorSpace":0,"CrossCovarianceLimit":50,"ReshapingIterations":1,"PercentSaturationShift":100,"PercentShadingShift":100,"ExtraShading":true,"PercentTint":100,"PercentModified":100}
# Block 3: HSL | Blending Mode: Normal | {"hue":{"Reds":0,"Yellows":0,"Greens":0,"Cyans":0,"Blues":0,"Magentas":0},"saturation":{"Reds":1,"Yellows":0.9,"Greens":0.95,"Cyans":1,"Blues":1,"Magentas":1},"luminance":{"Reds":0.8,"Yellows":0.95,"Greens":0.9,"Cyans":0.8,"Blues":0.8,"Magentas":0.8},"lum_sat":{"Blacks":1,"Shadows":1,"Midtones":1,"Highlights":1,"Whites":1},"sat_sat":{"10":1,"20":1,"30":1,"40":1,"50":1}}
# Block 4: LUT | Filmic Curve Response: Low Contrast 2 (100%)
# Block 5: ODT | Rec709
TITLE "Lutify.me-PrintFilm2-ProTune-to-Rec709" 
LUT_3D_SIZE 33
0.000000 0.000000 0.000000
0.000000 0.000000 0.000000
0.000000 0.000000 0.000000
0.000000 0.000000 0.000000
0.000000 0.000000 0.000000
0.000000 0.000000 0.000000
0.000000 0.000000 0.000000
0.000000 0.000000 0.000000
0.000000 0.000000 0.000000
0.000000 0.000000 0.000000
0.000000 0.000000 0.000000
0.000000 0.000000 0.000000
0.002225 0.000000 0.000000
0.028006 0.000000 0.000000
0.048249 0.000000 0.000000
0.062624 0.000000 0.000000
0.074498 0.000000 0.000000
0.087993 0.000000 0.000000
0.103744 0.000000 0.000000
0.117882 0.000000 0.000000
0.132328 0.000000 0.000000
0.149971 0.000000 0.000000
0.169377 0.000000 0.000000
0.194526 0.000000 0.000000
0.222490 0.000000 0.000000
0.249914 0.000000 0.015311
0.280677 0.000000 0.024640
0.316182 0.000000 0.032732
0.351490 0.000000 0.040274
0.393126 0.000000 0.046635
0.441207 0.000000 0.052443
0.488678 0.000000 0.060687
0.537916 0.000000 0.071405
0.000000 0.000000 0.000000
0.000000 0.000000 0.000000
0.000000 0.000000 0.000000
0.000000 0.000000 0.000000
0.000000 0.000000 0.000000
0.000000 0.000000 0.000000
0.000000 0.000000 0.000000
0.000000 0.000000 0.000000
0.000000 0.000000 0.000000
0.000000 0.000000 0.000000
0.000000 0.000000 0.000000
0.000000 0.000000 0.000000
0.014447 0.000000 0.000000
0.033977 0.000000 0.000000
0.052924 0.000000 0.000000
0.066439 0.000000 0.000000
0.078385 0.000000 0.000000
0.092444 0.000000 0.000000
0.109209 0.000000 0.000000
0.121665 0.000000 0.000000
0.136506 0.000000 0.000000
0.153888 0.000000 0.000000
0.175069 0.000000 0.000000
0.200885 0.000000 0.000000
0.227875 0.000000 0.000000
0.256507 0.000000 0.017217
0.287366 0.000000 0.025722
0.321239 0.000000 0.033985
0.357436 0.000000 0.041165
0.399293 0.000000 0.047358
0.445463 0.000000 0.053294
0.492773 0.000000 0.061716
0.541815 0.000000 0.072429
0.000000 0.000000 0.000000
0.000000 0.000000 0.000000
0.000000 0.000000 0.000000
0.000000 0.000000 0.000000
0.000000 0.000000 0.000000
0.000000 0.000000 0.000000
0.000000 0.000000 0.000000
0.000000 0.000000 0.000000
0.000000 0.000000 0.000000
0.000000 0.000000 0.000000
0.000000 0.000000 0.000000
0.001429 0.000000 0.000000
0.024275 0.000000 0.000000
0.042022 0.000000 0.000000
0.058094 0.000000 0.000000
0.070790 0.000000 0.000000
0.083339 0.000000 0.000000
0.098194 0.000000 0.000000
0.114287 0.000000 0.000000
0.127319 0.000000 0.000000
0.141560 0.000000 0.000000
0.158980 0.000000 0.000000
0.180872 0.000000 0.000000
0.206696 0.000000 0.000000
0.233307 0.000000 0.000000
0.263842 0.000000 0.019280
0.295303 0.000000 0.027271
0.326223 0.000000 0.035385
0.362763 0.000000 0.042183
0.405355 0.000000 0.048197
0.451413 0.000000 0.054167
0.498249 0.000000 0.062794
0.546322 0.000000 0.073593
0.000000 0.000000 0.000000
0.000000 0.000000 0.000000
0.000000 0.000000 0.000000
0.000000 0.000000 0.000000
0.000000 0.000000 0.000000
0.000000 0.000000 0.000000
0.000000 0.000000 0.000000
0.000000 0.000000 0.000000
0.000000 0.000000 0.000000
0.000000 0.000000 0.000000
0.000000 0.000000 0.000000
0.020551 0.000000 0.000000
0.035177 0.000000 0.000000
0.050931 0.000000 0.000000
0.064237 0.000000 0.000000
0.076351 0.000000 0.000000
0.090110 0.000000 0.000000
0.105748 0.000000 0.000000
0.119914 0.000000 0.000000
0.134459 0.000000 0.000000
0.148275 0.000000 0.000000
0.164105 0.000000 0.000000
0.187736 0.000000 0.000000
0.214372 0.000000 0.000000
0.240917 0.000000 0.008899
0.271582 0.000000 0.021489
0.302959 0.000000 0.029363
0.332853 0.000000 0.036836
0.368733 0.000000 0.043235
0.412878 0.000000 0.049068
0.458252 0.000000 0.055263
0.504537 0.000000 0.063984
0.551495 0.000000 0.074911
0.000000 0.000000 0.000000
0.000000 0.000000 0.000000
0.000000 0.000000 0.000000
0.000000 0.000000 0.000000
0.000000 0.000000 0.000000
0.000000 0.000000 0.000000
0.000000 0.000000 0.000000
0.000000 0.000000 0.000000
0.000000 0.000000 0.000000
0.016264 0.000000 0.000000
0.028210 0.000000 0.000000
0.039380 0.000000 0.000000
0.049880 0.000000 0.000000
0.060466 0.000000 0.000000
0.071241 0.000000 0.000000
0.083052 0.000000 0.000000
0.097529 0.000000 0.000000
0.112310 0.000000 0.000000
0.124735 0.000000 0.000000
0.139660 0.000000 0.000000
0.155269 0.000000 0.000000
0.172008 0.000000 0.000000
0.195519 0.000000 0.000000
0.223172 0.000000 0.000000
0.250833 0.000000 0.013424
0.281034 0.000000 0.023694
0.311947 0.000000 0.031461
0.341211 0.000000 0.038159
0.375360 0.000000 0.044316
0.420013 0.000000 0.050084
0.465430 0.000000 0.056520
0.510608 0.000000 0.065400
0.557260 0.000000 0.076379
0.000000 0.000000 0.000000
0.000000 0.000000 0.000000
0.000000 0.000000 0.000000
0.000000 0.000000 0.000000
0.000000 0.000000 0.000000
0.000000 0.000000 0.000000
0.000000 0.000000 0.000000
0.002692 0.000000 0.000000
0.021666 0.000000 0.000000
0.035083 0.000000 0.000000
0.046670 0.000000 0.000000
0.056003 0.000000 0.000000
0.063579 0.000000 0.000000
0.070735 0.000000 0.000000
0.079261 0.000000 0.000000
0.091591 0.000000 0.000000
0.105745 0.000000 0.000000
0.117948 0.000000 0.000000
0.130264 0.000000 0.000000
0.144676 0.000000 0.000000
0.162366 0.000000 0.000000
0.182188 0.000000 0.000000
0.206759 0.000000 0.000000
0.232952 0.000000 0.000000
0.261406 0.000000 0.016144
0.291628 0.000000 0.025354
0.321450 0.000000 0.033355
0.350487 0.000000 0.039433
0.383479 0.000000 0.045372
0.427302 0.000000 0.051211
0.472346 0.000000 0.057985
0.517322 0.000000 0.066956
0.563663 0.000000 0.078009
0.000000 0.000000 0.000000
0.000000 0.000000 0.000000
0.000000 0.000000 0.000000
0.000000 0.000000 0.000000
0.000000 0.000000 0.000000
0.000000 0.002888 0.000000
0.000000 0.006305 0.000000
0.019965 0.004448 0.000000
0.036386 0.000000 0.000000
0.046471 0.000000 0.000000
0.054324 0.000000 0.000000
0.062711 0.000000 0.000000
0.071554 0.000000 0.000000
0.082934 0.000000 0.000000
0.095154 0.000000 0.000000
0.104044 0.000000 0.000000
0.114018 0.000000 0.000000
0.125419 0.000000 0.000000
0.138915 0.000000 0.000000
0.153241 0.000000 0.000000
0.170258 0.000000 0.000000
0.191737 0.000000 0.000000
0.217834 0.000000 0.000000
0.244826 0.000000 0.000000
0.273650 0.000000 0.017761
0.301867 0.000000 0.026115
0.330060 0.000000 0.034531
0.360390 0.000000 0.040629
0.393588 0.000000 0.046373
0.436867 0.000000 0.052308
0.480208 0.000000 0.059602
0.524910 0.000000 0.068689
0.570746 0.000000 0.079809
0.000000 0.015178 0.000000
0.000000 0.017444 0.000000
0.000000 0.019599 0.000000
0.000000 0.021985 0.000000
0.000000 0.024661 0.000000
0.000000 0.026364 0.000000
0.006929 0.027193 0.000000
0.030646 0.027118 0.000000
0.043615 0.026613 0.000000
0.052229 0.025818 0.000000
0.059291 0.023784 0.000000
0.068058 0.016574 0.000000
0.078872 0.000000 0.000000
0.092649 0.000000 0.000000
0.105638 0.000000 0.000000
0.116092 0.000000 0.000000
0.125518 0.000000 0.000000
0.135060 0.000000 0.000000
0.146725 0.000000 0.000000
0.163664 0.000000 0.000000
0.182338 0.000000 0.000000
0.202391 0.000000 0.000000
0.226773 0.000000 0.000000
0.254939 0.000000 0.000000
0.283923 0.000000 0.019064
0.310580 0.000000 0.027273
0.338278 0.000000 0.035317
0.369042 0.000000 0.041260
0.403756 0.000000 0.047385
0.445452 0.000000 0.053582
0.488832 0.000000 0.061362
0.533235 0.000000 0.070576
0.578267 0.000000 0.081557
0.000000 0.032862 0.000000
0.000000 0.034259 0.000000
0.000000 0.036370 0.000000
0.000000 0.038715 0.000000
0.000000 0.040037 0.000000
0.000000 0.040697 0.000000
0.018508 0.041075 0.000000
0.037269 0.041170 0.000000
0.047119 0.041021 0.000000
0.055042 0.040850 0.000000
0.064111 0.040308 0.000000
0.075430 0.038308 0.000000
0.087077 0.034601 0.000000
0.100221 0.028335 0.000000
0.114424 0.018337 0.000000
0.126926 0.000000 0.000000
0.138337 0.000000 0.000000
0.149080 0.000000 0.000000
0.158715 0.000000 0.000000
0.172384 0.000000 0.000000
0.192600 0.000000 0.000000
0.212553 0.000000 0.000000
0.235505 0.000000 0.000000
0.262556 0.000000 0.000000
0.291682 0.000000 0.019052
0.320117 0.000000 0.028436
0.347429 0.000000 0.035936
0.378814 0.000000 0.041790
0.413954 0.000000 0.048052
0.454894 0.000000 0.055076
0.498235 0.000000 0.063253
0.542100 0.000000 0.072190
0.586351 0.000000 0.082699
0.000000 0.045696 0.000000
0.000000 0.046446 0.000000
0.000000 0.047991 0.000000
0.000000 0.049466 0.000000
0.000000 0.050030 0.000000
0.000000 0.050295 0.000000
0.029724 0.050431 0.000000
0.042286 0.050504 0.000000
0.050658 0.050236 0.000000
0.058946 0.050021 0.000000
0.070159 0.049387 0.000000
0.082036 0.048405 0.000000
0.095748 0.046236 0.000000
0.111234 0.041647 0.000000
0.125873 0.035380 0.000000
0.138836 0.028241 0.000000
0.152793 0.010720 0.000000
0.164886 0.000000 0.000000
0.177262 0.000000 0.000000
0.188556 0.000000 0.000000
0.205623 0.000000 0.000000
0.224479 0.000000 0.000000
0.246559 0.000000 0.000000
0.273450 0.000000 0.000000
0.301930 0.000000 0.017783
0.330424 0.000000 0.028129
0.360872 0.000000 0.036288
0.390588 0.000000 0.042388
0.425150 0.000000 0.048312
0.465235 0.000000 0.055757
0.508143 0.000000 0.065011
0.551480 0.000000 0.073794
0.595058 0.000000 0.083880
0.000000 0.055422 0.000000
0.000000 0.056042 0.000000
0.000000 0.057402 0.000000
0.000000 0.058870 0.000000
0.000000 0.060119 0.000000
0.015748 0.060639 0.000000
0.034053 0.061135 0.000000
0.044475 0.060886 0.000000
0.053906 0.060068 0.000000
0.064525 0.059567 0.000000
0.075894 0.059234 0.000000
0.088164 0.058580 0.000000
0.102719 0.057408 0.000000
0.119225 0.055304 0.000000
0.135263 0.050271 0.000000
0.150073 0.043063 0.000000
0.165312 0.035419 0.000000
0.181027 0.020485 0.000000
0.195917 0.000000 0.000000
0.209992 0.000000 0.000000
0.223062 0.000000 0.000000
0.240590 0.000000 0.000000
0.261257 0.000000 0.000000
0.285420 0.000000 0.000000
0.313283 0.000000 0.015643
0.341412 0.000000 0.027224
0.372013 0.000000 0.035721
0.403528 0.000000 0.042253
0.436841 0.000000 0.048431
0.476048 0.000000 0.056212
0.518693 0.000000 0.065866
0.561651 0.000000 0.075462
0.603980 0.000000 0.085822
0.000000 0.068786 0.000000
0.000000 0.069469 0.000000
0.000000 0.070880 0.000000
0.000000 0.072328 0.000000
0.000000 0.073081 0.000000
0.012688 0.073853 0.000000
0.032340 0.074622 0.000000
0.043819 0.075110 0.000000
0.056627 0.074240 0.000000
0.068727 0.073930 0.000000
0.080875 0.073732 0.000000
0.093701 0.072992 0.000000
0.111276 0.070743 0.000000
0.129239 0.069050 0.000000
0.146787 0.066388 0.000000
0.160941 0.061254 0.000000
0.176220 0.054816 0.000000
0.193655 0.047910 0.000000
0.210735 0.037021 0.000000
0.226284 0.000000 0.000000
0.241874 0.000000 0.000000
0.257942 0.000000 0.000000
0.279126 0.000000 0.000000
0.299257 0.000000 0.000000
0.322046 0.000000 0.006667
0.350569 0.000000 0.025931
0.382060 0.000000 0.034935
0.412029 0.000000 0.041844
0.445733 0.000000 0.048132
0.487822 0.000000 0.056477
0.530322 0.000000 0.066642
0.572629 0.000000 0.076445
0.613573 0.000000 0.087421
0.000000 0.084664 0.000000
0.000000 0.085397 0.000000
0.000000 0.086192 0.000000
0.000000 0.087051 0.000000
0.000000 0.087992 0.000000
0.000000 0.088933 0.000000
0.027011 0.089751 0.000000
0.044516 0.090494 0.000000
0.058836 0.091020 0.000000
0.072235 0.091457 0.000000
0.085611 0.091674 0.000000
0.101309 0.090734 0.000000
0.120063 0.088061 0.000000
0.139544 0.085325 0.000000
0.158186 0.083845 0.000000
0.177128 0.081543 0.000000
0.193454 0.076498 0.000000
0.209544 0.069481 0.000000
0.227177 0.063047 0.000000
0.242619 0.052608 0.000000
0.258213 0.030579 0.000000
0.276524 0.000000 0.000000
0.298032 0.000000 0.000000
0.318432 0.000000 0.000000
0.336104 0.000000 0.000000
0.359309 0.000000 0.020755
0.391249 0.000000 0.033497
0.423165 0.000000 0.040905
0.454875 0.000000 0.047513
0.497407 0.000000 0.056136
0.542883 0.000000 0.067033
0.584491 0.000000 0.077332
0.623931 0.000000 0.088561
0.000000 0.101014 0.000000
0.000000 0.101838 0.000000
0.000000 0.102775 0.000000
0.000000 0.103790 0.000000
0.000000 0.104839 0.000000
0.000000 0.105808 0.000000
0.002545 0.106746 0.000000
0.041196 0.107643 0.000000
0.061856 0.107098 0.000000
0.078643 0.106747 0.000000
0.095319 0.106071 0.000000
0.113090 0.106263 0.000000
0.132139 0.104718 0.000000
0.150791 0.103264 0.000000
0.168782 0.100821 0.000000
0.189643 0.099596 0.000000
0.210219 0.097937 0.000000
0.226906 0.094007 0.000000
0.244082 0.087730 0.000000
0.263299 0.081865 0.000000
0.279649 0.070840 0.000000
0.296936 0.052355 0.000000
0.317342 0.000000 0.000000
0.338374 0.000000 0.000000
0.354095 0.000000 0.000000
0.373581 0.000000 0.015412
0.401564 0.000000 0.029210
0.434304 0.000000 0.038960
0.465156 0.000000 0.046339
0.506138 0.000000 0.054835
0.553053 0.000000 0.066734
0.596988 0.000000 0.078065
0.635113 0.000000 0.089602
0.000000 0.118749 0.000000
0.000000 0.119618 0.000000
0.000000 0.120559 0.000000
0.000000 0.121569 0.000000
0.000000 0.122640 0.000000
0.000000 0.123705 0.000000
0.000000 0.124787 0.000000
0.049946 0.124551 0.000000
0.068780 0.124096 0.000000
0.085300 0.123477 0.000000
0.102932 0.123358 0.000000
0.122407 0.123673 0.000000
0.143118 0.123426 0.000000
0.162158 0.121978 0.000000
0.180740 0.119116 0.000000
0.200406 0.116426 0.000000
0.220255 0.115632 0.000000
0.241170 0.114652 0.000000
0.258603 0.110788 0.000000
0.277742 0.104901 0.000000
0.297890 0.100135 0.000000
0.318220 0.088328 0.000000
0.339243 0.070624 0.000000
0.360570 0.037435 0.000000
0.377693 0.000000 0.000000
0.393996 0.000000 0.000000
0.418118 0.000000 0.024994
0.446446 0.000000 0.034727
0.476134 0.000000 0.043939
0.515524 0.000000 0.052913
0.562156 0.000000 0.065286
0.606100 0.000000 0.077996
0.647452 0.000000 0.090492
0.000000 0.137831 0.000000
0.000000 0.137914 0.000000
0.000000 0.137993 0.000000
0.000000 0.138717 0.000000
0.000000 0.139825 0.000000
0.000000 0.140996 0.000000
0.026661 0.142228 0.000000
0.056563 0.143219 0.000000
0.075818 0.142866 0.000000
0.093281 0.142703 0.000000
0.113580 0.142192 0.000000
0.133593 0.142832 0.000000
0.154683 0.143571 0.000000
0.175115 0.142103 0.000000
0.196288 0.139714 0.000000
0.216433 0.136553 0.000000
0.236086 0.133547 0.000000
0.253240 0.132954 0.000000
0.274150 0.132169 0.000000
0.295711 0.128324 0.000000
0.315805 0.123531 0.000000
0.335280 0.118690 0.000000
0.357502 0.107469 0.000000
0.381854 0.093145 0.000000
0.401942 0.069928 0.000000
0.421682 0.000000 0.000000
0.440916 0.000000 0.000000
0.464780 0.000000 0.028278
0.490837 0.000000 0.039327
0.525877 0.000000 0.049764
0.571921 0.000000 0.062895
0.614897 0.000000 0.077204
0.655716 0.000000 0.090190
0.000000 0.156615 0.000000
0.000000 0.157443 0.000000
0.000000 0.158311 0.000000
0.000000 0.159228 0.000000
0.000000 0.160207 0.000000
0.000000 0.161241 0.000000
0.045577 0.162319 0.000000
0.070203 0.162412 0.000000
0.090938 0.162249 0.000000
0.111703 0.161947 0.000000
0.132421 0.161450 0.000000
0.153776 0.160806 0.000000
0.172818 0.161417 0.000000
0.189622 0.162270 0.000000
0.206574 0.162291 0.000000
0.227559 0.159272 0.000000
0.249876 0.155250 0.000000
0.271647 0.151778 0.000000
0.291521 0.151605 0.000000
0.313188 0.151725 0.000000
0.333711 0.149317 0.000000
0.356804 0.145500 0.000000
0.379313 0.142167 0.000000
0.401527 0.131651 0.000000
0.426583 0.119619 0.000000
0.446965 0.096380 0.000000
0.468747 0.049856 0.000000
0.487246 0.000000 0.000000
0.512047 0.000000 0.031582
0.541815 0.000000 0.044530
0.582449 0.000000 0.059341
0.624292 0.000000 0.075595
0.664481 0.000000 0.089301
0.000000 0.181676 0.000000
0.000000 0.182321 0.000000
0.000000 0.182375 0.000000
0.000000 0.182423 0.000000
0.000000 0.182458 0.000000
0.040198 0.182469 0.000000
0.068132 0.182443 0.000000
0.090815 0.182357 0.000000
0.111707 0.182176 0.000000
0.129755 0.182958 0.000000
0.148053 0.183866 0.000000
0.167951 0.183492 0.000000
0.187526 0.181963 0.000000
0.203894 0.181894 0.000000
0.223378 0.180204 0.000000
0.243273 0.180069 0.000000
0.264640 0.177692 0.000000
0.287016 0.174093 0.000000
0.309488 0.170759 0.000000
0.330227 0.170946 0.000000
0.352167 0.171574 0.000000
0.378611 0.169236 0.000000
0.404335 0.166124 0.000000
0.427344 0.163951 0.000000
0.447050 0.156735 0.000000
0.471541 0.141484 0.000000
0.492362 0.121986 0.000000
0.515246 0.085821 0.000000
0.535314 0.000000 0.000000
0.564738 0.000000 0.035459
0.597566 0.000000 0.053870
0.630395 0.000000 0.071269
0.670577 0.000000 0.087751
0.000000 0.203510 0.000000
0.000000 0.203413 0.000000
0.000000 0.203240 0.000000
0.000000 0.202995 0.000000
0.048492 0.202685 0.000000
0.076652 0.202275 0.000000
0.098576 0.201746 0.000000
0.118878 0.201061 0.000000
0.139041 0.200172 0.000000
0.159783 0.199042 0.000000
0.175547 0.199543 0.000000
0.191598 0.200134 0.000000
0.208736 0.200571 0.000000
0.226904 0.200524 0.000000
0.246554 0.199320 0.000000
0.267069 0.198684 0.000000
0.288994 0.196414 0.000000
0.310469 0.193950 0.000000
0.331373 0.191314 0.000000
0.351851 0.188807 0.000000
0.369618 0.188028 0.000000
0.396382 0.192079 0.000000
0.425214 0.191068 0.000000
0.451303 0.190181 0.000000
0.471865 0.189016 0.000000
0.492700 0.183676 0.000000
0.518844 0.166297 0.000000
0.539702 0.146164 0.000000
0.565350 0.111653 0.000000
0.588341 0.019523 0.000000
0.618149 0.000000 0.043611
0.643936 0.000000 0.065263
0.675309 0.000000 0.083208
0.000000 0.230298 0.000000
0.000000 0.230127 0.000000
0.000000 0.229908 0.000000
0.050285 0.229629 0.000000
0.080606 0.229270 0.000000
0.101877 0.228827 0.000000
0.121645 0.228265 0.000000
0.141124 0.227551 0.000000
0.158636 0.226753 0.000000
0.174041 0.227122 0.000000
0.190464 0.227434 0.000000
0.208131 0.227616 0.000000
0.227205 0.227612 0.000000
0.247817 0.226515 0.000000
0.270316 0.223526 0.000000
0.294192 0.219941 0.000000
0.314356 0.217334 0.000000
0.333703 0.215346 0.000000
0.355595 0.212868 0.000000
0.378471 0.210025 0.000000
0.403899 0.208444 0.000000
0.424221 0.211909 0.000000
0.445584 0.214079 0.000000
0.470630 0.216018 0.000000
0.494976 0.219004 0.000000
0.519611 0.220384 0.000000
0.540799 0.211764 0.000000
0.564848 0.199766 0.000000
0.590852 0.174946 0.000000
0.617347 0.137618 0.000000
0.638095 0.079699 0.008061
0.664546 0.000000 0.055667
0.689670 0.000000 0.078479
0.000000 0.260281 0.000000
0.031960 0.260094 0.000000
0.069653 0.259859 0.000000
0.093428 0.259565 0.000000
0.112453 0.259232 0.000000
0.129068 0.258841 0.000000
0.144268 0.258648 0.000000
0.158008 0.259183 0.000000
0.172601 0.259714 0.000000
0.188191 0.260221 0.000000
0.204925 0.260674 0.000000
0.222958 0.261037 0.000000
0.242807 0.260589 0.000000
0.264793 0.258670 0.000000
0.287048 0.255984 0.000000
0.308995 0.252938 0.000000
0.331565 0.249393 0.000000
0.353396 0.245416 0.000000
0.376464 0.240739 0.000000
0.404585 0.234747 0.000000
0.436502 0.231086 0.000000
0.464533 0.230037 0.000000
0.482558 0.240083 0.000000
0.495638 0.244156 0.000000
0.519374 0.247036 0.000000
0.543408 0.252353 0.000000
0.569175 0.255482 0.000000
0.589868 0.241591 0.000000
0.614231 0.232444 0.000000
0.642400 0.210279 0.000000
0.668365 0.173782 0.000000
0.684286 0.121892 0.035093
0.710271 0.000000 0.069934
0.086406 0.289158 0.000000
0.101170 0.288996 0.000000
0.114013 0.288805 0.000000
0.125781 0.288582 0.000000
0.137952 0.288312 0.000000
0.150627 0.288009 0.000000
0.163080 0.288488 0.000000
0.176400 0.288989 0.000000
0.190701 0.289501 0.000000
0.206109 0.290008 0.000000
0.222755 0.290490 0.000000
0.240786 0.290919 0.000000
0.260829 0.290497 0.000000
0.280714 0.289024 0.000000
0.301802 0.287119 0.000000
0.324306 0.284549 0.000000
0.347617 0.281558 0.000000
0.370101 0.278235 0.000000
0.394029 0.274326 0.000000
0.422501 0.269383 0.000000
0.459071 0.262751 0.000000
0.495433 0.255496 0.000000
0.526099 0.252274 0.000000
0.538416 0.264938 0.000000
0.547228 0.272875 0.000000
0.570200 0.279009 0.000000
0.593675 0.288669 0.000000
0.618133 0.294103 0.000000
0.640980 0.279827 0.000000
0.668269 0.265420 0.000000
0.692675 0.244829 0.000000
0.714722 0.207324 0.000000
0.730375 0.159689 0.056318
0.125285 0.317653 0.000000
0.133948 0.317502 0.000000
0.143209 0.317323 0.000000
0.153124 0.317107 0.000000
0.163757 0.316848 0.000000
0.175179 0.316536 0.000000
0.187070 0.316566 0.000000
0.199500 0.317060 0.000000
0.213035 0.317575 0.000000
0.227787 0.318098 0.000000
0.243930 0.318611 0.000000
0.259580 0.319193 0.000000
0.276495 0.319750 0.000000
0.295616 0.319172 0.000000
0.316869 0.317561 0.000000
0.339678 0.315324 0.000000
0.364191 0.312488 0.000000
0.389431 0.309206 0.000000
0.413978 0.305557 0.000000
0.446262 0.300922 0.000000
0.478054 0.295678 0.000000
0.514510 0.289145 0.000000
0.546858 0.282182 0.000000
0.576898 0.275373 0.000000
0.591498 0.287953 0.000000
0.601310 0.301740 0.000000
0.617022 0.313023 0.000000
0.638678 0.329410 0.000000
0.667403 0.337350 0.000000
0.692551 0.325306 0.000000
0.721340 0.304722 0.000000
0.739158 0.284595 0.000000
0.761356 0.244980 0.000000
0.159048 0.348891 0.000000
0.166206 0.348744 0.000000
0.174077 0.348570 0.000000
0.182717 0.348361 0.000000
0.192057 0.348236 0.000000
0.201754 0.348634 0.000000
0.212460 0.349064 0.000000
0.223921 0.349535 0.000000
0.235261 0.350081 0.000000
0.247786 0.350655 0.000000
0.261604 0.351245 0.000000
0.276835 0.351835 0.000000
0.293611 0.352404 0.000000
0.312548 0.352061 0.000000
0.333785 0.350626 0.000000
0.357071 0.348981 0.000000
0.381959 0.346513 0.000000
0.408931 0.343544 0.000000
0.439563 0.339896 0.000000
0.469955 0.335771 0.000000
0.501422 0.330990 0.000000
0.533511 0.325505 0.000000
0.563077 0.319578 0.000000
0.593249 0.312800 0.000000
0.622298 0.306154 0.000000
0.642310 0.308936 0.000000
0.651696 0.332801 0.000000
0.659280 0.350063 0.000000
0.685790 0.371545 0.000000
0.715819 0.375054 0.000000
0.739598 0.368532 0.000000
0.764850 0.352951 0.000000
0.783488 0.329382 0.000000
0.190320 0.385607 0.000000
0.195449 0.385888 0.000000
0.201228 0.386226 0.000000
0.207715 0.386607 0.000000
0.214979 0.387033 0.000000
0.223098 0.387507 0.000000
0.232150 0.388032 0.000000
0.242222 0.388607 0.000000
0.253412 0.389234 0.000000
0.265821 0.389907 0.000000
0.279563 0.390620 0.000000
0.295333 0.390503 0.000000
0.313041 0.389694 0.000000
0.332436 0.388701 0.000000
0.353679 0.387479 0.000000
0.376940 0.385974 0.000000
0.402235 0.383976 0.000000
0.430810 0.381138 0.000000
0.462603 0.377697 0.000000
0.494437 0.373787 0.000000
0.525420 0.369437 0.000000
0.555227 0.364646 0.000000
0.584393 0.359323 0.000000
0.613061 0.353406 0.000000
0.640994 0.346846 0.000000
0.669149 0.340343 0.000000
0.696458 0.337994 0.000000
0.697257 0.363568 0.000000
0.707637 0.389681 0.000000
0.734506 0.412160 0.000000
0.758567 0.415397 0.000000
0.782316 0.405785 0.000000
0.803201 0.397660 0.000000
0.216673 0.426654 0.000000
0.221544 0.426869 0.000000
0.227050 0.427113 0.000000
0.233261 0.427387 0.000000
0.240250 0.427693 0.000000
0.248096 0.428032 0.000000
0.256885 0.428407 0.000000
0.267368 0.428561 0.000000
0.279544 0.428170 0.000000
0.292336 0.427709 0.000000
0.306471 0.427154 0.000000
0.322067 0.426484 0.000000
0.339255 0.425672 0.000000
0.358174 0.424687 0.000000
0.378982 0.423488 0.000000
0.400192 0.422121 0.000000
0.427398 0.420353 0.000000
0.456284 0.417742 0.000000
0.486810 0.414737 0.000000
0.518977 0.411236 0.000000
0.549979 0.407400 0.000000
0.577743 0.403391 0.000000
0.605377 0.398947 0.000000
0.632623 0.394044 0.000000
0.660366 0.388525 0.000000
0.688444 0.382319 0.000000
0.716702 0.376201 0.000000
