Assets/Lutify-Free-LUTs-Pack/Lutify Free LUTs Pack/Print Film Pro - Print Film 2/Lutify.me-PrintFilm2-LogC3-to-Rec709.cube
# Created with: fylm.ai - Colour Grading and Collaboration Software in Cloud 
# Website: https://fylm.ai 
# META
# Option: Gamut compress
# Block 1: IDT | Arri Alexa - LogC3
# Block 2: colourMatch | Blending Mode: Normal | {"ColorSpace":0,"CrossCovarianceLimit":50,"ReshapingIterations":1,"PercentSaturationShift":100,"PercentShadingShift":100,"ExtraShading":true,"PercentTint":100,"PercentModified":100}
# Block 3: HSL | Blending Mode: Normal | {"hue":{"Reds":0,"Yellows":0,"Greens":0,"Cyans":0,"Blues":0,"Magentas":0},"saturation":{"Reds":1,"Yellows":0.9,"Greens":0.95,"Cyans":1,"Blues":1,"Magentas":1},"luminance":{"Reds":0.8,"Yellows":0.95,"Greens":0.9,"Cyans":0.8,"Blues":0.8,"Magentas":0.8},"lum_sat":{"Blacks":1,"Shadows":1,"Midtones":1,"Highlights":1,"Whites":1},"sat_sat":{"10":1,"20":1,"30":1,"40":1,"50":1}}
# Block 4: LUT | Filmic Curve Response: Low Contrast 2 (100%)
# Block 5: ODT | Rec709
TITLE "Lutify.me-PrintFilm2-LogC3-to-Rec709" 
LUT_3D_SIZE 5
0.000000 0.000000 0.000000
0.000000 0.000000 0.000000
0.493962 0.000000 0.000000
1.000000 0.477278 0.296109
1.000000 0.920345 0.850420
0.000000 0.054040 0.000000
0.135045 0.087236 0.000000
0.571845 0.000000 0.000000
1.000000 0.504455 0.299683
1.000000 0.920924 0.850759
0.000000 0.553164 0.000000
0.000000 0.576974 0.000000
0.729550 0.596887 0.000000
1.000000 0.700619 0.341823
1.000000 0.925534 0.853883
0.663590 0.960046 0.364658
0.680152 0.960037 0.365241
0.783525 0.960358 0.374647
0.992204 0.959208 0.448706
1.000000 0.968230 0.887044
0.967134 1.000000 0.933447
0.967373 1.000000 0.933507
0.969185 1.000000 0.933898
0.986815 1.000000 0.938100
1.000000 1.000000 0.959249
0.000000 0.000000 0.000000
0.000000 0.000000 0.000000
0.501042 0.000000 0.071378
1.000000 0.475210 0.319873
1.000000 0.920181 0.851478
0.000000 0.037048 0.123280
0.090828 0.096564 0.101918
0.559630 0.000000 0.075192
1.000000 0.503157 0.323789
1.000000 0.920762 0.851814
0.000000 0.582430 0.000000
0.000000 0.603861 0.000000
0.694385 0.647601 0.000000
1.000000 0.695836 0.369847
1.000000 0.925373 0.854899
0.662750 0.960799 0.427712
0.679444 0.960773 0.427914
0.782405 0.960733 0.432301
0.990587 0.960140 0.495680
1.000000 0.968137 0.887792
0.967111 1.000000 0.934413
0.967354 1.000000 0.934472
0.969084 1.000000 0.934885
0.986706 1.000000 0.938977
1.000000 1.000000 0.959718
0.000000 0.000000 0.000000
0.000000 0.000000 0.047899
0.295294 0.000000 0.124827
1.000000 0.476414 0.531063
1.000000 0.918882 0.859533
0.000000 0.000000 0.368837
0.000000 0.000000 0.369803
0.482888 0.000000 0.352495
1.000000 0.498843 0.536228
1.000000 0.919472 0.859846
0.000000 0.407225 0.723615
0.000000 0.481017 0.706174
0.640191 0.660900 0.693429
1.000000 0.663059 0.549064
1.000000 0.924094 0.862625
0.642272 0.964593 0.712193
0.658724 0.964318 0.709506
0.765621 0.963484 0.702464
0.980561 0.964692 0.705671
1.000000 0.967377 0.893630
0.966908 1.000000 0.941508
0.967163 1.000000 0.941555
0.968917 1.000000 0.941873
0.985885 1.000000 0.945208
1.000000 1.000000 0.963086
0.000000 0.000000 0.266300
0.000000 0.000000 0.277764
0.175015 0.000000 0.298599
1.000000 0.000000 0.788258
1.000000 0.925294 0.927508
0.000000 0.000000 0.268632
0.000000 0.000000 0.278362
0.176906 0.000000 0.298468
1.000000 0.000000 0.830575
1.000000 0.925845 0.927702
0.000000 0.169469 0.968896
0.000000 0.183240 0.966471
0.285190 0.220884 0.951780
1.000000 0.307404 0.914103
1.000000 0.930184 0.929224
0.000000 0.911505 0.974526
0.000000 0.913463 0.974229
0.489605 0.928747 0.971900
0.959843 0.966317 0.974293
1.000000 0.959915 0.935500
0.965016 1.000000 0.978881
0.965236 1.000000 0.978851
0.966955 1.000000 0.978617
0.983103 1.000000 0.976998
1.000000 1.000000 0.982942
0.211537 0.000000 0.711100
0.225451 0.000000 0.711001
0.310535 0.000000 0.705292
0.723879 0.000000 0.682812
1.000000 0.569450 1.000000
0.213154 0.000000 0.711076
0.226976 0.000000 0.710977
0.311546 0.000000 0.705183
0.724189 0.000000 0.682800
1.000000 0.582317 1.000000
0.225713 0.000000 0.710885
0.238813 0.000000 0.710786
0.319618 0.000000 0.704311
0.726672 0.000000 0.682705
1.000000 0.663072 1.000000
0.514552 0.734231 1.000000
0.525901 0.735523 1.000000
0.592828 0.745073 1.000000
0.871783 0.784693 1.000000
1.000000 0.878900 1.000000
0.878651 1.000000 1.000000
0.879513 1.000000 1.000000
0.886080 1.000000 1.000000
0.937965 1.000000 1.000000
1.000000 1.000000 1.000000
