Assets/Lutify-Free-LUTs-Pack/Lutify Free LUTs Pack/Print Film Pro - Print Film 2/Lutify.me-PrintFilm2-RWG-to-Rec709.cube
# Created with: fylm.ai - Colour Grading and Collaboration Software in Cloud 
# Website: https://fylm.ai 
# META
# Option: Gamut compress
# Block 1: IDT | RED REDWideGamutRGB Log3G10
# Block 2: colourMatch | Blending Mode: Normal | {"ColorSpace":0,"CrossCovarianceLimit":50,"ReshapingIterations":1,"PercentSaturationShift":100,"PercentShadingShift":100,"ExtraShading":true,"PercentTint":100,"PercentModified":100}
# Block 3: HSL | Blending Mode: Normal | {"hue":{"Reds":0,"Yellows":0,"Greens":0,"Cyans":0,"Blues":0,"Magentas":0},"saturation":{"Reds":1,"Yellows":0.9,"Greens":0.95,"Cyans":1,"Blues":1,"Magentas":1},"luminance":{"Reds":0.8,"Yellows":0.95,"Greens":0.9,"Cyans":0.8,"Blues":0.8,"Magentas":0.8},"lum_sat":{"Blacks":1,"Shadows":1,"Midtones":1,"Highlights":1,"Whites":1},"sat_sat":{"10":1,"20":1,"30":1,"40":1,"50":1}}
# Block 4: LUT | Filmic Curve Response: Low Contrast 2 (100%)
# Block 5: ODT | Rec709
TITLE "Lutify.me-PrintFilm2-RWG-to-Rec709" 
LUT_3D_SIZE 5
0.000000 0.000000 0.000000
0.069820 0.000000 0.000000
0.757496 0.000000 0.000000
1.000000 0.691332 0.328562
1.000000 0.979701 0.910325
0.000000 0.087371 0.000000
0.228595 0.125881 0.000000
0.811418 0.000000 0.000000
1.000000 0.701757 0.323886
1.000000 0.979843 0.910322
0.000000 0.668656 0.000000
0.000000 0.701086 0.000000
0.943311 0.689282 0.000000
1.000000 0.802763 0.222883
1.000000 0.981626 0.910239
0.657942 0.986268 0.041035
0.685937 0.985518 0.068119
0.865382 0.979290 0.166659
1.000000 0.972449 0.623680
1.000000 0.998019 0.904364
0.987877 1.000000 0.879935
0.988166 1.000000 0.880050
0.991568 1.000000 0.881518
1.000000 1.000000 0.898561
1.000000 1.000000 0.918159
0.000000 0.000000 0.000000
0.058783 0.000000 0.023886
0.766619 0.000000 0.085590
1.000000 0.687013 0.360172
1.000000 0.979645 0.910940
0.000000 0.055383 0.243213
0.153924 0.162003 0.175650
0.789132 0.000000 0.065152
1.000000 0.697574 0.356416
1.000000 0.979788 0.910937
0.000000 0.658341 0.000000
0.000000 0.696542 0.000000
0.942942 0.685340 0.000000
1.000000 0.799737 0.282404
1.000000 0.981573 0.910863
0.654935 0.986293 0.031835
0.683437 0.985534 0.064168
0.864747 0.979266 0.165655
1.000000 0.972400 0.623377
1.000000 0.997996 0.905410
0.987850 1.000000 0.879924
0.988139 1.000000 0.880039
0.991547 1.000000 0.881508
1.000000 1.000000 0.898552
1.000000 1.000000 0.918159
0.000000 0.000000 0.172813
0.019621 0.000000 0.176565
0.413790 0.000000 0.126355
1.000000 0.683944 0.633560
1.000000 0.979010 0.917629
0.000000 0.000000 0.717135
0.000000 0.000000 0.662354
0.657231 0.000000 0.417902
1.000000 0.692482 0.632463
1.000000 0.979139 0.917667
0.000000 0.323778 0.943348
0.000000 0.502399 0.887350
0.798184 0.817250 0.841687
1.000000 0.776964 0.615133
1.000000 0.980898 0.918169
0.609883 0.986711 0.000000
0.646414 0.985810 0.000000
0.855947 0.978955 0.151830
1.000000 0.971752 0.619408
1.000000 0.997687 0.917207
0.987484 1.000000 0.879782
0.987776 1.000000 0.879896
0.991250 1.000000 0.881370
1.000000 1.000000 0.898435
1.000000 1.000000 0.918159
0.154350 0.000000 0.516565
0.178891 0.000000 0.513894
0.402274 0.000000 0.509342
1.000000 0.000000 0.413768
1.000000 0.977796 0.970896
0.147293 0.000000 0.940821
0.198096 0.000000 0.935633
0.470235 0.000000 0.820313
1.000000 0.000000 0.413546
1.000000 0.977884 0.970885
0.130227 0.399854 1.000000
0.218996 0.405146 1.000000
0.607477 0.424217 1.000000
1.000000 0.282145 0.966441
1.000000 0.979003 0.970737
0.000000 0.812944 1.000000
0.000000 0.812922 1.000000
0.000000 0.960745 1.000000
0.995206 0.998412 1.000000
1.000000 0.994434 0.972525
0.982434 1.000000 0.878007
0.982771 1.000000 0.878116
0.986838 1.000000 0.879535
1.000000 1.000000 0.896897
1.000000 1.000000 0.918159
0.796295 0.000000 0.868432
0.798557 0.000000 0.868286
0.829786 0.000000 0.866553
1.000000 0.000000 0.851224
1.000000 0.157423 0.789963
0.796102 0.000000 0.868444
0.798365 0.000000 0.868299
0.829556 0.000000 0.866565
1.000000 0.000000 0.851233
1.000000 0.157397 0.789963
0.956151 0.340028 1.000000
0.957499 0.338855 1.000000
0.975145 0.325550 1.000000
1.000000 0.000000 1.000000
1.000000 0.157032 0.789964
0.871243 0.913866 1.000000
0.872459 0.914036 1.000000
0.886877 0.915916 1.000000
0.973307 0.923401 1.000000
1.000000 0.905050 1.000000
0.000000 1.000000 1.000000
0.000000 1.000000 1.000000
0.000000 1.000000 1.000000
0.919314 1.000000 1.000000
1.000000 1.000000 1.000000
