Assets/Lutify-Free-LUTs-Pack/Lutify Free LUTs Pack/Print Film Pro - Print Film 2/Lutify.me-PrintFilm2-RWG-to-Rec709.cube
# Created with: fylm.ai - Colour Grading and Collaboration Software in Cloud 
# Website: https://fylm.ai 
# META
# Option: Gamut compress
# Block 1: IDT | RED REDWideGamutRGB Log3G10
# Block 2: colourMatch | Blending Mode: Normal | {"ColorSpace":0,"CrossCovarianceLimit":50,"ReshapingIterations":1,"PercentSaturationShift":100,"PercentShadingShift":100,"ExtraShading":true,"PercentTint":100,"PercentModified":100}
# Block 3: HSL | Blending Mode: Normal | {"hue":{"Reds":0,"Yellows":0,"Greens":0,"Cyans":0,"Blues":0,"Magentas":0},"saturation":{"Reds":1,"Yellows":0.9,"Greens":0.95,"Cyans":1,"Blues":1,"Magentas":1},"luminance":{"Reds":0.8,"Yellows":0.95,"Greens":0.9,"Cyans":0.8,"Blues":0.8,"Magentas":0.8},"lum_sat":{"Blacks":1,"Shadows":1,"Midtones":1,"Highlights":1,"Whites":1},"sat_sat":{"10":1,"20":1,"30":1,"40":1,"50":1}}
# Block 4: LUT | Filmic Curve Response: Low Contrast 2 (100%)
# Block 5: ODT | Rec709
TITLE "Lutify.me-PrintFilm2-RWG-to-Rec709" 
LUT_3D_SIZE 33
0.000000 0.000000 0.000000
0.000000 0.000000 0.000000
0.000000 0.000000 0.000000
0.000000 0.000000 0.000000
0.000000 0.000000 0.000000
0.000000 0.000000 0.000000
0.000000 0.000000 0.000000
0.025305 0.000000 0.000000
0.069820 0.000000 0.000000
0.114868 0.000000 0.000000
0.167413 0.000000 0.000000
0.248550 0.000000 0.000000
0.335253 0.000000 0.000000
0.432401 0.000000 0.000000
0.547854 0.000000 0.000000
0.651704 0.000000 0.000000
0.757496 0.000000 0.000000
0.863133 0.000000 0.000000
0.940725 0.000000 0.000000
0.999821 0.125825 0.000000
1.000000 0.287665 0.030818
1.000000 0.399215 0.100168
1.000000 0.505099 0.168702
1.000000 0.607425 0.248055
1.000000 0.691332 0.328562
1.000000 0.762907 0.423929
1.000000 0.819968 0.527275
1.000000 0.861800 0.628417
1.000000 0.896607 0.716251
1.000000 0.922331 0.787090
1.000000 0.945057 0.838181
1.000000 0.965569 0.879042
1.000000 0.979701 0.910325
0.000000 0.000000 0.000000
0.000000 0.000000 0.000000
0.000000 0.000000 0.000000
0.000000 0.000000 0.000000
0.000000 0.000000 0.000000
0.000000 0.000000 0.000000
0.000000 0.000000 0.000000
0.036932 0.000000 0.000000
0.075874 0.000000 0.000000
0.122910 0.000000 0.000000
0.175254 0.000000 0.000000
0.256840 0.000000 0.000000
0.341075 0.000000 0.000000
0.437893 0.000000 0.000000
0.551797 0.000000 0.000000
0.655139 0.000000 0.000000
0.758429 0.000000 0.000000
0.864367 0.000000 0.000000
0.941489 0.000000 0.000000
1.000000 0.131635 0.000000
1.000000 0.289522 0.026391
1.000000 0.400445 0.099277
1.000000 0.506059 0.168231
1.000000 0.607917 0.247747
1.000000 0.691669 0.328418
1.000000 0.763122 0.423861
1.000000 0.820081 0.527237
1.000000 0.861861 0.628413
1.000000 0.896642 0.716247
1.000000 0.922351 0.787088
1.000000 0.945071 0.838181
1.000000 0.965577 0.879044
1.000000 0.979707 0.910331
0.000000 0.000000 0.000000
0.000000 0.000000 0.000000
0.000000 0.000000 0.000000
0.000000 0.000000 0.000000
0.000000 0.000000 0.000000
0.000000 0.000000 0.000000
0.000000 0.000000 0.000000
0.050042 0.000000 0.000000
0.087188 0.000000 0.000000
0.132153 0.000000 0.000000
0.187469 0.000000 0.000000
0.265939 0.000000 0.000000
0.348567 0.000000 0.000000
0.444005 0.000000 0.000000
0.555530 0.000000 0.000000
0.660060 0.000000 0.000000
0.759672 0.000000 0.000000
0.866206 0.000000 0.000000
0.942505 0.000000 0.000000
1.000000 0.139178 0.000000
1.000000 0.292062 0.017554
1.000000 0.402139 0.098030
1.000000 0.507372 0.167635
1.000000 0.608595 0.247324
1.000000 0.692130 0.328220
1.000000 0.763417 0.423764
1.000000 0.820229 0.527189
1.000000 0.861944 0.628403
1.000000 0.896690 0.716239
1.000000 0.922379 0.787084
1.000000 0.945089 0.838186
1.000000 0.965587 0.879041
1.000000 0.979713 0.910328
0.000000 0.000000 0.000000
0.000000 0.000000 0.000000
0.000000 0.000000 0.000000
0.000000 0.000000 0.000000
0.000000 0.000000 0.000000
0.000000 0.000000 0.000000
0.017989 0.000000 0.000000
0.065624 0.000000 0.000000
0.103164 0.000000 0.000000
0.146522 0.000000 0.000000
0.203577 0.000000 0.000000
0.279951 0.000000 0.000000
0.361169 0.000000 0.000000
0.449731 0.000000 0.000000
0.560399 0.000000 0.000000
0.666798 0.000000 0.000000
0.763606 0.000000 0.000000
0.868719 0.000000 0.000000
0.943868 0.000000 0.000000
1.000000 0.148817 0.000000
1.000000 0.295530 0.000000
1.000000 0.404462 0.096266
1.000000 0.509180 0.166807
1.000000 0.609528 0.246738
1.000000 0.692765 0.327946
1.000000 0.763822 0.423634
1.000000 0.820434 0.527124
1.000000 0.862060 0.628395
1.000000 0.896756 0.716226
1.000000 0.922417 0.787072
1.000000 0.945117 0.838185
1.000000 0.965600 0.879036
1.000000 0.979722 0.910327
0.000000 0.000000 0.000000
0.000000 0.000000 0.000000
0.000000 0.000000 0.000000
0.000000 0.000000 0.000000
0.000000 0.000000 0.000000
0.021279 0.000000 0.000000
0.061401 0.000000 0.000000
0.095439 0.000000 0.000000
0.125684 0.000000 0.000000
0.168628 0.000000 0.000000
0.224219 0.000000 0.000000
0.301656 0.000000 0.000000
0.372853 0.000000 0.000000
0.459922 0.000000 0.000000
0.567451 0.000000 0.000000
0.674925 0.000000 0.000000
0.769109 0.000000 0.000000
0.871342 0.000000 0.000000
0.945764 0.000000 0.000000
1.000000 0.160949 0.000000
1.000000 0.300246 0.000000
1.000000 0.407633 0.093978
1.000000 0.511661 0.165651
1.000000 0.610809 0.245922
1.000000 0.693637 0.327567
1.000000 0.764379 0.423451
1.000000 0.820717 0.527035
1.000000 0.862219 0.628379
1.000000 0.896847 0.716212
1.000000 0.922472 0.787064
1.000000 0.945152 0.838186
1.000000 0.965620 0.879037
1.000000 0.979732 0.910329
0.000000 0.000000 0.000000
0.000000 0.000000 0.000000
0.000000 0.000000 0.000000
0.000000 0.008107 0.000000
0.000000 0.023026 0.000000
0.039802 0.031355 0.000000
0.074590 0.031212 0.000000
0.120721 0.000000 0.000000
0.163514 0.000000 0.000000
0.205904 0.000000 0.000000
0.255031 0.000000 0.000000
0.321359 0.000000 0.000000
0.389879 0.000000 0.000000
0.478205 0.000000 0.000000
0.584187 0.000000 0.000000
0.680057 0.000000 0.000000
0.776501 0.000000 0.000000
0.873717 0.000000 0.000000
0.948175 0.000000 0.000000
1.000000 0.176228 0.000000
1.000000 0.306635 0.000000
1.000000 0.411964 0.090701
1.000000 0.515063 0.164028
1.000000 0.612570 0.244791
1.000000 0.694834 0.327045
1.000000 0.765144 0.423198
1.000000 0.821105 0.526910
1.000000 0.862435 0.628356
1.000000 0.896973 0.716187
1.000000 0.922545 0.787052
1.000000 0.945202 0.838187
1.000000 0.965648 0.879034
1.000000 0.979749 0.910327
0.000000 0.036619 0.000000
0.000000 0.037404 0.000000
0.000000 0.038735 0.000000
0.000000 0.042725 0.000000
0.000000 0.050389 0.000000
0.037687 0.055551 0.000000
0.083949 0.055591 0.000000
0.140037 0.046543 0.000000
0.190381 0.022398 0.000000
0.244120 0.000000 0.000000
0.299079 0.000000 0.000000
0.354331 0.000000 0.000000
0.419400 0.000000 0.000000
0.501007 0.000000 0.000000
0.599646 0.000000 0.000000
0.692554 0.000000 0.000000
0.783884 0.000000 0.000000
0.877458 0.000000 0.000000
0.949645 0.000000 0.000000
1.000000 0.195556 0.000000
1.000000 0.315244 0.000000
1.000000 0.417867 0.085839
1.000000 0.519541 0.161778
1.000000 0.614984 0.243214
1.000000 0.696472 0.326314
1.000000 0.766190 0.422849
1.000000 0.821638 0.526735
1.000000 0.862736 0.628325
1.000000 0.897146 0.716160
1.000000 0.922646 0.787035
1.000000 0.945272 0.838188
1.000000 0.965684 0.879026
1.000000 0.979770 0.910321
0.000000 0.059649 0.000000
0.000000 0.060656 0.000000
0.000000 0.063153 0.000000
0.000000 0.067262 0.000000
0.000000 0.075345 0.000000
0.000000 0.087193 0.000000
0.084818 0.089709 0.000000
0.151528 0.087949 0.000000
0.216660 0.079139 0.000000
0.277983 0.051887 0.000000
0.333505 0.000000 0.000000
0.402148 0.000000 0.000000
0.465897 0.000000 0.000000
0.531475 0.000000 0.000000
0.624720 0.000000 0.000000
0.710663 0.000000 0.000000
0.792240 0.000000 0.000000
0.884617 0.000000 0.000000
0.952061 0.000000 0.000000
1.000000 0.218059 0.000000
1.000000 0.326537 0.000000
1.000000 0.425885 0.078303
1.000000 0.525446 0.158618
1.000000 0.618291 0.241009
1.000000 0.698710 0.325301
1.000000 0.767621 0.422363
1.000000 0.822370 0.526495
1.000000 0.863146 0.628282
1.000000 0.897383 0.716114
1.000000 0.922787 0.787014
1.000000 0.945365 0.838191
1.000000 0.965735 0.879015
1.000000 0.979801 0.910325
0.000000 0.087371 0.000000
0.000000 0.090193 0.000000
0.000000 0.092913 0.000000
0.000000 0.099944 0.000000
0.000000 0.108236 0.000000
0.000000 0.121278 0.000000
0.051433 0.131272 0.000000
0.147899 0.131952 0.000000
0.228595 0.125881 0.000000
0.302056 0.114425 0.000000
0.368241 0.088791 0.000000
0.447532 0.000000 0.000000
0.519331 0.000000 0.000000
0.586904 0.000000 0.000000
0.660833 0.000000 0.000000
0.733312 0.000000 0.000000
0.811418 0.000000 0.000000
0.894973 0.000000 0.000000
0.956334 0.101932 0.000000
1.000000 0.244210 0.000000
1.000000 0.341299 0.000000
1.000000 0.436725 0.065569
1.000000 0.533483 0.154042
1.000000 0.622808 0.237901
1.000000 0.701757 0.323886
1.000000 0.769567 0.421682
1.000000 0.823371 0.526160
1.000000 0.863710 0.628219
1.000000 0.897709 0.716058
1.000000 0.922978 0.786976
1.000000 0.945495 0.838196
1.000000 0.965807 0.879006
1.000000 0.979843 0.910322
0.000000 0.125125 0.000000
0.000000 0.127685 0.000000
0.000000 0.130819 0.000000
0.000000 0.139971 0.000000
0.000000 0.149154 0.000000
0.000000 0.167151 0.000000
0.000000 0.181980 0.000000
0.129381 0.182415 0.000000
0.227416 0.182381 0.000000
0.315538 0.170787 0.000000
0.396977 0.159266 0.000000
0.482476 0.130962 0.000000
0.559812 0.086183 0.000000
0.635917 0.000000 0.000000
0.716391 0.000000 0.000000
0.771462 0.000000 0.000000
0.834600 0.000000 0.000000
0.905353 0.000000 0.000000
0.964906 0.172743 0.000000
1.000000 0.274741 0.000000
1.000000 0.361797 0.000000
1.000000 0.449864 0.035343
1.000000 0.544374 0.147267
1.000000 0.628961 0.233489
1.000000 0.705887 0.321894
1.000000 0.772208 0.420733
1.000000 0.824738 0.525682
1.000000 0.864481 0.628130
1.000000 0.898157 0.715971
1.000000 0.923240 0.786930
1.000000 0.945673 0.838202
1.000000 0.965904 0.878991
1.000000 0.979902 0.910326
0.000000 0.177398 0.000000
0.000000 0.180552 0.000000
0.000000 0.184723 0.000000
0.000000 0.195020 0.000000
0.000000 0.206938 0.000000
0.000000 0.221244 0.000000
0.000000 0.233423 0.000000
0.000000 0.241750 0.000000
0.211046 0.243855 0.000000
0.317632 0.238395 0.000000
0.409553 0.226528 0.000000
0.517836 0.212559 0.000000
0.599744 0.189550 0.000000
0.674004 0.149095 0.000000
0.756928 0.077489 0.000000
0.825576 0.000000 0.000000
0.874769 0.000000 0.000000
0.928541 0.113241 0.000000
0.973660 0.232069 0.000000
1.000000 0.310968 0.000000
1.000000 0.388527 0.000000
1.000000 0.466080 0.000000
1.000000 0.557466 0.136797
1.000000 0.637283 0.227157
1.000000 0.711450 0.319078
1.000000 0.775764 0.419391
1.000000 0.826598 0.525014
1.000000 0.865534 0.627893
1.000000 0.898769 0.715855
1.000000 0.923602 0.786865
1.000000 0.945919 0.838207
1.000000 0.966038 0.878971
1.000000 0.979981 0.910325
0.000000 0.235390 0.000000
0.000000 0.238981 0.000000
0.000000 0.244183 0.000000
0.000000 0.253766 0.000000
0.000000 0.270065 0.000000
0.000000 0.281838 0.000000
0.000000 0.293144 0.000000
0.000000 0.306526 0.000000
0.159833 0.306508 0.000000
0.296754 0.311090 0.000000
0.410157 0.302127 0.000000
0.532906 0.288116 0.000000
0.626797 0.279015 0.000000
0.707996 0.261529 0.000000
0.792508 0.225756 0.000000
0.860261 0.194693 0.000000
0.918528 0.141013 0.000000
0.962078 0.145170 0.000000
0.985637 0.275543 0.000000
1.000000 0.354040 0.000000
1.000000 0.419501 0.000000
1.000000 0.487964 0.000000
1.000000 0.574615 0.118910
1.000000 0.649817 0.218108
1.000000 0.718879 0.315057
1.000000 0.780513 0.417483
1.000000 0.829117 0.524054
1.000000 0.866970 0.627440
1.000000 0.899608 0.715686
1.000000 0.924097 0.786767
1.000000 0.946254 0.838214
1.000000 0.966221 0.878939
1.000000 0.980089 0.910315
0.000000 0.300109 0.000000
0.000000 0.304329 0.000000
0.000000 0.310237 0.000000
0.000000 0.320102 0.000000
0.000000 0.332208 0.000000
0.000000 0.348521 0.000000
0.000000 0.360556 0.000000
0.000000 0.374267 0.000000
0.000000 0.378508 0.000000
0.244056 0.383942 0.000000
0.392284 0.384113 0.000000
0.535184 0.373022 0.000000
0.639064 0.361437 0.000000
0.729151 0.355745 0.000000
0.819481 0.339171 0.000000
0.883069 0.313048 0.000000
0.939919 0.283432 0.000000
0.989596 0.261569 0.000000
1.000000 0.278421 0.000000
1.000000 0.396101 0.000000
1.000000 0.465424 0.000000
1.000000 0.524794 0.000000
1.000000 0.597466 0.084333
1.000000 0.666151 0.204790
1.000000 0.728512 0.309207
1.000000 0.786792 0.414826
1.000000 0.832505 0.522674
1.000000 0.868909 0.626734
1.000000 0.900749 0.715443
1.000000 0.924772 0.786636
1.000000 0.946713 0.838227
1.000000 0.966471 0.878895
1.000000 0.980241 0.910315
0.000000 0.383134 0.000000
0.000000 0.388687 0.000000
0.000000 0.396178 0.000000
0.000000 0.404950 0.000000
0.000000 0.413949 0.000000
0.000000 0.428428 0.000000
0.000000 0.439586 0.000000
0.000000 0.452067 0.000000
0.000000 0.462070 0.000000
0.059581 0.468377 0.000000
0.349198 0.471029 0.000000
0.515805 0.464570 0.000000
0.637963 0.454598 0.000000
0.737888 0.444169 0.000000
0.835479 0.444367 0.000000
0.898793 0.430332 0.000000
0.951203 0.410201 0.000000
0.999541 0.388302 0.000000
1.000000 0.367292 0.000000
1.000000 0.382456 0.000000
1.000000 0.512908 0.000000
1.000000 0.570065 0.000000
1.000000 0.628222 0.000000
1.000000 0.686744 0.184382
1.000000 0.739243 0.300283
1.000000 0.794136 0.410208
1.000000 0.837028 0.520559
1.000000 0.871507 0.625616
1.000000 0.902300 0.715078
1.000000 0.925692 0.786445
1.000000 0.947342 0.838231
1.000000 0.966814 0.878838
1.000000 0.980446 0.910306
0.000000 0.480337 0.000000
0.000000 0.484630 0.000000
0.000000 0.489945 0.000000
0.000000 0.496381 0.000000
0.000000 0.504001 0.000000
0.000000 0.512832 0.000000
0.000000 0.522610 0.000000
0.000000 0.533906 0.000000
0.000000 0.546846 0.000000
0.000000 0.558772 0.000000
0.244135 0.558263 0.000000
0.470751 0.554413 0.000000
0.621826 0.547314 0.000000
0.735345 0.538304 0.000000
0.838112 0.534572 0.000000
0.903849 0.533917 0.000000
0.955142 0.525741 0.000000
1.000000 0.509947 0.000000
1.000000 0.495091 0.000000
1.000000 0.480103 0.000000
1.000000 0.498390 0.000000
1.000000 0.613986 0.000000
1.000000 0.660284 0.000000
1.000000 0.711854 0.154473
1.000000 0.753397 0.285283
1.000000 0.803760 0.403795
1.000000 0.843015 0.516780
1.000000 0.874950 0.624003
1.000000 0.904390 0.714539
1.000000 0.926936 0.786163
1.000000 0.948196 0.838239
1.000000 0.967281 0.878747
1.000000 0.980725 0.910286
0.000000 0.575216 0.000000
0.000000 0.578020 0.000000
0.000000 0.581548 0.000000
0.000000 0.585875 0.000000
0.000000 0.591402 0.000000
0.000000 0.598025 0.000000
0.000000 0.605509 0.000000
0.000000 0.614701 0.000000
0.000000 0.621278 0.000000
0.000000 0.631954 0.000000
0.000000 0.635738 0.000000
0.397281 0.633470 0.000000
0.588658 0.628768 0.000000
0.722780 0.621411 0.000000
0.832515 0.613175 0.000000
0.899629 0.613632 0.000000
0.952228 0.611818 0.000000
0.996961 0.609623 0.000000
1.000000 0.597499 0.000000
1.000000 0.586237 0.000000
1.000000 0.575212 0.000000
1.000000 0.594141 0.000000
1.000000 0.707028 0.000000
1.000000 0.738950 0.070974
1.000000 0.775632 0.260905
1.000000 0.815217 0.393603
1.000000 0.850858 0.509672
1.000000 0.879464 0.621546
1.000000 0.907190 0.713734
1.000000 0.928651 0.785782
1.000000 0.949351 0.838226
1.000000 0.967916 0.878625
1.000000 0.981109 0.910269
0.000000 0.668656 0.000000
0.000000 0.670530 0.000000
0.000000 0.673049 0.000000
0.000000 0.676332 0.000000
0.000000 0.680476 0.000000
0.000000 0.685638 0.000000
0.000000 0.692092 0.000000
0.000000 0.699078 0.000000
0.000000 0.701086 0.000000
0.000000 0.707056 0.000000
0.000000 0.714318 0.000000
0.250056 0.713802 0.000000
0.525949 0.709997 0.000000
0.688143 0.704832 0.000000
0.814384 0.697516 0.000000
0.889839 0.692393 0.000000
0.943311 0.689282 0.000000
0.986898 0.695902 0.000000
1.000000 0.693955 0.000000
1.000000 0.684850 0.000000
1.000000 0.675742 0.000000
1.000000 0.667207 0.000000
1.000000 0.685246 0.052070
1.000000 0.772645 0.000000
1.000000 0.802763 0.222883
1.000000 0.831598 0.378974
1.000000 0.860689 0.501701
1.000000 0.884600 0.616890
1.000000 0.910452 0.712083
1.000000 0.931197 0.785508
1.000000 0.950906 0.838196
1.000000 0.968771 0.878444
1.000000 0.981626 0.910239
0.000000 0.754521 0.000000
0.000000 0.755672 0.000000
0.000000 0.757245 0.000000
0.000000 0.759305 0.000000
0.000000 0.761939 0.000000
0.000000 0.765233 0.000000
0.000000 0.769177 0.000000
0.000000 0.771622 0.000000
0.000000 0.773772 0.000000
0.000000 0.779733 0.000000
0.000000 0.782805 0.000000
0.090509 0.783324 0.000000
0.442964 0.780496 0.000000
0.641035 0.775627 0.000000
0.782842 0.770389 0.000000
0.869844 0.765198 0.000000
0.930533 0.761648 0.000000
0.973847 0.763906 0.000000
1.000000 0.767435 0.000000
1.000000 0.766593 0.000000
1.000000 0.760263 0.000000
1.000000 0.754609 0.000000
1.000000 0.750481 0.136805
1.000000 0.765746 0.200471
1.000000 0.830426 0.187357
1.000000 0.850820 0.347459
1.000000 0.872831 0.488456
1.000000 0.892311 0.607304
1.000000 0.914584 0.709384
1.000000 0.934634 0.784832
1.000000 0.952912 0.838022
1.000000 0.969916 0.878169
1.000000 0.982323 0.910192
0.000000 0.817034 0.000000
0.000000 0.817674 0.000000
0.000000 0.818499 0.000000
0.000000 0.819578 0.000000
0.000000 0.820988 0.000000
0.000000 0.822783 0.000000
0.000000 0.825009 0.000000
0.000000 0.827686 0.000000
0.000000 0.830777 0.000000
0.000000 0.833393 0.000000
0.000000 0.833682 0.000000
0.080335 0.833542 0.000000
0.416035 0.831445 0.000000
0.578838 0.827842 0.000000
0.745584 0.822241 0.000000
0.849238 0.817912 0.000000
0.915228 0.813963 0.000000
0.963433 0.811559 0.000000
0.996205 0.813836 0.000000
1.000000 0.816902 0.000000
1.000000 0.817313 0.000000
1.000000 0.812744 0.000000
1.000000 0.809745 0.179575
1.000000 0.808279 0.269166
1.000000 0.822533 0.331996
1.000000 0.871522 0.320065
1.000000 0.887507 0.465495
1.000000 0.902263 0.593626
1.000000 0.919121 0.704526
1.000000 0.939059 0.783681
1.000000 0.955355 0.837461
1.000000 0.971431 0.877752
1.000000 0.983253 0.910101
0.000000 0.868063 0.000000
0.000000 0.868369 0.000000
0.000000 0.868588 0.000000
0.000000 0.868668 0.000000
0.000000 0.869093 0.000000
0.000000 0.870015 0.000000
0.000000 0.871172 0.000000
0.000000 0.872592 0.000000
0.000000 0.874182 0.000000
0.000000 0.874188 0.000000
0.000000 0.874617 0.000000
0.221207 0.874185 0.000000
0.429383 0.872741 0.000000
0.568965 0.869614 0.000000
0.704985 0.864471 0.000000
0.824776 0.859851 0.000000
0.897842 0.856550 0.000000
0.952450 0.853549 0.000000
0.988018 0.852126 0.000000
1.000000 0.854358 0.000000
1.000000 0.857283 0.000000
1.000000 0.858243 0.113117
1.000000 0.855688 0.228299
1.000000 0.854229 0.309919
1.000000 0.855033 0.404352
1.000000 0.866133 0.472759
1.000000 0.902774 0.440925
1.000000 0.914466 0.577058
1.000000 0.927058 0.700119
1.000000 0.944631 0.782587
1.000000 0.958582 0.835555
1.000000 0.973395 0.877351
1.000000 0.984481 0.909944
0.000000 0.904118 0.000000
0.000000 0.904118 0.000000
0.000000 0.904117 0.000000
0.000000 0.904321 0.000000
0.000000 0.904679 0.000000
0.000000 0.905142 0.000000
0.000000 0.905728 0.000000
0.000000 0.906449 0.000000
0.000000 0.907299 0.000000
0.000000 0.908229 0.000000
0.052742 0.909199 0.000000
0.316543 0.909891 0.000000
0.464688 0.908426 0.000000
0.587222 0.905776 0.000000
0.695741 0.902081 0.000000
0.799101 0.894859 0.000000
0.876977 0.891558 0.000000
0.937778 0.888603 0.000000
0.978037 0.886433 0.000000
1.000000 0.885433 0.000000
1.000000 0.887262 0.000000
1.000000 0.889672 0.164783
1.000000 0.890948 0.278091
1.000000 0.889545 0.362605
1.000000 0.889704 0.454504
1.000000 0.891891 0.551320
1.000000 0.900951 0.609688
1.000000 0.929592 0.566978
1.000000 0.938360 0.685277
1.000000 0.951625 0.780245
1.000000 0.962981 0.832485
1.000000 0.975892 0.877039
1.000000 0.986075 0.909648
0.000000 0.936371 0.000000
0.000000 0.936420 0.000000
0.000000 0.936485 0.000000
0.000000 0.936572 0.000000
0.000000 0.936673 0.000000
0.000000 0.936786 0.000000
0.000000 0.936922 0.000000
0.000000 0.937072 0.000000
0.112058 0.937264 0.000000
0.267661 0.937470 0.000000
0.366167 0.937155 0.000000
0.453283 0.936106 0.000000
0.540088 0.934668 0.000000
0.620900 0.933008 0.000000
0.702758 0.930267 0.000000
0.784191 0.927150 0.000000
0.853378 0.924236 0.000000
0.918716 0.921480 0.000000
0.965653 0.919253 0.000000
0.995023 0.917795 0.000000
1.000000 0.917152 0.080355
1.000000 0.917399 0.216592
1.000000 0.918650 0.323529
1.000000 0.920640 0.421688
1.000000 0.920153 0.509920
1.000000 0.921270 0.607942
1.000000 0.922625 0.679401
1.000000 0.928917 0.713145
1.000000 0.951561 0.692892
1.000000 0.959759 0.772723
1.000000 0.968407 0.827442
1.000000 0.979001 0.876267
1.000000 0.988331 0.909132
0.280491 0.958592 0.000000
0.287280 0.958593 0.000000
0.296263 0.958594 0.000000
0.308028 0.958594 0.000000
0.323228 0.958592 0.000000
0.342391 0.958570 0.000000
0.364093 0.958357 0.000000
0.391039 0.958062 0.000000
0.423911 0.957655 0.000000
0.463308 0.957094 0.000000
0.509034 0.956342 0.000000
0.559349 0.955402 0.000000
0.612474 0.954292 0.000000
0.668474 0.952982 0.000000
0.735402 0.950804 0.000000
0.795256 0.948451 0.000000
0.849387 0.946154 0.000000
0.900653 0.943910 0.000000
0.953587 0.941608 0.000000
0.985828 0.939983 0.000000
1.000000 0.938849 0.172639
1.000000 0.938559 0.267080
1.000000 0.939179 0.361981
1.000000 0.940472 0.455161
1.000000 0.942614 0.557307
1.000000 0.943208 0.661112
1.000000 0.943938 0.724306
1.000000 0.942918 0.734025
1.000000 0.948069 0.742429
1.000000 0.969580 0.771635
1.000000 0.974765 0.821724
1.000000 0.981938 0.871295
1.000000 0.991095 0.908124
0.520822 0.972994 0.000000
0.522946 0.972981 0.000000
0.525841 0.972962 0.000000
0.529772 0.972936 0.000000
0.535071 0.972901 0.000000
0.542170 0.972839 0.000000
0.551204 0.972655 0.000000
0.562956 0.972411 0.000000
0.578138 0.972085 0.000000
0.597371 0.971656 0.000000
0.621143 0.971098 0.000000
0.649657 0.970393 0.000000
0.683514 0.969509 0.000000
0.724093 0.968396 0.000000
0.766241 0.967006 0.000000
0.809202 0.965240 0.000000
0.851715 0.963413 0.000000
0.892465 0.961611 0.000000
0.936860 0.959624 0.000000
0.975512 0.957931 0.141345
1.000000 0.956510 0.237661
1.000000 0.955776 0.317500
1.000000 0.955850 0.404216
1.000000 0.956603 0.491138
1.000000 0.957979 0.587243
1.000000 0.960386 0.703838
1.000000 0.960654 0.761954
1.000000 0.959752 0.762562
1.000000 0.958211 0.759832
1.000000 0.964524 0.770956
1.000000 0.982299 0.806969
1.000000 0.987079 0.863737
1.000000 0.994201 0.907200
0.657942 0.986268 0.041035
0.658905 0.986243 0.042321
0.660222 0.986208 0.043979
0.662017 0.986161 0.046144
0.664458 0.986096 0.048904
0.667765 0.986009 0.052372
0.672213 0.985890 0.056653
0.678136 0.985730 0.061866
0.685937 0.985518 0.068119
0.697244 0.985390 0.081746
0.711580 0.985243 0.096654
0.729239 0.985068 0.112764
0.750596 0.984860 0.130318
0.775812 0.984273 0.144644
0.804522 0.982700 0.149024
0.834330 0.980686 0.151243
0.865382 0.979290 0.166659
0.896917 0.977838 0.185813
0.932016 0.976174 0.212382
0.963399 0.974681 0.245326
0.994000 0.973237 0.307880
1.000000 0.972156 0.374336
1.000000 0.971621 0.456065
1.000000 0.971808 0.536344
1.000000 0.972449 0.623680
1.000000 0.973653 0.726165
1.000000 0.974789 0.786479
1.000000 0.974295 0.785949
1.000000 0.973593 0.785215
1.000000 0.971941 0.783555
1.000000 0.977716 0.789867
1.000000 0.993275 0.854198
1.000000 0.998019 0.904364
0.755488 0.996014 0.273919
0.756030 0.996008 0.274177
0.756771 0.995998 0.274528
0.757788 0.995985 0.275011
0.759176 0.995967 0.275672
0.761069 0.995942 0.276578
0.763632 0.995909 0.277811
0.767086 0.995864 0.279489
0.771707 0.995804 0.281757
0.777815 0.995724 0.284807
0.785766 0.995558 0.288127
0.795933 0.995226 0.291133
0.808654 0.994805 0.295110
0.824093 0.994291 0.300310
0.842231 0.993402 0.303864
0.860042 0.992529 0.308265
0.879705 0.991615 0.314846
0.906803 0.989781 0.320004
0.935796 0.987848 0.330386
0.959681 0.986673 0.348801
0.982555 0.985536 0.373837
1.000000 0.984395 0.429193
1.000000 0.983452 0.506911
1.000000 0.983211 0.584351
1.000000 0.983394 0.662490
1.000000 0.983933 0.750039
1.000000 0.984461 0.799278
