Assets/Lutify-Free-LUTs-Pack/Lutify Free LUTs Pack/Print Film Pro - Print Film 2/Lutify.me-PrintFilm2-LogC4-to-Rec709.cube
# Created with: fylm.ai - Colour Grading and Collaboration Software in Cloud 
# Website: https://fylm.ai 
# META
# Option: Gamut compress
# Block 1: IDT | Arri Alexa 35 - LogC4
# Block 2: colourMatch | Blending Mode: Normal | {"ColorSpace":0,"CrossCovarianceLimit":50,"ReshapingIterations":1,"PercentSaturationShift":100,"PercentShadingShift":100,"ExtraShading":true,"PercentTint":100,"PercentModified":100}
# Block 3: HSL | Blending Mode: Normal | {"hue":{"Reds":0,"Yellows":0,"Greens":0,"Cyans":0,"Blues":0,"Magentas":0},"saturation":{"Reds":1,"Yellows":0.9,"Greens":0.95,"Cyans":1,"Blues":1,"Magentas":1},"luminance":{"Reds":0.8,"Yellows":0.95,"Greens":0.9,"Cyans":0.8,"Blues":0.8,"Magentas":0.8},"lum_sat":{"Blacks":1,"Shadows":1,"Midtones":1,"Highlights":1,"Whites":1},"sat_sat":{"10":1,"20":1,"30":1,"40":1,"50":1}}
# Block 4: LUT | Filmic Curve Response: Low Contrast 2 (100%)
# Block 5: ODT | Rec709
TITLE "Lutify.me-PrintFilm2-LogC4-to-Rec709" 
LUT_3D_SIZE 5
0.000000 0.000000 0.000000
0.108927 0.000000 0.000000
0.938431 0.000000 0.125707
1.000000 0.819461 0.757024
1.000000 1.000000 0.999469
0.000000 0.146836 0.000000
0.329484 0.207943 0.000000
0.956594 0.088869 0.134243
1.000000 0.824020 0.758550
1.000000 1.000000 0.999474
0.000000 0.877202 0.353956
0.000000 0.891489 0.323932
0.936827 0.890226 0.257476
1.000000 0.868803 0.774289
1.000000 1.000000 0.999538
0.840240 1.000000 0.935586
0.848763 1.000000 0.936304
0.906359 1.000000 0.934810
1.000000 1.000000 0.937836
1.000000 1.000000 1.000000
0.994528 1.000000 1.000000
0.994643 1.000000 1.000000
0.996176 1.000000 1.000000
1.000000 1.000000 1.000000
1.000000 1.000000 1.000000
0.000000 0.000000 0.000000
0.098701 0.000000 0.036316
0.955344 0.000000 0.215415
1.000000 0.820213 0.764714
1.000000 1.000000 0.999537
0.000000 0.083512 0.397370
0.268837 0.276455 0.299609
0.965234 0.113245 0.233848
1.000000 0.824768 0.766193
1.000000 1.000000 0.999542
0.000000 0.864448 0.500993
0.000000 0.889737 0.505330
0.930549 0.894727 0.431740
1.000000 0.868218 0.779341
1.000000 1.000000 0.999606
0.837831 1.000000 0.937345
0.846502 1.000000 0.938041
0.906719 1.000000 0.937894
1.000000 1.000000 0.939664
1.000000 1.000000 1.000000
0.994493 1.000000 1.000000
0.994614 1.000000 1.000000
0.996146 1.000000 1.000000
1.000000 1.000000 1.000000
1.000000 1.000000 1.000000
0.000000 0.000000 0.847147
0.000000 0.000000 0.809677
0.834944 0.000000 0.505463
1.000000 0.826332 0.838265
1.000000 1.000000 1.000000
0.000000 0.092823 0.891578
0.000000 0.154468 0.872933
0.945312 0.000000 0.713959
1.000000 0.831601 0.840124
1.000000 1.000000 1.000000
0.000000 0.593341 0.964725
0.000000 0.776181 0.930478
0.895435 0.906651 0.921561
1.000000 0.877453 0.856167
1.000000 1.000000 1.000000
0.805420 1.000000 0.955253
0.815959 1.000000 0.955777
0.901376 1.000000 0.961298
1.000000 1.000000 0.960176
1.000000 1.000000 1.000000
0.994041 1.000000 1.000000
0.994161 1.000000 1.000000
0.995714 1.000000 1.000000
1.000000 1.000000 1.000000
1.000000 1.000000 1.000000
0.389048 0.584500 1.000000
0.446180 0.593103 1.000000
0.784525 0.611584 1.000000
1.000000 0.431529 0.983528
1.000000 1.000000 1.000000
0.381483 0.596725 1.000000
0.439974 0.605597 1.000000
0.780536 0.627775 1.000000
1.000000 0.474128 0.986023
1.000000 1.000000 1.000000
0.271065 0.733912 1.000000
0.359475 0.742184 1.000000
0.750016 0.788351 1.000000
1.000000 0.761277 0.998268
1.000000 1.000000 1.000000
0.000000 0.994449 1.000000
0.000000 0.996073 1.000000
0.721003 1.000000 1.000000
1.000000 1.000000 1.000000
1.000000 1.000000 1.000000
0.990568 1.000000 1.000000
0.990697 1.000000 1.000000
0.992476 1.000000 1.000000
1.000000 1.000000 1.000000
1.000000 1.000000 1.000000
0.937012 0.972867 1.000000
0.937777 0.972963 1.000000
0.948326 0.974111 1.000000
1.000000 0.977435 1.000000
1.000000 0.931612 1.000000
0.936959 0.973025 1.000000
0.937724 0.973121 1.000000
0.948271 0.974290 1.000000
1.000000 0.977682 1.000000
1.000000 0.932396 1.000000
0.936388 0.975313 1.000000
0.937153 0.975403 1.000000
0.947747 0.976498 1.000000
1.000000 0.980772 1.000000
1.000000 0.941989 1.000000
0.933997 0.997339 1.000000
0.934704 0.997402 1.000000
0.943974 0.998167 1.000000
0.997785 1.000000 1.000000
1.000000 0.994499 1.000000
0.912710 1.000000 1.000000
0.914038 1.000000 1.000000
0.929831 1.000000 1.000000
0.992344 1.000000 1.000000
1.000000 1.000000 1.000000
