Assets/Lutify-Free-LUTs-Pack/Lutify Free LUTs Pack/Print Film Pro - Print Film 2/Lutify.me-PrintFilm2-BolexLog-to-Rec709.cube
# Created with: fylm.ai - Colour Grading and Collaboration Software in Cloud 
# Website: https://fylm.ai 
# META
# Option: Gamut compress
# Block 1: IDT | Bolex Wide Gamut RGB Bolex Log
# Block 2: colourMatch | Blending Mode: Normal | {"ColorSpace":0,"CrossCovarianceLimit":50,"ReshapingIterations":1,"PercentSaturationShift":100,"PercentShadingShift":100,"ExtraShading":true,"PercentTint":100,"PercentModified":100}
# Block 3: HSL | Blending Mode: Normal | {"hue":{"Reds":0,"Yellows":0,"Greens":0,"Cyans":0,"Blues":0,"Magentas":0},"saturation":{"Reds":1,"Yellows":0.9,"Greens":0.95,"Cyans":1,"Blues":1,"Magentas":1},"luminance":{"Reds":0.8,"Yellows":0.95,"Greens":0.9,"Cyans":0.8,"Blues":0.8,"Magentas":0.8},"lum_sat":{"Blacks":1,"Shadows":1,"Midtones":1,"Highlights":1,"Whites":1},"sat_sat":{"10":1,"20":1,"30":1,"40":1,"50":1}}
# Block 4: LUT | Filmic Curve Response: Low Contrast 2 (100%)
# Block 5: ODT | Rec709
TITLE "Lutify.me-PrintFilm2-BolexLog-to-Rec709" 
LUT_3D_SIZE 33
0.000000 0.000000 0.000000
0.000000 0.000000 0.000000
0.000000 0.000000 0.000000
0.000000 0.000000 0.000000
0.000000 0.000000 0.000000
0.000000 0.000000 0.000000
0.000000 0.000000 0.000000
0.000000 0.000000 0.000000
0.000000 0.000000 0.000000
0.020947 0.000000 0.000000
0.056952 0.000000 0.000000
0.083276 0.000000 0.000000
0.118437 0.000000 0.000000
0.155828 0.000000 0.000000
0.214882 0.000000 0.000000
0.281133 0.000000 0.000000
0.347775 0.000000 0.000000
0.427377 0.000000 0.000000
0.513389 0.000000 0.000000
0.599083 0.000000 0.021912
0.687231 0.000000 0.040539
0.769007 0.000000 0.066105
0.855913 0.000000 0.092346
0.922321 0.000000 0.123601
0.974549 0.000000 0.162681
1.000000 0.226547 0.208000
1.000000 0.328870 0.265185
1.000000 0.412289 0.316802
1.000000 0.493938 0.378920
1.000000 0.581933 0.451620
1.000000 0.659220 0.526173
1.000000 0.719461 0.589506
1.000000 0.772675 0.656726
0.000000 0.000000 0.000000
0.000000 0.000000 0.000000
0.000000 0.000000 0.000000
0.000000 0.000000 0.000000
0.000000 0.000000 0.000000
0.000000 0.000000 0.000000
0.000000 0.000000 0.000000
0.000000 0.000000 0.000000
0.000000 0.000000 0.000000
0.045116 0.000000 0.000000
0.071261 0.000000 0.000000
0.101893 0.000000 0.000000
0.132624 0.000000 0.000000
0.171884 0.000000 0.000000
0.232260 0.000000 0.000000
0.293998 0.000000 0.000000
0.359283 0.000000 0.000000
0.435337 0.000000 0.000000
0.518178 0.000000 0.000000
0.604571 0.000000 0.022094
0.690485 0.000000 0.041282
0.770411 0.000000 0.066533
0.857463 0.000000 0.092819
0.923234 0.000000 0.124111
0.974664 0.056828 0.162825
1.000000 0.231790 0.208124
1.000000 0.331630 0.265616
1.000000 0.414023 0.317172
1.000000 0.495353 0.379088
1.000000 0.582914 0.451765
1.000000 0.659924 0.526387
1.000000 0.719897 0.589669
1.000000 0.772943 0.656859
0.000000 0.000000 0.000000
0.000000 0.000000 0.000000
0.000000 0.000000 0.000000
0.000000 0.000000 0.000000
0.000000 0.000000 0.000000
0.000000 0.000000 0.000000
0.000000 0.000000 0.000000
0.000000 0.000000 0.000000
0.030881 0.000000 0.000000
0.061977 0.000000 0.000000
0.086443 0.000000 0.000000
0.116512 0.000000 0.000000
0.147835 0.000000 0.000000
0.189785 0.000000 0.000000
0.246082 0.000000 0.000000
0.306899 0.000000 0.000000
0.368279 0.000000 0.000000
0.442480 0.000000 0.000000
0.523932 0.000000 0.000000
0.609932 0.000000 0.022040
0.693445 0.000000 0.042005
0.771964 0.000000 0.067005
0.858983 0.000000 0.093282
0.924130 0.000000 0.124616
0.974773 0.080069 0.162964
1.000000 0.236930 0.208243
1.000000 0.334368 0.266046
1.000000 0.415748 0.317542
1.000000 0.496762 0.379256
1.000000 0.583889 0.451908
1.000000 0.660625 0.526601
1.000000 0.720333 0.589831
1.000000 0.773209 0.656992
0.000000 0.000000 0.000000
0.000000 0.000000 0.000000
0.000000 0.000000 0.000000
0.000000 0.000000 0.000000
0.000000 0.000000 0.000000
0.000000 0.000000 0.000000
0.017327 0.000000 0.000000
0.043793 0.000000 0.000000
0.062046 0.000000 0.000000
0.081059 0.000000 0.000000
0.105728 0.000000 0.000000
0.130306 0.000000 0.000000
0.161738 0.000000 0.000000
0.204163 0.000000 0.000000
0.259602 0.000000 0.000000
0.318002 0.000000 0.000000
0.376261 0.000000 0.000000
0.449474 0.000000 0.000000
0.530205 0.000000 0.000000
0.615140 0.000000 0.021346
0.696331 0.000000 0.042490
0.774677 0.000000 0.067631
0.860473 0.000000 0.093737
0.925010 0.000000 0.125114
0.974876 0.096617 0.163095
1.000000 0.241977 0.208358
1.000000 0.337083 0.266476
1.000000 0.417464 0.317910
1.000000 0.498167 0.379422
1.000000 0.584864 0.452052
1.000000 0.661325 0.526814
1.000000 0.720766 0.589994
1.000000 0.773476 0.657125
0.000000 0.000000 0.000000
0.000000 0.000000 0.000000
0.000000 0.000000 0.000000
0.000000 0.000000 0.000000
0.000000 0.000000 0.000000
0.020526 0.000000 0.000000
0.043716 0.000000 0.000000
0.060006 0.000000 0.000000
0.077179 0.000000 0.000000
0.101540 0.000000 0.000000
0.125273 0.000000 0.000000
0.149057 0.000000 0.000000
0.179294 0.000000 0.000000
0.217489 0.000000 0.000000
0.273212 0.000000 0.000000
0.326514 0.000000 0.000000
0.384106 0.000000 0.000000
0.456360 0.000000 0.000000
0.536531 0.000000 0.000000
0.620203 0.000000 0.020009
0.699479 0.000000 0.042541
0.777727 0.000000 0.067795
0.861835 0.000000 0.093866
0.925847 0.000000 0.125513
0.974972 0.110110 0.163221
1.000000 0.246460 0.208764
1.000000 0.339774 0.266903
1.000000 0.419173 0.318278
1.000000 0.499567 0.379588
1.000000 0.585836 0.452195
1.000000 0.662022 0.527028
1.000000 0.721199 0.590156
1.000000 0.773741 0.657259
0.000000 0.000000 0.000000
0.000000 0.000000 0.000000
0.000000 0.002824 0.000000
0.000000 0.016966 0.000000
0.000000 0.024225 0.000000
0.033060 0.027277 0.000000
0.051221 0.029060 0.000000
0.066549 0.029936 0.000000
0.088441 0.026656 0.000000
0.115675 0.000000 0.000000
0.140967 0.000000 0.000000
0.167721 0.000000 0.000000
0.199277 0.000000 0.000000
0.234647 0.000000 0.000000
0.284321 0.000000 0.000000
0.334549 0.000000 0.000000
0.392132 0.000000 0.000000
0.463207 0.000000 0.000000
0.542882 0.000000 0.000000
0.625197 0.000000 0.018216
0.703225 0.000000 0.042475
0.780740 0.000000 0.067928
0.863780 0.000000 0.094159
0.926589 0.000000 0.125599
0.975255 0.120948 0.163557
1.000000 0.250884 0.209167
1.000000 0.342451 0.267331
1.000000 0.420878 0.318647
1.000000 0.500966 0.379754
1.000000 0.586821 0.452419
1.000000 0.662719 0.527241
1.000000 0.721632 0.590319
1.000000 0.774006 0.657391
0.000000 0.017779 0.000000
0.000000 0.022054 0.000000
0.000000 0.031302 0.000000
0.000000 0.039710 0.000000
0.000000 0.043284 0.000000
0.037571 0.044608 0.000000
0.054182 0.045368 0.000000
0.072395 0.045446 0.000000
0.095843 0.043898 0.000000
0.124257 0.038518 0.000000
0.154413 0.023127 0.000000
0.186548 0.000000 0.000000
0.218859 0.000000 0.000000
0.253621 0.000000 0.000000
0.297113 0.000000 0.000000
0.345333 0.000000 0.000000
0.401561 0.000000 0.000000
0.471621 0.000000 0.000000
0.550272 0.000000 0.000000
0.630849 0.000000 0.015537
0.707574 0.000000 0.042314
0.784124 0.000000 0.068211
0.866222 0.000000 0.094580
0.927445 0.000000 0.125690
0.975856 0.132389 0.164264
1.000000 0.255435 0.209415
1.000000 0.345585 0.267835
1.000000 0.422881 0.319082
1.000000 0.502611 0.379950
1.000000 0.587993 0.452738
1.000000 0.663539 0.527493
1.000000 0.722141 0.590510
1.000000 0.774319 0.657549
0.000000 0.040871 0.000000
0.000000 0.044010 0.000000
0.000000 0.048307 0.000000
0.000000 0.053415 0.000000
0.000000 0.057733 0.000000
0.038016 0.059531 0.000000
0.056485 0.059208 0.000000
0.077735 0.059559 0.000000
0.104048 0.059236 0.000000
0.138071 0.056417 0.000000
0.166802 0.049004 0.000000
0.202688 0.035352 0.000000
0.236143 0.000000 0.000000
0.272984 0.000000 0.000000
0.317603 0.000000 0.000000
0.362828 0.000000 0.000000
0.415931 0.000000 0.000000
0.482820 0.000000 0.000000
0.559869 0.000000 0.000000
0.637866 0.000000 0.010039
0.713113 0.000000 0.041957
0.788392 0.000000 0.068585
0.869158 0.000000 0.095113
0.929196 0.000000 0.126282
0.976892 0.146745 0.165375
1.000000 0.261290 0.209758
1.000000 0.349072 0.268145
1.000000 0.425497 0.319611
1.000000 0.504738 0.380204
1.000000 0.589508 0.453152
1.000000 0.664600 0.527820
1.000000 0.722800 0.590759
1.000000 0.774723 0.657753
0.000000 0.057912 0.000000
0.000000 0.061570 0.000000
0.000000 0.065913 0.000000
0.000000 0.073808 0.000000
0.000000 0.078329 0.000000
0.022934 0.081121 0.000000
0.053098 0.082857 0.000000
0.079263 0.084336 0.000000
0.110168 0.083853 0.000000
0.147757 0.081655 0.000000
0.185359 0.079618 0.000000
0.218674 0.072640 0.000000
0.256158 0.065376 0.000000
0.293777 0.051869 0.000000
0.338744 0.000000 0.000000
0.385903 0.000000 0.000000
0.434634 0.000000 0.000000
0.497560 0.000000 0.000000
0.571985 0.000000 0.000000
0.646811 0.000000 0.000000
0.720152 0.000000 0.041245
0.793821 0.000000 0.069014
0.872105 0.000000 0.095807
0.931571 0.000000 0.127159
0.978193 0.163363 0.166697
1.000000 0.269799 0.210660
1.000000 0.353530 0.268469
1.000000 0.429199 0.319931
1.000000 0.507563 0.380599
1.000000 0.591467 0.453687
1.000000 0.665969 0.528244
1.000000 0.723653 0.591081
1.000000 0.775246 0.658017
0.000000 0.079151 0.000000
0.000000 0.085284 0.000000
0.000000 0.091541 0.000000
0.000000 0.100445 0.000000
0.000000 0.105407 0.000000
0.000000 0.108763 0.000000
0.031146 0.111565 0.000000
0.076718 0.112163 0.000000
0.113652 0.114313 0.000000
0.155243 0.111518 0.000000
0.195916 0.109977 0.000000
0.236198 0.109549 0.000000
0.274746 0.103624 0.000000
0.316652 0.098513 0.000000
0.361600 0.083882 0.000000
0.412667 0.053508 0.000000
0.459855 0.000000 0.000000
0.517348 0.000000 0.000000
0.587095 0.000000 0.000000
0.658407 0.000000 0.000000
0.729121 0.000000 0.039990
0.800706 0.000000 0.069475
0.875802 0.000000 0.096634
0.933855 0.000000 0.128300
0.979805 0.182667 0.168389
1.000000 0.280537 0.211820
1.000000 0.359228 0.268886
1.000000 0.433956 0.320346
1.000000 0.511600 0.381430
1.000000 0.593900 0.454296
1.000000 0.667734 0.528793
1.000000 0.724752 0.591500
1.000000 0.775922 0.658360
0.000000 0.107492 0.000000
0.000000 0.115790 0.000000
0.000000 0.122583 0.000000
0.000000 0.130584 0.000000
0.000000 0.137752 0.000000
0.000000 0.141613 0.000000
0.000000 0.145492 0.000000
0.059415 0.145776 0.000000
0.112569 0.146668 0.000000
0.159819 0.149040 0.000000
0.201747 0.146117 0.000000
0.245431 0.144850 0.000000
0.291355 0.145814 0.000000
0.337395 0.142357 0.000000
0.386483 0.134944 0.000000
0.440755 0.124257 0.000000
0.489769 0.108767 0.000000
0.547834 0.069758 0.000000
0.607408 0.000000 0.000000
0.671159 0.000000 0.000000
0.739786 0.000000 0.037614
0.808711 0.000000 0.070028
0.880395 0.000000 0.097571
0.936740 0.100397 0.129926
0.981411 0.207182 0.170153
1.000000 0.293955 0.213319
1.000000 0.367086 0.269380
1.000000 0.440051 0.320881
1.000000 0.516656 0.382510
1.000000 0.596729 0.454815
1.000000 0.669900 0.529399
1.000000 0.726169 0.592041
1.000000 0.776793 0.658803
0.000000 0.147866 0.000000
0.000000 0.154774 0.000000
0.000000 0.160244 0.000000
0.000000 0.169618 0.000000
0.000000 0.177632 0.000000
0.000000 0.181880 0.000000
0.000000 0.185756 0.000000
0.000000 0.189745 0.000000
0.094365 0.189515 0.000000
0.153198 0.190576 0.000000
0.202641 0.191877 0.000000
0.253586 0.186945 0.000000
0.305298 0.186092 0.000000
0.355206 0.189895 0.000000
0.413759 0.186568 0.000000
0.463258 0.179801 0.000000
0.520235 0.167134 0.000000
0.572232 0.151502 0.000000
0.637443 0.117224 0.000000
0.689025 0.064259 0.000000
0.751842 0.000000 0.031694
0.817110 0.000000 0.071804
0.885986 0.087005 0.098757
0.940241 0.156168 0.132008
0.982971 0.237505 0.171997
1.000000 0.310634 0.215253
1.000000 0.378898 0.270771
1.000000 0.447836 0.321570
1.000000 0.522834 0.383923
1.000000 0.600373 0.455486
1.000000 0.672424 0.529924
1.000000 0.727990 0.592743
1.000000 0.777913 0.659377
0.000000 0.197945 0.000000
0.000000 0.202721 0.000000
0.000000 0.211157 0.000000
0.000000 0.218838 0.000000
0.000000 0.223170 0.000000
0.000000 0.226935 0.000000
0.000000 0.230721 0.000000
0.000000 0.234899 0.000000
0.000000 0.238662 0.000000
0.129866 0.241786 0.000000
0.188146 0.243866 0.000000
0.247396 0.241291 0.000000
0.305900 0.236256 0.000000
0.362387 0.237879 0.000000
0.430708 0.242115 0.000000
0.492749 0.241409 0.000000
0.545581 0.233669 0.000000
0.600126 0.226203 0.000000
0.662888 0.208758 0.000000
0.718715 0.176085 0.000000
0.768046 0.147984 0.013775
0.828206 0.137625 0.070917
0.893042 0.157662 0.102160
0.944286 0.206633 0.134787
0.984626 0.268578 0.174204
1.000000 0.330519 0.217817
1.000000 0.394398 0.273205
1.000000 0.458429 0.322959
1.000000 0.530736 0.385742
1.000000 0.605050 0.456352
1.000000 0.675657 0.530607
1.000000 0.730331 0.593658
1.000000 0.779421 0.660118
0.000000 0.258065 0.000000
0.000000 0.266684 0.000000
0.000000 0.272611 0.000000
0.000000 0.276824 0.000000
0.000000 0.280904 0.000000
0.000000 0.284735 0.000000
0.000000 0.289549 0.000000
0.000000 0.293911 0.000000
0.000000 0.298598 0.000000
0.023236 0.302502 0.000000
0.157659 0.305240 0.000000
0.232320 0.308374 0.000000
0.298599 0.305971 0.000000
0.368601 0.300939 0.000000
0.442175 0.304035 0.000000
0.514039 0.306133 0.000000
0.575352 0.303918 0.000000
0.630051 0.297419 0.000000
0.693161 0.284497 0.000000
0.745516 0.270529 0.000000
0.797276 0.246576 0.000000
0.844244 0.225460 0.066982
0.904268 0.221411 0.103700
0.948639 0.256711 0.140034
0.986350 0.303425 0.176891
1.000000 0.353416 0.221300
1.000000 0.412092 0.276248
1.000000 0.474281 0.326396
1.000000 0.541742 0.388945
1.000000 0.611042 0.457471
1.000000 0.679769 0.531491
1.000000 0.733323 0.594842
1.000000 0.781469 0.661073
0.000000 0.320456 0.000000
0.000000 0.326354 0.000000
0.000000 0.333274 0.000000
0.000000 0.339908 0.000000
0.000000 0.343341 0.000000
0.000000 0.346868 0.000000
0.000000 0.352002 0.000000
0.000000 0.360482 0.000000
0.000000 0.365364 0.000000
0.000000 0.366124 0.000000
0.087413 0.371864 0.000000
0.199500 0.377119 0.000000
0.277963 0.376240 0.000000
0.360328 0.376096 0.000000
0.444600 0.376732 0.000000
0.521916 0.376800 0.000000
0.591228 0.381207 0.000000
0.654537 0.377236 0.000000
0.719565 0.369825 0.000000
0.769572 0.361465 0.000000
0.820562 0.346371 0.000000
0.866907 0.332948 0.046574
0.915376 0.303574 0.103929
0.953046 0.317703 0.143651
0.988254 0.347648 0.180612
1.000000 0.382623 0.226369
1.000000 0.434281 0.280219
1.000000 0.496176 0.331050
1.000000 0.557331 0.394517
1.000000 0.619080 0.459262
1.000000 0.685432 0.533379
1.000000 0.737125 0.596372
1.000000 0.784077 0.662306
0.000000 0.392995 0.000000
0.000000 0.399629 0.000000
0.000000 0.406156 0.000000
0.000000 0.411878 0.000000
0.000000 0.415447 0.000000
0.000000 0.418432 0.000000
0.000000 0.421960 0.000000
0.000000 0.426208 0.000000
0.000000 0.430929 0.000000
0.000000 0.436206 0.000000
0.000000 0.442178 0.000000
0.119506 0.448440 0.000000
0.235696 0.454437 0.000000
0.342299 0.453185 0.000000
0.435615 0.451647 0.000000
0.520981 0.448271 0.000000
0.594476 0.449304 0.000000
0.664276 0.451057 0.000000
0.738616 0.450201 0.000000
0.789192 0.445008 0.000000
0.838586 0.432396 0.000000
0.880592 0.414561 0.000000
0.925329 0.400627 0.103920
0.957723 0.389950 0.147911
0.990145 0.399747 0.186998
1.000000 0.422812 0.235479
1.000000 0.462972 0.286010
1.000000 0.522685 0.337277
1.000000 0.577141 0.400327
1.000000 0.631246 0.463337
1.000000 0.692704 0.535967
1.000000 0.741928 0.598347
1.000000 0.787399 0.663892
0.000000 0.471495 0.000000
0.000000 0.475604 0.000000
0.000000 0.480299 0.000000
0.000000 0.484931 0.000000
0.000000 0.488929 0.000000
0.000000 0.493352 0.000000
0.000000 0.496530 0.000000
0.000000 0.500458 0.000000
0.000000 0.504791 0.000000
0.000000 0.509622 0.000000
0.000000 0.515043 0.000000
0.000000 0.521044 0.000000
0.183609 0.527294 0.000000
0.321503 0.528776 0.000000
0.418724 0.526632 0.000000
0.509673 0.530087 0.000000
0.588809 0.525691 0.000000
0.666403 0.524658 0.000000
0.748253 0.528239 0.000000
0.803791 0.523050 0.000000
0.852489 0.519085 0.000000
0.891429 0.505229 0.000000
0.931696 0.494782 0.105989
0.964438 0.474870 0.153415
0.991437 0.464133 0.196682
1.000000 0.473897 0.248292
1.000000 0.502719 0.296219
1.000000 0.553889 0.346142
1.000000 0.599909 0.408230
1.000000 0.648214 0.470196
1.000000 0.703091 0.540820
1.000000 0.747949 0.600892
1.000000 0.791610 0.665929
0.000000 0.558042 0.000000
0.000000 0.559848 0.000000
0.000000 0.561792 0.000000
0.000000 0.563714 0.000000
0.000000 0.565623 0.000000
0.000000 0.568815 0.000000
0.000000 0.572576 0.000000
0.000000 0.576742 0.000000
0.000000 0.583034 0.000000
0.000000 0.587761 0.000000
0.000000 0.593819 0.000000
0.000000 0.598840 0.000000
0.104833 0.604292 0.000000
0.293832 0.609936 0.000000
0.400106 0.610532 0.000000
0.491016 0.608547 0.000000
0.572426 0.607275 0.000000
0.661434 0.603103 0.000000
0.746339 0.604756 0.000000
0.808297 0.606902 0.000000
0.860138 0.608435 0.000000
0.897370 0.596989 0.000000
0.934321 0.589121 0.110175
0.964678 0.572342 0.168870
0.990637 0.558598 0.211984
1.000000 0.547303 0.262632
1.000000 0.554657 0.308618
1.000000 0.589710 0.359953
1.000000 0.627659 0.418073
1.000000 0.669012 0.479119
1.000000 0.715389 0.546501
1.000000 0.756308 0.604897
1.000000 0.796912 0.668538
0.000000 0.636968 0.000000
0.000000 0.638324 0.000000
0.000000 0.639683 0.000000
0.000000 0.641056 0.000000
0.000000 0.642420 0.000000
0.000000 0.643800 0.000000
0.000000 0.645524 0.000000
0.000000 0.647803 0.000000
0.000000 0.650712 0.000000
0.000000 0.653942 0.000000
0.000000 0.660692 0.000000
0.000000 0.667572 0.000000
0.000000 0.672386 0.000000
0.253222 0.677718 0.000000
0.372023 0.681413 0.000000
0.471102 0.683081 0.000000
0.552032 0.686543 0.000000
0.648309 0.684367 0.000000
0.738233 0.679156 0.000000
0.800553 0.677704 0.000000
0.856193 0.685302 0.000000
0.896814 0.680040 0.000000
0.932611 0.676930 0.126047
0.961185 0.663312 0.186837
0.985252 0.648474 0.237104
1.000000 0.642580 0.284840
1.000000 0.623411 0.326449
1.000000 0.635671 0.377607
1.000000 0.662199 0.428886
1.000000 0.692083 0.489617
1.000000 0.730290 0.553629
1.000000 0.769089 0.612789
1.000000 0.804380 0.673309
0.000000 0.711116 0.000000
0.000000 0.711820 0.000000
0.000000 0.712690 0.000000
0.000000 0.713617 0.000000
0.000000 0.714912 0.000000
0.000000 0.716731 0.000000
0.000000 0.718404 0.000000
0.000000 0.719801 0.000000
0.000000 0.721609 0.000000
0.000000 0.723935 0.000000
0.000000 0.726634 0.000000
0.000000 0.729798 0.000000
0.000000 0.733384 0.000000
0.244724 0.737276 0.000000
0.354892 0.741514 0.000000
0.453248 0.745804 0.000000
0.541034 0.749918 0.000000
0.641419 0.746671 0.000000
0.728690 0.744314 0.000000
0.791396 0.739919 0.000000
0.846364 0.740446 0.000000
0.891432 0.743212 0.072184
0.930301 0.741446 0.159456
0.957044 0.734883 0.214697
0.978834 0.722901 0.262730
0.998469 0.716794 0.312547
1.000000 0.704192 0.359776
1.000000 0.694091 0.400289
1.000000 0.702085 0.445016
1.000000 0.720704 0.504964
1.000000 0.748808 0.563206
1.000000 0.784234 0.623024
1.000000 0.814670 0.681216
0.000000 0.770095 0.163813
0.000000 0.770574 0.162517
0.000000 0.771043 0.161227
0.000000 0.771503 0.159940
0.000000 0.772254 0.158744
0.000000 0.773392 0.156808
0.000000 0.774721 0.154522
0.000000 0.776116 0.151766
0.000000 0.778310 0.148212
0.000000 0.781170 0.143537
0.000000 0.784853 0.137388
0.000000 0.787646 0.130344
0.000000 0.789933 0.122381
0.257177 0.792414 0.112933
0.367081 0.795071 0.103583
0.461710 0.797857 0.093075
0.553455 0.799463 0.089182
0.647473 0.797767 0.082142
0.720022 0.796995 0.050486
0.780736 0.797912 0.000000
0.838380 0.794472 0.000000
0.885811 0.792246 0.122326
0.926745 0.791072 0.199904
0.952246 0.791516 0.254204
0.973244 0.783525 0.300201
0.992225 0.774185 0.348198
1.000000 0.770534 0.399275
1.000000 0.755739 0.431896
1.000000 0.747504 0.469726
1.000000 0.754530 0.523159
1.000000 0.772674 0.576500
1.000000 0.801592 0.635482
1.000000 0.826151 0.689504
0.000000 0.827616 0.254207
0.000000 0.827771 0.252730
0.000000 0.827921 0.251263
0.000000 0.828067 0.249804
0.000000 0.828241 0.248520
0.000000 0.828512 0.247762
0.000000 0.828829 0.246882
0.000000 0.829234 0.245764
0.000000 0.830261 0.244240
0.000000 0.831796 0.242269
0.000000 0.832929 0.239435
0.000000 0.834009 0.235692
0.194174 0.836127 0.231485
0.310232 0.837503 0.227465
0.405311 0.838941 0.223890
0.487552 0.840413 0.220016
0.569696 0.841784 0.216663
0.652175 0.841290 0.214859
0.719225 0.842784 0.219282
0.775849 0.842853 0.212865
0.829977 0.840181 0.207470
0.879039 0.839298 0.206898
0.918915 0.838338 0.237760
0.944547 0.838496 0.298771
0.967366 0.835785 0.351892
0.985596 0.828861 0.396553
1.000000 0.825033 0.440079
1.000000 0.814477 0.472708
1.000000 0.805526 0.507121
1.000000 0.798539 0.551274
1.000000 0.802136 0.596944
1.000000 0.820541 0.648925
1.000000 0.839580 0.699998
0.000000 0.868915 0.341311
0.000000 0.868998 0.340832
0.000000 0.869078 0.340356
0.000000 0.869156 0.339884
0.000000 0.869240 0.339464
0.000000 0.869385 0.339454
0.000000 0.869555 0.339447
0.000000 0.869759 0.339097
0.000000 0.869998 0.337980
0.000000 0.870320 0.336387
0.165276 0.870735 0.334316
0.239984 0.871299 0.331659
0.311508 0.871991 0.328640
0.380424 0.872746 0.325460
0.455760 0.873462 0.322781
0.529415 0.874154 0.320143
0.600393 0.874857 0.317676
0.662604 0.875775 0.315174
0.719269 0.876938 0.315818
0.776179 0.877257 0.319540
0.826184 0.875004 0.313786
0.870195 0.874993 0.308672
0.910373 0.874616 0.305174
0.937879 0.873049 0.336050
0.961603 0.872689 0.398290
0.980478 0.870634 0.446312
0.995633 0.867487 0.486121
1.000000 0.859240 0.515890
1.000000 0.853160 0.549638
1.000000 0.847265 0.590207
1.000000 0.837287 0.626495
1.000000 0.843130 0.668274
1.000000 0.855165 0.714199
0.165100 0.900357 0.433735
0.183525 0.900378 0.433427
0.199718 0.900397 0.433121
0.214303 0.900415 0.432816
0.227663 0.900433 0.432514
0.240084 0.900449 0.432211
0.253733 0.900468 0.431852
0.269540 0.900682 0.430747
0.289764 0.901026 0.429826
0.314246 0.901498 0.428899
0.343773 0.901672 0.427739
0.378369 0.901838 0.426282
0.418998 0.902037 0.424454
0.466088 0.902259 0.422223
0.521967 0.902385 0.420202
0.579675 0.902511 0.418315
0.635330 0.902737 0.416542
0.683202 0.903211 0.415797
0.728541 0.903788 0.413699
0.778262 0.902920 0.413403
0.826975 0.901889 0.414694
0.866896 0.902011 0.410244
0.902222 0.901510 0.406876
0.932374 0.899478 0.403633
0.956859 0.898079 0.433121
0.977063 0.898674 0.489259
0.991604 0.898635 0.535590
1.000000 0.891797 0.561314
1.000000 0.887457 0.592387
1.000000 0.883035 0.634214
1.000000 0.875212 0.666070
1.000000 0.870085 0.695914
1.000000 0.873414 0.730456
0.390939 0.924520 0.525533
0.396176 0.924578 0.524972
0.401325 0.924635 0.524413
0.406392 0.924691 0.523857
0.411381 0.924746 0.523304
0.416307 0.924801 0.522751
0.422034 0.924864 0.522101
0.429330 0.924946 0.521261
0.438587 0.925048 0.520178
0.450273 0.925178 0.518782
0.465448 0.925370 0.517279
0.488415 0.925293 0.516317
0.517266 0.925168 0.515188
0.551324 0.925035 0.513806
0.590141 0.924921 0.512183
0.631581 0.924826 0.510508
0.669359 0.924967 0.511837
0.707456 0.925216 0.513783
0.746990 0.925013 0.514036
0.788061 0.923981 0.513124
0.828497 0.923597 0.513286
0.866743 0.924590 0.515099
0.898955 0.923701 0.510376
0.927447 0.922252 0.505951
0.950956 0.920695 0.501536
0.970866 0.920521 0.527254
0.986637 0.922058 0.577293
1.000000 0.918244 0.608602
1.000000 0.914532 0.638609
1.000000 0.911470 0.677833
1.000000 0.905167 0.703882
1.000000 0.900556 0.727915
1.000000 0.895214 0.751007
0.535404 0.943227 0.608250
0.538549 0.943185 0.607859
0.541664 0.943142 0.607469
0.544746 0.943100 0.607081
0.547799 0.943058 0.606693
0.550829 0.943016 0.606306
0.554371 0.942966 0.605850
0.558911 0.942901 0.605261
0.564710 0.942818 0.604499
0.572087 0.942709 0.603517
0.581423 0.942570 0.602248
0.593568 0.942423 0.600934
0.609821 0.942329 0.600178
0.629884 0.942222 0.599258
0.651485 0.942178 0.597823
0.677221 0.942158 0.596107
0.705049 0.942204 0.594878
0.733889 0.942381 0.595499
0.763283 0.942626 0.593614
0.795714 0.942384 0.592257
0.832253 0.942565 0.592624
0.866387 0.943153 0.593865
0.894271 0.942762 0.594504
0.919911 0.941771 0.589636
0.944607 0.942070 0.587390
0.965832 0.940875 0.588540
0.982992 0.940209 0.613193
