Assets/Lutify-Free-LUTs-Pack/Lutify Free LUTs Pack/Print Film Pro - Print Film 2/Lutify.me-PrintFilm2-CanonLog3-to-Rec709.cube
# Created with: fylm.ai - Colour Grading and Collaboration Software in Cloud 
# Website: https://fylm.ai 
# META
# Option: Gamut compress
# Block 1: IDT | CanonLog3 Cinema Gamut Daylight
# Block 2: colourMatch | Blending Mode: Normal | {"ColorSpace":0,"CrossCovarianceLimit":50,"ReshapingIterations":1,"PercentSaturationShift":100,"PercentShadingShift":100,"ExtraShading":true,"PercentTint":100,"PercentModified":100}
# Block 3: HSL | Blending Mode: Normal | {"hue":{"Reds":0,"Yellows":0,"Greens":0,"Cyans":0,"Blues":0,"Magentas":0},"saturation":{"Reds":1,"Yellows":0.9,"Greens":0.95,"Cyans":1,"Blues":1,"Magentas":1},"luminance":{"Reds":0.8,"Yellows":0.95,"Greens":0.9,"Cyans":0.8,"Blues":0.8,"Magentas":0.8},"lum_sat":{"Blacks":1,"Shadows":1,"Midtones":1,"Highlights":1,"Whites":1},"sat_sat":{"10":1,"20":1,"30":1,"40":1,"50":1}}
# Block 4: LUT | Filmic Curve Response: Low Contrast 2 (100%)
# Block 5: ODT | Rec709
TITLE "Lutify.me-PrintFilm2-CanonLog3-to-Rec709" 
LUT_3D_SIZE 33
0.000000 0.000000 0.000000
0.000000 0.000000 0.000000
0.000000 0.000000 0.000000
0.000000 0.000000 0.000000
0.000000 0.000000 0.000000
0.000000 0.000000 0.000000
0.000000 0.000000 0.000000
0.000000 0.000000 0.000000
0.000000 0.000000 0.000000
0.000000 0.000000 0.000000
0.025083 0.000000 0.000000
0.058372 0.000000 0.000000
0.076734 0.000000 0.000000
0.099583 0.000000 0.000000
0.165113 0.000000 0.000000
0.265701 0.000000 0.000000
0.378041 0.000000 0.000000
0.497083 0.000000 0.000000
0.602071 0.000000 0.000000
0.686856 0.000000 0.000000
0.765879 0.000000 0.000000
0.843718 0.000000 0.011272
0.905295 0.000000 0.059674
0.955013 0.000000 0.092199
0.994296 0.000000 0.126363
1.000000 0.000000 0.166518
1.000000 0.201880 0.208642
1.000000 0.303406 0.252621
1.000000 0.384299 0.297251
1.000000 0.452478 0.350254
1.000000 0.520841 0.409719
1.000000 0.586059 0.466008
1.000000 0.643602 0.519434
0.000000 0.000000 0.000000
0.000000 0.000000 0.000000
0.000000 0.000000 0.000000
0.000000 0.000000 0.000000
0.000000 0.000000 0.000000
0.000000 0.000000 0.000000
0.000000 0.000000 0.000000
0.000000 0.000000 0.000000
0.000000 0.000000 0.000000
0.000000 0.000000 0.000000
0.052833 0.000000 0.000000
0.098017 0.000000 0.000000
0.144513 0.000000 0.000000
0.207531 0.000000 0.000000
0.292944 0.000000 0.000000
0.387223 0.000000 0.000000
0.489857 0.000000 0.000000
0.568745 0.000000 0.000000
0.639865 0.000000 0.000000
0.713253 0.000000 0.000000
0.788179 0.000000 0.000000
0.857188 0.000000 0.000000
0.913259 0.000000 0.052810
0.957759 0.000000 0.087642
0.994186 0.000000 0.122092
1.000000 0.078261 0.164282
1.000000 0.225988 0.206838
1.000000 0.315370 0.251648
1.000000 0.392759 0.295976
1.000000 0.458910 0.349315
1.000000 0.526241 0.408350
1.000000 0.590067 0.464991
1.000000 0.646784 0.519222
0.000000 0.000000 0.000000
0.000000 0.000000 0.000000
0.000000 0.000000 0.000000
0.000000 0.000000 0.000000
0.000000 0.000000 0.000000
0.000000 0.000000 0.000000
0.000000 0.000000 0.000000
0.000000 0.000000 0.000000
0.052420 0.000000 0.000000
0.084565 0.000000 0.000000
0.124262 0.000000 0.000000
0.172919 0.000000 0.000000
0.232909 0.000000 0.000000
0.303810 0.000000 0.000000
0.374908 0.000000 0.000000
0.460884 0.000000 0.000000
0.545081 0.000000 0.000000
0.602802 0.000000 0.000000
0.664477 0.000000 0.000000
0.731822 0.000000 0.000000
0.799744 0.000000 0.000000
0.865911 0.000000 0.000000
0.917845 0.000000 0.047266
0.961022 0.000000 0.084901
0.995272 0.000000 0.119464
1.000000 0.127383 0.161728
1.000000 0.241695 0.205348
1.000000 0.326100 0.250691
1.000000 0.399015 0.295389
1.000000 0.463949 0.348676
1.000000 0.530360 0.407226
1.000000 0.593380 0.464481
1.000000 0.649365 0.519040
0.000000 0.000000 0.000000
0.000000 0.000000 0.000000
0.000000 0.000000 0.000000
0.000000 0.000000 0.000000
0.000000 0.000000 0.000000
0.000000 0.000000 0.000000
0.027596 0.000000 0.000000
0.072457 0.000000 0.000000
0.109047 0.000000 0.000000
0.141109 0.000000 0.000000
0.184391 0.000000 0.000000
0.239988 0.000000 0.000000
0.298922 0.000000 0.000000
0.358076 0.000000 0.000000
0.426319 0.000000 0.000000
0.499415 0.000000 0.000000
0.577193 0.000000 0.000000
0.632033 0.000000 0.000000
0.685611 0.000000 0.000000
0.743953 0.000000 0.000000
0.809958 0.000000 0.000000
0.871193 0.000000 0.000000
0.921327 0.000000 0.041206
0.963307 0.000000 0.082313
0.997010 0.000000 0.118257
1.000000 0.158448 0.160196
1.000000 0.254292 0.204009
1.000000 0.334047 0.249894
1.000000 0.404039 0.294881
1.000000 0.468023 0.348129
1.000000 0.533704 0.406294
1.000000 0.596094 0.464162
1.000000 0.651459 0.518885
0.000000 0.000000 0.000000
0.000000 0.000000 0.000000
0.000000 0.000000 0.000000
0.000000 0.000000 0.000000
0.000000 0.007791 0.000000
0.057333 0.005829 0.000000
0.097251 0.000000 0.000000
0.134468 0.000000 0.000000
0.162188 0.000000 0.000000
0.196671 0.000000 0.000000
0.236381 0.000000 0.000000
0.290564 0.000000 0.000000
0.341275 0.000000 0.000000
0.395944 0.000000 0.000000
0.457487 0.000000 0.000000
0.527633 0.000000 0.000000
0.601284 0.000000 0.000000
0.659095 0.000000 0.000000
0.702077 0.000000 0.000000
0.758091 0.000000 0.000000
0.817040 0.000000 0.000000
0.875937 0.000000 0.000000
0.924216 0.000000 0.033856
0.965195 0.000000 0.079658
0.998258 0.000000 0.117451
1.000000 0.182445 0.159171
1.000000 0.265049 0.202814
1.000000 0.340610 0.249175
1.000000 0.408403 0.294410
1.000000 0.471579 0.347629
1.000000 0.536630 0.405462
1.000000 0.598478 0.463875
1.000000 0.653293 0.518745
0.000000 0.029898 0.000000
0.000000 0.026619 0.000000
0.000000 0.023536 0.000000
0.000000 0.035669 0.000000
0.000000 0.050159 0.000000
0.062709 0.054659 0.000000
0.117915 0.047926 0.000000
0.164898 0.032402 0.000000
0.209734 0.000000 0.000000
0.248238 0.000000 0.000000
0.288096 0.000000 0.000000
0.329327 0.000000 0.000000
0.372119 0.000000 0.000000
0.423505 0.000000 0.000000
0.478302 0.000000 0.000000
0.548253 0.000000 0.000000
0.618913 0.000000 0.000000
0.679829 0.000000 0.000000
0.717142 0.000000 0.000000
0.766757 0.000000 0.000000
0.824967 0.000000 0.000000
0.880412 0.000000 0.000000
0.927174 0.000000 0.020610
0.966962 0.000000 0.076600
0.999453 0.065438 0.116360
1.000000 0.200774 0.158761
1.000000 0.277824 0.202586
1.000000 0.347007 0.248425
1.000000 0.412690 0.293921
1.000000 0.475270 0.346895
1.000000 0.539526 0.404623
1.000000 0.600839 0.463580
1.000000 0.655112 0.518601
0.000000 0.055503 0.000000
0.000000 0.054513 0.000000
0.000000 0.053734 0.000000
0.000000 0.061644 0.000000
0.000000 0.077262 0.000000
0.058809 0.087861 0.000000
0.126421 0.087157 0.000000
0.191335 0.077649 0.000000
0.240731 0.062909 0.000000
0.285359 0.019372 0.000000
0.325495 0.000000 0.000000
0.372205 0.000000 0.000000
0.416540 0.000000 0.000000
0.454657 0.000000 0.000000
0.506984 0.000000 0.000000
0.571885 0.000000 0.000000
0.636928 0.000000 0.000000
0.699366 0.000000 0.000000
0.737090 0.000000 0.000000
0.774693 0.000000 0.000000
0.833145 0.000000 0.000000
0.886057 0.000000 0.000000
0.930439 0.000000 0.000000
0.968818 0.000000 0.072599
1.000000 0.117779 0.114954
1.000000 0.219212 0.158296
1.000000 0.291600 0.202085
1.000000 0.354033 0.247543
1.000000 0.417436 0.293347
1.000000 0.479645 0.345727
1.000000 0.542760 0.403670
1.000000 0.603480 0.463241
1.000000 0.657142 0.518434
0.000000 0.077480 0.000000
0.000000 0.076397 0.000000
0.000000 0.076254 0.000000
0.000000 0.089093 0.000000
0.000000 0.108463 0.000000
0.013563 0.121976 0.000000
0.127591 0.122514 0.000000
0.203765 0.118408 0.000000
0.260621 0.109143 0.000000
0.313952 0.094585 0.000000
0.360688 0.064672 0.000000
0.415155 0.000000 0.000000
0.461988 0.000000 0.000000
0.504111 0.000000 0.000000
0.545127 0.000000 0.000000
0.605398 0.000000 0.000000
0.663468 0.000000 0.000000
0.721358 0.000000 0.000000
0.758955 0.000000 0.000000
0.792258 0.000000 0.000000
0.842562 0.000000 0.000000
0.894238 0.000000 0.000000
0.934112 0.000000 0.000000
0.971732 0.000000 0.066692
1.000000 0.156311 0.113251
1.000000 0.239924 0.157020
1.000000 0.307661 0.200637
1.000000 0.362577 0.247286
1.000000 0.423089 0.292618
1.000000 0.484884 0.344289
1.000000 0.546642 0.402501
1.000000 0.606661 0.462818
1.000000 0.659582 0.518226
0.000000 0.102855 0.000000
0.000000 0.101854 0.000000
0.000000 0.103509 0.000000
0.000000 0.119963 0.000000
0.000000 0.144942 0.000000
0.000000 0.161374 0.000000
0.120244 0.163331 0.000000
0.204238 0.164159 0.000000
0.272841 0.154164 0.000000
0.333359 0.143632 0.000000
0.388790 0.131647 0.000000
0.446985 0.100228 0.000000
0.497947 0.058919 0.000000
0.547482 0.000000 0.000000
0.592845 0.000000 0.000000
0.639998 0.000000 0.000000
0.692872 0.000000 0.000000
0.743197 0.000000 0.000000
0.781303 0.000000 0.000000
0.806981 0.000000 0.000000
0.855799 0.000000 0.000000
0.902809 0.000000 0.000000
0.938956 0.000000 0.000000
0.975457 0.111358 0.057886
1.000000 0.192201 0.110646
1.000000 0.263276 0.154787
1.000000 0.326133 0.198742
1.000000 0.375034 0.246775
1.000000 0.430089 0.291875
1.000000 0.491140 0.342521
1.000000 0.551296 0.401063
1.000000 0.610483 0.462289
1.000000 0.662510 0.517964
0.000000 0.131078 0.000000
0.000000 0.130062 0.000000
0.000000 0.135255 0.000000
0.000000 0.160939 0.000000
0.000000 0.185652 0.000000
0.000000 0.202978 0.000000
0.089256 0.204999 0.000000
0.202985 0.203987 0.000000
0.280551 0.199504 0.000000
0.347469 0.189453 0.000000
0.411727 0.178675 0.000000
0.477249 0.165450 0.000000
0.529660 0.140205 0.000000
0.581037 0.107595 0.000000
0.628422 0.000000 0.000000
0.680106 0.000000 0.000000
0.727822 0.000000 0.000000
0.769021 0.000000 0.000000
0.814720 0.000000 0.000000
0.830492 0.000000 0.000000
0.867651 0.000000 0.000000
0.909386 0.000000 0.000000
0.946596 0.113954 0.000000
0.979720 0.174460 0.043314
1.000000 0.229337 0.104976
1.000000 0.289462 0.151680
1.000000 0.345376 0.196444
1.000000 0.390478 0.245712
1.000000 0.441059 0.291961
1.000000 0.498814 0.340511
1.000000 0.556859 0.399294
1.000000 0.615066 0.461624
1.000000 0.666009 0.517633
0.000000 0.167760 0.000000
0.000000 0.166761 0.000000
0.000000 0.182653 0.000000
0.000000 0.209501 0.000000
0.000000 0.230965 0.000000
0.000000 0.244494 0.000000
0.000000 0.252966 0.000000
0.189362 0.254114 0.000000
0.281062 0.252970 0.000000
0.352082 0.245033 0.000000
0.423770 0.234287 0.000000
0.502142 0.221968 0.000000
0.562643 0.213170 0.000000
0.613435 0.190183 0.000000
0.660090 0.161247 0.000000
0.711507 0.117701 0.000000
0.761561 0.022030 0.000000
0.802557 0.000000 0.000000
0.841045 0.000000 0.000000
0.858404 0.000000 0.000000
0.882834 0.092539 0.000000
0.920023 0.148609 0.000000
0.954931 0.185285 0.000000
0.984152 0.229501 0.000000
1.000000 0.267872 0.095842
1.000000 0.318209 0.147055
1.000000 0.367575 0.193364
1.000000 0.408574 0.244260
1.000000 0.455803 0.291242
1.000000 0.510839 0.340275
1.000000 0.563558 0.397175
1.000000 0.620544 0.460783
1.000000 0.670179 0.517213
0.000000 0.203608 0.000000
0.000000 0.202891 0.000000
0.000000 0.227890 0.000000
0.000000 0.258988 0.000000
0.000000 0.277701 0.000000
0.000000 0.289729 0.000000
0.000000 0.299565 0.000000
0.163672 0.298402 0.000000
0.268848 0.303077 0.000000
0.354507 0.297027 0.000000
0.430210 0.288528 0.000000
0.515111 0.277207 0.000000
0.581705 0.268038 0.000000
0.639791 0.262546 0.000000
0.687964 0.243509 0.000000
0.742094 0.217338 0.000000
0.790038 0.187029 0.000000
0.832802 0.160435 0.000000
0.870993 0.104960 0.000000
0.896562 0.048275 0.000000
0.905203 0.189052 0.000000
0.930943 0.222846 0.000000
0.962405 0.243938 0.000000
0.987461 0.283239 0.000000
1.000000 0.309778 0.080536
1.000000 0.347394 0.140456
1.000000 0.390456 0.189156
1.000000 0.429626 0.241782
1.000000 0.473123 0.290661
1.000000 0.524484 0.341326
1.000000 0.574461 0.397282
1.000000 0.627076 0.459717
1.000000 0.675128 0.516677
0.000000 0.239128 0.000000
0.000000 0.241339 0.000000
0.000000 0.276372 0.000000
0.000000 0.307606 0.000000
0.000000 0.324848 0.000000
0.000000 0.336427 0.000000
0.000000 0.345559 0.000000
0.102881 0.345842 0.000000
0.248774 0.348188 0.000000
0.343485 0.349494 0.000000
0.436835 0.342423 0.000000
0.521696 0.333317 0.000000
0.591346 0.323635 0.000000
0.650658 0.316318 0.000000
0.706226 0.313183 0.000000
0.765140 0.292941 0.000000
0.815637 0.269043 0.000000
0.855830 0.244091 0.000000
0.892888 0.219289 0.000000
0.925801 0.185326 0.000000
0.930058 0.251447 0.000000
0.943592 0.297108 0.000000
0.968098 0.311276 0.000000
0.989656 0.333875 0.000000
1.000000 0.353556 0.050848
1.000000 0.378079 0.131225
1.000000 0.416267 0.183418
1.000000 0.451167 0.238238
1.000000 0.493937 0.290362
1.000000 0.540004 0.342542
1.000000 0.587380 0.397577
1.000000 0.635857 0.459296
1.000000 0.680973 0.515991
0.000000 0.277271 0.000000
0.000000 0.290030 0.000000
0.000000 0.329496 0.000000
0.000000 0.359255 0.000000
0.000000 0.378078 0.000000
0.000000 0.389709 0.000000
0.000000 0.396703 0.000000
0.000000 0.398370 0.000000
0.209797 0.402692 0.000000
0.323869 0.405593 0.000000
0.428218 0.400972 0.000000
0.528542 0.392635 0.000000
0.602676 0.384419 0.000000
0.664776 0.376050 0.000000
0.722116 0.369781 0.000000
0.781418 0.367084 0.000000
0.832007 0.350482 0.000000
0.871127 0.331914 0.000000
0.909674 0.309493 0.000000
0.941278 0.285515 0.000000
0.962853 0.290106 0.000000
0.956917 0.375960 0.000000
0.971906 0.380637 0.000000
0.993439 0.383335 0.000000
1.000000 0.399900 0.000000
1.000000 0.416885 0.117031
1.000000 0.444722 0.175992
1.000000 0.477751 0.233965
1.000000 0.520170 0.288732
1.000000 0.559127 0.343428
1.000000 0.602639 0.397972
1.000000 0.648227 0.459796
1.000000 0.687755 0.515106
0.000000 0.318990 0.000000
0.000000 0.358366 0.000000
0.000000 0.397744 0.000000
0.000000 0.422847 0.000000
0.000000 0.435036 0.000000
0.000000 0.445101 0.000000
0.000000 0.452656 0.000000
0.000000 0.459500 0.000000
0.134267 0.459581 0.000000
0.300936 0.463229 0.000000
0.415567 0.459871 0.000000
0.523151 0.453615 0.000000
0.603341 0.446238 0.000000
0.670052 0.438676 0.000000
0.731089 0.430575 0.000000
0.794926 0.427823 0.000000
0.846085 0.424180 0.000000
0.883842 0.410133 0.000000
0.918270 0.393606 0.000000
0.951531 0.374962 0.000000
0.981356 0.354542 0.000000
0.978255 0.418835 0.000000
0.979705 0.459746 0.000000
0.998051 0.448575 0.000000
1.000000 0.455802 0.000000
1.000000 0.463557 0.092375
1.000000 0.481312 0.165974
1.000000 0.514048 0.230063
1.000000 0.548677 0.288304
1.000000 0.583162 0.343492
1.000000 0.620554 0.399051
1.000000 0.662604 0.459649
1.000000 0.697301 0.515468
0.000000 0.377030 0.000000
0.000000 0.434891 0.000000
0.000000 0.466376 0.000000
0.000000 0.482088 0.000000
0.000000 0.492657 0.000000
0.000000 0.501626 0.000000
0.000000 0.510486 0.000000
0.000000 0.519867 0.000000
0.000000 0.523855 0.000000
0.256327 0.522871 0.000000
0.400735 0.520322 0.000000
0.510569 0.516497 0.000000
0.595175 0.510687 0.000000
0.666605 0.504235 0.000000
0.731671 0.497331 0.000000
0.800009 0.495810 0.000000
0.854490 0.493561 0.000000
0.894448 0.487093 0.000000
0.926618 0.476229 0.000000
0.954870 0.461809 0.000000
0.986364 0.444652 0.000000
1.000000 0.427080 0.000000
0.987698 0.532963 0.000000
1.000000 0.534155 0.000000
1.000000 0.515149 0.000000
1.000000 0.521902 0.000000
1.000000 0.529944 0.151006
1.000000 0.553654 0.223033
1.000000 0.581599 0.288247
1.000000 0.608263 0.343193
1.000000 0.641440 0.401091
1.000000 0.679051 0.460218
1.000000 0.709437 0.516137
0.000000 0.460716 0.000000
0.000000 0.508611 0.000000
0.000000 0.530219 0.000000
0.000000 0.542329 0.000000
0.000000 0.551276 0.000000
0.000000 0.558771 0.000000
0.000000 0.565873 0.000000
0.000000 0.573381 0.000000
0.000000 0.575256 0.000000
0.197871 0.574453 0.000000
0.375308 0.572376 0.000000
0.494877 0.569171 0.000000
0.593064 0.564845 0.000000
0.668905 0.559023 0.000000
0.737268 0.552823 0.000000
0.800792 0.546390 0.000000
0.855423 0.546959 0.000000
0.894491 0.546539 0.000000
0.930285 0.542064 0.000000
0.958434 0.534121 0.000000
0.985929 0.521841 0.000000
1.000000 0.508643 0.000000
1.000000 0.550757 0.000000
1.000000 0.612431 0.000000
1.000000 0.607899 0.000000
1.000000 0.589684 0.000000
1.000000 0.586949 0.127070
1.000000 0.599510 0.209330
1.000000 0.616381 0.284868
1.000000 0.637524 0.341143
1.000000 0.665235 0.402095
1.000000 0.694928 0.459415
1.000000 0.722173 0.516531
0.000000 0.546958 0.000000
0.000000 0.576280 0.000000
0.000000 0.590568 0.000000
0.000000 0.599578 0.000000
0.000000 0.606613 0.000000
0.000000 0.610152 0.000000
0.000000 0.615610 0.000000
0.000000 0.622163 0.000000
0.000000 0.624453 0.000000
0.073935 0.623896 0.000000
0.341328 0.622335 0.000000
0.476313 0.619674 0.000000
0.579652 0.616303 0.000000
0.665242 0.611698 0.000000
0.736179 0.606095 0.000000
0.803807 0.600164 0.000000
0.855671 0.595122 0.000000
0.893627 0.597656 0.000000
0.927059 0.596536 0.000000
0.958857 0.593562 0.000000
0.986218 0.587677 0.000000
1.000000 0.576805 0.000000
1.000000 0.565398 0.000000
1.000000 0.652194 0.000000
1.000000 0.677209 0.000000
1.000000 0.669933 0.000000
1.000000 0.653020 0.077429
1.000000 0.643503 0.188573
1.000000 0.651906 0.276489
1.000000 0.670126 0.339422
1.000000 0.690052 0.400630
1.000000 0.712652 0.458071
1.000000 0.735951 0.516682
0.000000 0.619983 0.000000
0.000000 0.637757 0.000000
0.000000 0.648621 0.000000
0.000000 0.656079 0.000000
0.000000 0.658221 0.000000
0.000000 0.659330 0.000000
0.000000 0.662580 0.000000
0.000000 0.668145 0.000000
0.000000 0.672861 0.000000
0.000000 0.672759 0.000000
0.286582 0.671737 0.000000
0.453770 0.669446 0.000000
0.563252 0.666654 0.000000
0.653475 0.663293 0.000000
0.727300 0.658743 0.000000
0.800619 0.653159 0.000000
0.855462 0.648538 0.000000
0.893781 0.645001 0.000000
0.925318 0.644267 0.000000
0.954272 0.641870 0.000000
0.983405 0.646338 0.000000
1.000000 0.641348 0.000000
1.000000 0.631885 0.000000
1.000000 0.621723 0.000000
1.000000 0.725588 0.000000
1.000000 0.728495 0.000000
1.000000 0.723108 0.000000
1.000000 0.701516 0.166672
1.000000 0.692670 0.262452
1.000000 0.702698 0.334524
1.000000 0.715861 0.398236
1.000000 0.732425 0.456204
1.000000 0.751418 0.516060
0.000000 0.689822 0.000000
0.000000 0.702480 0.000000
0.000000 0.709118 0.000000
0.000000 0.710341 0.000000
0.000000 0.711281 0.000000
0.000000 0.713992 0.000000
0.000000 0.717716 0.000000
0.000000 0.721833 0.000000
0.000000 0.723368 0.000000
0.000000 0.723585 0.000000
0.256418 0.722547 0.000000
0.423537 0.720548 0.000000
0.542969 0.717933 0.000000
0.638038 0.714805 0.000000
0.714891 0.711499 0.000000
0.790528 0.706609 0.000000
0.848138 0.702205 0.000000
0.886950 0.698902 0.000000
0.922130 0.695926 0.000000
0.949566 0.693456 0.000000
0.976072 0.696878 0.000000
0.999217 0.699151 0.000000
1.000000 0.694162 0.000000
1.000000 0.685970 0.000000
1.000000 0.701117 0.000000
1.000000 0.773588 0.000000
1.000000 0.768990 0.000000
1.000000 0.762708 0.136150
1.000000 0.745540 0.245728
1.000000 0.741609 0.329398
1.000000 0.746810 0.395948
1.000000 0.755174 0.454028
1.000000 0.772919 0.519089
0.000000 0.750346 0.000000
0.000000 0.755759 0.000000
0.000000 0.756948 0.000000
0.000000 0.759140 0.000000
0.000000 0.761995 0.000000
0.000000 0.764566 0.000000
0.000000 0.767176 0.000000
0.000000 0.767705 0.000000
0.000000 0.768124 0.000000
0.000000 0.768464 0.000000
0.265498 0.767359 0.000000
0.411903 0.765642 0.000000
0.522254 0.763449 0.000000
0.623419 0.760524 0.000000
0.701855 0.757576 0.000000
0.779803 0.754150 0.000000
0.838172 0.750194 0.000000
0.877748 0.747247 0.000000
0.913788 0.744558 0.000000
0.944960 0.742228 0.000000
0.969618 0.745202 0.000000
0.990386 0.747157 0.000000
1.000000 0.745983 0.000000
1.000000 0.742878 0.000000
1.000000 0.735998 0.000000
1.000000 0.781432 0.000000
1.000000 0.815298 0.000000
1.000000 0.809804 0.063117
1.000000 0.799687 0.227220
1.000000 0.788623 0.327106
1.000000 0.782212 0.394572
1.000000 0.784738 0.457668
1.000000 0.796012 0.522898
0.000000 0.792856 0.000000
0.000000 0.795198 0.000000
0.000000 0.798482 0.000000
0.000000 0.800833 0.000000
0.000000 0.802650 0.000000
0.000000 0.802857 0.000000
0.000000 0.803070 0.000000
0.000000 0.803272 0.000000
0.000000 0.803411 0.000000
0.116748 0.803450 0.000000
0.314157 0.802235 0.000000
0.420597 0.800789 0.000000
0.506643 0.799052 0.000000
0.607324 0.796311 0.000000
0.692503 0.793342 0.000000
0.771014 0.790171 0.000000
0.830054 0.787142 0.000000
0.870129 0.784370 0.000000
0.906817 0.781780 0.000000
0.938456 0.779598 0.000000
0.964199 0.778091 0.000000
0.984301 0.781211 0.000000
1.000000 0.782930 0.000000
1.000000 0.782258 0.000000
1.000000 0.780726 0.000000
1.000000 0.775324 0.000000
1.000000 0.833021 0.000000
1.000000 0.848127 0.000000
1.000000 0.842477 0.205373
1.000000 0.835753 0.319270
1.000000 0.824232 0.397502
1.000000 0.816252 0.461849
1.000000 0.821052 0.527432
0.000000 0.829419 0.000000
0.000000 0.832124 0.000000
0.000000 0.833087 0.000000
0.000000 0.833193 0.000000
0.000000 0.833269 0.000000
0.000000 0.833308 0.000000
0.000000 0.833310 0.000000
0.000000 0.833259 0.000000
0.000000 0.833095 0.000000
0.272747 0.832672 0.000000
0.374255 0.831510 0.000000
0.446950 0.830280 0.000000
0.519029 0.828689 0.000000
0.600257 0.826420 0.000000
0.684733 0.823569 0.000000
0.763994 0.820467 0.000000
0.822842 0.817929 0.000000
0.863425 0.815588 0.000000
0.900507 0.813095 0.000000
0.932517 0.810946 0.000000
0.958986 0.809299 0.000000
0.979591 0.808276 0.000000
0.997849 0.811068 0.000000
1.000000 0.812680 0.000000
1.000000 0.812198 0.000000
1.000000 0.811507 0.000000
1.000000 0.807050 0.000000
1.000000 0.866136 0.000000
1.000000 0.872941 0.143182
1.000000 0.866197 0.293366
1.000000 0.860629 0.397623
1.000000 0.850407 0.463833
1.000000 0.845019 0.527673
0.000000 0.859293 0.000000
0.000000 0.859335 0.000000
0.000000 0.859318 0.000000
0.000000 0.859272 0.000000
0.000000 0.859194 0.000000
0.000000 0.859082 0.000000
0.000000 0.858916 0.000000
0.197328 0.858667 0.000000
0.297405 0.858355 0.000000
0.370012 0.857767 0.000000
0.427827 0.856837 0.000000
0.485913 0.855674 0.000000
0.546834 0.854188 0.000000
0.615662 0.852183 0.000000
0.683099 0.849909 0.000000
0.758307 0.847054 0.000000
0.816292 0.844650 0.000000
0.857225 0.842828 0.000000
0.894518 0.840579 0.000000
0.926742 0.838486 0.000000
0.955166 0.836773 0.000000
0.976466 0.835582 0.000000
0.993544 0.834873 0.000000
1.000000 0.837486 0.000000
1.000000 0.839013 0.000000
1.000000 0.838916 0.000000
1.000000 0.838672 0.000000
1.000000 0.834868 0.060364
1.000000 0.890254 0.000000
1.000000 0.891850 0.252653
1.000000 0.887350 0.380484
1.000000 0.882343 0.466207
1.000000 0.872025 0.529550
0.000000 0.882335 0.000000
0.000000 0.883190 0.000000
0.000000 0.883779 0.000000
0.000000 0.883548 0.000000
0.176627 0.883321 0.000000
0.246163 0.883121 0.000000
0.300733 0.882881 0.000000
0.349848 0.882584 0.000000
0.397030 0.882211 0.000000
0.442352 0.881583 0.000000
0.486017 0.880679 0.000000
0.532351 0.879568 0.000000
0.586728 0.878069 0.000000
0.639789 0.876416 0.000000
0.695499 0.873951 0.000000
0.756254 0.870380 0.000000
0.810937 0.868151 0.000000
0.851556 0.866379 0.000000
0.889095 0.864680 0.000000
0.921292 0.862649 0.000000
0.949877 0.860917 0.000000
0.972647 0.859623 0.000000
0.989660 0.858719 0.000000
1.000000 0.858266 0.000000
1.000000 0.860637 0.000000
1.000000 0.862123 0.000000
1.000000 0.862228 0.000000
1.000000 0.862215 0.128044
1.000000 0.859480 0.199855
1.000000 0.910715 0.176134
1.000000 0.909920 0.345362
1.000000 0.906673 0.462179
1.000000 0.899805 0.530427
0.138314 0.904466 0.000000
0.239804 0.904940 0.000000
0.295353 0.905039 0.000000
0.333872 0.904783 0.000000
0.363348 0.904549 0.000000
0.389735 0.904308 0.000000
0.416688 0.904030 0.000000
0.446391 0.903683 0.000000
0.479010 0.903248 0.000000
0.513976 0.902573 0.000000
0.550559 0.901638 0.000000
0.589085 0.900557 0.000000
0.628821 0.899337 0.000000
0.670211 0.897947 0.000000
0.717173 0.894996 0.000000
0.764981 0.891418 0.000000
0.807912 0.888740 0.000000
0.847003 0.887046 0.000000
0.884095 0.885395 0.000000
0.916354 0.883804 0.000000
0.945017 0.882063 0.000000
0.968210 0.880693 0.000000
0.985335 0.879718 0.000000
1.000000 0.879001 0.000000
1.000000 0.878739 0.000000
1.000000 0.880854 0.000000
1.000000 0.882211 0.000000
