Assets/Lutify-Free-LUTs-Pack/Lutify Free LUTs Pack/Print Film Pro - Print Film 2/Lutify.me-PrintFilm2-SLog3CineVenice-to-Rec709.cube
# Created with: fylm.ai - Colour Grading and Collaboration Software in Cloud 
# Website: https://fylm.ai 
# META
# Option: Gamut compress
# Block 1: IDT | Sony Venice S-Log3 S-Gamut3.Cine
# Block 2: colourMatch | Blending Mode: Normal | {"ColorSpace":0,"CrossCovarianceLimit":50,"ReshapingIterations":1,"PercentSaturationShift":100,"PercentShadingShift":100,"ExtraShading":true,"PercentTint":100,"PercentModified":100}
# Block 3: HSL | Blending Mode: Normal | {"hue":{"Reds":0,"Yellows":0,"Greens":0,"Cyans":0,"Blues":0,"Magentas":0},"saturation":{"Reds":1,"Yellows":0.9,"Greens":0.95,"Cyans":1,"Blues":1,"Magentas":1},"luminance":{"Reds":0.8,"Yellows":0.95,"Greens":0.9,"Cyans":0.8,"Blues":0.8,"Magentas":0.8},"lum_sat":{"Blacks":1,"Shadows":1,"Midtones":1,"Highlights":1,"Whites":1},"sat_sat":{"10":1,"20":1,"30":1,"40":1,"50":1}}
# Block 4: LUT | Filmic Curve Response: Low Contrast 2 (100%)
# Block 5: ODT | Rec709
TITLE "Lutify.me-PrintFilm2-SLog3CineVenice-to-Rec709" 
LUT_3D_SIZE 9
0.000000 0.000000 0.000000
0.000000 0.000000 0.000000
0.000000 0.000000 0.000000
0.103940 0.000000 0.000000
0.356564 0.000000 0.000000
0.741543 0.000000 0.000000
1.000000 0.000000 0.122944
1.000000 0.532039 0.344392
1.000000 0.808146 0.651170
0.000000 0.000000 0.000000
0.000000 0.000000 0.000000
0.056258 0.000000 0.000000
0.165175 0.000000 0.000000
0.404792 0.000000 0.000000
0.757108 0.000000 0.000000
1.000000 0.071220 0.123457
1.000000 0.537512 0.345551
1.000000 0.809058 0.651844
0.000000 0.051641 0.000000
0.000000 0.065435 0.000000
0.100182 0.073081 0.000000
0.263325 0.000000 0.000000
0.455982 0.000000 0.000000
0.778458 0.000000 0.000000
1.000000 0.146047 0.125248
1.000000 0.545961 0.347339
1.000000 0.810494 0.652792
0.000000 0.194873 0.000000
0.000000 0.221669 0.000000
0.000000 0.244263 0.000000
0.338717 0.227039 0.000000
0.592612 0.198674 0.000000
0.827575 0.000000 0.000000
1.000000 0.258817 0.128431
1.000000 0.568696 0.354229
1.000000 0.814852 0.655660
0.000000 0.517945 0.000000
0.000000 0.526832 0.000000
0.000000 0.547980 0.000000
0.039945 0.568989 0.000000
0.650151 0.540621 0.000000
0.904111 0.535412 0.000000
1.000000 0.454020 0.124226
1.000000 0.632210 0.370123
1.000000 0.826503 0.663919
0.000000 0.825384 0.000000
0.000000 0.826609 0.000000
0.000000 0.828453 0.000000
0.000000 0.838947 0.000000
0.564436 0.843750 0.000000
0.878536 0.826199 0.000000
0.999489 0.814259 0.168525
1.000000 0.759945 0.413871
1.000000 0.854945 0.684809
0.406074 0.950526 0.511261
0.421494 0.950385 0.509569
0.444342 0.950172 0.507483
0.511689 0.949740 0.501042
0.658940 0.949992 0.484370
0.850156 0.948620 0.452386
0.974742 0.941212 0.350155
1.000000 0.932655 0.579015
1.000000 0.906651 0.739454
0.794044 0.999030 0.819245
0.795105 0.999000 0.818905
0.796841 0.998949 0.818372
0.803353 0.998735 0.816763
0.823107 0.998142 0.812691
0.872666 0.997389 0.807559
0.948879 0.996586 0.798192
1.000000 0.992967 0.752549
1.000000 0.987942 0.855173
0.931149 1.000000 0.944418
0.931296 1.000000 0.944380
0.931528 1.000000 0.944320
0.932243 1.000000 0.944134
0.934390 1.000000 0.943572
0.940677 1.000000 0.942062
0.962886 1.000000 0.941561
0.994951 1.000000 0.940787
1.000000 1.000000 0.932208
0.000000 0.000000 0.000000
0.000000 0.000000 0.000000
0.000000 0.000000 0.000000
0.107698 0.000000 0.000000
0.361811 0.000000 0.000000
0.743860 0.000000 0.022139
1.000000 0.000000 0.134053
1.000000 0.530661 0.349147
1.000000 0.807908 0.652448
0.000000 0.000000 0.000000
0.000000 0.000000 0.000000
0.044793 0.000000 0.000000
0.159889 0.000000 0.000000
0.404250 0.000000 0.000000
0.757059 0.000000 0.013584
1.000000 0.042995 0.135762
1.000000 0.536153 0.350704
1.000000 0.808824 0.653123
0.000000 0.050760 0.000000
0.000000 0.066004 0.000000
0.086085 0.080634 0.000000
0.246047 0.028069 0.000000
0.450606 0.000000 0.000000
0.777414 0.000000 0.000000
1.000000 0.138305 0.138237
1.000000 0.544703 0.352856
1.000000 0.810252 0.654183
0.000000 0.202973 0.000000
0.000000 0.232766 0.000000
0.000000 0.266607 0.000000
0.303381 0.262774 0.000000
0.584485 0.215606 0.000000
0.820483 0.000000 0.000000
1.000000 0.255485 0.143233
1.000000 0.567528 0.359857
1.000000 0.814620 0.657103
0.000000 0.528098 0.000000
0.000000 0.536764 0.000000
0.000000 0.553031 0.000000
0.000000 0.583348 0.000000
0.631976 0.568351 0.000000
0.904682 0.533664 0.000000
1.000000 0.451633 0.143587
1.000000 0.631190 0.375994
1.000000 0.826304 0.665366
0.000000 0.827970 0.142346
0.000000 0.828877 0.133906
0.000000 0.830284 0.116322
0.000000 0.837815 0.029119
0.561562 0.845409 0.000000
0.875345 0.830422 0.000000
0.998954 0.814038 0.198048
1.000000 0.759362 0.419388
1.000000 0.854786 0.686182
0.407434 0.950969 0.529784
0.422778 0.950809 0.527409
0.445512 0.950566 0.524256
0.510521 0.949986 0.516373
0.658840 0.949828 0.500849
0.850194 0.948852 0.470796
0.974125 0.941629 0.368671
1.000000 0.932621 0.584436
1.000000 0.906553 0.740559
0.794210 0.999083 0.821739
0.795270 0.999052 0.821412
0.796924 0.999005 0.820884
0.803181 0.998803 0.819282
0.822642 0.998184 0.814933
0.872566 0.997416 0.810086
0.948790 0.996657 0.800865
1.000000 0.993010 0.755806
1.000000 0.987935 0.855765
0.931180 1.000000 0.944694
0.931327 1.000000 0.944656
0.931558 1.000000 0.944597
0.932274 1.000000 0.944411
0.934419 1.000000 0.943849
0.940707 1.000000 0.942341
0.962876 1.000000 0.941796
0.994943 1.000000 0.941052
1.000000 1.000000 0.932467
0.000000 0.000000 0.000000
0.000000 0.000000 0.000000
0.000000 0.000000 0.000000
0.108514 0.000000 0.000000
0.354324 0.000000 0.029621
0.756791 0.000000 0.062545
1.000000 0.000000 0.155278
1.000000 0.529447 0.358144
1.000000 0.807535 0.654455
0.000000 0.000000 0.000000
0.000000 0.000000 0.000000
0.026584 0.000000 0.008698
0.154743 0.000000 0.026433
0.408968 0.000000 0.038412
0.766302 0.000000 0.061515
1.000000 0.000000 0.155986
1.000000 0.533956 0.358871
1.000000 0.808449 0.655125
0.000000 0.037315 0.108945
0.000000 0.053655 0.098521
0.073872 0.078543 0.083154
0.243966 0.000000 0.059116
0.452072 0.000000 0.042079
0.774538 0.000000 0.062328
1.000000 0.127620 0.156389
1.000000 0.542543 0.361371
1.000000 0.809883 0.656181
0.000000 0.179970 0.134728
0.000000 0.221367 0.115947
0.000000 0.277322 0.090717
0.294791 0.284473 0.041876
0.578901 0.215763 0.000000
0.819354 0.000000 0.058871
1.000000 0.254436 0.162293
1.000000 0.565675 0.367914
1.000000 0.814249 0.659364
0.000000 0.525790 0.094454
0.000000 0.542710 0.061467
0.000000 0.557912 0.000000
0.000000 0.590826 0.000000
0.614924 0.584969 0.000000
0.899256 0.533487 0.000000
1.000000 0.447837 0.168687
1.000000 0.629558 0.384616
1.000000 0.825984 0.667628
0.000000 0.831347 0.233686
0.000000 0.832201 0.227904
0.000000 0.833363 0.220198
0.000000 0.837212 0.193840
0.564611 0.847295 0.116269
0.872217 0.834206 0.000000
0.997730 0.813776 0.236284
1.000000 0.758446 0.427797
1.000000 0.854534 0.688328
0.409400 0.951631 0.556557
0.424759 0.951468 0.554362
0.447447 0.951207 0.550949
0.508554 0.950360 0.539625
0.658553 0.949584 0.525894
0.850168 0.949190 0.498684
0.973174 0.942227 0.396507
1.000000 0.932563 0.592837
1.000000 0.906399 0.742288
0.794429 0.999155 0.825214
0.795488 0.999125 0.824891
0.797141 0.999078 0.824382
0.803286 0.998882 0.822843
0.822229 0.998244 0.818314
0.872407 0.997457 0.813985
0.948651 0.996767 0.804981
1.000000 0.993075 0.760795
1.000000 0.987925 0.856688
0.931229 1.000000 0.945127
0.931375 1.000000 0.945089
0.931607 1.000000 0.945030
0.932321 1.000000 0.944846
0.934465 1.000000 0.944285
0.940753 1.000000 0.942780
0.962858 1.000000 0.942167
0.994930 1.000000 0.941470
1.000000 1.000000 0.932874
0.000000 0.000000 0.000000
0.000000 0.000000 0.000000
0.000000 0.000000 0.005931
0.074156 0.000000 0.017788
0.298440 0.000000 0.061896
0.757687 0.000000 0.123287
1.000000 0.000000 0.211909
1.000000 0.531210 0.390922
1.000000 0.808637 0.664402
0.000000 0.000000 0.002610
0.000000 0.000000 0.047739
0.012807 0.000000 0.059969
0.113450 0.000000 0.052280
0.368284 0.000000 0.095349
0.772483 0.000000 0.132614
1.000000 0.000000 0.213300
1.000000 0.535657 0.391627
1.000000 0.809318 0.664680
0.000000 0.000000 0.207424
0.000000 0.000000 0.200405
0.012828 0.022727 0.182733
0.197562 0.000000 0.136660
0.439670 0.000000 0.134112
0.793242 0.000000 0.142893
1.000000 0.119166 0.215320
1.000000 0.542580 0.392723
1.000000 0.810388 0.665110
0.000000 0.114760 0.381751
0.000000 0.165711 0.344663
0.000000 0.224819 0.320460
0.272428 0.280964 0.303873
0.561380 0.192391 0.215037
0.820938 0.000000 0.153259
1.000000 0.243379 0.216674
1.000000 0.561367 0.394215
1.000000 0.813750 0.666614
0.000000 0.476519 0.364083
0.000000 0.497218 0.355347
0.000000 0.534924 0.348186
0.000000 0.603787 0.330781
0.610609 0.608158 0.282503
0.891886 0.522870 0.189562
1.000000 0.434476 0.233954
1.000000 0.624395 0.409133
1.000000 0.824999 0.674516
0.000000 0.831759 0.406101
0.000000 0.834140 0.403992
0.000000 0.837431 0.400113
0.000000 0.842773 0.375156
0.555422 0.848638 0.329503
0.870795 0.842075 0.246177
0.995633 0.811922 0.330354
1.000000 0.755447 0.452719
1.000000 0.853751 0.694853
0.408590 0.953267 0.621455
0.424354 0.953114 0.619748
0.447489 0.952850 0.616410
0.511957 0.951948 0.606518
0.656105 0.950105 0.586158
0.848185 0.949930 0.564862
0.970377 0.943855 0.477503
1.000000 0.932820 0.617407
1.000000 0.905924 0.747523
0.795085 0.999371 0.835371
0.796140 0.999341 0.835061
0.797787 0.999294 0.834572
0.803787 0.999104 0.833088
0.822646 0.998469 0.828727
0.871964 0.997558 0.823687
0.948255 0.997066 0.816954
1.000000 0.993276 0.775626
1.000000 0.987894 0.859474
0.931378 1.000000 0.946453
0.931524 1.000000 0.946415
0.931755 1.000000 0.946357
0.932469 1.000000 0.946173
0.934608 1.000000 0.945618
0.940895 1.000000 0.944123
0.962803 1.000000 0.943302
0.994890 1.000000 0.942747
1.000000 1.000000 0.934147
0.000000 0.000000 0.000000
0.000000 0.000000 0.015726
0.000000 0.000000 0.042331
0.070453 0.000000 0.058326
0.210141 0.000000 0.061207
0.688460 0.000000 0.235461
1.000000 0.000000 0.330500
1.000000 0.533888 0.474427
1.000000 0.810790 0.695712
0.000000 0.000000 0.086032
0.000000 0.000000 0.110619
0.000000 0.000000 0.118771
0.093694 0.000000 0.105004
0.210500 0.000000 0.061180
0.716179 0.000000 0.264286
1.000000 0.000000 0.334611
1.000000 0.538510 0.475198
1.000000 0.811472 0.695972
0.000000 0.000000 0.341116
0.000000 0.000000 0.329420
0.000000 0.000000 0.306893
0.133246 0.000000 0.258921
0.319601 0.000000 0.154644
0.752055 0.000000 0.296141
1.000000 0.000000 0.340892
1.000000 0.545700 0.476395
1.000000 0.812546 0.696383
0.000000 0.054997 0.589468
0.000000 0.081954 0.564037
0.000000 0.104210 0.548528
0.164006 0.126096 0.505554
0.530638 0.000000 0.418168
0.817289 0.000000 0.368310
1.000000 0.235409 0.358968
1.000000 0.567209 0.479947
1.000000 0.815801 0.697646
0.000000 0.354908 0.686813
0.000000 0.390465 0.672392
0.000000 0.436176 0.662362
0.000000 0.523190 0.641594
0.575535 0.596293 0.630114
0.880751 0.497453 0.501654
1.000000 0.428781 0.389167
1.000000 0.622074 0.488839
1.000000 0.824369 0.700651
0.000000 0.789940 0.680259
0.000000 0.794305 0.676560
0.000000 0.801843 0.672957
0.000000 0.823308 0.670382
0.527074 0.860030 0.670215
0.854538 0.854820 0.627077
0.989203 0.808086 0.507940
1.000000 0.746090 0.527340
1.000000 0.851332 0.715578
0.371299 0.952018 0.739526
0.394552 0.952351 0.740170
0.427867 0.952836 0.741160
0.502181 0.953101 0.738973
0.653662 0.952672 0.723395
0.839897 0.951216 0.693287
0.965740 0.947534 0.640815
1.000000 0.932129 0.688511
1.000000 0.904621 0.763787
0.796425 0.999942 0.862939
0.797851 0.999938 0.862917
0.799807 0.999937 0.862712
0.805420 0.999774 0.861427
0.823708 0.999153 0.857521
0.869186 0.997905 0.848722
0.946850 0.997279 0.841737
1.000000 0.993912 0.813742
1.000000 0.987772 0.867927
0.931818 1.000000 0.950304
0.931964 1.000000 0.950268
0.932193 1.000000 0.950211
0.932903 1.000000 0.950033
0.935030 1.000000 0.949491
0.941315 1.000000 0.948026
0.962639 1.000000 0.946624
0.994594 1.000000 0.945878
1.000000 1.000000 0.938541
0.000000 0.000000 0.090905
0.000000 0.000000 0.101286
0.000000 0.000000 0.111715
0.065239 0.000000 0.123993
0.214356 0.000000 0.133833
0.424151 0.000000 0.120159
1.000000 0.000000 0.535771
1.000000 0.511647 0.622380
1.000000 0.815287 0.763693
0.000000 0.000000 0.168174
0.000000 0.000000 0.165574
0.000000 0.000000 0.161881
0.065790 0.000000 0.138000
0.214782 0.000000 0.133821
0.424333 0.000000 0.120121
1.000000 0.000000 0.547723
1.000000 0.516764 0.623852
1.000000 0.815968 0.763906
0.000000 0.000000 0.465634
0.000000 0.000000 0.449892
0.000000 0.000000 0.429563
0.000000 0.000000 0.369590
0.261831 0.000000 0.241432
0.424623 0.000000 0.120061
1.000000 0.000000 0.563595
1.000000 0.525808 0.626247
1.000000 0.817034 0.764240
0.000000 0.000000 0.760348
0.000000 0.000000 0.754078
0.000000 0.000000 0.742314
0.000000 0.000000 0.707832
0.395558 0.000000 0.630397
0.711349 0.000000 0.458381
1.000000 0.000000 0.601409
1.000000 0.554469 0.633791
1.000000 0.820292 0.765269
0.000000 0.254573 0.859227
0.000000 0.267192 0.854974
0.000000 0.285840 0.850403
0.000000 0.318584 0.842692
0.458183 0.359583 0.820413
0.882828 0.223619 0.748193
1.000000 0.355190 0.676088
1.000000 0.629147 0.655683
1.000000 0.829773 0.768301
0.000000 0.681913 0.883393
0.000000 0.696225 0.882044
0.000000 0.709972 0.880395
0.000000 0.742124 0.876128
0.328996 0.809029 0.868320
0.827843 0.846539 0.868401
0.980438 0.791209 0.787361
1.000000 0.746576 0.687248
1.000000 0.851630 0.773585
0.000000 0.933911 0.877679
0.000000 0.934321 0.877294
0.000000 0.934932 0.876698
0.228388 0.936583 0.874928
0.543940 0.942850 0.874586
0.825439 0.954565 0.879995
0.954598 0.952930 0.862749
1.000000 0.928540 0.796471
1.000000 0.904126 0.805184
0.780665 0.999062 0.904271
0.782631 0.999100 0.904334
0.785683 0.999159 0.904433
0.794750 0.999340 0.904737
0.818844 0.999503 0.904416
0.868432 0.999244 0.902635
0.943630 0.997773 0.891130
1.000000 0.995392 0.876384
1.000000 0.987338 0.891170
0.932229 1.000000 0.959726
0.932406 1.000000 0.959716
0.932686 1.000000 0.959699
0.933548 1.000000 0.959648
0.936121 1.000000 0.959495
0.942448 1.000000 0.958153
0.962039 1.000000 0.955433
0.993999 1.000000 0.954285
1.000000 1.000000 0.949133
0.000000 0.000000 0.240712
0.000000 0.000000 0.242518
0.038163 0.000000 0.245000
0.086030 0.000000 0.250911
0.192178 0.000000 0.255959
0.438756 0.000000 0.241387
0.704084 0.000000 0.217206
1.000000 0.310229 0.814338
1.000000 0.806279 0.847167
0.000000 0.000000 0.240814
0.000000 0.000000 0.242613
0.039106 0.000000 0.245072
0.086602 0.000000 0.250969
0.192586 0.000000 0.255939
0.438973 0.000000 0.241352
0.704148 0.000000 0.217186
1.000000 0.323361 0.816157
1.000000 0.807275 0.847452
0.000000 0.000000 0.291270
0.000000 0.000000 0.283153
0.011477 0.000000 0.270899
0.087506 0.000000 0.251060
0.193232 0.000000 0.255907
0.439316 0.000000 0.241297
0.704250 0.000000 0.217154
1.000000 0.342931 0.818842
1.000000 0.808832 0.847899
0.000000 0.000000 0.858238
0.000000 0.000000 0.854993
0.000000 0.000000 0.850065
0.000000 0.000000 0.834606
0.259764 0.000000 0.787243
0.574308 0.000000 0.518344
0.704568 0.000000 0.217054
1.000000 0.387623 0.826332
1.000000 0.813561 0.849266
0.000000 0.184975 0.945179
0.000000 0.187884 0.944805
0.000000 0.193568 0.944222
0.000000 0.203033 0.939560
0.313767 0.197913 0.923962
0.759312 0.000000 0.884722
1.000000 0.000000 0.787860
1.000000 0.497570 0.844852
1.000000 0.826953 0.853260
0.000000 0.545689 0.966580
0.000000 0.550837 0.966042
0.000000 0.559496 0.965405
0.000000 0.582678 0.962377
0.217901 0.619337 0.958326
0.764230 0.669398 0.945705
1.000000 0.601186 0.918408
1.000000 0.702552 0.877445
1.000000 0.857492 0.863592
0.000000 0.889318 0.963827
0.000000 0.890649 0.963698
0.000000 0.892621 0.963505
0.000000 0.897891 0.962833
0.202668 0.911077 0.960652
0.747703 0.932106 0.958253
0.943531 0.949954 0.960811
1.000000 0.922944 0.923938
1.000000 0.902243 0.874865
0.692544 0.990546 0.961040
0.695092 0.990569 0.960993
0.699024 0.990606 0.960918
0.710769 0.990719 0.960690
0.743739 0.991210 0.960027
0.829532 0.994038 0.961233
0.938071 0.999074 0.966401
0.998496 0.997551 0.959751
1.000000 0.986986 0.929562
0.926212 1.000000 0.976655
0.926467 1.000000 0.976671
0.926866 1.000000 0.976698
0.928096 1.000000 0.976778
0.931731 1.000000 0.977022
0.941360 1.000000 0.977421
0.961742 1.000000 0.976720
0.992360 1.000000 0.973315
1.000000 1.000000 0.969356
0.142426 0.000000 0.431011
0.148392 0.000000 0.430964
0.158582 0.000000 0.430882
0.185337 0.000000 0.430640
0.257951 0.000000 0.430362
0.423206 0.000000 0.429182
0.722250 0.000000 0.393369
0.965200 0.000000 0.350380
1.000000 0.697308 0.934199
0.142797 0.000000 0.431003
0.148752 0.000000 0.430956
0.158976 0.000000 0.430874
0.185645 0.000000 0.430632
0.258240 0.000000 0.430357
0.423397 0.000000 0.429175
0.722315 0.000000 0.393354
0.965214 0.000000 0.350375
1.000000 0.699322 0.934506
0.143384 0.000000 0.430990
0.149320 0.000000 0.430944
0.159595 0.000000 0.430861
0.186130 0.000000 0.430619
0.258695 0.000000 0.430350
0.423700 0.000000 0.429163
0.722418 0.000000 0.393331
0.965237 0.000000 0.350365
1.000000 0.702450 0.934984
0.145201 0.000000 0.430951
0.151267 0.000000 0.430903
0.161520 0.000000 0.430819
0.187639 0.000000 0.430579
0.260112 0.000000 0.430328
0.424643 0.000000 0.429128
0.722740 0.000000 0.393257
0.965307 0.000000 0.350337
1.000000 0.711774 0.936416
0.184667 0.120873 0.988991
0.200477 0.119224 0.988546
0.222863 0.116424 0.987849
0.278840 0.105086 0.985515
0.410661 0.000000 0.977499
0.639212 0.000000 0.956549
0.924785 0.000000 0.859320
0.965525 0.000000 0.350250
1.000000 0.739854 0.940227
0.202753 0.445642 1.000000
0.220225 0.446679 1.000000
0.244623 0.448259 1.000000
0.299883 0.452961 1.000000
0.438031 0.468808 1.000000
0.676043 0.465391 0.999386
0.983198 0.422061 0.980434
1.000000 0.205363 0.941642
1.000000 0.797681 0.947360
0.000000 0.808936 1.000000
0.000000 0.809902 1.000000
0.000000 0.811639 1.000000
0.000000 0.815154 1.000000
0.374920 0.824527 1.000000
0.631580 0.845574 1.000000
0.909831 0.866956 0.995859
1.000000 0.845942 0.983940
1.000000 0.885563 0.961600
0.480423 0.969931 1.000000
0.487601 0.970024 1.000000
0.498533 0.970168 1.000000
0.528270 0.970638 1.000000
0.601276 0.972219 1.000000
0.739948 0.977944 0.999652
0.900554 0.987310 0.999476
0.992151 0.995789 1.000000
1.000000 0.984796 0.984923
0.883551 1.000000 0.999271
0.883865 1.000000 0.999274
0.884360 1.000000 0.999278
0.885879 1.000000 0.999292
0.890504 1.000000 0.999336
0.903445 1.000000 0.999193
0.940000 1.000000 0.999506
0.990081 1.000000 1.000000
1.000000 1.000000 0.999820
0.370531 0.000000 0.637735
0.373131 0.000000 0.637735
0.377228 0.000000 0.637736
0.389810 0.000000 0.637735
0.427026 0.000000 0.637707
0.528921 0.000000 0.630842
0.725700 0.000000 0.616503
0.967727 0.000000 0.564782
1.000000 0.000000 0.522086
0.370692 0.000000 0.637733
0.373291 0.000000 0.637734
0.377383 0.000000 0.637734
0.389962 0.000000 0.637733
0.427172 0.000000 0.637705
0.529041 0.000000 0.630830
0.725762 0.000000 0.616493
0.967741 0.000000 0.564774
1.000000 0.000000 0.522084
0.370942 0.000000 0.637730
0.373543 0.000000 0.637731
0.377636 0.000000 0.637732
0.390206 0.000000 0.637730
0.427401 0.000000 0.637702
0.529228 0.000000 0.630811
0.725858 0.000000 0.616478
0.967762 0.000000 0.564763
1.000000 0.000000 0.522079
0.371731 0.000000 0.637722
0.374328 0.000000 0.637723
0.378413 0.000000 0.637723
0.390971 0.000000 0.637722
0.428119 0.000000 0.637693
0.529816 0.000000 0.630751
0.726159 0.000000 0.616432
0.967828 0.000000 0.564729
1.000000 0.000000 0.522065
0.374155 0.000000 0.637697
0.376736 0.000000 0.637697
0.380809 0.000000 0.637697
0.393311 0.000000 0.637695
0.430333 0.000000 0.637665
0.531619 0.000000 0.630566
0.727087 0.000000 0.616288
0.968032 0.000000 0.564621
1.000000 0.000000 0.522020
0.594806 0.362482 1.000000
0.597684 0.362131 1.000000
0.602189 0.361561 1.000000
0.615880 0.359818 1.000000
0.654911 0.354046 1.000000
0.769894 0.321702 1.000000
0.930904 0.231229 1.000000
1.000000 0.000000 0.981330
1.000000 0.000000 0.521884
0.592884 0.728816 1.000000
0.595815 0.729319 1.000000
0.600399 0.730116 1.000000
0.614187 0.732533 1.000000
0.652560 0.739050 1.000000
0.746871 0.747846 1.000000
0.878678 0.744927 1.000000
1.000000 0.734905 1.000000
1.000000 0.634939 0.998563
0.640981 0.929596 1.000000
0.643295 0.929689 1.000000
0.646923 0.929802 1.000000
0.657780 0.930146 1.000000
0.687357 0.931238 1.000000
0.750528 0.935166 1.000000
0.850327 0.944945 1.000000
0.975953 0.954508 1.000000
1.000000 0.945478 1.000000
0.810393 1.000000 1.000000
0.810998 1.000000 1.000000
0.811947 1.000000 1.000000
0.814849 1.000000 1.000000
0.823364 1.000000 1.000000
0.846288 1.000000 1.000000
0.896039 1.000000 1.000000
0.973238 1.000000 1.000000
1.000000 1.000000 1.000000
