Assets/Lutify-Free-LUTs-Pack/Lutify Free LUTs Pack/Print Film Pro - Print Film 2/Lutify.me-PrintFilm2-CanonLog3-to-Rec709.cube
# Created with: fylm.ai - Colour Grading and Collaboration Software in Cloud 
# Website: https://fylm.ai 
# META
# Option: Gamut compress
# Block 1: IDT | CanonLog3 Cinema Gamut Daylight
# Block 2: colourMatch | Blending Mode: Normal | {"ColorSpace":0,"CrossCovarianceLimit":50,"ReshapingIterations":1,"PercentSaturationShift":100,"PercentShadingShift":100,"ExtraShading":true,"PercentTint":100,"PercentModified":100}
# Block 3: HSL | Blending Mode: Normal | {"hue":{"Reds":0,"Yellows":0,"Greens":0,"Cyans":0,"Blues":0,"Magentas":0},"saturation":{"Reds":1,"Yellows":0.9,"Greens":0.95,"Cyans":1,"Blues":1,"Magentas":1},"luminance":{"Reds":0.8,"Yellows":0.95,"Greens":0.9,"Cyans":0.8,"Blues":0.8,"Magentas":0.8},"lum_sat":{"Blacks":1,"Shadows":1,"Midtones":1,"Highlights":1,"Whites":1},"sat_sat":{"10":1,"20":1,"30":1,"40":1,"50":1}}
# Block 4: LUT | Filmic Curve Response: Low Contrast 2 (100%)
# Block 5: ODT | Rec709
TITLE "Lutify.me-PrintFilm2-CanonLog3-to-Rec709" 
LUT_3D_SIZE 5
0.000000 0.000000 0.000000
0.000000 0.000000 0.000000
0.378041 0.000000 0.000000
0.994296 0.000000 0.126363
1.000000 0.643602 0.519434
0.000000 0.102855 0.000000
0.272841 0.154164 0.000000
0.692872 0.000000 0.000000
1.000000 0.192201 0.110646
1.000000 0.662510 0.517964
0.000000 0.460716 0.000000
0.000000 0.575256 0.000000
0.855423 0.546959 0.000000
1.000000 0.607899 0.000000
1.000000 0.722173 0.516531
0.000000 0.882335 0.000000
0.397030 0.882211 0.000000
0.810937 0.868151 0.000000
1.000000 0.860637 0.000000
1.000000 0.899805 0.530427
0.844327 0.982248 0.180803
0.858703 0.981588 0.186875
0.896487 0.979810 0.206385
0.990497 0.975153 0.310525
1.000000 0.973545 0.647541
0.000000 0.000000 0.000000
0.041790 0.000000 0.000000
0.283822 0.000000 0.023636
1.000000 0.000000 0.231801
1.000000 0.644825 0.551320
0.000000 0.059949 0.264056
0.167163 0.177800 0.191284
0.628013 0.000000 0.110313
1.000000 0.172360 0.227865
1.000000 0.664089 0.550482
0.000000 0.391589 0.000000
0.000000 0.633579 0.000000
0.748365 0.645954 0.000000
1.000000 0.599709 0.181019
1.000000 0.717554 0.546428
0.000000 0.881361 0.000000
0.364372 0.881304 0.000000
0.805984 0.867281 0.000000
1.000000 0.859626 0.000000
1.000000 0.898078 0.575718
0.842408 0.982246 0.178977
0.857075 0.981574 0.185122
0.895295 0.979778 0.204753
0.990209 0.975081 0.309194
1.000000 0.973462 0.646941
0.000000 0.000000 0.000000
0.000000 0.000000 0.071114
0.282817 0.000000 0.088137
0.983315 0.000000 0.435679
1.000000 0.653977 0.644460
0.000000 0.000000 0.639198
0.000000 0.000000 0.531222
0.527400 0.000000 0.362403
1.000000 0.000000 0.488126
1.000000 0.672921 0.645356
0.000000 0.243968 0.852525
0.000000 0.490309 0.755537
0.679152 0.698037 0.727672
1.000000 0.540482 0.557340
1.000000 0.722195 0.641648
0.000000 0.916042 0.545289
0.000000 0.927902 0.544868
0.615096 0.930340 0.497038
0.956292 0.924290 0.455108
1.000000 0.894909 0.686011
0.835611 0.982282 0.173016
0.851210 0.981535 0.178935
0.891068 0.979672 0.199023
0.989193 0.974829 0.304562
1.000000 0.973171 0.644864
0.000000 0.000000 0.000000
0.000000 0.000000 0.214548
0.217969 0.000000 0.239560
0.651090 0.000000 0.209478
1.000000 0.547129 0.832014
0.000000 0.000000 0.861869
0.000000 0.000000 0.765170
0.271885 0.000000 0.560429
0.650771 0.000000 0.208518
1.000000 0.586137 0.837078
0.000000 0.055589 1.000000
0.000000 0.234524 0.950675
0.363893 0.323175 0.927885
1.000000 0.115165 0.859794
1.000000 0.684364 0.851688
0.000000 0.536678 1.000000
0.000000 0.757322 0.962271
0.000000 0.881539 0.944060
0.923067 0.931100 0.944210
1.000000 0.881798 0.882831
0.689475 1.000000 0.888076
0.719180 1.000000 0.890059
0.786219 1.000000 0.891818
0.907030 1.000000 0.881953
1.000000 0.998699 0.878290
0.000000 0.000000 0.469434
0.000000 0.000000 0.492644
0.171285 0.000000 0.495388
0.605989 0.000000 0.477542
1.000000 0.000000 0.408035
0.000000 0.000000 0.467474
0.000000 0.000000 0.492270
0.170591 0.000000 0.495053
0.605851 0.000000 0.477138
1.000000 0.000000 0.407709
0.000000 0.148355 1.000000
0.000000 0.180057 1.000000
0.261134 0.192926 1.000000
0.835542 0.000000 0.978068
1.000000 0.000000 0.406586
0.000000 0.467142 1.000000
0.000000 0.564134 1.000000
0.000000 0.652125 1.000000
0.805538 0.735611 1.000000
1.000000 0.722494 0.987422
0.000000 0.823849 1.000000
0.000000 0.899243 1.000000
0.000000 0.964531 1.000000
0.781450 0.984291 1.000000
0.996238 0.999242 1.000000
