Assets/Lutify-Free-LUTs-Pack/Lutify Free LUTs Pack/Print Film Pro - Print Film 2/Lutify.me-PrintFilm2-DragonColor2RLF-to-Rec709.cube
# Created with: fylm.ai - Colour Grading and Collaboration Software in Cloud 
# Website: https://fylm.ai 
# META
# Option: Gamut compress
# Block 1: IDT | RED DragonColor2 REDLogFilm
# Block 2: colourMatch | Blending Mode: Normal | {"ColorSpace":0,"CrossCovarianceLimit":50,"ReshapingIterations":1,"PercentSaturationShift":100,"PercentShadingShift":100,"ExtraShading":true,"PercentTint":100,"PercentModified":100}
# Block 3: HSL | Blending Mode: Normal | {"hue":{"Reds":0,"Yellows":0,"Greens":0,"Cyans":0,"Blues":0,"Magentas":0},"saturation":{"Reds":1,"Yellows":0.9,"Greens":0.95,"Cyans":1,"Blues":1,"Magentas":1},"luminance":{"Reds":0.8,"Yellows":0.95,"Greens":0.9,"Cyans":0.8,"Blues":0.8,"Magentas":0.8},"lum_sat":{"Blacks":1,"Shadows":1,"Midtones":1,"Highlights":1,"Whites":1},"sat_sat":{"10":1,"20":1,"30":1,"40":1,"50":1}}
# Block 4: LUT | Filmic Curve Response: Low Contrast 2 (100%)
# Block 5: ODT | Rec709
TITLE "Lutify.me-PrintFilm2-DragonColor2RLF-to-Rec709" 
LUT_3D_SIZE 33
0.000000 0.000000 0.000000
0.000000 0.000000 0.000000
0.000000 0.000000 0.000000
0.000000 0.000000 0.000000
0.000000 0.000000 0.000000
0.000000 0.000000 0.000000
0.000000 0.000000 0.000000
0.000000 0.000000 0.000000
0.000000 0.000000 0.000000
0.000000 0.000000 0.000000
0.000000 0.000000 0.000000
0.030935 0.000000 0.000000
0.063896 0.000000 0.000000
0.093094 0.000000 0.000000
0.124494 0.000000 0.000000
0.161054 0.000000 0.000000
0.212608 0.000000 0.000000
0.273197 0.000000 0.000000
0.335630 0.000000 0.000000
0.401773 0.000000 0.000000
0.477607 0.000000 0.000000
0.566799 0.000000 0.000000
0.649928 0.000000 0.000000
0.725648 0.000000 0.000000
0.800415 0.000000 0.000000
0.876169 0.000000 0.000000
0.935172 0.046269 0.000000
0.983730 0.207896 0.000000
1.000000 0.312677 0.000000
1.000000 0.389536 0.000000
1.000000 0.468151 0.000000
1.000000 0.547674 0.089973
1.000000 0.623563 0.161253
0.000000 0.000000 0.000000
0.000000 0.000000 0.000000
0.000000 0.000000 0.000000
0.000000 0.000000 0.000000
0.000000 0.000000 0.000000
0.000000 0.000000 0.000000
0.000000 0.000000 0.000000
0.000000 0.000000 0.000000
0.000000 0.000000 0.000000
0.000000 0.000000 0.000000
0.000000 0.000000 0.000000
0.037772 0.000000 0.000000
0.067398 0.000000 0.000000
0.097729 0.000000 0.000000
0.128483 0.000000 0.000000
0.165508 0.000000 0.000000
0.215990 0.000000 0.000000
0.276681 0.000000 0.000000
0.337733 0.000000 0.000000
0.404365 0.000000 0.000000
0.479419 0.000000 0.000000
0.568459 0.000000 0.000000
0.650880 0.000000 0.000000
0.726575 0.000000 0.000000
0.801147 0.000000 0.000000
0.876568 0.000000 0.000000
0.935489 0.054702 0.000000
0.983887 0.209393 0.000000
1.000000 0.313710 0.000000
1.000000 0.390217 0.000000
1.000000 0.468677 0.000000
1.000000 0.548038 0.090016
1.000000 0.623844 0.161303
0.000000 0.000000 0.000000
0.000000 0.000000 0.000000
0.000000 0.000000 0.000000
0.000000 0.000000 0.000000
0.000000 0.000000 0.000000
0.000000 0.000000 0.000000
0.000000 0.000000 0.000000
0.000000 0.000000 0.000000
0.000000 0.000000 0.000000
0.000000 0.000000 0.000000
0.000000 0.000000 0.000000
0.045346 0.000000 0.000000
0.072196 0.000000 0.000000
0.102453 0.000000 0.000000
0.133212 0.000000 0.000000
0.171174 0.000000 0.000000
0.220764 0.000000 0.000000
0.280840 0.000000 0.000000
0.340406 0.000000 0.000000
0.407667 0.000000 0.000000
0.481722 0.000000 0.000000
0.570571 0.000000 0.000000
0.652090 0.000000 0.000000
0.727755 0.000000 0.000000
0.802081 0.000000 0.000000
0.877075 0.000000 0.000000
0.935892 0.063418 0.000000
0.984086 0.211293 0.000000
1.000000 0.315028 0.000000
1.000000 0.391086 0.000000
1.000000 0.469346 0.000000
1.000000 0.548500 0.090072
1.000000 0.624201 0.161366
0.000000 0.000000 0.000000
0.000000 0.000000 0.000000
0.000000 0.000000 0.000000
0.000000 0.000000 0.000000
0.000000 0.000000 0.000000
0.000000 0.000000 0.000000
0.000000 0.000000 0.000000
0.000000 0.000000 0.000000
0.000000 0.000000 0.000000
0.000000 0.000000 0.000000
0.018407 0.000000 0.000000
0.053921 0.000000 0.000000
0.077876 0.000000 0.000000
0.108889 0.000000 0.000000
0.139012 0.000000 0.000000
0.177580 0.000000 0.000000
0.227475 0.000000 0.000000
0.286081 0.000000 0.000000
0.344665 0.000000 0.000000
0.411044 0.000000 0.000000
0.484644 0.000000 0.000000
0.573237 0.000000 0.000000
0.653630 0.000000 0.000000
0.729069 0.000000 0.000000
0.803268 0.000000 0.000000
0.877720 0.000000 0.000000
0.936404 0.072633 0.000000
0.984339 0.213702 0.000000
1.000000 0.316706 0.000000
1.000000 0.392194 0.000000
1.000000 0.470201 0.000000
1.000000 0.549091 0.090143
1.000000 0.624660 0.161448
0.000000 0.000000 0.000000
0.000000 0.000000 0.000000
0.000000 0.000000 0.000000
0.000000 0.000000 0.000000
0.000000 0.000000 0.000000
0.000000 0.000000 0.000000
0.000000 0.000000 0.000000
0.000000 0.000000 0.000000
0.000000 0.000000 0.000000
0.000000 0.000000 0.000000
0.037751 0.000000 0.000000
0.063756 0.000000 0.000000
0.088077 0.000000 0.000000
0.115918 0.000000 0.000000
0.147688 0.000000 0.000000
0.185863 0.000000 0.000000
0.235026 0.000000 0.000000
0.292783 0.000000 0.000000
0.350187 0.000000 0.000000
0.415229 0.000000 0.000000
0.488350 0.000000 0.000000
0.576603 0.000000 0.000000
0.655586 0.000000 0.000000
0.730747 0.000000 0.000000
0.804778 0.000000 0.000000
0.878538 0.000000 0.000000
0.937052 0.082546 0.000000
0.984659 0.216753 0.000000
1.000000 0.318840 0.000000
1.000000 0.393607 0.000000
1.000000 0.471292 0.000000
1.000000 0.549845 0.090234
1.000000 0.625244 0.161556
0.000000 0.000000 0.000000
0.000000 0.000000 0.000000
0.000000 0.000000 0.000000
0.000000 0.000000 0.000000
0.000000 0.000000 0.000000
0.000000 0.000000 0.000000
0.000000 0.000000 0.000000
0.000000 0.000000 0.000000
0.011387 0.000000 0.000000
0.038973 0.000000 0.000000
0.059961 0.000000 0.000000
0.079233 0.000000 0.000000
0.103686 0.000000 0.000000
0.127498 0.000000 0.000000
0.158519 0.000000 0.000000
0.196341 0.000000 0.000000
0.245237 0.000000 0.000000
0.301848 0.000000 0.000000
0.357230 0.000000 0.000000
0.420555 0.000000 0.000000
0.493127 0.000000 0.000000
0.580870 0.000000 0.000000
0.658068 0.000000 0.000000
0.733224 0.000000 0.000000
0.806695 0.000000 0.000000
0.879574 0.000000 0.000000
0.937873 0.093333 0.000000
0.985064 0.220602 0.000000
1.000000 0.321553 0.000000
1.000000 0.395409 0.000000
1.000000 0.472684 0.000000
1.000000 0.550807 0.090355
1.000000 0.625990 0.161690
0.000000 0.000000 0.000000
0.000000 0.000000 0.000000
0.000000 0.000000 0.000000
0.000000 0.000000 0.000000
0.000000 0.000000 0.000000
0.000000 0.000000 0.000000
0.000000 0.000000 0.000000
0.010999 0.000000 0.000000
0.038186 0.000000 0.000000
0.055610 0.000000 0.000000
0.071518 0.000000 0.000000
0.095553 0.000000 0.000000
0.119976 0.000000 0.000000
0.145378 0.000000 0.000000
0.172415 0.000000 0.000000
0.211984 0.000000 0.000000
0.257862 0.000000 0.000000
0.311819 0.000000 0.000000
0.365945 0.000000 0.000000
0.427344 0.000000 0.000000
0.499314 0.000000 0.000000
0.586267 0.000000 0.000000
0.661213 0.000000 0.000000
0.736361 0.000000 0.000000
0.809056 0.000000 0.000000
0.880884 0.000000 0.000000
0.938906 0.105187 0.000000
0.985573 0.225452 0.000000
1.000000 0.324866 0.000000
1.000000 0.397700 0.000000
1.000000 0.474458 0.000000
1.000000 0.552036 0.090508
1.000000 0.626941 0.161866
0.000000 0.000000 0.000000
0.000000 0.000000 0.000000
0.000000 0.000000 0.000000
0.000000 0.004639 0.000000
0.000000 0.011770 0.000000
0.000000 0.017954 0.000000
0.000000 0.021265 0.000000
0.034756 0.023168 0.000000
0.052053 0.025883 0.000000
0.066287 0.027576 0.000000
0.086871 0.025385 0.000000
0.112596 0.005658 0.000000
0.137413 0.000000 0.000000
0.163792 0.000000 0.000000
0.193954 0.000000 0.000000
0.228565 0.000000 0.000000
0.273515 0.000000 0.000000
0.324191 0.000000 0.000000
0.375050 0.000000 0.000000
0.435883 0.000000 0.000000
0.507352 0.000000 0.000000
0.592878 0.000000 0.000000
0.665195 0.000000 0.000000
0.740328 0.000000 0.000000
0.811984 0.000000 0.000000
0.882532 0.000000 0.000000
0.940205 0.118319 0.000000
0.986211 0.231542 0.000000
1.000000 0.328776 0.000000
1.000000 0.400616 0.000000
1.000000 0.476718 0.000000
1.000000 0.553601 0.090703
1.000000 0.628156 0.162089
0.000000 0.030311 0.000000
0.000000 0.032834 0.000000
0.000000 0.034343 0.000000
0.000000 0.036819 0.000000
0.000000 0.040736 0.000000
0.000000 0.042803 0.000000
0.019373 0.044182 0.000000
0.043994 0.045200 0.000000
0.057503 0.045951 0.000000
0.075064 0.046078 0.000000
0.097576 0.044844 0.000000
0.124700 0.040572 0.000000
0.153520 0.028935 0.000000
0.184580 0.000000 0.000000
0.215993 0.000000 0.000000
0.250575 0.000000 0.000000
0.293471 0.000000 0.000000
0.338235 0.000000 0.000000
0.387592 0.000000 0.000000
0.448341 0.000000 0.000000
0.519645 0.000000 0.000000
0.598641 0.000000 0.000000
0.670118 0.000000 0.000000
0.745325 0.000000 0.000000
0.815708 0.000000 0.000000
0.884866 0.000000 0.000000
0.941828 0.132993 0.000000
0.987006 0.239169 0.000000
1.000000 0.333723 0.000000
1.000000 0.404320 0.000000
1.000000 0.479577 0.000000
1.000000 0.555595 0.090956
1.000000 0.629708 0.162387
0.000000 0.051993 0.000000
0.000000 0.053249 0.000000
0.000000 0.054257 0.000000
0.000000 0.055589 0.000000
0.000000 0.057886 0.000000
0.000000 0.059501 0.000000
0.034333 0.060988 0.000000
0.049683 0.061480 0.000000
0.066569 0.061508 0.000000
0.085849 0.062111 0.000000
0.112330 0.061723 0.000000
0.143251 0.059400 0.000000
0.171066 0.052810 0.000000
0.204797 0.042599 0.000000
0.238911 0.023159 0.000000
0.273062 0.000000 0.000000
0.315682 0.000000 0.000000
0.360524 0.000000 0.000000
0.409689 0.000000 0.000000
0.466444 0.000000 0.000000
0.535412 0.000000 0.000000
0.608389 0.000000 0.000000
0.676103 0.000000 0.000000
0.751691 0.000000 0.000000
0.820627 0.000000 0.000000
0.888115 0.000000 0.000000
0.943844 0.149528 0.000000
0.987823 0.248811 0.000000
1.000000 0.339969 0.000000
1.000000 0.409018 0.000000
1.000000 0.483175 0.000000
1.000000 0.558134 0.091290
1.000000 0.631686 0.162768
0.000000 0.076411 0.000000
0.000000 0.078231 0.000000
0.000000 0.079283 0.000000
0.000000 0.081375 0.000000
0.000000 0.082846 0.000000
0.000000 0.084486 0.000000
0.028206 0.086236 0.000000
0.052213 0.087368 0.000000
0.074650 0.087992 0.000000
0.096118 0.089712 0.000000
0.126812 0.087685 0.000000
0.159839 0.086736 0.000000
0.195370 0.085100 0.000000
0.226599 0.079658 0.000000
0.261514 0.072725 0.000000
0.300372 0.061623 0.000000
0.343572 0.021897 0.000000
0.390563 0.000000 0.000000
0.440789 0.000000 0.000000
0.491383 0.000000 0.000000
0.552380 0.000000 0.000000
0.620981 0.000000 0.000000
0.686585 0.000000 0.000000
0.759799 0.000000 0.000000
0.826504 0.000000 0.000000
0.892134 0.055604 0.000000
0.946404 0.169996 0.000000
0.988601 0.260961 0.000000
1.000000 0.347833 0.000000
1.000000 0.414966 0.000000
1.000000 0.487743 0.000000
1.000000 0.561363 0.091721
1.000000 0.634204 0.163263
0.000000 0.108125 0.000000
0.000000 0.109745 0.000000
0.000000 0.111426 0.000000
0.000000 0.112668 0.000000
0.000000 0.114069 0.000000
0.000000 0.115636 0.000000
0.000000 0.117394 0.000000
0.053310 0.117331 0.000000
0.080424 0.118240 0.000000
0.109680 0.119779 0.000000
0.143486 0.118831 0.000000
0.175041 0.115932 0.000000
0.210575 0.115186 0.000000
0.247348 0.114474 0.000000
0.284149 0.108303 0.000000
0.323071 0.100389 0.000000
0.368942 0.090679 0.000000
0.417494 0.068829 0.000000
0.466185 0.007173 0.000000
0.518412 0.000000 0.000000
0.576563 0.000000 0.000000
0.637431 0.000000 0.000000
0.699457 0.000000 0.000000
0.769641 0.000000 0.000000
0.833746 0.000000 0.000000
0.897003 0.109825 0.000000
0.949530 0.193837 0.000000
0.989516 0.275431 0.000000
1.000000 0.357709 0.000000
1.000000 0.422484 0.000000
1.000000 0.493533 0.000000
1.000000 0.565465 0.092291
1.000000 0.637395 0.163904
0.000000 0.146601 0.000000
0.000000 0.147366 0.000000
0.000000 0.148303 0.000000
0.000000 0.149432 0.000000
0.000000 0.150787 0.000000
0.000000 0.152423 0.000000
0.000000 0.153357 0.000000
0.048311 0.153160 0.000000
0.089415 0.152737 0.000000
0.123408 0.153971 0.000000
0.158086 0.155476 0.000000
0.192208 0.153968 0.000000
0.227178 0.149820 0.000000
0.265046 0.148489 0.000000
0.306661 0.147965 0.000000
0.348797 0.143192 0.000000
0.396996 0.134828 0.000000
0.443825 0.129734 0.000000
0.489652 0.119076 0.000000
0.541102 0.103121 0.000000
0.603839 0.074195 0.000000
0.660257 0.000000 0.000000
0.716657 0.000000 0.000000
0.780189 0.000000 0.000000
0.842704 0.083889 0.000000
0.903436 0.154792 0.000000
0.953245 0.221558 0.000000
0.990576 0.292810 0.000000
1.000000 0.369998 0.000000
1.000000 0.431963 0.000000
1.000000 0.500860 0.000000
1.000000 0.570666 0.093045
1.000000 0.641438 0.164747
0.000000 0.190772 0.000000
0.000000 0.191384 0.000000
0.000000 0.192130 0.000000
0.000000 0.193057 0.000000
0.000000 0.194178 0.000000
0.000000 0.195499 0.000000
0.000000 0.197056 0.000000
0.039183 0.196772 0.000000
0.096034 0.196164 0.000000
0.133746 0.195935 0.000000
0.168968 0.196750 0.000000
0.203387 0.196841 0.000000
0.242058 0.192534 0.000000
0.284619 0.186666 0.000000
0.325816 0.185524 0.000000
0.371594 0.185874 0.000000
0.426560 0.180193 0.000000
0.472917 0.174325 0.000000
0.517684 0.173938 0.000000
0.568172 0.165915 0.000000
0.626946 0.157573 0.000000
0.686634 0.139767 0.000000
0.737256 0.134034 0.000000
0.792781 0.131824 0.000000
0.853084 0.149538 0.000000
0.911106 0.199703 0.000000
0.957557 0.254427 0.000000
0.991800 0.315908 0.000000
1.000000 0.383632 0.000000
1.000000 0.443888 0.000000
1.000000 0.510002 0.000000
1.000000 0.577251 0.094040
1.000000 0.646570 0.165855
0.000000 0.238221 0.000000
0.000000 0.238726 0.000000
0.000000 0.239343 0.000000
0.000000 0.240095 0.000000
0.000000 0.240996 0.000000
0.000000 0.242128 0.000000
0.000000 0.243639 0.000000
0.038933 0.244128 0.000000
0.098375 0.245331 0.000000
0.136970 0.246543 0.000000
0.171655 0.247671 0.000000
0.210372 0.245322 0.000000
0.252140 0.241863 0.000000
0.296313 0.236337 0.000000
0.340587 0.229549 0.000000
0.391572 0.228948 0.000000
0.449165 0.230444 0.000000
0.499856 0.228262 0.000000
0.550531 0.226615 0.000000
0.601383 0.226729 0.000000
0.653606 0.222951 0.000000
0.710855 0.217930 0.000000
0.764362 0.214916 0.000000
0.811985 0.214137 0.000000
0.865356 0.216895 0.000000
0.919753 0.250128 0.000000
0.960951 0.290952 0.000000
0.993297 0.342166 0.000000
1.000000 0.400457 0.000000
1.000000 0.457755 0.000000
1.000000 0.520829 0.000000
1.000000 0.585577 0.095387
1.000000 0.653013 0.167328
0.000000 0.298660 0.000000
0.000000 0.299049 0.000000
0.000000 0.299529 0.000000
0.000000 0.300108 0.000000
0.000000 0.300804 0.000000
0.000000 0.301791 0.000000
0.000000 0.303088 0.000000
0.000000 0.304680 0.000000
0.071721 0.306271 0.000000
0.126752 0.308017 0.000000
0.172630 0.309134 0.000000
0.214632 0.306989 0.000000
0.259531 0.303952 0.000000
0.309054 0.299740 0.000000
0.359782 0.294016 0.000000
0.419743 0.289513 0.000000
0.476373 0.289456 0.000000
0.528351 0.288744 0.000000
0.582079 0.289140 0.000000
0.633638 0.292131 0.000000
0.686178 0.294939 0.000000
0.736433 0.295683 0.000000
0.788912 0.296463 0.000000
0.835951 0.296220 0.000000
0.880451 0.299870 0.000000
0.927230 0.306272 0.000000
0.964472 0.334881 0.000000
0.994967 0.373502 0.000000
1.000000 0.421494 0.000000
1.000000 0.473946 0.000000
1.000000 0.535437 0.000000
1.000000 0.596279 0.097034
1.000000 0.661061 0.169298
0.000000 0.364087 0.000000
0.000000 0.364033 0.000000
0.000000 0.364293 0.000000
0.000000 0.364985 0.000000
0.000000 0.365844 0.000000
0.000000 0.366903 0.000000
0.000000 0.368162 0.000000
0.000000 0.369671 0.000000
0.024292 0.371459 0.000000
0.122299 0.373268 0.000000
0.174621 0.375185 0.000000
0.219355 0.374962 0.000000
0.267023 0.373632 0.000000
0.315380 0.369969 0.000000
0.375801 0.364318 0.000000
0.436990 0.362173 0.000000
0.495031 0.355813 0.000000
0.548816 0.353709 0.000000
0.602007 0.355761 0.000000
0.653288 0.360519 0.000000
0.714230 0.366893 0.000000
0.764060 0.367194 0.000000
0.809315 0.372423 0.000000
0.851849 0.374281 0.000000
0.894003 0.375835 0.000000
0.935533 0.371231 0.000000
0.968584 0.381589 0.000000
0.998105 0.408028 0.000000
1.000000 0.447424 0.000000
1.000000 0.498591 0.000000
1.000000 0.554407 0.000000
1.000000 0.609517 0.099322
1.000000 0.671059 0.171968
0.000000 0.435366 0.000000
0.000000 0.435729 0.000000
0.000000 0.436186 0.000000
0.000000 0.436760 0.000000
0.000000 0.437476 0.000000
0.000000 0.438337 0.000000
0.000000 0.439390 0.000000
0.000000 0.440666 0.000000
0.000000 0.442230 0.000000
0.118934 0.444210 0.000000
0.171629 0.445215 0.000000
0.221628 0.443524 0.000000
0.270915 0.441147 0.000000
0.325934 0.441445 0.000000
0.385111 0.442950 0.000000
0.445396 0.436608 0.000000
0.502322 0.430697 0.000000
0.562234 0.423701 0.000000
0.615333 0.423719 0.000000
0.670172 0.427650 0.000000
0.732898 0.433104 0.000000
0.787153 0.440501 0.000000
0.827865 0.444135 0.000000
0.868365 0.442550 0.000000
0.905340 0.446855 0.000000
0.942542 0.443541 0.000000
0.972557 0.451836 0.000000
0.999811 0.458689 0.000000
1.000000 0.481071 0.000000
1.000000 0.530113 0.000000
1.000000 0.578211 0.000000
1.000000 0.626290 0.102532
1.000000 0.682498 0.175693
0.000000 0.509407 0.000000
0.000000 0.509675 0.000000
0.000000 0.510013 0.000000
0.000000 0.510439 0.000000
0.000000 0.510972 0.000000
0.000000 0.511637 0.000000
0.000000 0.512459 0.000000
0.000000 0.513585 0.000000
0.000000 0.514967 0.000000
0.113074 0.516621 0.000000
0.173049 0.518567 0.000000
0.232609 0.518383 0.000000
0.288713 0.517101 0.000000
0.344391 0.515297 0.000000
0.397714 0.513311 0.000000
0.450134 0.511007 0.000000
0.506563 0.507793 0.000000
0.570371 0.501972 0.000000
0.628430 0.493231 0.000000
0.686697 0.495829 0.000000
0.749203 0.501055 0.000000
0.797059 0.508855 0.000000
0.842763 0.516924 0.000000
0.882424 0.512567 0.000000
0.917129 0.514353 0.000000
0.947417 0.519017 0.000000
0.974619 0.526519 0.000000
0.999645 0.530749 0.000000
1.000000 0.536094 0.000000
1.000000 0.569715 0.000000
1.000000 0.606814 0.000000
1.000000 0.647248 0.106961
1.000000 0.695850 0.179928
0.000000 0.589284 0.000000
0.000000 0.589479 0.000000
0.000000 0.589726 0.000000
0.000000 0.590038 0.000000
0.000000 0.590445 0.000000
0.000000 0.590965 0.000000
0.000000 0.591610 0.000000
0.000000 0.592404 0.000000
0.116080 0.593370 0.000000
0.175217 0.594530 0.000000
0.225426 0.595899 0.000000
0.270873 0.596548 0.000000
0.317296 0.596439 0.000000
0.360296 0.595475 0.000000
0.407038 0.593991 0.000000
0.458072 0.592809 0.000000
0.513930 0.589053 0.000000
0.574122 0.585314 0.000000
0.636042 0.581901 0.000000
0.702484 0.571299 0.000000
0.759390 0.573512 0.000000
0.810920 0.573759 0.000000
0.852025 0.584084 0.000000
0.890600 0.591056 0.000000
0.923446 0.594395 0.000000
0.952416 0.596470 0.000000
0.974440 0.603786 0.000000
0.997381 0.605976 0.000000
1.000000 0.607683 0.000000
1.000000 0.619747 0.000000
1.000000 0.641204 0.000000
1.000000 0.672637 0.112612
1.000000 0.711112 0.184770
0.127657 0.660181 0.000000
0.137211 0.660337 0.000000
0.148222 0.660535 0.000000
0.160837 0.660784 0.000000
0.175210 0.661099 0.000000
0.191508 0.661496 0.000000
0.209924 0.661991 0.000000
0.230667 0.662607 0.000000
0.253973 0.663370 0.000000
0.278418 0.664327 0.000000
0.301013 0.665400 0.000000
0.325936 0.666666 0.000000
0.358961 0.666976 0.000000
0.396769 0.666798 0.000000
0.436822 0.665672 0.000000
0.484112 0.664134 0.000000
0.530097 0.662147 0.000000
0.585742 0.659278 0.000000
0.643791 0.658985 0.000000
0.704799 0.657461 0.000000
0.764252 0.643632 0.000000
0.814818 0.643709 0.000000
0.855505 0.650284 0.000000
0.889132 0.655502 0.000000
0.924212 0.667711 0.000000
0.952159 0.665725 0.000000
0.972925 0.666607 0.000000
0.993070 0.672484 0.000000
1.000000 0.672785 0.000000
1.000000 0.680534 0.000000
1.000000 0.684449 0.000000
1.000000 0.700593 0.120840
1.000000 0.729584 0.191686
0.272434 0.721413 0.000000
0.275594 0.721517 0.000000
0.279561 0.721649 0.000000
0.284518 0.721816 0.000000
0.290681 0.722028 0.000000
0.298299 0.722294 0.000000
0.307652 0.722628 0.000000
0.319047 0.723045 0.000000
0.332816 0.723563 0.000000
0.349305 0.724202 0.000000
0.368864 0.724980 0.000000
0.389763 0.725865 0.000000
0.413405 0.726900 0.000000
0.441765 0.728137 0.000000
0.473052 0.729571 0.000000
0.508715 0.729840 0.000000
0.555716 0.727230 0.000000
0.610022 0.723544 0.000000
0.661040 0.723294 0.000000
0.713497 0.723035 0.000000
0.766949 0.718140 0.000000
0.816611 0.712036 0.000000
0.855099 0.710915 0.000000
0.887756 0.712827 0.000000
0.922559 0.719980 0.000000
0.950570 0.726153 0.000000
0.969846 0.725359 0.000000
0.988868 0.728112 0.000000
1.000000 0.728115 0.000000
1.000000 0.731370 0.000000
1.000000 0.735575 0.000000
1.000000 0.737114 0.137874
1.000000 0.751879 0.201848
0.373110 0.779172 0.000000
0.374968 0.779232 0.000000
0.377323 0.779307 0.000000
0.380299 0.779404 0.000000
0.384049 0.779526 0.000000
0.388762 0.779679 0.000000
0.394656 0.779873 0.000000
0.401996 0.780115 0.000000
0.411073 0.780417 0.000000
0.422226 0.780791 0.000000
0.435818 0.781250 0.000000
0.452233 0.781807 0.000000
0.471855 0.782475 0.000000
0.495053 0.783261 0.000000
0.522048 0.784089 0.000000
0.556956 0.783908 0.000000
0.596233 0.782405 0.000000
0.639631 0.780313 0.000000
0.686738 0.777785 0.000000
0.731403 0.775017 0.000000
0.775956 0.771965 0.000000
0.817167 0.769506 0.000000
0.854084 0.762800 0.000000
0.888209 0.763520 0.000000
0.921055 0.768814 0.000000
0.946687 0.772216 0.000000
0.966426 0.778203 0.000000
0.983758 0.779994 0.000000
1.000000 0.777407 0.000000
1.000000 0.776439 0.000000
1.000000 0.780026 0.094175
1.000000 0.782001 0.168642
1.000000 0.785378 0.225451
0.473039 0.828175 0.000000
0.474278 0.828202 0.000000
0.475854 0.828236 0.000000
0.477854 0.828279 0.000000
0.480389 0.828334 0.000000
0.483594 0.828402 0.000000
0.487635 0.828490 0.000000
0.492712 0.828599 0.000000
0.499065 0.828735 0.000000
0.507623 0.828751 0.000000
0.518966 0.828580 0.000000
0.532843 0.828362 0.000000
0.549669 0.828080 0.000000
0.569859 0.827717 0.000000
0.593802 0.827250 0.000000
0.621065 0.826684 0.000000
0.650729 0.826042 0.000000
0.679766 0.825323 0.000000
0.713688 0.825216 0.000000
0.749444 0.825021 0.000000
0.786225 0.822534 0.000000
0.819460 0.819180 0.000000
0.850696 0.818405 0.000000
0.888652 0.811502 0.000000
0.920272 0.812820 0.000000
0.942732 0.815236 0.000000
0.961459 0.819987 0.000000
0.980582 0.824889 0.000000
0.996933 0.822769 0.000000
1.000000 0.822213 0.046531
1.000000 0.823971 0.154537
1.000000 0.823783 0.210364
1.000000 0.825124 0.263278
0.587647 0.863322 0.172044
0.588582 0.863304 0.171835
0.589772 0.863281 0.171565
0.591283 0.863252 0.171191
0.593199 0.863215 0.170711
0.595625 0.863168 0.170098
0.598689 0.863108 0.169314
0.602548 0.863031 0.168308
0.607385 0.862935 0.167019
0.613420 0.862813 0.165365
0.620904 0.862660 0.163240
0.630116 0.862468 0.160505
0.641347 0.862229 0.156970
0.654887 0.861935 0.152380
0.669377 0.862005 0.145999
0.683460 0.862361 0.140046
0.701869 0.862714 0.129370
0.722657 0.863126 0.112928
0.744596 0.863215 0.080857
0.771986 0.862535 0.000000
0.799111 0.860883 0.000000
0.826144 0.859194 0.000000
0.856610 0.858074 0.000000
0.888697 0.854150 0.000000
0.918713 0.850688 0.000000
0.939630 0.851910 0.000000
0.958104 0.854998 0.000000
0.977220 0.856704 0.000000
0.993368 0.858534 0.053857
1.000000 0.858657 0.147402
1.000000 0.859366 0.207219
1.000000 0.857037 0.256474
1.000000 0.855976 0.303920
0.671755 0.890419 0.268051
0.672268 0.890424 0.267934
0.672921 0.890431 0.267785
0.673752 0.890440 0.267594
0.674810 0.890450 0.267350
0.676152 0.890464 0.267038
0.677852 0.890482 0.266643
0.680001 0.890504 0.266135
0.682710 0.890533 0.265489
0.686110 0.890569 0.264648
0.690355 0.890613 0.263496
0.695628 0.890670 0.262028
0.702130 0.890741 0.260160
0.710072 0.890833 0.257786
0.719666 0.890949 0.254768
0.731095 0.891099 0.250934
0.742853 0.891353 0.247451
0.758118 0.891222 0.243004
0.775321 0.890830 0.238104
0.793539 0.890110 0.229642
0.815859 0.888838 0.213205
0.840519 0.887861 0.186376
0.867738 0.887567 0.152331
0.895016 0.887340 0.104608
0.916231 0.883815 0.000000
0.937630 0.882081 0.000000
0.957139 0.881999 0.000000
