Assets/Lutify-Free-LUTs-Pack/Lutify Free LUTs Pack/Print Film Pro - Print Film 2/Lutify.me-PrintFilm2-BMDFilmGen4-to-Rec709.cube
# Created with: fylm.ai - Colour Grading and Collaboration Software in Cloud 
# Website: https://fylm.ai 
# META
# Option: Gamut compress
# Block 1: IDT | BMD Wide Gamut BMDFilm Gen 4
# Block 2: colourMatch | Blending Mode: Normal | {"ColorSpace":0,"CrossCovarianceLimit":50,"ReshapingIterations":1,"PercentSaturationShift":100,"PercentShadingShift":100,"ExtraShading":true,"PercentTint":100,"PercentModified":100}
# Block 3: HSL | Blending Mode: Normal | {"hue":{"Reds":0,"Yellows":0,"Greens":0,"Cyans":0,"Blues":0,"Magentas":0},"saturation":{"Reds":1,"Yellows":0.9,"Greens":0.95,"Cyans":1,"Blues":1,"Magentas":1},"luminance":{"Reds":0.8,"Yellows":0.95,"Greens":0.9,"Cyans":0.8,"Blues":0.8,"Magentas":0.8},"lum_sat":{"Blacks":1,"Shadows":1,"Midtones":1,"Highlights":1,"Whites":1},"sat_sat":{"10":1,"20":1,"30":1,"40":1,"50":1}}
# Block 4: LUT | Filmic Curve Response: Low Contrast 2 (100%)
# Block 5: ODT | Rec709
TITLE "Lutify.me-PrintFilm2-BMDFilmGen4-to-Rec709" 
LUT_3D_SIZE 33
0.000000 0.000000 0.000000
0.000000 0.000000 0.000000
0.000000 0.000000 0.000000
0.000000 0.000000 0.000000
0.000000 0.000000 0.000000
0.000000 0.000000 0.000000
0.000000 0.000000 0.000000
0.048199 0.000000 0.000000
0.073030 0.000000 0.000000
0.100797 0.000000 0.000000
0.126877 0.000000 0.000000
0.156893 0.000000 0.000000
0.195862 0.000000 0.000000
0.241006 0.000000 0.000000
0.288236 0.000000 0.000000
0.332284 0.000000 0.000000
0.377298 0.000000 0.000000
0.430357 0.000000 0.000000
0.487669 0.000000 0.000000
0.551799 0.000000 0.000000
0.611755 0.000000 0.000000
0.664477 0.000000 0.000000
0.720203 0.000000 0.000000
0.772788 0.000000 0.000000
0.825684 0.000000 0.000000
0.875662 0.000000 0.025178
0.917440 0.000000 0.053150
0.955387 0.163351 0.078482
0.983552 0.238692 0.103492
1.000000 0.300361 0.129550
1.000000 0.359596 0.156668
1.000000 0.412157 0.184766
1.000000 0.461212 0.221586
0.000000 0.000000 0.000000
0.000000 0.000000 0.000000
0.000000 0.000000 0.000000
0.000000 0.000000 0.000000
0.000000 0.000000 0.000000
0.000000 0.000000 0.000000
0.037855 0.000000 0.000000
0.066460 0.000000 0.000000
0.091149 0.000000 0.000000
0.116908 0.000000 0.000000
0.143017 0.000000 0.000000
0.174311 0.000000 0.000000
0.211342 0.000000 0.000000
0.255430 0.000000 0.000000
0.301528 0.000000 0.000000
0.342479 0.000000 0.000000
0.387699 0.000000 0.000000
0.436384 0.000000 0.000000
0.494069 0.000000 0.000000
0.558314 0.000000 0.000000
0.617169 0.000000 0.000000
0.669127 0.000000 0.000000
0.723771 0.000000 0.000000
0.775056 0.000000 0.000000
0.827712 0.000000 0.000000
0.876982 0.000000 0.020196
0.918419 0.045139 0.051480
0.956473 0.173579 0.077854
0.984181 0.245605 0.103145
1.000000 0.305571 0.129165
1.000000 0.363169 0.156479
1.000000 0.414858 0.184639
1.000000 0.463599 0.221572
0.000000 0.000000 0.000000
0.000000 0.000000 0.000000
0.000000 0.000000 0.000000
0.000000 0.000000 0.000000
0.009660 0.000000 0.000000
0.047675 0.000000 0.000000
0.067442 0.000000 0.000000
0.090139 0.000000 0.000000
0.112441 0.000000 0.000000
0.134156 0.000000 0.000000
0.161136 0.000000 0.000000
0.191399 0.000000 0.000000
0.227262 0.000000 0.000000
0.271757 0.000000 0.000000
0.313746 0.000000 0.000000
0.354890 0.000000 0.000000
0.399146 0.000000 0.000000
0.445951 0.000000 0.000000
0.502801 0.000000 0.000000
0.566899 0.000000 0.000000
0.623907 0.000000 0.000000
0.674639 0.000000 0.000000
0.727335 0.000000 0.000000
0.777790 0.000000 0.000000
0.829919 0.000000 0.000000
0.878754 0.000000 0.008366
0.920062 0.082315 0.049876
0.957681 0.184712 0.077131
0.984908 0.253465 0.102639
1.000000 0.311122 0.128751
1.000000 0.367451 0.156298
1.000000 0.417859 0.184517
1.000000 0.466112 0.221560
0.000000 0.000000 0.000000
0.000000 0.000000 0.000000
0.000000 0.000000 0.000000
0.000000 0.008190 0.000000
0.042971 0.010334 0.000000
0.064338 0.009431 0.000000
0.086919 0.000000 0.000000
0.113664 0.000000 0.000000
0.136999 0.000000 0.000000
0.160824 0.000000 0.000000
0.186943 0.000000 0.000000
0.217177 0.000000 0.000000
0.250301 0.000000 0.000000
0.288045 0.000000 0.000000
0.325365 0.000000 0.000000
0.366524 0.000000 0.000000
0.411408 0.000000 0.000000
0.457067 0.000000 0.000000
0.512558 0.000000 0.000000
0.575015 0.000000 0.000000
0.629104 0.000000 0.000000
0.679913 0.000000 0.000000
0.730871 0.000000 0.000000
0.780785 0.000000 0.000000
0.832239 0.000000 0.000000
0.880499 0.000000 0.000000
0.922060 0.107776 0.048117
0.958863 0.195402 0.076302
0.985638 0.261091 0.101883
1.000000 0.317300 0.128301
1.000000 0.371501 0.156105
1.000000 0.421223 0.184403
1.000000 0.468773 0.221546
0.000000 0.013024 0.000000
0.000000 0.021782 0.000000
0.000000 0.034028 0.000000
0.000000 0.040940 0.000000
0.048065 0.043001 0.000000
0.071634 0.044103 0.000000
0.097660 0.042759 0.000000
0.127141 0.036953 0.000000
0.156996 0.023415 0.000000
0.184194 0.000000 0.000000
0.212541 0.000000 0.000000
0.240286 0.000000 0.000000
0.271769 0.000000 0.000000
0.310687 0.000000 0.000000
0.342732 0.000000 0.000000
0.379908 0.000000 0.000000
0.426054 0.000000 0.000000
0.471849 0.000000 0.000000
0.523690 0.000000 0.000000
0.582420 0.000000 0.000000
0.634272 0.000000 0.000000
0.684835 0.000000 0.000000
0.736429 0.000000 0.000000
0.784203 0.000000 0.000000
0.834922 0.000000 0.000000
0.882419 0.000000 0.000000
0.924158 0.128970 0.045741
0.960290 0.208341 0.075144
0.986407 0.269202 0.100929
1.000000 0.324198 0.127722
1.000000 0.376077 0.155870
1.000000 0.424884 0.184220
1.000000 0.472105 0.221561
0.000000 0.043417 0.000000
0.000000 0.047845 0.000000
0.000000 0.053768 0.000000
0.000000 0.059730 0.000000
0.050433 0.061628 0.000000
0.078727 0.062051 0.000000
0.109015 0.062375 0.000000
0.145086 0.060719 0.000000
0.174725 0.054925 0.000000
0.204970 0.047082 0.000000
0.235738 0.036787 0.000000
0.265742 0.016764 0.000000
0.296598 0.000000 0.000000
0.331645 0.000000 0.000000
0.369567 0.000000 0.000000
0.403738 0.000000 0.000000
0.444729 0.000000 0.000000
0.491048 0.000000 0.000000
0.539540 0.000000 0.000000
0.591906 0.000000 0.000000
0.641055 0.000000 0.000000
0.692332 0.000000 0.000000
0.743330 0.000000 0.000000
0.789863 0.000000 0.000000
0.838640 0.000000 0.000000
0.884786 0.044272 0.000000
0.926586 0.150192 0.042510
0.961798 0.222355 0.073637
0.987376 0.279764 0.099728
1.000000 0.331120 0.127201
1.000000 0.381429 0.155611
1.000000 0.429400 0.184051
1.000000 0.476683 0.221848
0.000000 0.061447 0.000000
0.000000 0.067147 0.000000
0.000000 0.075798 0.000000
0.000000 0.081719 0.000000
0.043813 0.086117 0.000000
0.081077 0.089000 0.000000
0.117888 0.087540 0.000000
0.155659 0.087127 0.000000
0.194431 0.086539 0.000000
0.225074 0.083170 0.000000
0.254698 0.077904 0.000000
0.287655 0.072153 0.000000
0.321634 0.062949 0.000000
0.357787 0.041655 0.000000
0.393612 0.000000 0.000000
0.431582 0.000000 0.000000
0.466464 0.000000 0.000000
0.506229 0.000000 0.000000
0.556243 0.000000 0.000000
0.605668 0.000000 0.000000
0.650370 0.000000 0.000000
0.701395 0.000000 0.000000
0.750985 0.000000 0.000000
0.796537 0.000000 0.000000
0.844020 0.000000 0.000000
0.888310 0.101341 0.000000
0.929306 0.170955 0.036953
0.963437 0.237767 0.071561
0.988406 0.291254 0.098175
1.000000 0.339833 0.126536
1.000000 0.387287 0.155244
1.000000 0.434583 0.183799
1.000000 0.482233 0.222185
0.000000 0.083352 0.000000
0.000000 0.091039 0.000000
0.000000 0.099991 0.000000
0.000000 0.107798 0.000000
0.000000 0.112908 0.000000
0.081467 0.113734 0.000000
0.124340 0.114970 0.000000
0.163694 0.114928 0.000000
0.203912 0.112552 0.000000
0.238139 0.112999 0.000000
0.271849 0.110446 0.000000
0.307485 0.104504 0.000000
0.341189 0.100551 0.000000
0.380165 0.095846 0.000000
0.418241 0.086950 0.000000
0.454625 0.076574 0.000000
0.491460 0.068767 0.000000
0.528282 0.057590 0.000000
0.575205 0.000000 0.000000
0.623404 0.000000 0.000000
0.664188 0.000000 0.000000
0.712072 0.000000 0.000000
0.760689 0.000000 0.000000
0.804260 0.000000 0.000000
0.850220 0.093811 0.000000
0.893263 0.138821 0.000000
0.932402 0.194108 0.028506
0.965260 0.254150 0.068032
0.989389 0.304515 0.096208
1.000000 0.349572 0.125705
1.000000 0.394821 0.154835
1.000000 0.440375 0.183473
1.000000 0.488686 0.222577
0.000000 0.109512 0.000000
0.000000 0.119133 0.000000
0.000000 0.127939 0.000000
0.000000 0.135686 0.000000
0.000000 0.141659 0.000000
0.070230 0.143764 0.000000
0.122157 0.146855 0.000000
0.170570 0.147491 0.000000
0.213554 0.144542 0.000000
0.252589 0.140758 0.000000
0.287095 0.141866 0.000000
0.324346 0.141283 0.000000
0.362256 0.137870 0.000000
0.403070 0.133978 0.000000
0.440374 0.133904 0.000000
0.474030 0.133920 0.000000
0.515944 0.125447 0.000000
0.553425 0.121699 0.000000
0.598340 0.111564 0.000000
0.645086 0.095857 0.000000
0.683591 0.090808 0.000000
0.724659 0.073474 0.000000
0.769788 0.084010 0.000000
0.814042 0.114913 0.000000
0.857318 0.140112 0.000000
0.898945 0.173564 0.000000
0.936048 0.220759 0.000000
0.966778 0.272454 0.064005
0.990157 0.320063 0.093825
1.000000 0.361098 0.124762
1.000000 0.403400 0.154398
1.000000 0.447826 0.183316
1.000000 0.495971 0.223060
0.000000 0.139693 0.000000
0.000000 0.148784 0.000000
0.000000 0.156202 0.000000
0.000000 0.165231 0.000000
0.000000 0.170681 0.000000
0.037661 0.176256 0.000000
0.117519 0.180240 0.000000
0.173728 0.179048 0.000000
0.215432 0.178117 0.000000
0.257083 0.173827 0.000000
0.300892 0.169663 0.000000
0.338137 0.171133 0.000000
0.379167 0.171160 0.000000
0.424933 0.167859 0.000000
0.462158 0.165865 0.000000
0.495231 0.170362 0.000000
0.533211 0.171478 0.000000
0.577629 0.168946 0.000000
0.617712 0.164322 0.000000
0.662817 0.162445 0.000000
0.704564 0.158509 0.000000
0.741256 0.156911 0.000000
0.779975 0.155343 0.000000
0.822241 0.166885 0.000000
0.866237 0.182803 0.000000
0.905041 0.207405 0.000000
0.939909 0.249328 0.000000
0.968079 0.291672 0.057568
0.991048 0.333920 0.091166
1.000000 0.373884 0.123441
1.000000 0.414376 0.154298
1.000000 0.456387 0.183199
1.000000 0.505095 0.223611
0.000000 0.176718 0.000000
0.000000 0.181815 0.000000
0.000000 0.192056 0.000000
0.000000 0.199664 0.000000
0.000000 0.205559 0.000000
0.000000 0.209090 0.000000
0.117735 0.209197 0.000000
0.168900 0.211142 0.000000
0.213666 0.212013 0.000000
0.259518 0.208313 0.000000
0.306185 0.203859 0.000000
0.349206 0.199432 0.000000
0.391079 0.201505 0.000000
0.439647 0.203580 0.000000
0.481217 0.203785 0.000000
0.519045 0.205195 0.000000
0.557092 0.211354 0.000000
0.593788 0.211006 0.000000
0.641193 0.213706 0.000000
0.681216 0.217052 0.000000
0.721578 0.216055 0.000000
0.762304 0.216500 0.000000
0.796344 0.215704 0.000000
0.832310 0.217543 0.000000
0.873426 0.227844 0.000000
0.911941 0.247409 0.000000
0.943426 0.279196 0.000000
0.969488 0.313950 0.047591
0.992098 0.349991 0.088001
1.000000 0.388977 0.121811
1.000000 0.427712 0.153774
1.000000 0.467302 0.183585
1.000000 0.514971 0.223987
0.000000 0.214075 0.000000
0.000000 0.221486 0.000000
0.000000 0.230418 0.000000
0.000000 0.236164 0.000000
0.000000 0.242797 0.000000
0.000000 0.245490 0.000000
0.100445 0.245357 0.000000
0.159518 0.249259 0.000000
0.211177 0.249990 0.000000
0.262927 0.247030 0.000000
0.311062 0.244599 0.000000
0.358235 0.240196 0.000000
0.410878 0.238354 0.000000
0.456285 0.242617 0.000000
0.499159 0.244937 0.000000
0.541291 0.247840 0.000000
0.582468 0.252742 0.000000
0.619367 0.261162 0.000000
0.658217 0.265143 0.000000
0.705051 0.269486 0.000000
0.739691 0.271406 0.000000
0.777777 0.272192 0.000000
0.815719 0.275902 0.000000
0.847102 0.275576 0.000000
0.881722 0.279743 0.000000
0.917078 0.291465 0.000000
0.946234 0.310918 0.000000
0.971051 0.337866 0.028422
0.993212 0.368586 0.083820
1.000000 0.407020 0.119760
1.000000 0.442905 0.152501
1.000000 0.480770 0.183475
1.000000 0.526323 0.224176
0.000000 0.260227 0.000000
0.000000 0.267012 0.000000
0.000000 0.273017 0.000000
0.000000 0.279313 0.000000
0.000000 0.284924 0.000000
0.000000 0.287214 0.000000
0.000000 0.288641 0.000000
0.140743 0.292249 0.000000
0.205134 0.292764 0.000000
0.261602 0.290897 0.000000
0.312761 0.288267 0.000000
0.363569 0.284183 0.000000
0.420183 0.282740 0.000000
0.479387 0.279662 0.000000
0.518238 0.284047 0.000000
0.560806 0.287945 0.000000
0.603482 0.295099 0.000000
0.641813 0.304968 0.000000
0.681179 0.317056 0.000000
0.720708 0.323415 0.000000
0.760406 0.329363 0.000000
0.791159 0.327345 0.000000
0.828507 0.333606 0.000000
0.859613 0.335268 0.000000
0.892877 0.338941 0.000000
0.922653 0.344213 0.000000
0.949366 0.350285 0.000000
0.972916 0.365471 0.000000
0.994219 0.392246 0.076938
1.000000 0.427807 0.116906
1.000000 0.460975 0.150767
1.000000 0.497323 0.182646
1.000000 0.539744 0.224302
0.000000 0.305334 0.000000
0.000000 0.309348 0.000000
0.000000 0.314145 0.000000
0.000000 0.319624 0.000000
0.000000 0.325452 0.000000
0.000000 0.326986 0.000000
0.000000 0.330974 0.000000
0.105467 0.335085 0.000000
0.192408 0.334360 0.000000
0.254111 0.333000 0.000000
0.307997 0.330836 0.000000
0.363048 0.327356 0.000000
0.425536 0.322969 0.000000
0.484209 0.321039 0.000000
0.540498 0.319011 0.000000
0.575650 0.326344 0.000000
0.614301 0.334178 0.000000
0.652956 0.345729 0.000000
0.695291 0.360469 0.000000
0.739766 0.373069 0.000000
0.774692 0.380703 0.000000
0.805065 0.381573 0.000000
0.839058 0.384427 0.000000
0.869910 0.389430 0.000000
0.901131 0.392234 0.000000
0.930388 0.397203 0.000000
0.952795 0.399068 0.000000
0.974801 0.403509 0.000000
0.995098 0.423566 0.065630
1.000000 0.452019 0.113275
1.000000 0.482186 0.148690
1.000000 0.516417 0.181932
1.000000 0.555023 0.224486
0.000000 0.347197 0.000000
0.000000 0.350886 0.000000
0.000000 0.355773 0.000000
0.000000 0.360513 0.000000
0.000000 0.366032 0.000000
0.000000 0.371571 0.000000
0.000000 0.376802 0.000000
0.000000 0.379883 0.000000
0.170112 0.379153 0.000000
0.238971 0.378084 0.000000
0.299870 0.376573 0.000000
0.360769 0.374303 0.000000
0.426411 0.370211 0.000000
0.485109 0.366295 0.000000
0.543239 0.365245 0.000000
0.598531 0.362998 0.000000
0.631055 0.373499 0.000000
0.663638 0.383848 0.000000
0.707249 0.399774 0.000000
0.752371 0.414200 0.000000
0.789094 0.427390 0.000000
0.819764 0.432424 0.000000
0.848540 0.436910 0.000000
0.879863 0.440878 0.000000
0.908039 0.440085 0.000000
0.935169 0.449661 0.000000
0.955570 0.451572 0.000000
0.976422 0.451886 0.000000
0.995633 0.461389 0.042663
1.000000 0.482921 0.107429
1.000000 0.508546 0.145694
1.000000 0.537924 0.181028
1.000000 0.573251 0.224654
0.000000 0.399208 0.000000
0.000000 0.403115 0.000000
0.000000 0.407313 0.000000
0.000000 0.411431 0.000000
0.000000 0.415866 0.000000
0.000000 0.421449 0.000000
0.000000 0.426720 0.000000
0.000000 0.427599 0.000000
0.129542 0.427053 0.000000
0.218371 0.426188 0.000000
0.287491 0.424725 0.000000
0.356698 0.422658 0.000000
0.424830 0.419693 0.000000
0.488275 0.416716 0.000000
0.545526 0.412749 0.000000
0.600882 0.408984 0.000000
0.648277 0.408552 0.000000
0.684671 0.418511 0.000000
0.723042 0.431968 0.000000
0.763851 0.451039 0.000000
0.799292 0.470057 0.000000
0.831263 0.483914 0.000000
0.860799 0.483976 0.000000
0.886162 0.493831 0.000000
0.915262 0.491335 0.000000
0.938760 0.494593 0.000000
0.957362 0.503692 0.000000
0.977102 0.504168 0.000000
0.995364 0.511021 0.000000
1.000000 0.522896 0.099138
1.000000 0.540361 0.142444
1.000000 0.562948 0.179901
1.000000 0.594596 0.224907
0.000000 0.450703 0.000000
0.000000 0.454066 0.000000
0.000000 0.457550 0.000000
0.000000 0.461194 0.000000
0.000000 0.465484 0.000000
0.000000 0.470613 0.000000
0.000000 0.475899 0.000000
0.000000 0.477612 0.000000
0.000000 0.477087 0.000000
0.184025 0.476134 0.000000
0.269763 0.474695 0.000000
0.349246 0.472713 0.000000
0.418228 0.470309 0.000000
0.485390 0.469543 0.000000
0.547149 0.468153 0.000000
0.600316 0.460989 0.000000
0.648948 0.457575 0.000000
0.698548 0.455606 0.000000
0.738993 0.468069 0.000000
0.776923 0.485938 0.000000
0.806434 0.508799 0.000000
0.837094 0.527670 0.000000
0.869530 0.535286 0.000000
0.892775 0.544169 0.000000
0.918413 0.545663 0.000000
0.941943 0.544100 0.000000
0.960804 0.555413 0.000000
0.976904 0.558256 0.000000
0.994353 0.560802 0.000000
1.000000 0.573322 0.087419
1.000000 0.580141 0.138682
1.000000 0.594720 0.179172
1.000000 0.614722 0.225167
0.000000 0.507057 0.000000
0.000000 0.509525 0.000000
0.000000 0.512848 0.000000
0.000000 0.516092 0.000000
0.000000 0.519679 0.000000
0.000000 0.524316 0.000000
0.000000 0.528993 0.000000
0.000000 0.531497 0.000000
0.000000 0.532051 0.000000
0.096106 0.531210 0.000000
0.237923 0.530431 0.000000
0.333816 0.531299 0.000000
0.406756 0.527880 0.000000
0.472708 0.526351 0.000000
0.538139 0.527157 0.000000
0.594428 0.521896 0.000000
0.646192 0.515379 0.000000
0.700518 0.512047 0.000000
0.757440 0.505358 0.000000
0.786533 0.522036 0.000000
0.814498 0.542403 0.000000
0.841778 0.565853 0.000000
0.871916 0.581341 0.000000
0.897071 0.593936 0.000000
0.920746 0.600438 0.000000
0.943297 0.598200 0.000000
0.961192 0.603645 0.000000
0.977709 0.610857 0.000000
0.991833 0.612285 0.000000
1.000000 0.619890 0.067346
1.000000 0.627363 0.133176
1.000000 0.630445 0.177962
1.000000 0.641078 0.225301
0.000000 0.564107 0.000000
0.000000 0.566225 0.000000
0.000000 0.568479 0.000000
0.000000 0.571159 0.000000
0.000000 0.573914 0.000000
0.000000 0.577228 0.000000
0.000000 0.581187 0.000000
0.000000 0.585062 0.000000
0.000000 0.585761 0.000000
0.000000 0.585866 0.000000
0.191671 0.586742 0.000000
0.309716 0.588947 0.000000
0.390624 0.587302 0.000000
0.455491 0.583283 0.000000
0.522792 0.582725 0.000000
0.585813 0.579369 0.000000
0.639122 0.573951 0.000000
0.697496 0.567062 0.000000
0.755718 0.559967 0.000000
0.806142 0.553326 0.000000
0.822961 0.572990 0.000000
0.845859 0.598609 0.000000
0.873759 0.620970 0.000000
0.897087 0.633861 0.000000
0.921699 0.650427 0.000000
0.943124 0.648786 0.000000
0.960158 0.653060 0.000000
0.975734 0.658452 0.000000
0.988876 0.659409 0.000000
1.000000 0.658793 0.027618
1.000000 0.668750 0.127677
1.000000 0.672484 0.178041
1.000000 0.674403 0.226525
0.000000 0.614382 0.000000
0.000000 0.616170 0.000000
0.000000 0.618178 0.000000
0.000000 0.620142 0.000000
0.000000 0.622631 0.000000
0.000000 0.625334 0.000000
0.000000 0.628528 0.000000
0.000000 0.632161 0.000000
0.000000 0.635232 0.000000
0.000000 0.635453 0.000000
0.170972 0.634778 0.000000
0.291980 0.636883 0.000000
0.375617 0.637691 0.000000
0.442275 0.636256 0.000000
0.503800 0.634605 0.000000
0.569229 0.631161 0.000000
0.631280 0.626604 0.000000
0.688920 0.619885 0.000000
0.749782 0.612165 0.000000
0.799994 0.604816 0.000000
0.842509 0.597882 0.000000
0.853902 0.622657 0.000000
0.873976 0.652450 0.000000
0.895542 0.671864 0.000000
0.920783 0.683891 0.000000
0.942737 0.692661 0.000000
0.958535 0.695512 0.000000
0.973624 0.700949 0.000000
0.985845 0.701518 0.000000
0.998196 0.700770 0.000000
1.000000 0.704023 0.123052
1.000000 0.709723 0.179670
1.000000 0.711738 0.230261
0.000000 0.664098 0.000000
0.000000 0.665513 0.000000
0.000000 0.667241 0.000000
0.000000 0.669030 0.000000
0.000000 0.670899 0.000000
0.000000 0.673386 0.000000
0.000000 0.676046 0.000000
0.000000 0.679000 0.000000
0.000000 0.682370 0.000000
0.000000 0.684908 0.000000
0.131241 0.684862 0.000000
0.284995 0.683364 0.000000
0.362323 0.682576 0.000000
0.432859 0.681261 0.000000
0.493989 0.680114 0.000000
0.548662 0.682296 0.000000
0.615300 0.678088 0.000000
0.681955 0.672458 0.000000
0.737910 0.665418 0.000000
0.791703 0.657559 0.000000
0.835367 0.649487 0.000000
0.870964 0.642602 0.000000
0.881236 0.671321 0.000000
0.896349 0.700677 0.000000
0.917096 0.712903 0.000000
0.940857 0.727418 0.000000
0.956328 0.731730 0.000000
0.970030 0.739213 0.000000
0.982829 0.739456 0.000000
0.994096 0.738873 0.000000
1.000000 0.741385 0.118946
1.000000 0.746061 0.182293
1.000000 0.746852 0.234586
0.000000 0.713187 0.000000
0.000000 0.714350 0.000000
0.000000 0.715572 0.000000
0.000000 0.716929 0.000000
0.000000 0.718423 0.000000
0.000000 0.720068 0.000000
0.000000 0.722145 0.000000
0.000000 0.724431 0.000000
0.000000 0.727150 0.000000
0.000000 0.730126 0.000000
0.089536 0.732898 0.000000
0.260493 0.732946 0.000000
0.347480 0.731104 0.000000
0.418743 0.728761 0.000000
0.481686 0.726394 0.000000
0.539035 0.725160 0.000000
0.595397 0.726566 0.000000
0.664733 0.722551 0.000000
0.727856 0.716978 0.000000
0.774464 0.710509 0.000000
0.822219 0.702700 0.000000
0.860887 0.695115 0.000000
0.892120 0.686948 0.000000
0.902065 0.717641 0.000000
0.915840 0.742272 0.000000
0.937183 0.753860 0.000000
0.953902 0.762545 0.000000
0.966471 0.771465 0.000000
0.978963 0.774106 0.000000
0.990523 0.772689 0.000000
1.000000 0.774779 0.115341
1.000000 0.778228 0.187070
1.000000 0.778600 0.240449
0.000000 0.757066 0.000000
0.000000 0.757865 0.000000
0.000000 0.758817 0.000000
0.000000 0.759757 0.000000
0.000000 0.760859 0.000000
0.000000 0.762132 0.000000
0.000000 0.763466 0.000000
0.000000 0.765174 0.000000
0.000000 0.767123 0.000000
0.000000 0.769289 0.000000
0.102030 0.771639 0.000000
0.250170 0.773946 0.000000
0.340580 0.774226 0.000000
0.411950 0.772661 0.000000
0.472122 0.770398 0.000000
0.531707 0.767686 0.000000
0.594174 0.765559 0.000000
0.658410 0.765943 0.000000
0.718127 0.763219 0.000000
0.763304 0.758088 0.000000
0.804616 0.751428 0.000000
0.848484 0.744168 0.000000
0.881756 0.736439 0.000000
0.912317 0.729333 0.000000
0.919426 0.760258 0.000000
0.933651 0.776934 0.000000
0.951164 0.789441 0.000000
0.963988 0.795640 0.000000
0.976532 0.805360 0.000000
0.987900 0.804455 0.000000
0.998897 0.806156 0.111411
1.000000 0.809149 0.194247
1.000000 0.809293 0.249796
0.000000 0.799018 0.000000
0.000000 0.799542 0.000000
0.000000 0.800112 0.000000
0.000000 0.800757 0.000000
0.000000 0.801453 0.000000
0.000000 0.802316 0.000000
0.000000 0.803334 0.000000
0.000000 0.804368 0.000000
0.000000 0.805707 0.000000
0.000000 0.807166 0.000000
0.126592 0.808713 0.000000
0.260596 0.810305 0.000000
0.341517 0.811857 0.000000
0.410129 0.811578 0.000000
0.471540 0.810809 0.000000
0.527169 0.808851 0.000000
0.595549 0.805995 0.000000
0.658459 0.802669 0.000000
0.710885 0.802168 0.000000
0.753124 0.799822 0.000000
0.792185 0.797138 0.000000
0.831553 0.791582 0.000000
0.867502 0.784387 0.000000
0.899616 0.777990 0.000000
0.931393 0.773334 0.000000
0.934965 0.797547 0.000000
0.947694 0.811082 0.000000
0.961258 0.819038 0.000000
0.973905 0.827613 0.000000
0.986353 0.833115 0.000000
0.996271 0.834646 0.111186
1.000000 0.836957 0.202194
1.000000 0.836808 0.260440
0.000000 0.833836 0.000000
0.000000 0.834188 0.000000
0.000000 0.834552 0.000000
0.000000 0.834932 0.000000
0.000000 0.835379 0.000000
0.000000 0.835871 0.000000
0.000000 0.836455 0.000000
0.000000 0.837131 0.000000
0.000000 0.837913 0.000000
0.057433 0.838877 0.000000
0.212937 0.839935 0.000000
0.289948 0.841035 0.000000
0.360565 0.840840 0.000000
0.422314 0.840276 0.000000
0.481032 0.839549 0.000000
0.539432 0.839581 0.000000
0.595219 0.839662 0.000000
0.653636 0.837797 0.000000
0.706217 0.834675 0.000000
0.748369 0.831465 0.000000
0.785440 0.828391 0.000000
0.820563 0.828103 0.000000
0.854555 0.825638 0.000000
0.887282 0.819474 0.000000
0.915452 0.815155 0.000000
0.945020 0.809462 0.000000
0.947683 0.829583 0.000000
0.959086 0.839693 0.000000
0.971622 0.846652 0.000000
0.983956 0.853178 0.000000
0.994722 0.856633 0.105767
1.000000 0.859944 0.205792
1.000000 0.859059 0.270700
0.000000 0.859848 0.000000
0.000000 0.860046 0.000000
0.000000 0.860301 0.000000
0.000000 0.860553 0.000000
0.000000 0.860828 0.000000
0.000000 0.861168 0.000000
0.000000 0.861532 0.000000
0.000000 0.861968 0.000000
0.162508 0.862502 0.000000
0.230330 0.863070 0.000000
0.288693 0.863851 0.000000
0.340927 0.864694 0.000000
0.390228 0.865337 0.000000
0.446838 0.864534 0.000000
0.500121 0.863542 0.000000
0.558680 0.862515 0.000000
0.612294 0.863108 0.000000
0.658104 0.863034 0.000000
0.703923 0.861068 0.000000
0.747155 0.858372 0.000000
0.783239 0.855458 0.000000
0.814721 0.853084 0.000000
0.845415 0.852619 0.000000
0.878195 0.850024 0.000000
0.907798 0.844829 0.000000
0.933077 0.839429 0.000000
0.957171 0.834389 0.000000
