Assets/Lutify-Free-LUTs-Pack/Lutify Free LUTs Pack/Print Film Pro - Print Film 2/Lutify.me-PrintFilm2-NLog-to-Rec709.cube
# Created with: fylm.ai - Colour Grading and Collaboration Software in Cloud 
# Website: https://fylm.ai 
# META
# Option: Gamut compress
# Block 1: IDT | Nikon BT2020 N-Log
# Block 2: colourMatch | Blending Mode: Normal | {"ColorSpace":0,"CrossCovarianceLimit":50,"ReshapingIterations":1,"PercentSaturationShift":100,"PercentShadingShift":100,"ExtraShading":true,"PercentTint":100,"PercentModified":100}
# Block 3: HSL | Blending Mode: Normal | {"hue":{"Reds":0,"Yellows":0,"Greens":0,"Cyans":0,"Blues":0,"Magentas":0},"saturation":{"Reds":1,"Yellows":0.9,"Greens":0.95,"Cyans":1,"Blues":1,"Magentas":1},"luminance":{"Reds":0.8,"Yellows":0.95,"Greens":0.9,"Cyans":0.8,"Blues":0.8,"Magentas":0.8},"lum_sat":{"Blacks":1,"Shadows":1,"Midtones":1,"Highlights":1,"Whites":1},"sat_sat":{"10":1,"20":1,"30":1,"40":1,"50":1}}
# Block 4: LUT | Filmic Curve Response: Low Contrast 2 (100%)
# Block 5: ODT | Rec709
TITLE "Lutify.me-PrintFilm2-NLog-to-Rec709" 
LUT_3D_SIZE 5
0.000000 0.000000 0.000000
0.044553 0.000000 0.000000
0.467281 0.000000 0.000000
0.969249 0.101658 0.153218
1.000000 0.699850 0.545409
0.000000 0.063025 0.000000
0.141142 0.095182 0.000000
0.532004 0.000000 0.000000
0.974704 0.196698 0.159157
1.000000 0.704955 0.547227
0.000000 0.489844 0.000000
0.000000 0.530561 0.000000
0.664481 0.568976 0.000000
0.986422 0.541718 0.189668
1.000000 0.741358 0.563886
0.000000 0.893049 0.456439
0.000000 0.897644 0.449014
0.580135 0.903513 0.416177
0.944636 0.900092 0.394221
1.000000 0.883845 0.677596
0.736053 0.997803 0.867627
0.743326 0.997785 0.867255
0.786233 0.997720 0.867242
0.904398 0.995872 0.857355
1.000000 0.993765 0.861027
0.000000 0.000000 0.000000
0.058647 0.000000 0.031190
0.490082 0.000000 0.075743
0.972221 0.135856 0.192643
1.000000 0.701631 0.556983
0.000000 0.059463 0.172388
0.125738 0.126733 0.138182
0.542629 0.000000 0.089826
0.975636 0.203168 0.197147
1.000000 0.706718 0.558666
0.000000 0.474472 0.221460
0.000000 0.549629 0.202591
0.662295 0.596767 0.119744
0.984582 0.541392 0.245474
1.000000 0.742240 0.573887
0.000000 0.892453 0.520206
0.000000 0.897930 0.515194
0.578881 0.905028 0.477374
0.942512 0.901914 0.456322
1.000000 0.883686 0.685977
0.735960 0.997799 0.871337
0.743232 0.997781 0.870957
0.786120 0.997716 0.870871
0.904329 0.995944 0.861384
1.000000 0.993949 0.864325
0.000000 0.000000 0.484300
0.000000 0.025039 0.451039
0.532958 0.000000 0.370250
0.988054 0.175500 0.440998
1.000000 0.712882 0.628133
0.000000 0.071075 0.564236
0.000000 0.104279 0.550142
0.593746 0.000000 0.455456
0.991385 0.249813 0.454450
1.000000 0.717832 0.629823
0.000000 0.412403 0.710584
0.000000 0.489741 0.693182
0.624276 0.645082 0.678786
0.981378 0.562735 0.532938
1.000000 0.749688 0.641598
0.000000 0.870140 0.750285
0.000000 0.879690 0.750346
0.559594 0.911470 0.761163
0.930763 0.912582 0.737468
1.000000 0.883696 0.734815
0.724654 0.996753 0.889423
0.734031 0.996921 0.889771
0.785576 0.997698 0.890999
0.902197 0.996458 0.883472
1.000000 0.995149 0.884352
0.000000 0.242980 0.908442
0.000000 0.253615 0.907074
0.521624 0.262037 0.879554
0.997648 0.178505 0.829320
1.000000 0.739024 0.834182
0.000000 0.270422 0.912530
0.000000 0.280736 0.910992
0.520101 0.303821 0.887330
1.000000 0.251522 0.838918
1.000000 0.744335 0.835443
0.000000 0.467542 0.929767
0.000000 0.486715 0.927892
0.493205 0.569949 0.919700
0.985688 0.584325 0.885989
1.000000 0.777917 0.843986
0.000000 0.833685 0.940597
0.000000 0.843378 0.938581
0.408891 0.884757 0.934051
0.912460 0.923015 0.936265
1.000000 0.891838 0.879564
0.652260 0.989922 0.945532
0.663911 0.990136 0.945626
0.730671 0.991491 0.946358
0.898577 0.997712 0.953327
1.000000 0.997534 0.950412
0.507245 0.667701 1.000000
0.523821 0.671648 1.000000
0.627665 0.691807 1.000000
0.896820 0.710129 0.996649
1.000000 0.741265 0.978712
0.505230 0.672959 1.000000
0.521879 0.676906 1.000000
0.626458 0.696723 1.000000
0.895270 0.716290 0.996856
1.000000 0.746693 0.978977
0.490160 0.710345 1.000000
0.508391 0.712535 1.000000
0.617666 0.728267 1.000000
0.885049 0.755546 0.998156
1.000000 0.780743 0.980783
0.463384 0.847299 1.000000
0.484582 0.849248 1.000000
0.597793 0.858486 1.000000
0.860136 0.888242 1.000000
1.000000 0.899954 0.991589
0.587252 0.975557 1.000000
0.599882 0.975844 1.000000
0.672601 0.977992 1.000000
0.855429 0.987263 1.000000
0.996444 0.999408 1.000000
