Assets/Lutify-Free-LUTs-Pack/Lutify Free LUTs Pack/Print Film Pro - Print Film 2/Lutify.me-PrintFilm2-LLog-to-Rec709.cube
# Created with: fylm.ai - Colour Grading and Collaboration Software in Cloud 
# Website: https://fylm.ai 
# META
# Option: Gamut compress
# Block 1: IDT | Leica BT2020 L-Log
# Block 2: colourMatch | Blending Mode: Normal | {"ColorSpace":0,"CrossCovarianceLimit":50,"ReshapingIterations":1,"PercentSaturationShift":100,"PercentShadingShift":100,"ExtraShading":true,"PercentTint":100,"PercentModified":100}
# Block 3: HSL | Blending Mode: Normal | {"hue":{"Reds":0,"Yellows":0,"Greens":0,"Cyans":0,"Blues":0,"Magentas":0},"saturation":{"Reds":1,"Yellows":0.9,"Greens":0.95,"Cyans":1,"Blues":1,"Magentas":1},"luminance":{"Reds":0.8,"Yellows":0.95,"Greens":0.9,"Cyans":0.8,"Blues":0.8,"Magentas":0.8},"lum_sat":{"Blacks":1,"Shadows":1,"Midtones":1,"Highlights":1,"Whites":1},"sat_sat":{"10":1,"20":1,"30":1,"40":1,"50":1}}
# Block 4: LUT | Filmic Curve Response: Low Contrast 2 (100%)
# Block 5: ODT | Rec709
TITLE "Lutify.me-PrintFilm2-LLog-to-Rec709" 
LUT_3D_SIZE 9
0.000000 0.000000 0.000000
0.000000 0.000000 0.000000
0.000000 0.000000 0.000000
0.105292 0.000000 0.000000
0.334338 0.000000 0.000000
0.680130 0.000000 0.031953
0.973282 0.115269 0.154419
1.000000 0.519669 0.372600
1.000000 0.790009 0.660032
0.000000 0.000000 0.000000
0.000000 0.000000 0.000000
0.021733 0.000000 0.000000
0.140542 0.000000 0.000000
0.357983 0.000000 0.000000
0.689779 0.000000 0.030720
0.974998 0.141245 0.156282
1.000000 0.523198 0.373353
1.000000 0.790651 0.660332
0.000000 0.020993 0.000000
0.000000 0.040019 0.000000
0.071091 0.049910 0.000000
0.208867 0.000000 0.000000
0.394666 0.000000 0.000000
0.705012 0.000000 0.027417
0.977071 0.178597 0.158627
1.000000 0.529967 0.375517
1.000000 0.791700 0.660825
0.000000 0.118836 0.000000
0.000000 0.143076 0.000000
0.000000 0.174217 0.000000
0.264090 0.173895 0.000000
0.494414 0.164603 0.000000
0.740772 0.057362 0.000000
0.981241 0.261160 0.163239
1.000000 0.549799 0.381760
1.000000 0.794685 0.662237
0.000000 0.353275 0.000000
0.000000 0.376219 0.000000
0.000000 0.402526 0.000000
0.000000 0.439272 0.000000
0.554719 0.439017 0.000000
0.826605 0.443386 0.000000
0.987332 0.420666 0.176549
1.000000 0.602184 0.398552
1.000000 0.804483 0.668692
0.000000 0.684693 0.106219
0.000000 0.692240 0.088827
0.000000 0.704499 0.057969
0.000000 0.721181 0.000000
0.420639 0.746725 0.000000
0.818761 0.742044 0.000000
0.974749 0.737332 0.244976
1.000000 0.723113 0.443737
1.000000 0.830487 0.687746
0.000000 0.895856 0.461599
0.000000 0.896778 0.459618
0.000000 0.898429 0.456580
0.000000 0.902995 0.446384
0.388854 0.905259 0.429182
0.766444 0.906359 0.415074
0.946464 0.902141 0.400281
1.000000 0.895863 0.588634
1.000000 0.885296 0.735682
0.529929 0.977051 0.770911
0.538194 0.977051 0.770607
0.551132 0.977052 0.770119
0.582731 0.977083 0.768679
0.656898 0.977137 0.765156
0.765244 0.975472 0.749751
0.913585 0.975890 0.752137
0.996019 0.974000 0.748090
1.000000 0.969387 0.840380
0.827666 1.000000 0.915004
0.828518 1.000000 0.915026
0.829905 1.000000 0.915062
0.833812 1.000000 0.915167
0.844452 1.000000 0.914856
0.869316 1.000000 0.914023
0.911243 1.000000 0.908132
0.978643 1.000000 0.911828
1.000000 1.000000 0.913894
0.000000 0.000000 0.000000
0.000000 0.000000 0.000000
0.000000 0.000000 0.000000
0.116552 0.000000 0.000000
0.344271 0.000000 0.000000
0.684884 0.000000 0.053554
0.973072 0.122108 0.164296
1.000000 0.520589 0.378235
1.000000 0.790229 0.661811
0.000000 0.000000 0.000000
0.000000 0.000000 0.000000
0.040846 0.000000 0.000000
0.148013 0.000000 0.000000
0.364415 0.000000 0.000000
0.689758 0.000000 0.053930
0.974513 0.145876 0.165790
1.000000 0.524118 0.378994
1.000000 0.790870 0.662110
0.000000 0.028392 0.000000
0.000000 0.045255 0.000000
0.070393 0.057592 0.000000
0.209252 0.023890 0.000000
0.396069 0.000000 0.000000
0.702319 0.000000 0.054396
0.977131 0.178954 0.168443
1.000000 0.529860 0.380232
1.000000 0.791919 0.662601
0.000000 0.119995 0.010035
0.000000 0.153289 0.000000
0.000000 0.189799 0.000000
0.254334 0.198296 0.000000
0.492222 0.178870 0.000000
0.742288 0.048263 0.049975
0.981551 0.260048 0.173512
1.000000 0.549497 0.386924
1.000000 0.794902 0.664007
0.000000 0.352630 0.000000
0.000000 0.386920 0.000000
0.000000 0.410479 0.000000
0.000000 0.448222 0.000000
0.543287 0.459149 0.000000
0.827387 0.444045 0.000000
0.987472 0.420074 0.188762
1.000000 0.601900 0.403555
1.000000 0.804440 0.670025
0.000000 0.685278 0.174316
0.000000 0.692935 0.162618
0.000000 0.708912 0.150586
0.000000 0.722431 0.098172
0.419795 0.749175 0.000000
0.819949 0.746077 0.000000
0.974006 0.737710 0.261974
1.000000 0.722952 0.447982
1.000000 0.830451 0.689012
0.000000 0.895937 0.480332
0.000000 0.896861 0.478337
0.000000 0.898512 0.475271
0.000000 0.903808 0.466512
0.388474 0.905719 0.445658
0.766699 0.906721 0.432338
0.945959 0.902614 0.416581
1.000000 0.895900 0.592971
1.000000 0.885260 0.736809
0.528760 0.977062 0.774571
0.537049 0.977062 0.774269
0.550051 0.977062 0.773785
0.582575 0.977082 0.772399
0.656870 0.977160 0.768977
0.765217 0.975450 0.753279
0.913524 0.975944 0.755736
0.995936 0.974067 0.751479
1.000000 0.969391 0.841104
0.827655 1.000000 0.915474
0.828508 1.000000 0.915495
0.829895 1.000000 0.915532
0.833801 1.000000 0.915635
0.844439 1.000000 0.915370
0.869300 1.000000 0.914532
0.911239 1.000000 0.908611
0.978637 1.000000 0.912297
1.000000 1.000000 0.914307
0.000000 0.000000 0.000000
0.000000 0.000000 0.000000
0.000000 0.000000 0.000000
0.123626 0.000000 0.012789
0.356716 0.000000 0.042928
0.697031 0.000000 0.080078
0.974156 0.137455 0.179809
1.000000 0.522074 0.387373
1.000000 0.790588 0.664705
0.000000 0.000000 0.000000
0.000000 0.000000 0.011693
0.042097 0.000000 0.022935
0.156272 0.000000 0.037350
0.380820 0.000000 0.046146
0.701334 0.000000 0.081823
0.975048 0.157200 0.180801
1.000000 0.525603 0.388141
1.000000 0.791229 0.665003
0.000000 0.027202 0.082767
0.000000 0.045564 0.079106
0.063977 0.065961 0.071511
0.215365 0.034652 0.059869
0.407154 0.000000 0.049671
0.707082 0.000000 0.082352
0.976397 0.184798 0.182360
1.000000 0.531344 0.389395
1.000000 0.792276 0.665490
0.000000 0.118588 0.123796
0.000000 0.152060 0.109572
0.000000 0.202611 0.097950
0.247226 0.221082 0.079893
0.488583 0.183113 0.046778
0.744892 0.032274 0.087797
0.982080 0.258253 0.189775
1.000000 0.549066 0.394386
1.000000 0.795256 0.666887
0.000000 0.341630 0.130485
0.000000 0.382510 0.119832
0.000000 0.415200 0.099093
0.000000 0.459042 0.000000
0.545570 0.472103 0.000000
0.823194 0.446497 0.085951
0.987705 0.419098 0.208010
1.000000 0.601440 0.411150
1.000000 0.804370 0.672197
0.000000 0.681693 0.238710
0.000000 0.693764 0.234368
0.000000 0.709940 0.226856
0.000000 0.728064 0.196706
0.422190 0.752533 0.150317
0.820906 0.755250 0.105056
0.973494 0.737941 0.288368
1.000000 0.722689 0.454842
1.000000 0.830393 0.691075
0.000000 0.896051 0.507718
0.000000 0.896977 0.505699
0.000000 0.898630 0.502580
0.000000 0.904374 0.494627
0.381432 0.906524 0.471365
0.766862 0.907331 0.459571
0.945071 0.903362 0.441926
1.000000 0.895956 0.601172
1.000000 0.885202 0.738641
0.526963 0.977079 0.780340
0.535294 0.977079 0.780040
0.548360 0.977079 0.779560
0.582334 0.977079 0.778248
0.656626 0.977157 0.774838
0.765150 0.975451 0.758912
0.913207 0.976032 0.761243
0.995810 0.974174 0.756900
1.000000 0.969397 0.842281
0.827639 1.000000 0.916238
0.828492 1.000000 0.916259
0.829877 1.000000 0.916294
0.833784 1.000000 0.916396
0.844417 1.000000 0.916203
0.869274 1.000000 0.915360
0.911260 1.000000 0.909418
0.978627 1.000000 0.913061
1.000000 1.000000 0.914981
0.000000 0.000000 0.031911
0.000000 0.000000 0.054078
0.034658 0.000000 0.063325
0.120069 0.000000 0.063067
0.360490 0.000000 0.108217
0.710495 0.000000 0.145942
0.982115 0.155913 0.231279
1.000000 0.527172 0.413550
1.000000 0.791606 0.672864
0.000000 0.000000 0.100125
0.000000 0.000000 0.110913
0.047163 0.000000 0.109083
0.157756 0.000000 0.100564
0.388682 0.000000 0.122771
0.720786 0.000000 0.150035
0.982928 0.173973 0.232724
1.000000 0.530723 0.414279
1.000000 0.792244 0.673156
0.000000 0.021113 0.220993
0.000000 0.043039 0.212377
0.000000 0.061953 0.201636
0.219833 0.041754 0.176996
0.419427 0.000000 0.146002
0.733694 0.000000 0.156275
0.984143 0.200050 0.235030
1.000000 0.536500 0.415468
1.000000 0.793289 0.673634
0.000000 0.097858 0.311269
0.000000 0.135565 0.288109
0.000000 0.188636 0.270602
0.232762 0.235976 0.262131
0.490758 0.197495 0.204468
0.750049 0.058233 0.166370
0.986524 0.261782 0.240832
1.000000 0.552811 0.418855
1.000000 0.796260 0.675004
0.000000 0.325140 0.341303
0.000000 0.363684 0.328183
0.000000 0.403338 0.311428
0.000000 0.486837 0.305018
0.533547 0.505928 0.283251
0.820331 0.449107 0.214489
0.988489 0.416286 0.264798
1.000000 0.600325 0.432453
1.000000 0.804534 0.678918
0.000000 0.665196 0.369876
0.000000 0.677534 0.369924
0.000000 0.701196 0.367173
0.000000 0.736041 0.363399
0.419158 0.760824 0.324941
0.817121 0.764484 0.300226
0.970379 0.739436 0.359919
1.000000 0.722077 0.477031
1.000000 0.830227 0.696903
0.000000 0.892565 0.561274
0.000000 0.894350 0.562858
0.000000 0.897448 0.563789
0.000000 0.904603 0.560420
0.389460 0.908631 0.543165
0.765562 0.908777 0.528456
0.943166 0.905996 0.508656
1.000000 0.896098 0.624987
1.000000 0.885036 0.743800
0.522541 0.976771 0.793146
0.532643 0.976907 0.793439
0.547807 0.977074 0.793712
0.581789 0.977074 0.792451
0.656052 0.977153 0.789140
0.765919 0.975904 0.775182
0.911891 0.976273 0.774915
0.995468 0.974475 0.771540
1.000000 0.969413 0.845598
0.827460 1.000000 0.918381
0.828313 1.000000 0.918402
0.829699 1.000000 0.918435
0.833603 1.000000 0.918532
0.844226 1.000000 0.918478
0.869068 1.000000 0.917607
0.911528 1.000000 0.911897
0.978458 1.000000 0.915014
1.000000 1.000000 0.916892
0.000000 0.000000 0.327308
0.000000 0.000000 0.324566
0.000000 0.000000 0.310470
0.156545 0.000000 0.283289
0.387659 0.000000 0.248604
0.719537 0.000000 0.309635
0.992087 0.180123 0.347269
1.000000 0.546233 0.486956
1.000000 0.795539 0.696713
0.000000 0.000000 0.370683
0.000000 0.000000 0.366520
0.000000 0.028076 0.351233
0.167500 0.000000 0.317160
0.411104 0.000000 0.283416
0.726697 0.000000 0.317259
0.992928 0.200910 0.351336
1.000000 0.549408 0.487744
1.000000 0.796174 0.696993
0.000000 0.020218 0.424964
0.000000 0.037066 0.417835
0.000000 0.055141 0.403150
0.175766 0.050300 0.368652
0.446487 0.000000 0.328796
0.737414 0.000000 0.329321
0.994108 0.231553 0.357962
1.000000 0.554575 0.489030
1.000000 0.797211 0.697451
0.000000 0.117243 0.534905
0.000000 0.141614 0.522299
0.000000 0.168603 0.507435
0.141232 0.215653 0.494565
0.524064 0.201469 0.449013
0.774104 0.096437 0.372729
0.995098 0.304675 0.374701
1.000000 0.569166 0.492684
1.000000 0.800157 0.698764
0.000000 0.292418 0.601593
0.000000 0.327193 0.592362
0.000000 0.361726 0.579733
0.000000 0.454128 0.569065
0.508000 0.529882 0.563564
0.816030 0.472925 0.474723
0.990683 0.428034 0.402254
1.000000 0.609743 0.500995
1.000000 0.808355 0.702424
0.000000 0.643293 0.637021
0.000000 0.656148 0.635001
0.000000 0.674950 0.625618
0.000000 0.708909 0.608638
0.373413 0.772691 0.614453
0.810155 0.783019 0.594356
0.964874 0.743632 0.505025
1.000000 0.721089 0.541492
1.000000 0.829528 0.714849
0.000000 0.882254 0.677283
0.000000 0.884359 0.677696
0.000000 0.887947 0.678393
0.000000 0.898282 0.680736
0.366173 0.910564 0.688771
0.758240 0.912976 0.663291
0.938929 0.910170 0.648461
1.000000 0.899201 0.684698
1.000000 0.884521 0.759266
0.497876 0.974967 0.818213
0.509004 0.975118 0.818471
0.525931 0.975367 0.818891
0.569079 0.976029 0.820078
0.654833 0.977150 0.821740
0.769415 0.977257 0.815268
0.908448 0.976901 0.806593
0.994002 0.975257 0.803463
1.000000 0.969457 0.854618
0.823404 1.000000 0.923037
0.824464 1.000000 0.923153
0.826187 1.000000 0.923343
0.831025 1.000000 0.923880
0.842838 1.000000 0.924374
0.867778 1.000000 0.923373
0.912293 1.000000 0.918655
0.977894 1.000000 0.920243
1.000000 1.000000 0.922169
0.000000 0.064852 0.700296
0.000000 0.074499 0.693453
0.000000 0.082694 0.687558
0.000000 0.088239 0.666905
0.420488 0.000000 0.617767
0.760151 0.000000 0.569069
0.988238 0.196839 0.598324
1.000000 0.568629 0.634789
1.000000 0.807113 0.757335
0.000000 0.077810 0.708791
0.000000 0.086449 0.704087
0.000000 0.095385 0.697581
0.000000 0.104713 0.679132
0.424812 0.012441 0.630123
0.767384 0.000000 0.578722
0.988872 0.216992 0.602843
1.000000 0.572697 0.635962
1.000000 0.807656 0.757556
0.000000 0.096773 0.721431
0.000000 0.105228 0.719214
0.000000 0.114447 0.714398
0.000000 0.131899 0.698110
0.431455 0.096599 0.648410
0.777976 0.000000 0.593321
0.989690 0.247230 0.610093
1.000000 0.579315 0.637874
1.000000 0.808543 0.757916
0.000000 0.151863 0.752095
0.000000 0.162267 0.750048
0.000000 0.172386 0.747082
0.000000 0.198838 0.739409
0.443410 0.194783 0.696366
0.804296 0.021793 0.643647
0.990668 0.321569 0.629120
1.000000 0.598017 0.643302
1.000000 0.811070 0.758948
0.000000 0.333217 0.808803
0.000000 0.347980 0.807017
0.000000 0.364095 0.804118
0.000000 0.402921 0.798210
0.407606 0.478834 0.789235
0.824850 0.487848 0.757616
0.989876 0.456662 0.670801
1.000000 0.646180 0.657368
1.000000 0.818140 0.761880
0.000000 0.592201 0.836887
0.000000 0.607612 0.834698
0.000000 0.622604 0.832153
0.000000 0.669619 0.827049
0.234046 0.747236 0.819536
0.779156 0.795973 0.822839
0.952870 0.761023 0.754542
1.000000 0.734529 0.681535
1.000000 0.836145 0.769955
0.000000 0.869456 0.851365
0.000000 0.871640 0.851316
0.000000 0.875448 0.851105
0.000000 0.884240 0.848099
0.107540 0.895929 0.840967
0.742235 0.916888 0.846835
0.928328 0.920901 0.840068
1.000000 0.899096 0.780246
1.000000 0.883595 0.794558
0.422194 0.969605 0.869426
0.436428 0.969758 0.869578
0.458214 0.970000 0.869828
0.511678 0.970930 0.870535
0.617042 0.973267 0.872934
0.769652 0.978008 0.877861
0.904919 0.978405 0.869736
0.989540 0.977250 0.867688
1.000000 0.969528 0.876211
0.812707 1.000000 0.933016
0.813858 1.000000 0.933085
0.815719 1.000000 0.933197
0.820856 1.000000 0.933607
0.834756 1.000000 0.934692
0.866090 1.000000 0.937097
0.914336 1.000000 0.935399
0.976399 1.000000 0.932805
1.000000 1.000000 0.934076
0.000000 0.246153 0.911313
0.000000 0.248730 0.911046
0.000000 0.252711 0.910631
0.000000 0.265155 0.907217
0.366473 0.271931 0.892996
0.751718 0.237126 0.865858
1.000000 0.188013 0.832754
1.000000 0.578296 0.834855
1.000000 0.819660 0.843486
0.000000 0.253331 0.912313
0.000000 0.256000 0.912044
0.000000 0.260134 0.911627
0.000000 0.273441 0.909168
0.366523 0.281588 0.894900
0.753090 0.250882 0.868065
1.000000 0.207912 0.835238
1.000000 0.581939 0.835645
1.000000 0.820346 0.843768
0.000000 0.264912 0.913959
0.000000 0.267258 0.913622
0.000000 0.270951 0.913223
0.000000 0.286252 0.911449
0.366251 0.297514 0.897869
0.755115 0.272842 0.871521
1.000000 0.237369 0.839150
1.000000 0.587867 0.836922
1.000000 0.821465 0.844227
0.000000 0.294768 0.918463
0.000000 0.297382 0.918061
0.000000 0.301452 0.917436
0.000000 0.319467 0.915741
0.362996 0.342987 0.905586
0.758587 0.333187 0.880130
1.000000 0.308403 0.849609
1.000000 0.604618 0.840482
1.000000 0.824644 0.845538
0.000000 0.381160 0.927516
0.000000 0.384887 0.927227
0.000000 0.390769 0.926740
0.000000 0.410483 0.923501
0.340528 0.448642 0.919410
0.751349 0.459214 0.899576
0.998247 0.463602 0.871325
1.000000 0.650599 0.848908
1.000000 0.833468 0.849239
0.000000 0.618402 0.937822
0.000000 0.622272 0.937532
0.000000 0.628771 0.936767
0.000000 0.651503 0.933535
0.095109 0.694297 0.929690
0.704903 0.758463 0.925540
0.952772 0.769749 0.910267
1.000000 0.752927 0.867317
1.000000 0.854685 0.857804
0.000000 0.836877 0.942190
0.000000 0.840211 0.941671
0.000000 0.843992 0.940855
0.000000 0.852691 0.938923
0.000000 0.874444 0.937004
0.688631 0.901093 0.935007
0.914893 0.924863 0.938099
0.997539 0.907904 0.906414
1.000000 0.891382 0.867856
0.326707 0.963006 0.946595
0.344790 0.963196 0.946610
0.371873 0.963494 0.946635
0.436510 0.964668 0.946688
0.552863 0.966925 0.945966
0.713272 0.969927 0.943245
0.897061 0.980606 0.947153
0.985593 0.982504 0.944827
1.000000 0.970285 0.916168
0.783156 1.000000 0.954601
0.784506 1.000000 0.954645
0.786693 1.000000 0.954717
0.792789 1.000000 0.954925
0.808986 1.000000 0.955519
0.844601 1.000000 0.957413
0.911229 1.000000 0.961683
0.974825 1.000000 0.959479
1.000000 1.000000 0.959507
0.286618 0.508984 0.990162
0.298165 0.510179 0.990072
0.316031 0.512100 0.989926
0.361994 0.517491 0.989383
0.472948 0.535376 0.987590
0.680672 0.552080 0.979714
0.953684 0.554305 0.965792
1.000000 0.576314 0.947732
1.000000 0.824380 0.939836
0.285181 0.512419 0.990212
0.296821 0.513618 0.990122
0.314818 0.515550 0.989976
0.361052 0.520968 0.989430
0.472014 0.538463 0.987584
0.680558 0.555486 0.979911
0.953230 0.558450 0.966020
1.000000 0.580551 0.948072
1.000000 0.824983 0.939929
0.282759 0.518020 0.990291
0.294562 0.519229 0.990200
0.312777 0.521174 0.990053
0.359467 0.526637 0.989502
0.470587 0.543266 0.987582
0.680358 0.561036 0.980227
0.952470 0.565193 0.966384
1.000000 0.587444 0.948621
1.000000 0.825966 0.940082
0.275871 0.533431 0.990513
0.287624 0.535155 0.990398
0.306532 0.537138 0.990249
0.354658 0.542682 0.989686
0.466364 0.556873 0.987563
0.679683 0.576757 0.981088
0.950176 0.584230 0.967371
1.000000 0.606904 0.950122
1.000000 0.828761 0.940520
0.256620 0.569257 0.991006
0.269689 0.571030 0.990886
0.289586 0.573886 0.990693
0.343204 0.580775 0.990246
0.459987 0.594972 0.988164
0.677140 0.620679 0.982934
0.941999 0.634278 0.969789
1.000000 0.654401 0.954049
1.000000 0.836533 0.941758
0.117557 0.660694 0.991376
0.153174 0.662021 0.991189
0.194744 0.664157 0.990887
0.278411 0.671796 0.990008
0.427239 0.693142 0.988459
0.660151 0.726207 0.984458
0.916227 0.746507 0.974396
1.000000 0.759589 0.961135
1.000000 0.856560 0.945136
0.000000 0.844123 0.989679
0.000000 0.844773 0.989616
0.000000 0.845865 0.989478
0.000000 0.849068 0.988945
0.371297 0.860282 0.987365
0.624822 0.876571 0.985539
0.880646 0.903380 0.983698
0.997928 0.908975 0.977864
1.000000 0.901673 0.954257
0.129513 0.946426 0.989796
0.174873 0.946835 0.989765
0.225804 0.947435 0.989712
0.321172 0.948500 0.989635
0.474133 0.951002 0.989384
0.662420 0.958696 0.987568
0.867702 0.971429 0.987716
0.979645 0.983613 0.990408
1.000000 0.974651 0.975371
0.756156 1.000000 0.991980
0.757554 1.000000 0.991987
0.759823 1.000000 0.991999
0.766170 1.000000 0.992033
0.783495 1.000000 0.991983
0.819428 1.000000 0.991529
0.882101 1.000000 0.990691
0.971056 1.000000 0.993576
1.000000 1.000000 0.993531
0.628196 0.765021 1.000000
0.630625 0.765317 1.000000
0.634559 0.765800 1.000000
0.645555 0.767167 1.000000
0.677021 0.772544 1.000000
0.752195 0.785923 1.000000
0.869726 0.794504 1.000000
1.000000 0.806451 1.000000
1.000000 0.822530 0.995154
0.627993 0.765764 1.000000
0.630423 0.766059 1.000000
0.634358 0.766541 1.000000
0.645357 0.767904 1.000000
0.676837 0.773268 1.000000
0.751966 0.786674 1.000000
0.869612 0.795329 1.000000
1.000000 0.807217 1.000000
1.000000 0.823230 0.995199
0.627664 0.766977 1.000000
0.630092 0.767271 1.000000
0.634030 0.767750 1.000000
0.645034 0.769107 1.000000
0.676536 0.774451 1.000000
0.751593 0.787898 1.000000
0.869429 0.796672 1.000000
1.000000 0.808465 1.000000
1.000000 0.824372 0.995273
0.626728 0.770421 1.000000
0.629160 0.770712 1.000000
0.633104 0.771184 1.000000
0.644122 0.772521 1.000000
0.675691 0.777805 1.000000
0.750539 0.791362 1.000000
0.868914 0.800479 1.000000
0.999663 0.812010 1.000000
1.000000 0.827613 0.995482
0.624134 0.779959 1.000000
0.626602 0.780256 1.000000
0.630570 0.780716 1.000000
0.641630 0.781995 1.000000
0.673385 0.787104 1.000000
0.747684 0.800849 1.000000
0.867495 0.811073 1.000000
0.996780 0.821850 1.000000
1.000000 0.836592 0.996070
0.617783 0.804310 1.000000
0.620276 0.804566 1.000000
0.624316 0.804983 1.000000
0.635597 0.806162 1.000000
0.668675 0.809493 1.000000
0.742902 0.821663 1.000000
0.862624 0.836828 1.000000
0.990986 0.843737 1.000000
1.000000 0.856316 0.997354
0.620184 0.857604 1.000000
0.622261 0.857794 1.000000
0.625628 0.858103 1.000000
0.635043 0.858979 1.000000
0.666971 0.862792 1.000000
0.739245 0.870295 1.000000
0.853523 0.885495 1.000000
0.977129 0.893884 1.000000
1.000000 0.902329 1.000000
0.635554 0.942274 1.000000
0.637767 0.942365 1.000000
0.641611 0.942523 1.000000
0.652289 0.942974 1.000000
0.680182 0.944242 1.000000
0.741674 0.949101 1.000000
0.840652 0.956232 1.000000
0.958821 0.971544 1.000000
1.000000 0.975619 1.000000
0.718804 0.992199 1.000000
0.720309 0.992265 1.000000
0.722751 0.992371 1.000000
0.729569 0.992614 1.000000
0.747855 0.993106 1.000000
0.788119 0.994297 1.000000
0.860974 0.997561 1.000000
0.954011 1.000000 1.000000
1.000000 1.000000 1.000000
