Assets/Lutify-Free-LUTs-Pack/Lutify Free LUTs Pack/Print Film Pro - Print Film 2/Lutify.me-PrintFilm2-ACEScct-to-ACEScct.cube
# Created with: fylm.ai - Colour Grading and Collaboration Software in Cloud 
# Website: https://fylm.ai 
# META
# Option: Gamut compress
# Block 1: HSL | Blending Mode: Normal | {"hue":{"Reds":0,"Yellows":0,"Greens":0,"Cyans":0,"Blues":0,"Magentas":0},"saturation":{"Reds":1,"Yellows":0.9,"Greens":0.95,"Cyans":1,"Blues":1,"Magentas":1},"luminance":{"Reds":0.8,"Yellows":0.95,"Greens":0.9,"Cyans":0.8,"Blues":0.8,"Magentas":0.8},"lum_sat":{"Blacks":1,"Shadows":1,"Midtones":1,"Highlights":1,"Whites":1},"sat_sat":{"10":1,"20":1,"30":1,"40":1,"50":1}}
# Block 2: LUT | Filmic Curve Response: Low Contrast 2 (100%)
TITLE "Print Film Pro 2" 
LUT_3D_SIZE 9
0.039215 0.039215 0.039215
0.040248 0.039741 0.039402
0.070026 0.045107 0.040995
0.236851 0.064488 0.046567
0.431633 0.195189 0.111048
0.552967 0.358543 0.281354
0.667049 0.482948 0.426218
0.805892 0.586972 0.539211
0.903158 0.730631 0.669382
0.041504 0.043642 0.041504
0.050834 0.049852 0.043279
0.103461 0.059554 0.042754
0.266708 0.085901 0.048224
0.435024 0.210553 0.113174
0.553657 0.362003 0.282372
0.667170 0.483455 0.426397
0.805909 0.587068 0.539223
0.903174 0.730675 0.669401
0.050860 0.103381 0.048751
0.071109 0.120182 0.047701
0.165981 0.146127 0.046670
0.311406 0.163248 0.050796
0.440563 0.237323 0.117552
0.554712 0.367766 0.284202
0.667371 0.484294 0.426694
0.805937 0.587228 0.539243
0.903200 0.730749 0.669431
0.072331 0.269840 0.065159
0.111468 0.288105 0.062308
0.203260 0.309448 0.059791
0.355980 0.322398 0.056777
0.463114 0.341261 0.143242
0.559261 0.390887 0.292134
0.668641 0.488331 0.428379
0.806060 0.587937 0.539330
0.903317 0.731078 0.669569
0.222620 0.440941 0.229808
0.247090 0.444948 0.223956
0.277076 0.449287 0.214144
0.371659 0.463708 0.197798
0.490658 0.473592 0.176257
0.581295 0.473803 0.326797
0.674377 0.505294 0.435490
0.807015 0.591392 0.540267
0.903849 0.732573 0.670195
0.393296 0.564296 0.411392
0.396995 0.565370 0.410463
0.402818 0.567176 0.408991
0.425422 0.571088 0.402111
0.500479 0.581975 0.387718
0.608598 0.592375 0.369668
0.701868 0.586307 0.467204
0.815470 0.609435 0.546463
0.906257 0.739302 0.673026
0.514119 0.686894 0.535525
0.514884 0.687110 0.535393
0.516142 0.687466 0.535177
0.521528 0.688992 0.534250
0.541595 0.693330 0.530465
0.613137 0.706843 0.521084
0.737777 0.719451 0.505155
0.855971 0.703754 0.580929
0.916924 0.769528 0.685529
0.623674 0.840631 0.653868
0.623856 0.840698 0.653841
0.624160 0.840810 0.653795
0.625499 0.841302 0.653594
0.631339 0.843990 0.653101
0.653899 0.853623 0.650615
0.741944 0.868726 0.639669
0.906681 0.883248 0.624054
0.962392 0.905312 0.738463
0.757179 0.949884 0.805414
0.757244 0.949911 0.805424
0.757353 0.949957 0.805441
0.757856 0.950159 0.805516
0.760255 0.951071 0.805854
0.770540 0.954808 0.807113
0.804892 0.961298 0.804223
0.922592 0.971480 0.798048
0.969536 0.969536 0.763583
0.039215 0.039215 0.039215
0.041491 0.040323 0.041491
0.075966 0.046197 0.048733
0.246188 0.066531 0.060416
0.432853 0.196648 0.133173
0.552927 0.359192 0.287204
0.667108 0.483020 0.427265
0.805970 0.587012 0.539439
0.903160 0.730628 0.669427
0.042464 0.046192 0.048498
0.052345 0.052345 0.052755
0.109641 0.061945 0.055580
0.272279 0.089096 0.064763
0.435331 0.211189 0.136051
0.553614 0.362379 0.288092
0.667230 0.483526 0.427444
0.805987 0.587108 0.539451
0.903176 0.730672 0.669446
0.050998 0.107341 0.074151
0.071844 0.127198 0.073491
0.165844 0.156003 0.069972
0.311404 0.168138 0.073307
0.440709 0.237190 0.141350
0.554850 0.367533 0.290209
0.667431 0.484366 0.427741
0.806014 0.587268 0.539471
0.903202 0.730746 0.669477
0.072388 0.271374 0.117709
0.111093 0.294634 0.110827
0.202560 0.315910 0.100463
0.353733 0.333613 0.090914
0.463738 0.341256 0.169107
0.559375 0.390681 0.298138
0.668586 0.488301 0.429315
0.806138 0.587977 0.539558
0.903319 0.731074 0.669614
0.223224 0.441337 0.263708
0.246245 0.446379 0.257791
0.279205 0.451494 0.251218
0.372767 0.465090 0.231929
0.490687 0.474978 0.208426
0.581033 0.473846 0.332393
0.674317 0.505269 0.436426
0.807019 0.591380 0.540421
0.903851 0.732570 0.670240
0.392868 0.564323 0.416405
0.397113 0.565099 0.415727
0.402936 0.566905 0.414411
0.425848 0.571590 0.407781
0.500701 0.582231 0.393399
0.608596 0.592812 0.375103
0.701882 0.586282 0.468258
0.815472 0.609424 0.546617
0.906258 0.739299 0.673071
0.514028 0.686899 0.536633
0.514904 0.687132 0.536512
0.516161 0.687488 0.536296
0.521547 0.689014 0.535370
0.541710 0.693503 0.531581
0.613194 0.706953 0.522188
0.737913 0.719585 0.506295
0.855964 0.703790 0.581125
0.916925 0.769526 0.685574
0.623677 0.840636 0.654083
0.623860 0.840703 0.654056
0.624164 0.840815 0.654010
0.625503 0.841307 0.653809
0.631342 0.843995 0.653316
0.653929 0.853676 0.650857
0.741925 0.868747 0.639877
0.906682 0.883282 0.624276
0.962394 0.905313 0.738516
0.757162 0.949865 0.805458
0.757227 0.949892 0.805468
0.757336 0.949938 0.805485
0.757837 0.950140 0.805559
0.760237 0.951052 0.805898
0.770541 0.954809 0.807175
0.804903 0.961312 0.804296
0.922598 0.971486 0.798111
0.969545 0.969545 0.763648
0.040004 0.040004 0.043162
0.046430 0.043064 0.055205
0.088917 0.048275 0.074389
0.253128 0.068646 0.102603
0.434580 0.199568 0.165478
0.553457 0.361304 0.297505
0.667384 0.483303 0.429168
0.806099 0.587079 0.539818
0.903162 0.730622 0.669503
0.044488 0.048852 0.078630
0.055301 0.055301 0.097475
0.115183 0.064893 0.106877
0.280630 0.095287 0.118426
0.437145 0.213575 0.168356
0.553912 0.364137 0.297974
0.667399 0.483710 0.429238
0.806115 0.587175 0.539830
0.903178 0.730667 0.669521
0.050966 0.107227 0.183432
0.071686 0.128373 0.182152
0.169329 0.169329 0.177879
0.316014 0.173351 0.152335
0.441158 0.237015 0.173639
0.554724 0.368272 0.299315
0.667530 0.484484 0.429463
0.806143 0.587335 0.539850
0.903204 0.730741 0.669552
0.069449 0.269275 0.238264
0.106482 0.292766 0.229420
0.207554 0.323628 0.225654
0.353531 0.345107 0.204016
0.462711 0.343936 0.206016
0.559574 0.390338 0.307761
0.668498 0.488251 0.430855
0.806267 0.588044 0.539936
0.903321 0.731069 0.669690
0.219399 0.440021 0.300932
0.246788 0.446782 0.300152
0.278945 0.451930 0.297525
0.372404 0.466020 0.278405
0.491401 0.478508 0.255066
0.580624 0.473907 0.341206
0.674219 0.505228 0.437966
0.807025 0.591360 0.540676
0.903853 0.732564 0.670316
0.392022 0.564349 0.423817
0.396266 0.565125 0.423144
0.403128 0.566364 0.421952
0.426528 0.572321 0.416481
0.501041 0.582762 0.402496
0.608464 0.593371 0.383503
0.701905 0.586240 0.469990
0.815475 0.609405 0.546871
0.906260 0.739293 0.673147
0.513877 0.686908 0.538453
0.514753 0.687141 0.538333
0.516193 0.687525 0.538135
0.521579 0.689051 0.537212
0.541901 0.693787 0.533417
0.613289 0.707135 0.524002
0.738137 0.719806 0.508169
0.855953 0.703849 0.581452
0.916926 0.769521 0.685649
0.623684 0.840645 0.654440
0.623866 0.840712 0.654412
0.624170 0.840824 0.654367
0.625509 0.841316 0.654166
0.631348 0.844004 0.653673
0.653978 0.853763 0.651258
0.741895 0.868781 0.640223
0.906685 0.883339 0.624645
0.962398 0.905315 0.738605
0.757134 0.949833 0.805530
0.757199 0.949861 0.805540
0.757308 0.949906 0.805557
0.757806 0.950108 0.805632
0.760206 0.951021 0.805970
0.770543 0.954811 0.807280
0.804921 0.961336 0.804418
0.922608 0.971498 0.798217
0.969559 0.969559 0.763758
0.051268 0.051836 0.189096
0.066117 0.058472 0.209792
0.118407 0.065686 0.217079
0.259835 0.071661 0.211086
0.438654 0.207742 0.276958
0.556715 0.367361 0.334941
0.669303 0.485210 0.438088
0.806668 0.587375 0.541478
0.903173 0.730599 0.669839
0.055381 0.066803 0.262362
0.072753 0.074691 0.267480
0.135241 0.088534 0.262967
0.285411 0.098322 0.250538
0.442370 0.222836 0.283720
0.557060 0.369688 0.335697
0.669318 0.485619 0.438159
0.806685 0.587471 0.541490
0.903189 0.730643 0.669857
0.061470 0.110934 0.331128
0.085258 0.132293 0.328514
0.158339 0.162762 0.322775
0.318974 0.186154 0.304118
0.448035 0.248669 0.294461
0.557872 0.373827 0.336877
0.669343 0.486295 0.438275
0.806712 0.587631 0.541510
0.903215 0.730717 0.669888
0.068300 0.251289 0.387711
0.102117 0.279514 0.379976
0.193241 0.314469 0.372729
0.356963 0.357518 0.369555
0.465644 0.347682 0.327138
0.561280 0.391199 0.341829
0.669454 0.489262 0.438788
0.806836 0.588340 0.541596
0.903332 0.731046 0.670026
0.203892 0.431382 0.400560
0.229551 0.437458 0.397217
0.265671 0.444927 0.397466
0.376416 0.472230 0.396880
0.492616 0.485760 0.381700
0.580203 0.473717 0.374428
0.673819 0.505050 0.444567
0.807419 0.591542 0.542071
0.903864 0.732541 0.670652
0.386818 0.561967 0.449799
0.391921 0.563296 0.449713
0.399974 0.565381 0.449583
0.427888 0.572474 0.447183
0.501877 0.584835 0.434879
0.608182 0.595733 0.417938
0.702007 0.586049 0.477391
0.815492 0.609319 0.547996
0.906270 0.739271 0.673483
0.513234 0.686947 0.546183
0.514110 0.687180 0.546065
0.515549 0.687563 0.545871
0.521714 0.689207 0.545043
0.542729 0.695022 0.541357
0.613687 0.707922 0.531769
0.739102 0.720756 0.516192
0.855903 0.704112 0.582894
0.916932 0.769499 0.685985
0.623711 0.840683 0.656013
0.623893 0.840751 0.655985
0.624197 0.840862 0.655940
0.625536 0.841354 0.655739
0.631376 0.844043 0.655248
0.654198 0.854150 0.653029
0.741758 0.868931 0.641752
0.906697 0.883593 0.626272
0.962413 0.905325 0.739001
0.757007 0.949691 0.805851
0.757073 0.949718 0.805861
0.757182 0.949764 0.805878
0.757668 0.949966 0.805953
0.760068 0.950880 0.806292
0.770551 0.954820 0.807743
0.805003 0.961443 0.804957
0.922653 0.971549 0.798687
0.969623 0.969623 0.764244
0.143632 0.163527 0.447870
0.163659 0.171556 0.445967
0.193030 0.180828 0.443629
0.308976 0.201414 0.431077
0.438609 0.217881 0.411515
0.560496 0.373839 0.429356
0.674393 0.490613 0.468092
0.809023 0.588599 0.548323
0.903224 0.730493 0.671359
0.146266 0.175419 0.452598
0.166894 0.184784 0.450791
0.197471 0.194655 0.449453
0.311238 0.216168 0.437032
0.442042 0.233846 0.416926
0.561278 0.376384 0.430227
0.674473 0.491084 0.468216
0.809040 0.588696 0.548334
0.903239 0.730537 0.671378
0.151197 0.198084 0.459833
0.171823 0.207596 0.458141
0.203354 0.217879 0.457156
0.314901 0.240991 0.446381
0.448010 0.258531 0.424826
0.562621 0.380995 0.432068
0.674604 0.491864 0.468423
0.809068 0.588856 0.548354
0.903265 0.730611 0.671409
0.167988 0.287832 0.483236
0.190702 0.297397 0.481746
0.223480 0.308599 0.479881
0.331581 0.339978 0.476480
0.466563 0.358111 0.459194
0.567851 0.401771 0.439228
0.675180 0.495285 0.469328
0.809191 0.589567 0.548441
0.903382 0.730940 0.671546
0.191908 0.415699 0.512130
0.216972 0.421575 0.511000
0.251198 0.430107 0.509641
0.358007 0.458161 0.505525
0.492974 0.496203 0.505628
0.583570 0.479364 0.464826
0.676817 0.508819 0.472457
0.809747 0.592761 0.548832
0.903912 0.732435 0.672172
0.370419 0.550127 0.522772
0.374957 0.551217 0.522369
0.382149 0.552842 0.521760
0.411753 0.561394 0.521823
0.502904 0.591263 0.525568
0.610403 0.605175 0.513378
0.701031 0.585824 0.501127
0.815223 0.609037 0.553388
0.906313 0.739167 0.675001
0.507262 0.681965 0.566180
0.508321 0.682403 0.566245
0.510064 0.683123 0.566352
0.517532 0.686197 0.566816
0.542536 0.695641 0.567831
0.614538 0.710598 0.557510
0.740006 0.724196 0.544085
0.855815 0.704467 0.588909
0.916959 0.769402 0.687502
0.623829 0.840852 0.663027
0.624012 0.840919 0.662997
0.624316 0.841030 0.662949
0.625655 0.841522 0.662734
0.631537 0.843694 0.662259
0.654507 0.854066 0.660142
0.741181 0.869647 0.648878
0.906824 0.884778 0.633849
0.962482 0.905372 0.740787
0.756433 0.949046 0.807301
0.756498 0.949073 0.807311
0.756608 0.949119 0.807328
0.757092 0.949322 0.807404
0.759442 0.950240 0.807745
0.769969 0.954231 0.809237
0.805046 0.961495 0.807071
0.922858 0.971779 0.800811
0.969914 0.969914 0.766444
0.315201 0.342123 0.574061
0.320214 0.343525 0.573968
0.328344 0.345594 0.573854
0.359039 0.353098 0.571811
0.449812 0.369774 0.558602
0.558401 0.380051 0.538432
0.678481 0.498402 0.546531
0.816907 0.593888 0.574342
0.903485 0.730029 0.678047
0.315877 0.344660 0.574747
0.320800 0.346058 0.574644
0.328929 0.348133 0.574531
0.359671 0.355981 0.572835
0.450330 0.372553 0.559622
0.559031 0.382644 0.539308
0.678646 0.498873 0.546763
0.816925 0.593985 0.574354
0.903500 0.730073 0.678065
0.316978 0.349242 0.575866
0.321400 0.350594 0.575700
0.329385 0.352665 0.575571
0.361158 0.361595 0.574821
0.451176 0.377087 0.561286
0.560380 0.387282 0.541051
0.678918 0.499655 0.547148
0.816955 0.594147 0.574374
0.903526 0.730147 0.678096
0.321594 0.367948 0.580590
0.326019 0.369159 0.580427
0.333019 0.370922 0.580176
0.363818 0.379444 0.579774
0.453997 0.397366 0.568482
0.566084 0.406876 0.548403
0.680116 0.502958 0.548839
0.817090 0.594865 0.574462
0.903641 0.730476 0.678233
0.333657 0.434498 0.598424
0.338723 0.435698 0.598062
0.346961 0.437645 0.597430
0.376762 0.447585 0.597012
0.466394 0.474000 0.596871
0.584103 0.486522 0.578880
0.685449 0.517628 0.555467
0.817694 0.598092 0.574856
0.904165 0.731973 0.678856
0.355258 0.529989 0.622292
0.360398 0.531515 0.622271
0.368021 0.534058 0.622248
0.395332 0.542717 0.621347
0.482492 0.571774 0.621477
0.608715 0.614544 0.627849
0.707162 0.592785 0.581692
0.819733 0.612246 0.578569
0.906539 0.738712 0.681675
0.490305 0.663943 0.635938
0.491283 0.664267 0.635907
0.492890 0.664801 0.635855
0.499786 0.667095 0.635637
0.524623 0.677006 0.635238
0.615129 0.719907 0.643466
0.744212 0.739344 0.633362
0.854656 0.703920 0.610999
0.917099 0.768967 0.694158
0.617523 0.832307 0.684790
0.617742 0.832441 0.684812
0.618105 0.832663 0.684851
0.619748 0.833646 0.685019
0.627073 0.837796 0.686098
0.655131 0.852936 0.689374
0.742385 0.872960 0.677203
0.909161 0.890134 0.664887
0.962780 0.905564 0.748607
0.753860 0.946148 0.813630
0.753926 0.946176 0.813641
0.754036 0.946223 0.813660
0.754522 0.946430 0.813743
0.756724 0.947364 0.814120
0.767219 0.951439 0.815777
0.805206 0.961678 0.816523
0.923752 0.972791 0.810120
0.971194 0.971194 0.776090
0.447587 0.472081 0.695818
0.448522 0.472344 0.695759
0.450061 0.472776 0.695664
0.456671 0.474637 0.695265
0.482380 0.483131 0.695105
0.560703 0.494738 0.679995
0.676075 0.502541 0.655353
0.822576 0.602307 0.658835
0.912519 0.735096 0.711518
0.447700 0.472468 0.695989
0.448635 0.472731 0.695931
0.450174 0.473163 0.695835
0.456785 0.475025 0.695436
0.482427 0.483581 0.695215
0.560815 0.495255 0.680270
0.676192 0.503003 0.655638
0.822634 0.602426 0.658884
0.912522 0.735129 0.711526
0.447888 0.473110 0.696273
0.448823 0.473373 0.696214
0.450362 0.473806 0.696119
0.456972 0.475669 0.695721
0.482507 0.484327 0.695398
0.561001 0.496113 0.680726
0.676387 0.503768 0.656110
0.822731 0.602622 0.658965
0.912527 0.735185 0.711541
0.448337 0.475922 0.697136
0.449382 0.476186 0.697191
0.451103 0.476621 0.697281
0.457795 0.478492 0.696968
0.482854 0.487597 0.696197
0.561817 0.499877 0.682728
0.677245 0.507129 0.658186
0.823162 0.603493 0.659327
0.912549 0.735433 0.711608
0.449962 0.488449 0.700538
0.451007 0.488717 0.700593
0.452727 0.489159 0.700684
0.460029 0.491063 0.701087
0.485035 0.500348 0.700840
0.564492 0.514976 0.691283
0.681493 0.522138 0.667137
0.825102 0.607415 0.660953
0.912650 0.736561 0.711910
0.460237 0.545449 0.719667
0.461221 0.545838 0.719640
0.462839 0.546478 0.719597
0.469794 0.549232 0.719427
0.492667 0.557599 0.718988
0.576669 0.585411 0.723563
0.706922 0.600529 0.705214
0.832802 0.624907 0.668744
0.913105 0.741632 0.713267
0.474545 0.638145 0.745233
0.475514 0.638582 0.745306
0.477110 0.639301 0.745428
0.483962 0.642398 0.745964
0.508315 0.652110 0.747577
0.586521 0.688658 0.751294
0.740653 0.748531 0.770326
0.864398 0.714267 0.701722
0.918138 0.767175 0.722100
0.594800 0.802720 0.765491
0.594986 0.802808 0.765484
0.595295 0.802954 0.765471
0.596660 0.803598 0.765415
0.602657 0.806429 0.765176
0.627733 0.819270 0.767004
0.741547 0.881992 0.784740
0.916372 0.910362 0.777716
0.963953 0.906173 0.783023
0.740402 0.932098 0.842088
0.740476 0.932130 0.842102
0.740600 0.932182 0.842127
0.741152 0.932415 0.842234
0.743649 0.933470 0.842722
0.754503 0.938105 0.844843
0.799230 0.955814 0.852834
0.927370 0.977037 0.851350
0.976878 0.976878 0.818622
0.552857 0.576768 0.842315
0.553065 0.576831 0.842344
0.553412 0.576936 0.842393
0.554942 0.577399 0.842611
0.561149 0.579295 0.843823
0.584772 0.587048 0.846974
0.670999 0.600430 0.829351
0.818770 0.606965 0.797737
0.924449 0.746916 0.826329
0.552866 0.576859 0.842345
0.553075 0.576922 0.842375
0.553421 0.577027 0.842424
0.554952 0.577490 0.842641
0.561158 0.579388 0.843854
0.584779 0.587140 0.847018
0.671014 0.600527 0.829429
0.818816 0.607087 0.797813
0.924463 0.746957 0.826353
0.552882 0.577010 0.842396
0.553091 0.577073 0.842426
0.553437 0.577178 0.842475
0.554968 0.577642 0.842692
0.561174 0.579544 0.843904
0.584791 0.587292 0.847090
0.671037 0.600689 0.829558
0.818892 0.607289 0.797940
0.924486 0.747026 0.826394
0.552952 0.577683 0.842622
0.553161 0.577746 0.842651
0.553507 0.577851 0.842700
0.555038 0.578315 0.842918
0.561243 0.580234 0.844130
0.584843 0.587970 0.847410
0.671142 0.601404 0.830133
0.819231 0.608187 0.798502
0.924590 0.747332 0.826578
0.553601 0.580512 0.843761
0.553784 0.580594 0.843781
0.554089 0.580730 0.843815
0.555436 0.581333 0.843964
0.561557 0.583331 0.845145
0.585075 0.591010 0.848848
0.671614 0.604621 0.832718
0.820760 0.612230 0.801034
0.925062 0.748724 0.827412
0.555766 0.594203 0.845098
0.555950 0.594286 0.845119
0.556255 0.594424 0.845153
0.557605 0.595036 0.845304
0.563390 0.597175 0.846803
0.586634 0.604641 0.852254
0.674317 0.619799 0.842675
0.829002 0.629997 0.811386
0.927189 0.754992 0.831169
0.563409 0.655769 0.855044
0.563594 0.655839 0.855066
0.563901 0.655956 0.855102
0.565256 0.656474 0.855260
0.571064 0.658972 0.856786
0.594379 0.668051 0.863294
0.690543 0.702594 0.886945
0.862190 0.724898 0.866100
0.936491 0.784612 0.846282
0.580831 0.774444 0.862871
0.581014 0.774533 0.862940
0.581319 0.774680 0.863054
0.582662 0.775333 0.863561
0.588566 0.778750 0.865796
0.611946 0.792116 0.874816
0.702893 0.838048 0.904478
0.909202 0.918905 0.951372
0.971224 0.912803 0.899584
0.724534 0.916890 0.916890
0.724591 0.916909 0.916909
0.724687 0.916941 0.916941
0.725109 0.917083 0.917083
0.727022 0.917727 0.917727
0.735428 0.920563 0.920563
0.772473 0.932697 0.932697
0.917687 0.976459 0.969063
0.995118 0.995118 0.961876
0.684986 0.718211 0.902837
0.685036 0.718229 0.902855
0.685119 0.718260 0.902886
0.685487 0.718397 0.903022
0.687155 0.719019 0.903639
0.694482 0.721752 0.906354
0.730146 0.733696 0.918780
0.842039 0.745091 0.923831
0.926103 0.751794 0.926103
0.684990 0.718243 0.902838
0.685040 0.718261 0.902856
0.685123 0.718292 0.902887
0.685491 0.718429 0.903023
0.687159 0.719051 0.903640
0.694486 0.721784 0.906356
0.730150 0.733728 0.918782
0.842051 0.745132 0.923844
0.926117 0.751835 0.926117
0.684996 0.718296 0.902840
0.685046 0.718315 0.902859
0.685129 0.718346 0.902889
0.685498 0.718483 0.903026
0.687165 0.719104 0.903642
0.694493 0.721838 0.906358
0.730158 0.733783 0.918784
0.842072 0.745201 0.923868
0.926141 0.751904 0.926141
0.685026 0.718535 0.902851
0.685075 0.718553 0.902870
0.685158 0.718584 0.902900
0.685527 0.718721 0.903037
0.687194 0.719343 0.903653
0.694522 0.722077 0.906369
0.730191 0.734025 0.918795
0.842164 0.745506 0.923971
0.926245 0.752211 0.926245
0.685158 0.719619 0.902900
0.685208 0.719637 0.902919
0.685291 0.719668 0.902949
0.685660 0.719806 0.903086
0.687327 0.720428 0.903702
0.694656 0.723165 0.906419
0.730344 0.735125 0.918847
0.842583 0.746897 0.924443
0.926719 0.753608 0.926719
0.685755 0.724487 0.903121
0.685805 0.724506 0.903139
0.685888 0.724537 0.903170
0.686256 0.724675 0.903306
0.687925 0.725300 0.903924
0.695257 0.728050 0.906641
0.731031 0.740067 0.919079
0.844469 0.753157 0.926566
0.928856 0.760114 0.928856
0.688322 0.745443 0.904071
0.688372 0.745462 0.904089
0.688455 0.745493 0.904120
0.688825 0.745634 0.904257
0.690496 0.746271 0.904876
0.697842 0.749075 0.907602
0.733987 0.761695 0.920076
0.852711 0.782564 0.935841
0.938237 0.790086 0.938237
0.699779 0.833457 0.908322
0.699829 0.833481 0.908341
0.699913 0.833521 0.908372
0.700286 0.833700 0.908511
0.701972 0.834509 0.909138
0.709674 0.838067 0.911901
0.744801 0.852952 0.923732
0.884896 0.907052 0.966985
0.978377 0.924311 0.978377
0.724534 0.916890 0.916890
0.724591 0.916909 0.916909
0.724687 0.916941 0.916941
0.725109 0.917083 0.917083
0.727022 0.917727 0.917727
0.735428 0.920563 0.920563
0.772473 0.932697 0.932697
0.911085 0.974548 0.974548
1.000000 1.000000 1.000000
