Assets/Lutify-Free-LUTs-Pack/Lutify Free LUTs Pack/Print Film Pro - Print Film 2/Lutify.me-PrintFilm2-SLog1-to-Rec709.cube
# Created with: fylm.ai - Colour Grading and Collaboration Software in Cloud 
# Website: https://fylm.ai 
# META
# Option: Gamut compress
# Block 1: IDT | Sony S-Log S-Gamut 10-bit
# Block 2: colourMatch | Blending Mode: Normal | {"ColorSpace":0,"CrossCovarianceLimit":50,"ReshapingIterations":1,"PercentSaturationShift":100,"PercentShadingShift":100,"ExtraShading":true,"PercentTint":100,"PercentModified":100}
# Block 3: HSL | Blending Mode: Normal | {"hue":{"Reds":0,"Yellows":0,"Greens":0,"Cyans":0,"Blues":0,"Magentas":0},"saturation":{"Reds":1,"Yellows":0.9,"Greens":0.95,"Cyans":1,"Blues":1,"Magentas":1},"luminance":{"Reds":0.8,"Yellows":0.95,"Greens":0.9,"Cyans":0.8,"Blues":0.8,"Magentas":0.8},"lum_sat":{"Blacks":1,"Shadows":1,"Midtones":1,"Highlights":1,"Whites":1},"sat_sat":{"10":1,"20":1,"30":1,"40":1,"50":1}}
# Block 4: LUT | Filmic Curve Response: Low Contrast 2 (100%)
# Block 5: ODT | Rec709
TITLE "Lutify.me-PrintFilm2-SLog1-to-Rec709" 
LUT_3D_SIZE 33
0.000000 0.000000 0.000000
0.000000 0.000000 0.000000
0.000000 0.000000 0.000000
0.000000 0.000000 0.000000
0.000000 0.000000 0.000000
0.000000 0.000000 0.000000
0.000000 0.000000 0.000000
0.000000 0.000000 0.000000
0.020627 0.000000 0.000000
0.059720 0.000000 0.000000
0.087949 0.000000 0.000000
0.121165 0.000000 0.000000
0.163631 0.000000 0.000000
0.216496 0.000000 0.000000
0.274856 0.000000 0.000000
0.334770 0.000000 0.000000
0.402533 0.000000 0.000000
0.476862 0.000000 0.000000
0.547445 0.000000 0.000000
0.612035 0.000000 0.000000
0.680557 0.000000 0.009528
0.747466 0.000000 0.036615
0.815516 0.000000 0.057987
0.877129 0.000000 0.079338
0.925139 0.000000 0.103027
0.966344 0.000000 0.130383
1.000000 0.073428 0.162586
1.000000 0.212473 0.195848
1.000000 0.296349 0.238565
1.000000 0.369861 0.277656
1.000000 0.431530 0.318747
1.000000 0.494262 0.368315
1.000000 0.557301 0.419771
0.000000 0.000000 0.000000
0.000000 0.000000 0.000000
0.000000 0.000000 0.000000
0.000000 0.000000 0.000000
0.000000 0.000000 0.000000
0.000000 0.000000 0.000000
0.000000 0.000000 0.000000
0.000000 0.000000 0.000000
0.046333 0.000000 0.000000
0.074267 0.000000 0.000000
0.107940 0.000000 0.000000
0.142260 0.000000 0.000000
0.183834 0.000000 0.000000
0.238470 0.000000 0.000000
0.293155 0.000000 0.000000
0.349549 0.000000 0.000000
0.416176 0.000000 0.000000
0.485755 0.000000 0.000000
0.555067 0.000000 0.000000
0.617751 0.000000 0.000000
0.686052 0.000000 0.006247
0.750502 0.000000 0.036998
0.817771 0.000000 0.058410
0.878741 0.000000 0.079606
0.926211 0.000000 0.103322
0.966987 0.000000 0.130728
1.000000 0.094135 0.162529
1.000000 0.218938 0.195772
1.000000 0.300380 0.238858
1.000000 0.372230 0.277954
1.000000 0.433381 0.319049
1.000000 0.495894 0.368405
1.000000 0.558507 0.419849
0.000000 0.000000 0.000000
0.000000 0.000000 0.000000
0.000000 0.000000 0.000000
0.000000 0.000000 0.000000
0.000000 0.000000 0.000000
0.000000 0.000000 0.000000
0.000000 0.000000 0.000000
0.031634 0.000000 0.000000
0.065433 0.000000 0.000000
0.094549 0.000000 0.000000
0.126165 0.000000 0.000000
0.158540 0.000000 0.000000
0.206716 0.000000 0.000000
0.258579 0.000000 0.000000
0.309039 0.000000 0.000000
0.363609 0.000000 0.000000
0.426072 0.000000 0.000000
0.494168 0.000000 0.000000
0.562566 0.000000 0.000000
0.624407 0.000000 0.000000
0.691520 0.000000 0.000000
0.753458 0.000000 0.037285
0.820871 0.000000 0.058776
0.880799 0.000000 0.080088
0.927256 0.000000 0.103604
0.967613 0.000000 0.131063
1.000000 0.110096 0.162464
1.000000 0.225222 0.195688
1.000000 0.304356 0.239148
1.000000 0.374581 0.278251
1.000000 0.435221 0.319348
1.000000 0.497520 0.368495
1.000000 0.559710 0.419927
0.000000 0.000000 0.000000
0.000000 0.000000 0.000000
0.000000 0.000000 0.000000
0.000000 0.000000 0.000000
0.000000 0.000000 0.000000
0.000000 0.000000 0.000000
0.020412 0.000000 0.000000
0.059421 0.000000 0.000000
0.084668 0.000000 0.000000
0.114747 0.000000 0.000000
0.144859 0.000000 0.000000
0.179597 0.000000 0.000000
0.224763 0.000000 0.000000
0.275517 0.000000 0.000000
0.326191 0.000000 0.000000
0.375504 0.000000 0.000000
0.435327 0.000000 0.000000
0.502214 0.000000 0.000000
0.569791 0.000000 0.000000
0.630881 0.000000 0.000000
0.696856 0.000000 0.000000
0.757231 0.000000 0.036816
0.824026 0.000000 0.059097
0.883097 0.000000 0.080691
0.928484 0.000000 0.104000
0.968222 0.000000 0.131389
1.000000 0.123562 0.162389
1.000000 0.231364 0.195598
1.000000 0.308290 0.239436
1.000000 0.376921 0.278547
1.000000 0.437058 0.319648
1.000000 0.499142 0.368584
1.000000 0.560913 0.420004
0.000000 0.000000 0.000000
0.000000 0.000000 0.000000
0.000000 0.000000 0.000000
0.000000 0.000000 0.000000
0.000000 0.000000 0.000000
0.033031 0.000000 0.000000
0.063474 0.000000 0.000000
0.090481 0.000000 0.000000
0.114419 0.000000 0.000000
0.136806 0.000000 0.000000
0.166882 0.000000 0.000000
0.204174 0.000000 0.000000
0.244970 0.000000 0.000000
0.292951 0.000000 0.000000
0.341074 0.000000 0.000000
0.389566 0.000000 0.000000
0.444795 0.000000 0.000000
0.510999 0.000000 0.000000
0.578448 0.000000 0.000000
0.638031 0.000000 0.000000
0.702543 0.000000 0.000000
0.761759 0.000000 0.035663
0.826788 0.000000 0.059077
0.885646 0.000000 0.081359
0.930245 0.000000 0.104685
0.968895 0.000000 0.131748
1.000000 0.138221 0.162637
1.000000 0.237794 0.195971
1.000000 0.312707 0.239761
1.000000 0.379565 0.278882
1.000000 0.439136 0.319989
1.000000 0.500981 0.368685
1.000000 0.562276 0.420091
0.000000 0.000000 0.000000
0.000000 0.000000 0.000000
0.000000 0.001789 0.000000
0.000000 0.012066 0.000000
0.000000 0.028157 0.000000
0.045867 0.033418 0.000000
0.074244 0.033279 0.000000
0.108267 0.021724 0.000000
0.142275 0.000000 0.000000
0.171177 0.000000 0.000000
0.199184 0.000000 0.000000
0.228613 0.000000 0.000000
0.268077 0.000000 0.000000
0.311469 0.000000 0.000000
0.353744 0.000000 0.000000
0.404912 0.000000 0.000000
0.456076 0.000000 0.000000
0.521960 0.000000 0.000000
0.588795 0.000000 0.000000
0.646218 0.000000 0.000000
0.709235 0.000000 0.000000
0.767090 0.000000 0.033877
0.829688 0.000000 0.058970
0.888007 0.000000 0.081749
0.932319 0.000000 0.105494
0.969907 0.000000 0.132345
1.000000 0.154984 0.163262
1.000000 0.246360 0.196793
1.000000 0.317987 0.240150
1.000000 0.382745 0.279287
1.000000 0.441643 0.320400
1.000000 0.503203 0.368807
1.000000 0.563925 0.420196
0.000000 0.026421 0.000000
0.000000 0.033368 0.000000
0.000000 0.037291 0.000000
0.000000 0.041934 0.000000
0.000000 0.050316 0.000000
0.044481 0.055448 0.000000
0.080373 0.054107 0.000000
0.122596 0.050208 0.000000
0.159896 0.039221 0.000000
0.197014 0.000000 0.000000
0.229443 0.000000 0.000000
0.260442 0.000000 0.000000
0.296928 0.000000 0.000000
0.332339 0.000000 0.000000
0.369512 0.000000 0.000000
0.420755 0.000000 0.000000
0.469274 0.000000 0.000000
0.535670 0.000000 0.000000
0.600380 0.000000 0.000000
0.655063 0.000000 0.000000
0.716658 0.000000 0.000000
0.773146 0.000000 0.031342
0.833296 0.000000 0.058730
0.890471 0.000000 0.081981
0.934197 0.000000 0.106037
0.971050 0.000000 0.132905
1.000000 0.172996 0.163997
1.000000 0.256457 0.197778
1.000000 0.324280 0.240616
1.000000 0.386564 0.279774
1.000000 0.444662 0.320897
1.000000 0.505882 0.368954
1.000000 0.565917 0.420325
0.000000 0.049481 0.000000
0.000000 0.052993 0.000000
0.000000 0.056476 0.000000
0.000000 0.062065 0.000000
0.000000 0.072013 0.000000
0.020938 0.079967 0.000000
0.080787 0.082129 0.000000
0.128870 0.079968 0.000000
0.176248 0.076559 0.000000
0.217220 0.068532 0.000000
0.253262 0.055021 0.000000
0.289903 0.030460 0.000000
0.326432 0.000000 0.000000
0.363182 0.000000 0.000000
0.398656 0.000000 0.000000
0.441700 0.000000 0.000000
0.488589 0.000000 0.000000
0.551152 0.000000 0.000000
0.613135 0.000000 0.000000
0.665296 0.000000 0.000000
0.725358 0.000000 0.000000
0.780106 0.000000 0.027748
0.838882 0.000000 0.058193
0.893504 0.000000 0.082126
0.936140 0.000000 0.106449
0.972390 0.038050 0.134173
1.000000 0.192584 0.164730
1.000000 0.268336 0.198951
1.000000 0.331086 0.241221
1.000000 0.391140 0.280360
1.000000 0.448292 0.321496
1.000000 0.509112 0.369129
1.000000 0.568321 0.420477
0.000000 0.066780 0.000000
0.000000 0.072277 0.000000
0.000000 0.078373 0.000000
0.000000 0.084172 0.000000
0.000000 0.094834 0.000000
0.000000 0.108587 0.000000
0.064852 0.113298 0.000000
0.125711 0.113535 0.000000
0.184492 0.109692 0.000000
0.231665 0.106596 0.000000
0.271628 0.101414 0.000000
0.312079 0.089027 0.000000
0.352941 0.077357 0.000000
0.395006 0.047287 0.000000
0.434571 0.000000 0.000000
0.469269 0.000000 0.000000
0.514657 0.000000 0.000000
0.566063 0.000000 0.000000
0.624159 0.000000 0.000000
0.677364 0.000000 0.000000
0.733518 0.000000 0.000000
0.787778 0.000000 0.023030
0.845362 0.000000 0.057301
0.897119 0.000000 0.081991
0.938539 0.000000 0.106805
0.973921 0.107370 0.135502
1.000000 0.212267 0.165928
1.000000 0.282182 0.200354
1.000000 0.339800 0.242398
1.000000 0.396614 0.281066
1.000000 0.452650 0.322218
1.000000 0.512998 0.369341
1.000000 0.571219 0.420663
0.000000 0.089717 0.000000
0.000000 0.096226 0.000000
0.000000 0.102971 0.000000
0.000000 0.111965 0.000000
0.000000 0.124229 0.000000
0.000000 0.139180 0.000000
0.000000 0.146315 0.000000
0.111813 0.148518 0.000000
0.180822 0.148825 0.000000
0.236175 0.143453 0.000000
0.283185 0.139935 0.000000
0.329414 0.136495 0.000000
0.374897 0.126715 0.000000
0.421079 0.121025 0.000000
0.460075 0.112913 0.000000
0.501106 0.096401 0.000000
0.541681 0.067455 0.000000
0.591441 0.000000 0.000000
0.638179 0.000000 0.000000
0.691366 0.000000 0.000000
0.742626 0.000000 0.000000
0.794752 0.000000 0.017976
0.851124 0.000000 0.055567
0.901264 0.000000 0.081495
0.941316 0.000000 0.107062
0.975670 0.151372 0.136497
1.000000 0.235751 0.166884
1.000000 0.298118 0.201475
1.000000 0.351039 0.244381
1.000000 0.403266 0.281988
1.000000 0.457871 0.323087
1.000000 0.517653 0.369594
1.000000 0.574706 0.420885
0.000000 0.117867 0.000000
0.000000 0.124391 0.000000
0.000000 0.133087 0.000000
0.000000 0.144172 0.000000
0.000000 0.157040 0.000000
0.000000 0.171473 0.000000
0.000000 0.183388 0.000000
0.071589 0.188984 0.000000
0.166712 0.189606 0.000000
0.226104 0.187742 0.000000
0.286894 0.179963 0.000000
0.338663 0.177145 0.000000
0.392134 0.175682 0.000000
0.445846 0.168499 0.000000
0.483522 0.170068 0.000000
0.530359 0.159408 0.000000
0.571992 0.148121 0.000000
0.622983 0.125638 0.000000
0.664465 0.083612 0.000000
0.709660 0.000000 0.000000
0.755551 0.000000 0.000000
0.803478 0.000000 0.000000
0.857295 0.000000 0.053033
0.905928 0.050556 0.080397
0.944689 0.127141 0.107475
0.977579 0.190940 0.137539
1.000000 0.258839 0.167730
1.000000 0.314401 0.202546
1.000000 0.363733 0.246103
1.000000 0.412569 0.283971
1.000000 0.464111 0.324131
1.000000 0.522845 0.369921
1.000000 0.578930 0.421328
0.000000 0.152049 0.000000
0.000000 0.159219 0.000000
0.000000 0.171782 0.000000
0.000000 0.183245 0.000000
0.000000 0.196128 0.000000
0.000000 0.208906 0.000000
0.000000 0.222729 0.000000
0.000000 0.231056 0.000000
0.136473 0.230911 0.000000
0.205391 0.233483 0.000000
0.276034 0.227375 0.000000
0.337758 0.219915 0.000000
0.397697 0.218429 0.000000
0.457913 0.220711 0.000000
0.507684 0.221531 0.000000
0.551411 0.221228 0.000000
0.600115 0.215627 0.000000
0.647832 0.203294 0.000000
0.692017 0.184303 0.000000
0.731785 0.154987 0.000000
0.773999 0.124388 0.000000
0.815569 0.114056 0.000000
0.864986 0.112163 0.046798
0.912623 0.142757 0.079810
0.948396 0.183887 0.107623
0.979581 0.230949 0.138545
1.000000 0.282767 0.168636
1.000000 0.332298 0.203899
1.000000 0.377394 0.247859
1.000000 0.423967 0.285764
1.000000 0.473493 0.325309
1.000000 0.529653 0.370847
1.000000 0.584076 0.422300
0.000000 0.193582 0.000000
0.000000 0.204750 0.000000
0.000000 0.220266 0.000000
0.000000 0.230091 0.000000
0.000000 0.242728 0.000000
0.000000 0.254971 0.000000
0.000000 0.267566 0.000000
0.000000 0.279528 0.000000
0.000000 0.284973 0.000000
0.169568 0.289283 0.000000
0.258543 0.285544 0.000000
0.329452 0.279671 0.000000
0.402334 0.274734 0.000000
0.470236 0.276027 0.000000
0.524219 0.279206 0.000000
0.575604 0.285611 0.000000
0.625092 0.285468 0.000000
0.671366 0.276263 0.000000
0.718916 0.262154 0.000000
0.757910 0.249104 0.000000
0.795124 0.220237 0.000000
0.833999 0.200812 0.000000
0.876812 0.188210 0.035917
0.920895 0.201341 0.077041
0.953939 0.234094 0.108521
0.981479 0.269291 0.139458
1.000000 0.309882 0.169630
1.000000 0.351901 0.205617
1.000000 0.393429 0.249977
1.000000 0.437105 0.287678
1.000000 0.487019 0.327616
1.000000 0.539012 0.373077
1.000000 0.591320 0.424404
0.000000 0.234851 0.000000
0.000000 0.252083 0.000000
0.000000 0.267150 0.000000
0.000000 0.278643 0.000000
0.000000 0.292504 0.000000
0.000000 0.303729 0.000000
0.000000 0.313910 0.000000
0.000000 0.327812 0.000000
0.000000 0.338294 0.000000
0.042099 0.343820 0.000000
0.212088 0.344701 0.000000
0.305630 0.340912 0.000000
0.389164 0.338318 0.000000
0.470088 0.336268 0.000000
0.531374 0.337313 0.000000
0.585841 0.347503 0.000000
0.637253 0.356925 0.000000
0.694494 0.353817 0.000000
0.738926 0.343705 0.000000
0.782962 0.333620 0.000000
0.816985 0.316576 0.000000
0.853562 0.297136 0.000000
0.892223 0.271124 0.000000
0.930040 0.263849 0.071647
0.958545 0.285156 0.107270
0.984013 0.311945 0.140043
1.000000 0.338981 0.170945
1.000000 0.374629 0.207668
1.000000 0.412212 0.252536
1.000000 0.452605 0.289989
1.000000 0.503477 0.330465
1.000000 0.551469 0.376121
1.000000 0.600378 0.427289
0.000000 0.283114 0.000000
0.000000 0.299251 0.000000
0.000000 0.316581 0.000000
0.000000 0.326734 0.000000
0.000000 0.344127 0.000000
0.000000 0.353354 0.000000
0.000000 0.362887 0.000000
0.000000 0.381283 0.000000
0.000000 0.395396 0.000000
0.000000 0.402311 0.000000
0.069209 0.410057 0.000000
0.248024 0.409993 0.000000
0.357907 0.406129 0.000000
0.449289 0.407282 0.000000
0.522984 0.402593 0.000000
0.585014 0.406164 0.000000
0.639019 0.408593 0.000000
0.705202 0.416803 0.000000
0.754498 0.415294 0.000000
0.797784 0.399681 0.000000
0.832269 0.397114 0.000000
0.866615 0.376970 0.000000
0.904299 0.365229 0.000000
0.936570 0.338330 0.057617
0.961749 0.342243 0.104837
0.985808 0.357305 0.141134
1.000000 0.374977 0.172727
1.000000 0.401036 0.210132
1.000000 0.434193 0.255641
1.000000 0.472227 0.292909
1.000000 0.522210 0.333996
1.000000 0.566392 0.379651
1.000000 0.610992 0.430608
0.000000 0.329826 0.000000
0.000000 0.350918 0.000000
0.000000 0.375772 0.000000
0.000000 0.385006 0.000000
0.000000 0.400125 0.000000
0.000000 0.411588 0.000000
0.000000 0.420030 0.000000
0.000000 0.431849 0.000000
0.000000 0.449282 0.000000
0.000000 0.461264 0.000000
0.000000 0.471701 0.000000
0.148988 0.474460 0.000000
0.304395 0.475129 0.000000
0.415679 0.474211 0.000000
0.499847 0.469377 0.000000
0.579542 0.464599 0.000000
0.641100 0.465156 0.000000
0.705274 0.475662 0.000000
0.763582 0.482956 0.000000
0.810010 0.470894 0.000000
0.846726 0.466550 0.000000
0.877309 0.454737 0.000000
0.912349 0.441460 0.000000
0.942732 0.424589 0.000000
0.965872 0.405871 0.101999
0.987341 0.409435 0.142668
1.000000 0.417427 0.177459
1.000000 0.434944 0.214872
1.000000 0.459949 0.259442
1.000000 0.499900 0.296902
1.000000 0.543517 0.338386
1.000000 0.583640 0.384129
1.000000 0.623904 0.434866
0.000000 0.393934 0.000000
0.000000 0.416676 0.000000
0.000000 0.440700 0.000000
0.000000 0.450344 0.000000
0.000000 0.463044 0.000000
0.000000 0.473194 0.000000
0.000000 0.481096 0.000000
0.000000 0.489076 0.000000
0.000000 0.503900 0.000000
0.000000 0.518761 0.000000
0.000000 0.529996 0.000000
0.000000 0.539832 0.000000
0.215980 0.543496 0.000000
0.365689 0.542177 0.000000
0.461975 0.541266 0.000000
0.552790 0.537213 0.000000
0.632555 0.532802 0.000000
0.700599 0.535468 0.000000
0.761300 0.542774 0.000000
0.816567 0.540107 0.000000
0.854113 0.533488 0.000000
0.887481 0.527103 0.000000
0.917272 0.518424 0.000000
0.945638 0.505981 0.000000
0.969804 0.484558 0.096871
0.990586 0.468886 0.142874
1.000000 0.468882 0.183294
1.000000 0.476711 0.221919
1.000000 0.496688 0.264204
1.000000 0.530724 0.302016
1.000000 0.568617 0.343807
1.000000 0.602060 0.390512
1.000000 0.639158 0.439990
0.000000 0.463848 0.000000
0.000000 0.490711 0.000000
0.000000 0.508545 0.000000
0.000000 0.519732 0.000000
0.000000 0.527643 0.000000
0.000000 0.533946 0.000000
0.000000 0.545651 0.000000
0.000000 0.555466 0.000000
0.000000 0.563128 0.000000
0.000000 0.572145 0.000000
0.000000 0.586777 0.000000
0.000000 0.599278 0.000000
0.000000 0.607925 0.000000
0.289765 0.613616 0.000000
0.415336 0.610523 0.000000
0.517020 0.607517 0.000000
0.607163 0.603498 0.000000
0.686340 0.603060 0.000000
0.753698 0.604535 0.000000
0.811358 0.602796 0.000000
0.855534 0.605134 0.000000
0.890012 0.602886 0.000000
0.918890 0.591679 0.000000
0.946064 0.585973 0.000000
0.969175 0.567888 0.096927
0.990395 0.551225 0.145749
1.000000 0.537150 0.188222
1.000000 0.531458 0.228741
1.000000 0.540612 0.270251
1.000000 0.566284 0.308732
1.000000 0.597192 0.351063
1.000000 0.623780 0.398219
1.000000 0.656805 0.446198
0.000000 0.533582 0.000000
0.000000 0.556999 0.000000
0.000000 0.572384 0.000000
0.000000 0.580477 0.000000
0.000000 0.588061 0.000000
0.000000 0.593153 0.000000
0.000000 0.601750 0.000000
0.000000 0.612052 0.000000
0.000000 0.618585 0.000000
0.000000 0.625751 0.000000
0.000000 0.633830 0.000000
0.000000 0.648121 0.000000
0.000000 0.657127 0.000000
0.201407 0.665152 0.000000
0.359987 0.670946 0.000000
0.479665 0.668289 0.000000
0.577022 0.664274 0.000000
0.665301 0.664620 0.000000
0.740348 0.663201 0.000000
0.801940 0.659598 0.000000
0.847755 0.663104 0.000000
0.886161 0.669154 0.000000
0.916787 0.661091 0.000000
0.943637 0.655826 0.000000
0.965787 0.645180 0.087870
0.986023 0.630268 0.155799
1.000000 0.621640 0.199078
1.000000 0.603065 0.239618
1.000000 0.593575 0.278683
1.000000 0.607058 0.318148
1.000000 0.628053 0.361563
1.000000 0.649212 0.407068
1.000000 0.676876 0.453760
0.000000 0.598533 0.000000
0.000000 0.618465 0.000000
0.000000 0.630015 0.000000
0.000000 0.636608 0.000000
0.000000 0.643791 0.000000
0.000000 0.651137 0.000000
0.000000 0.655200 0.000000
0.000000 0.661598 0.000000
0.000000 0.670727 0.000000
0.000000 0.678949 0.000000
0.000000 0.685993 0.000000
0.000000 0.693909 0.000000
0.000000 0.702006 0.000000
0.000000 0.709581 0.000000
0.311182 0.716285 0.000000
0.433495 0.721600 0.000000
0.541937 0.720467 0.000000
0.643502 0.717145 0.000000
0.722277 0.717297 0.000000
0.787349 0.711204 0.000000
0.838544 0.711605 0.000000
0.877874 0.717282 0.000000
0.912767 0.718051 0.000000
0.940777 0.708458 0.000000
0.961727 0.705404 0.081942
0.980593 0.694453 0.158402
0.995924 0.682114 0.210710
1.000000 0.673595 0.255423
1.000000 0.656970 0.296361
1.000000 0.652765 0.332853
1.000000 0.664315 0.374834
1.000000 0.677811 0.417338
1.000000 0.696340 0.460513
0.000000 0.661219 0.011409
0.000000 0.672862 0.000000
0.000000 0.682503 0.000000
0.000000 0.690036 0.000000
0.000000 0.697599 0.000000
0.000000 0.705282 0.000000
0.000000 0.712029 0.000000
0.000000 0.715255 0.000000
0.000000 0.718785 0.000000
0.000000 0.725417 0.000000
0.000000 0.733518 0.000000
0.000000 0.741026 0.000000
0.000000 0.747307 0.000000
0.000000 0.753918 0.000000
0.213704 0.759781 0.000000
0.392811 0.764910 0.000000
0.507502 0.769370 0.000000
0.609425 0.767707 0.000000
0.703794 0.763645 0.000000
0.773677 0.759211 0.000000
0.823813 0.756416 0.000000
0.864489 0.759432 0.000000
0.903777 0.760071 0.000000
0.934769 0.760055 0.000000
0.955658 0.756508 0.102569
0.974465 0.749330 0.172435
0.989396 0.738537 0.226380
1.000000 0.729749 0.271843
1.000000 0.720744 0.319558
1.000000 0.707173 0.354885
1.000000 0.704083 0.391369
1.000000 0.709205 0.428286
1.000000 0.721115 0.469657
0.000000 0.720079 0.145293
0.000000 0.727850 0.138424
0.000000 0.734931 0.132156
0.000000 0.740034 0.123971
0.000000 0.746872 0.111527
0.000000 0.754357 0.095010
0.000000 0.762068 0.071521
0.000000 0.766831 0.050436
0.000000 0.769691 0.000000
0.000000 0.772388 0.000000
0.000000 0.775039 0.000000
0.000000 0.779752 0.000000
0.000000 0.788511 0.000000
0.000000 0.794944 0.000000
0.000000 0.799855 0.000000
0.328626 0.803907 0.000000
0.464868 0.807572 0.000000
0.581617 0.807758 0.000000
0.677477 0.804361 0.000000
0.750426 0.804529 0.000000
0.808397 0.801392 0.000000
0.850942 0.798166 0.000000
0.892030 0.796615 0.000000
0.925975 0.796365 0.000000
0.949981 0.799612 0.131900
0.967596 0.794836 0.197471
0.983387 0.785913 0.247375
0.997638 0.779383 0.294135
1.000000 0.772925 0.343619
1.000000 0.759399 0.377984
1.000000 0.747122 0.408833
1.000000 0.744495 0.442194
1.000000 0.748847 0.481083
0.000000 0.775056 0.214309
0.000000 0.780813 0.211683
0.000000 0.786267 0.209630
0.000000 0.790595 0.206775
0.000000 0.795327 0.201175
0.000000 0.800684 0.194673
0.000000 0.806328 0.187020
0.000000 0.811603 0.180245
0.000000 0.815398 0.175236
0.000000 0.817197 0.160166
0.000000 0.819040 0.142338
0.000000 0.821092 0.128861
0.000000 0.824181 0.111480
0.000000 0.827878 0.090089
0.000000 0.833271 0.051239
0.281354 0.838578 0.000000
0.430052 0.841235 0.000000
0.555805 0.841486 0.000000
0.662173 0.839317 0.000000
0.732699 0.839660 0.000000
0.792002 0.838434 0.000000
0.837255 0.835619 0.000000
0.881765 0.831690 0.000000
0.917906 0.829623 0.000000
0.942513 0.832703 0.144491
0.962714 0.834204 0.224568
0.978941 0.828050 0.276077
0.992618 0.822838 0.323656
1.000000 0.817990 0.373275
1.000000 0.807370 0.406057
1.000000 0.795530 0.433879
1.000000 0.786708 0.463369
1.000000 0.781994 0.499361
0.000000 0.820102 0.279522
0.000000 0.824172 0.278647
0.000000 0.827866 0.277883
0.000000 0.831116 0.276952
0.000000 0.833128 0.273146
0.000000 0.836370 0.268597
0.000000 0.840265 0.263418
0.000000 0.844177 0.258489
0.000000 0.847050 0.254101
0.000000 0.849863 0.246606
0.000000 0.851751 0.235672
0.000000 0.854308 0.226354
0.000000 0.855638 0.219776
0.000000 0.857120 0.208579
0.000000 0.859183 0.199840
0.218686 0.863586 0.188820
0.404478 0.866993 0.179664
0.529134 0.868567 0.166927
0.644323 0.866739 0.158201
0.718154 0.867654 0.152514
0.777011 0.867210 0.138973
0.824353 0.864477 0.117516
0.869557 0.863061 0.095634
0.908904 0.859542 0.070926
0.935484 0.859761 0.155783
0.955654 0.861292 0.237858
0.975154 0.860931 0.302363
0.988139 0.857974 0.355645
0.999727 0.854708 0.404962
1.000000 0.846743 0.435642
1.000000 0.838045 0.463671
1.000000 0.831790 0.493366
1.000000 0.822444 0.524888
0.000000 0.855468 0.345927
0.000000 0.858007 0.345281
0.000000 0.860371 0.344691
0.000000 0.862582 0.344146
0.000000 0.864356 0.342134
0.000000 0.866334 0.338817
0.000000 0.868116 0.337637
0.000000 0.870085 0.336317
0.000000 0.872227 0.334853
0.000000 0.874722 0.330238
0.000000 0.878666 0.323513
0.000000 0.881383 0.313461
0.000000 0.882780 0.303462
0.000000 0.883247 0.291382
0.000000 0.884157 0.281952
0.154033 0.885433 0.273916
0.368329 0.887266 0.265239
0.505690 0.888538 0.258248
0.616888 0.889293 0.251899
0.701002 0.889636 0.246389
0.762709 0.890099 0.245215
0.812160 0.888177 0.243638
0.858352 0.887015 0.228928
0.898562 0.886329 0.217030
0.927996 0.883691 0.213464
0.950086 0.883006 0.254158
0.969743 0.882407 0.312908
0.984818 0.883743 0.380338
0.994896 0.882422 0.434885
1.000000 0.875824 0.464890
1.000000 0.868761 0.492570
1.000000 0.864929 0.523348
1.000000 0.858372 0.555178
0.000000 0.884503 0.411047
0.000000 0.886262 0.410821
0.000000 0.887923 0.410616
0.000000 0.889491 0.410430
0.000000 0.891165 0.410239
0.000000 0.892447 0.409022
0.000000 0.893658 0.408297
0.000000 0.894997 0.407481
0.000000 0.896413 0.404844
0.000000 0.897912 0.400491
0.000000 0.900499 0.395718
0.000000 0.903552 0.390511
0.000000 0.904117 0.382701
0.000000 0.904265 0.373472
0.000000 0.904449 0.366525
0.135260 0.905119 0.359520
0.342481 0.907145 0.352261
0.475946 0.908036 0.344547
0.598734 0.908142 0.338630
0.680090 0.908484 0.332826
0.747834 0.908617 0.328694
0.801102 0.907243 0.327862
0.848298 0.906459 0.324222
0.888393 0.906095 0.310340
0.917462 0.904360 0.302634
0.943068 0.902058 0.298161
0.963708 0.900690 0.329584
