Assets/Lutify-Free-LUTs-Pack/Lutify Free LUTs Pack/Print Film Pro - Print Film 2/Lutify.me-PrintFilm2-KineLog3-to-Rec709.cube
# Created with: fylm.ai - Colour Grading and Collaboration Software in Cloud 
# Website: https://fylm.ai 
# META
# Option: Gamut compress
# Block 1: IDT | Kinefinity KineLOG3 - BETA
# Block 2: colourMatch | Blending Mode: Normal | {"ColorSpace":0,"CrossCovarianceLimit":50,"ReshapingIterations":1,"PercentSaturationShift":100,"PercentShadingShift":100,"ExtraShading":true,"PercentTint":100,"PercentModified":100}
# Block 3: HSL | Blending Mode: Normal | {"hue":{"Reds":0,"Yellows":0,"Greens":0,"Cyans":0,"Blues":0,"Magentas":0},"saturation":{"Reds":1,"Yellows":0.9,"Greens":0.95,"Cyans":1,"Blues":1,"Magentas":1},"luminance":{"Reds":0.8,"Yellows":0.95,"Greens":0.9,"Cyans":0.8,"Blues":0.8,"Magentas":0.8},"lum_sat":{"Blacks":1,"Shadows":1,"Midtones":1,"Highlights":1,"Whites":1},"sat_sat":{"10":1,"20":1,"30":1,"40":1,"50":1}}
# Block 4: LUT | Filmic Curve Response: Low Contrast 2 (100%)
# Block 5: ODT | Rec709
TITLE "Lutify.me-PrintFilm2-KineLog3-to-Rec709" 
LUT_3D_SIZE 5
0.000000 0.000000 0.000000
0.000000 0.000000 0.000000
0.362204 0.000000 0.000000
1.000000 0.259647 0.215648
1.000000 0.873582 0.800940
0.000000 0.018409 0.000000
0.079704 0.049492 0.000000
0.448811 0.000000 0.000000
1.000000 0.294144 0.217961
1.000000 0.874220 0.801229
0.000000 0.416791 0.000000
0.000000 0.465585 0.000000
0.627927 0.496386 0.000000
1.000000 0.474021 0.240520
1.000000 0.878588 0.803256
0.000000 0.947072 0.557093
0.000000 0.947732 0.553182
0.542130 0.945611 0.521765
0.975553 0.941775 0.481193
1.000000 0.923122 0.833601
0.915891 1.000000 0.956583
0.916567 1.000000 0.956621
0.921159 1.000000 0.956893
0.952882 1.000000 0.953965
1.000000 1.000000 0.958244
0.000000 0.000000 0.000000
0.000000 0.000000 0.000000
0.374771 0.000000 0.037254
1.000000 0.263778 0.246532
1.000000 0.873801 0.802866
0.000000 0.015417 0.078932
0.058462 0.059154 0.064971
0.449764 0.000000 0.045793
1.000000 0.297376 0.249180
1.000000 0.874437 0.803153
0.000000 0.390689 0.115404
0.000000 0.490420 0.000000
0.606679 0.544369 0.000000
1.000000 0.469549 0.270957
1.000000 0.878798 0.805166
0.000000 0.946999 0.591376
0.000000 0.947717 0.587538
0.539215 0.946294 0.557032
0.974573 0.942902 0.517321
1.000000 0.923155 0.834824
0.915832 1.000000 0.957025
0.916508 1.000000 0.957062
0.921103 1.000000 0.957328
0.952927 1.000000 0.954483
1.000000 1.000000 0.958580
0.000000 0.000000 0.072707
0.000000 0.000000 0.145194
0.266350 0.000000 0.103229
1.000000 0.277572 0.400083
1.000000 0.875290 0.815877
0.000000 0.000000 0.429939
0.000000 0.000000 0.393122
0.422565 0.000000 0.271765
1.000000 0.312465 0.407107
1.000000 0.875919 0.816149
0.000000 0.218074 0.719147
0.000000 0.366550 0.644097
0.555162 0.576167 0.609875
1.000000 0.477817 0.437009
1.000000 0.880235 0.818052
0.000000 0.940392 0.730173
0.000000 0.942492 0.730891
0.532832 0.949597 0.736045
0.968526 0.946303 0.686394
1.000000 0.923146 0.842775
0.915336 1.000000 0.960012
0.916018 1.000000 0.960043
0.920649 1.000000 0.960267
0.953019 1.000000 0.957987
1.000000 1.000000 0.960825
0.000000 0.119295 0.939362
0.000000 0.129169 0.937593
0.256104 0.134074 0.913213
1.000000 0.000000 0.790800
1.000000 0.884067 0.891699
0.000000 0.144390 0.944070
0.000000 0.155007 0.941625
0.258705 0.168677 0.921096
1.000000 0.000000 0.814787
1.000000 0.884753 0.891983
0.000000 0.275374 0.962586
0.000000 0.291360 0.959135
0.253265 0.355106 0.950190
1.000000 0.269217 0.882346
1.000000 0.890077 0.894019
0.000000 0.852670 0.969824
0.000000 0.863372 0.968705
0.000000 0.900834 0.963838
0.946166 0.953006 0.963281
1.000000 0.925312 0.905391
0.896569 1.000000 0.977829
0.897619 1.000000 0.977911
0.904641 1.000000 0.978482
0.952637 1.000000 0.982069
1.000000 1.000000 0.980030
0.541796 0.681031 1.000000
0.551332 0.682216 1.000000
0.611560 0.690869 1.000000
0.881175 0.709015 1.000000
1.000000 0.695311 1.000000
0.540870 0.683939 1.000000
0.550432 0.685119 1.000000
0.610795 0.693753 1.000000
0.880360 0.712196 1.000000
1.000000 0.700390 1.000000
0.535505 0.705612 1.000000
0.543868 0.706577 1.000000
0.605031 0.714293 1.000000
0.876354 0.736333 1.000000
1.000000 0.731687 1.000000
0.515353 0.831371 1.000000
0.526259 0.832390 1.000000
0.589748 0.837771 1.000000
0.853374 0.868048 1.000000
1.000000 0.874861 1.000000
0.703369 1.000000 1.000000
0.707682 1.000000 1.000000
0.736576 1.000000 1.000000
0.871859 1.000000 1.000000
1.000000 1.000000 1.000000
