Assets/Lutify-Free-LUTs-Pack/Lutify Free LUTs Pack/Print Film Pro - Print Film 2/Lutify.me-PrintFilm2-ACEScct-to-ACEScct.cube
# Created with: fylm.ai - Colour Grading and Collaboration Software in Cloud 
# Website: https://fylm.ai 
# META
# Option: Gamut compress
# Block 1: HSL | Blending Mode: Normal | {"hue":{"Reds":0,"Yellows":0,"Greens":0,"Cyans":0,"Blues":0,"Magentas":0},"saturation":{"Reds":1,"Yellows":0.9,"Greens":0.95,"Cyans":1,"Blues":1,"Magentas":1},"luminance":{"Reds":0.8,"Yellows":0.95,"Greens":0.9,"Cyans":0.8,"Blues":0.8,"Magentas":0.8},"lum_sat":{"Blacks":1,"Shadows":1,"Midtones":1,"Highlights":1,"Whites":1},"sat_sat":{"10":1,"20":1,"30":1,"40":1,"50":1}}
# Block 2: LUT | Filmic Curve Response: Low Contrast 2 (100%)
TITLE "Print Film Pro 2" 
LUT_3D_SIZE 5
0.039215 0.039215 0.039215
0.070026 0.045107 0.040995
0.431633 0.195189 0.111048
0.667049 0.482948 0.426218
0.903158 0.730631 0.669382
0.050860 0.103381 0.048751
0.165981 0.146127 0.046670
0.440563 0.237323 0.117552
0.667371 0.484294 0.426694
0.903200 0.730749 0.669431
0.222620 0.440941 0.229808
0.277076 0.449287 0.214144
0.490658 0.473592 0.176257
0.674377 0.505294 0.435490
0.903849 0.732573 0.670195
0.514119 0.686894 0.535525
0.516142 0.687466 0.535177
0.541595 0.693330 0.530465
0.737777 0.719451 0.505155
0.916924 0.769528 0.685529
0.757179 0.949884 0.805414
0.757353 0.949957 0.805441
0.760255 0.951071 0.805854
0.804892 0.961298 0.804223
0.969536 0.969536 0.763583
0.040004 0.040004 0.043162
0.088917 0.048275 0.074389
0.434580 0.199568 0.165478
0.667384 0.483303 0.429168
0.903162 0.730622 0.669503
0.050966 0.107227 0.183432
0.169329 0.169329 0.177879
0.441158 0.237015 0.173639
0.667530 0.484484 0.429463
0.903204 0.730741 0.669552
0.219399 0.440021 0.300932
0.278945 0.451930 0.297525
0.491401 0.478508 0.255066
0.674219 0.505228 0.437966
0.903853 0.732564 0.670316
0.513877 0.686908 0.538453
0.516193 0.687525 0.538135
0.541901 0.693787 0.533417
0.738137 0.719806 0.508169
0.916926 0.769521 0.685649
0.757134 0.949833 0.805530
0.757308 0.949906 0.805557
0.760206 0.951021 0.805970
0.804921 0.961336 0.804418
0.969559 0.969559 0.763758
0.143632 0.163527 0.447870
0.193030 0.180828 0.443629
0.438609 0.217881 0.411515
0.674393 0.490613 0.468092
0.903224 0.730493 0.671359
0.151197 0.198084 0.459833
0.203354 0.217879 0.457156
0.448010 0.258531 0.424826
0.674604 0.491864 0.468423
0.903265 0.730611 0.671409
0.191908 0.415699 0.512130
0.251198 0.430107 0.509641
0.492974 0.496203 0.505628
0.676817 0.508819 0.472457
0.903912 0.732435 0.672172
0.507262 0.681965 0.566180
0.510064 0.683123 0.566352
0.542536 0.695641 0.567831
0.740006 0.724196 0.544085
0.916959 0.769402 0.687502
0.756433 0.949046 0.807301
0.756608 0.949119 0.807328
0.759442 0.950240 0.807745
0.805046 0.961495 0.807071
0.969914 0.969914 0.766444
0.447587 0.472081 0.695818
0.450061 0.472776 0.695664
0.482380 0.483131 0.695105
0.676075 0.502541 0.655353
0.912519 0.735096 0.711518
0.447888 0.473110 0.696273
0.450362 0.473806 0.696119
0.482507 0.484327 0.695398
0.676387 0.503768 0.656110
0.912527 0.735185 0.711541
0.449962 0.488449 0.700538
0.452727 0.489159 0.700684
0.485035 0.500348 0.700840
0.681493 0.522138 0.667137
0.912650 0.736561 0.711910
0.474545 0.638145 0.745233
0.477110 0.639301 0.745428
0.508315 0.652110 0.747577
0.740653 0.748531 0.770326
0.918138 0.767175 0.722100
0.740402 0.932098 0.842088
0.740600 0.932182 0.842127
0.743649 0.933470 0.842722
0.799230 0.955814 0.852834
0.976878 0.976878 0.818622
0.684986 0.718211 0.902837
0.685119 0.718260 0.902886
0.687155 0.719019 0.903639
0.730146 0.733696 0.918780
0.926103 0.751794 0.926103
0.684996 0.718296 0.902840
0.685129 0.718346 0.902889
0.687165 0.719104 0.903642
0.730158 0.733783 0.918784
0.926141 0.751904 0.926141
0.685158 0.719619 0.902900
0.685291 0.719668 0.902949
0.687327 0.720428 0.903702
0.730344 0.735125 0.918847
0.926719 0.753608 0.926719
0.688322 0.745443 0.904071
0.688455 0.745493 0.904120
0.690496 0.746271 0.904876
0.733987 0.761695 0.920076
0.938237 0.790086 0.938237
0.724534 0.916890 0.916890
0.724687 0.916941 0.916941
0.727022 0.917727 0.917727
0.772473 0.932697 0.932697
1.000000 1.000000 1.000000
