Assets/Lutify-Free-LUTs-Pack/Lutify Free LUTs Pack/Print Film Pro - Print Film 2/Lutify.me-PrintFilm2-SLog3-to-Rec709.cube
# Created with: fylm.ai - Colour Grading and Collaboration Software in Cloud 
# Website: https://fylm.ai 
# META
# Option: Gamut compress
# Block 1: IDT | Sony S-Log3 S-Gamut3
# Block 2: colourMatch | Blending Mode: Normal | {"ColorSpace":0,"CrossCovarianceLimit":50,"ReshapingIterations":1,"PercentSaturationShift":100,"PercentShadingShift":100,"ExtraShading":true,"PercentTint":100,"PercentModified":100}
# Block 3: HSL | Blending Mode: Normal | {"hue":{"Reds":0,"Yellows":0,"Greens":0,"Cyans":0,"Blues":0,"Magentas":0},"saturation":{"Reds":1,"Yellows":0.9,"Greens":0.95,"Cyans":1,"Blues":1,"Magentas":1},"luminance":{"Reds":0.8,"Yellows":0.95,"Greens":0.9,"Cyans":0.8,"Blues":0.8,"Magentas":0.8},"lum_sat":{"Blacks":1,"Shadows":1,"Midtones":1,"Highlights":1,"Whites":1},"sat_sat":{"10":1,"20":1,"30":1,"40":1,"50":1}}
# Block 4: LUT | Filmic Curve Response: Low Contrast 2 (100%)
# Block 5: ODT | Rec709
TITLE "Lutify.me-PrintFilm2-SLog3-to-Rec709" 
LUT_3D_SIZE 5
0.000000 0.000000 0.000000
0.000000 0.000000 0.000000
0.423321 0.000000 0.000000
1.000000 0.259949 0.218481
1.000000 0.857732 0.777520
0.000000 0.044275 0.000000
0.096530 0.068561 0.000000
0.487533 0.000000 0.000000
1.000000 0.293932 0.220507
1.000000 0.858560 0.777703
0.000000 0.440596 0.000000
0.000000 0.502481 0.000000
0.638242 0.551752 0.000000
1.000000 0.494471 0.247270
1.000000 0.864715 0.779108
0.000000 0.938446 0.580986
0.000000 0.942191 0.579372
0.447337 0.945309 0.541429
0.972004 0.941338 0.494128
1.000000 0.917709 0.818202
0.859040 1.000000 0.948170
0.861414 1.000000 0.948368
0.877893 1.000000 0.949828
0.934427 1.000000 0.947448
1.000000 1.000000 0.950167
0.000000 0.000000 0.000000
0.000000 0.000000 0.000000
0.429516 0.000000 0.047266
1.000000 0.262854 0.248811
1.000000 0.857979 0.779974
0.000000 0.031988 0.105191
0.073872 0.078543 0.083154
0.488016 0.000000 0.055950
1.000000 0.296971 0.251595
1.000000 0.858806 0.780154
0.000000 0.397010 0.161878
0.000000 0.513204 0.114845
0.625863 0.580457 0.000000
1.000000 0.489036 0.276503
1.000000 0.864953 0.781536
0.000000 0.936528 0.604461
0.000000 0.941173 0.606867
0.449593 0.946287 0.577426
0.971206 0.942089 0.527549
1.000000 0.917733 0.819687
0.858434 1.000000 0.948552
0.860818 1.000000 0.948748
0.877383 1.000000 0.950200
0.934492 1.000000 0.948083
1.000000 1.000000 0.950562
0.000000 0.000000 0.088920
0.000000 0.000000 0.137415
0.280358 0.000000 0.100456
1.000000 0.262182 0.409328
1.000000 0.859798 0.797516
0.000000 0.000000 0.433439
0.000000 0.000000 0.389392
0.441295 0.000000 0.273019
1.000000 0.302838 0.416658
1.000000 0.860619 0.797675
0.000000 0.206140 0.756683
0.000000 0.370091 0.669618
0.575535 0.596293 0.630114
1.000000 0.487794 0.453229
1.000000 0.866710 0.798894
0.000000 0.922647 0.735797
0.000000 0.927607 0.737442
0.419379 0.946799 0.748169
0.963989 0.945703 0.703455
1.000000 0.917896 0.830617
0.853719 1.000000 0.951390
0.856195 1.000000 0.951576
0.873403 1.000000 0.952955
0.934982 1.000000 0.952751
1.000000 1.000000 0.953595
0.000000 0.000000 0.905982
0.000000 0.000000 0.899512
0.282323 0.000000 0.861309
0.974365 0.000000 0.657895
1.000000 0.866223 0.882464
0.000000 0.063035 0.922810
0.000000 0.070287 0.915451
0.291770 0.000000 0.882006
1.000000 0.000000 0.731976
1.000000 0.867283 0.882841
0.000000 0.244701 0.956341
0.000000 0.257744 0.953324
0.296859 0.317119 0.940091
1.000000 0.165849 0.866368
1.000000 0.874846 0.885649
0.000000 0.754857 0.984561
0.000000 0.807491 0.974601
0.000000 0.890780 0.961951
0.943531 0.949954 0.960811
1.000000 0.918270 0.898765
0.809509 1.000000 0.971628
0.812721 1.000000 0.971738
0.835615 1.000000 0.972571
0.929767 1.000000 0.977657
1.000000 1.000000 0.976536
0.520320 0.510781 1.000000
0.530185 0.511583 1.000000
0.596138 0.513172 1.000000
0.914852 0.500037 1.000000
1.000000 0.420112 0.985972
0.520843 0.518930 1.000000
0.530354 0.520376 1.000000
0.596514 0.522686 1.000000
0.913139 0.511483 1.000000
1.000000 0.435345 0.987145
0.517315 0.572060 1.000000
0.527746 0.574006 1.000000
0.595565 0.580464 1.000000
0.904949 0.578881 1.000000
1.000000 0.539524 0.992028
0.411440 0.784813 1.000000
0.427905 0.786019 1.000000
0.517713 0.796674 1.000000
0.851805 0.836138 1.000000
1.000000 0.842132 1.000000
0.000000 0.999331 1.000000
0.000000 0.999734 1.000000
0.325034 1.000000 1.000000
0.822806 1.000000 1.000000
1.000000 1.000000 1.000000
