Assets/Lutify-Free-LUTs-Pack/Lutify Free LUTs Pack/Print Film Pro - Print Film 2/Lutify.me-PrintFilm2-RWG-to-RWG.cube
# Created with: fylm.ai - Colour Grading and Collaboration Software in Cloud 
# Website: https://fylm.ai 
# META
# Option: Gamut compress
# Block 1: colourMatch | Blending Mode: Normal | {"ColorSpace":0,"CrossCovarianceLimit":50,"ReshapingIterations":1,"PercentSaturationShift":100,"PercentShadingShift":100,"ExtraShading":true,"PercentTint":100,"PercentModified":100}
# Block 2: HSL | Blending Mode: Normal | {"hue":{"Reds":0,"Yellows":0,"Greens":0,"Cyans":0,"Blues":0,"Magentas":0},"saturation":{"Reds":1,"Yellows":0.9,"Greens":0.95,"Cyans":1,"Blues":1,"Magentas":1},"luminance":{"Reds":0.8,"Yellows":0.95,"Greens":0.9,"Cyans":0.8,"Blues":0.8,"Magentas":0.8},"lum_sat":{"Blacks":1,"Shadows":1,"Midtones":1,"Highlights":1,"Whites":1},"sat_sat":{"10":1,"20":1,"30":1,"40":1,"50":1}}
# Block 3: LUT | Filmic Curve Response: Low Contrast 2 (100%)
TITLE "ipp2" 
LUT_3D_SIZE 9
0.070015 0.070015 0.070015
0.071292 0.070375 0.070175
0.126008 0.078029 0.075963
0.283373 0.121114 0.114451
0.417734 0.217290 0.200742
0.530324 0.334976 0.305493
0.650498 0.445803 0.422316
0.793754 0.560772 0.552302
0.878451 0.682694 0.655603
0.074818 0.082387 0.074968
0.089587 0.088519 0.077090
0.164171 0.096023 0.084233
0.299404 0.135449 0.122041
0.421075 0.225478 0.203641
0.531059 0.337255 0.306314
0.650804 0.446447 0.422573
0.793861 0.560963 0.552394
0.878487 0.682775 0.655643
0.090050 0.149758 0.096652
0.112244 0.165370 0.104766
0.236105 0.190303 0.128145
0.349285 0.197567 0.157654
0.433196 0.247939 0.212530
0.534027 0.345450 0.309336
0.651897 0.448767 0.423524
0.794245 0.561651 0.552725
0.878616 0.683062 0.655776
0.136676 0.272778 0.166712
0.162324 0.287011 0.177866
0.254321 0.307413 0.198563
0.385377 0.318086 0.226249
0.478381 0.320456 0.259769
0.545526 0.373161 0.320186
0.655754 0.456803 0.426716
0.795621 0.564106 0.553899
0.879079 0.684096 0.656260
0.242707 0.400093 0.271790
0.258011 0.404049 0.275836
0.300686 0.411562 0.284459
0.396585 0.420842 0.300841
0.508137 0.427057 0.328714
0.605069 0.432533 0.371772
0.672895 0.485652 0.439583
0.800689 0.572385 0.558192
0.880728 0.687769 0.657957
0.365571 0.506204 0.372330
0.369624 0.507052 0.373294
0.384870 0.510824 0.377532
0.425769 0.518381 0.386952
0.515542 0.521120 0.399386
0.636615 0.530581 0.437292
0.763128 0.546937 0.510024
0.822336 0.602161 0.575273
0.886472 0.700618 0.663963
0.484209 0.623994 0.487791
0.485339 0.624162 0.488000
0.489237 0.624743 0.488720
0.505271 0.629272 0.493837
0.543563 0.630304 0.497293
0.644571 0.636555 0.515253
0.797409 0.650474 0.573553
0.872912 0.663520 0.621615
0.907008 0.749304 0.688040
0.609897 0.761521 0.624012
0.610325 0.761596 0.624102
0.611857 0.761864 0.624424
0.617664 0.762879 0.625646
0.633131 0.764136 0.627581
0.675325 0.764807 0.630886
0.801484 0.770395 0.653321
0.880694 0.776351 0.680850
0.880058 0.767673 0.675176
0.737805 0.868449 0.731749
0.737947 0.868459 0.731767
0.738483 0.868497 0.731832
0.740375 0.868631 0.732062
0.746918 0.869094 0.732860
0.769425 0.870564 0.735649
0.830137 0.874343 0.744625
0.889523 0.878298 0.756789
0.889523 0.878298 0.756789
0.070015 0.070015 0.070015
0.074165 0.072301 0.074219
0.127198 0.079790 0.083580
0.281076 0.122177 0.122591
0.416802 0.217553 0.204589
0.530207 0.334488 0.307121
0.650398 0.445651 0.422785
0.793703 0.560711 0.552388
0.878442 0.682674 0.655639
0.073814 0.078540 0.081708
0.084661 0.084785 0.085460
0.156135 0.093117 0.088721
0.295223 0.137582 0.129192
0.420289 0.226774 0.208076
0.530940 0.336725 0.307843
0.650703 0.446296 0.423047
0.793810 0.560902 0.552481
0.878478 0.682756 0.655675
0.088289 0.152315 0.101984
0.108125 0.166935 0.107628
0.227828 0.193444 0.128658
0.337722 0.205458 0.157784
0.430270 0.252002 0.217158
0.533555 0.344881 0.310761
0.651795 0.448594 0.423969
0.794194 0.561590 0.552813
0.878606 0.683042 0.655811
0.133918 0.270589 0.165104
0.159943 0.285150 0.176441
0.252293 0.306283 0.197593
0.384754 0.316990 0.225428
0.477899 0.319319 0.259039
0.545116 0.372551 0.321475
0.655621 0.456688 0.427226
0.795568 0.564046 0.553990
0.879067 0.684071 0.656289
0.241109 0.399395 0.271119
0.256508 0.403436 0.275244
0.299815 0.411233 0.284125
0.396114 0.420552 0.300550
0.507977 0.426785 0.328493
0.604942 0.432244 0.371583
0.672734 0.485437 0.440045
0.800691 0.572432 0.558323
0.880718 0.687750 0.657992
0.365147 0.506088 0.372204
0.369164 0.506867 0.373103
0.384462 0.510660 0.377361
0.425499 0.518282 0.386844
0.515419 0.521029 0.399293
0.636573 0.530501 0.437227
0.763074 0.546862 0.509963
0.822236 0.602053 0.575356
0.886463 0.700597 0.664000
0.484090 0.623954 0.487748
0.485222 0.624123 0.487957
0.489127 0.624705 0.488679
0.505157 0.629219 0.493781
0.543492 0.630276 0.497262
0.644535 0.636529 0.515226
0.797391 0.650450 0.573532
0.872911 0.663501 0.621608
0.907006 0.749290 0.688083
0.609852 0.761506 0.623995
0.610280 0.761581 0.624086
0.611815 0.761849 0.624409
0.617622 0.762865 0.625630
0.633101 0.764125 0.627570
0.675303 0.764797 0.630874
0.801470 0.770386 0.653311
0.880693 0.776343 0.680845
0.880058 0.767664 0.675171
0.737789 0.868448 0.731747
0.737931 0.868458 0.731765
0.738467 0.868496 0.731830
0.740359 0.868630 0.732061
0.746910 0.869094 0.732859
0.769417 0.870564 0.735648
0.830129 0.874342 0.744623
0.889523 0.878298 0.756789
0.889523 0.878298 0.756789
0.070507 0.070809 0.072444
0.075820 0.074432 0.084398
0.125981 0.083491 0.106200
0.271113 0.121205 0.150474
0.420390 0.219279 0.223738
0.528358 0.333862 0.313505
0.650065 0.445120 0.424590
0.793526 0.560495 0.552695
0.878405 0.682597 0.655759
0.074470 0.078633 0.095894
0.082767 0.086424 0.114501
0.143413 0.094649 0.124868
0.291686 0.139966 0.166211
0.421202 0.225201 0.224974
0.529300 0.336410 0.314387
0.650368 0.445766 0.424837
0.793632 0.560685 0.552788
0.878441 0.682678 0.655796
0.110759 0.172786 0.244931
0.116904 0.178657 0.234809
0.220670 0.223868 0.228755
0.330408 0.208600 0.198561
0.427285 0.249032 0.231298
0.532215 0.343835 0.316706
0.651451 0.448069 0.425703
0.794014 0.561374 0.553123
0.878569 0.682965 0.655931
0.129253 0.269228 0.200800
0.156084 0.295306 0.211262
0.235017 0.328532 0.225913
0.365603 0.340346 0.239993
0.459163 0.350323 0.273863
0.542485 0.371642 0.326621
0.655254 0.456102 0.428895
0.795385 0.563833 0.554313
0.879030 0.683993 0.656412
0.235424 0.396750 0.268609
0.250802 0.401150 0.273032
0.296236 0.409988 0.282850
0.394395 0.419495 0.299489
0.507396 0.425797 0.327693
0.604482 0.431190 0.370896
0.671920 0.484670 0.441795
0.800636 0.572497 0.558732
0.880681 0.687673 0.658120
0.363446 0.505664 0.371737
0.367625 0.506209 0.372427
0.382974 0.510066 0.376736
0.424517 0.517922 0.386451
0.514971 0.520703 0.398956
0.636421 0.530214 0.436992
0.762876 0.546589 0.509741
0.821884 0.601685 0.575668
0.886427 0.700523 0.664130
0.483658 0.623811 0.487593
0.484799 0.623981 0.487804
0.488730 0.624566 0.488531
0.504747 0.629026 0.493578
0.543238 0.630175 0.497150
0.644406 0.636436 0.515127
0.797328 0.650363 0.573458
0.872905 0.663432 0.621580
0.906998 0.749237 0.688239
0.609690 0.761451 0.623936
0.610121 0.761527 0.624027
0.611657 0.761795 0.624350
0.617461 0.762809 0.625571
0.632991 0.764088 0.627529
0.675223 0.764759 0.630834
0.801417 0.770354 0.653274
0.880691 0.776315 0.680826
0.880055 0.767632 0.675152
0.737742 0.868445 0.731742
0.737884 0.868455 0.731759
0.738420 0.868493 0.731824
0.740312 0.868627 0.732055
0.746863 0.869090 0.732853
0.769374 0.870561 0.735643
0.830100 0.874340 0.744618
0.889523 0.878298 0.756789
0.889523 0.878298 0.756789
0.075783 0.076835 0.095602
0.087418 0.085665 0.121832
0.123059 0.093505 0.139784
0.203985 0.094841 0.136118
0.410778 0.219559 0.281764
0.533000 0.340019 0.343654
0.647466 0.444949 0.431111
0.792361 0.559618 0.553442
0.878275 0.682346 0.656187
0.088094 0.102359 0.163782
0.101388 0.113493 0.185127
0.139494 0.117284 0.187437
0.233851 0.113090 0.170665
0.415538 0.229003 0.288072
0.533589 0.341774 0.344176
0.647802 0.445621 0.431368
0.792489 0.559814 0.553549
0.878309 0.682415 0.656221
0.148526 0.212626 0.331391
0.153762 0.211524 0.324986
0.186794 0.207672 0.308864
0.307236 0.199732 0.284105
0.427980 0.259373 0.303188
0.535520 0.347668 0.345754
0.649009 0.447951 0.432259
0.792950 0.560521 0.553931
0.878437 0.682681 0.656350
0.196304 0.294814 0.402706
0.193272 0.295280 0.392865
0.227224 0.327346 0.373886
0.368331 0.372914 0.379871
0.455092 0.348368 0.338521
0.539647 0.368449 0.350077
0.653248 0.455911 0.435473
0.794615 0.563048 0.555296
0.878899 0.683716 0.656838
0.217023 0.391319 0.338852
0.236391 0.407909 0.343578
0.286013 0.433150 0.355159
0.372389 0.455570 0.360585
0.482640 0.465554 0.361770
0.575801 0.466174 0.390806
0.667892 0.482836 0.447067
0.799910 0.571736 0.559770
0.880551 0.687406 0.658567
0.356959 0.504092 0.369996
0.361804 0.504574 0.370658
0.377440 0.507859 0.374413
0.420885 0.516608 0.385014
0.513336 0.519517 0.397731
0.635872 0.529170 0.436137
0.762157 0.545599 0.508934
0.820225 0.600441 0.576165
0.886301 0.700254 0.664596
0.482074 0.623289 0.487031
0.483245 0.623464 0.487247
0.487277 0.624063 0.487991
0.503249 0.628325 0.492840
0.542315 0.629808 0.496747
0.643940 0.636098 0.514771
0.797099 0.650048 0.573188
0.872886 0.663182 0.621481
0.906964 0.749040 0.688769
0.609105 0.761252 0.623721
0.609539 0.761328 0.623812
0.611087 0.761599 0.624138
0.616882 0.762612 0.625357
0.632591 0.763954 0.627380
0.674935 0.764623 0.630687
0.801228 0.770236 0.653142
0.880684 0.776213 0.680757
0.880048 0.767517 0.675083
0.737553 0.868431 0.731719
0.737695 0.868441 0.731736
0.738231 0.868479 0.731801
0.740138 0.868614 0.732033
0.746690 0.869078 0.732832
0.769229 0.870552 0.735624
0.829993 0.874334 0.744599
0.889523 0.878298 0.756789
0.889523 0.878298 0.756789
0.112639 0.119881 0.203264
0.119333 0.121674 0.206277
0.137211 0.122089 0.206049
0.198116 0.115439 0.189781
0.314251 0.127985 0.195719
0.524464 0.337440 0.402437
0.655020 0.452227 0.460343
0.788601 0.556980 0.556637
0.877831 0.681465 0.657423
0.140034 0.170207 0.282657
0.144812 0.168777 0.280129
0.160138 0.164757 0.273370
0.224847 0.150890 0.249158
0.314139 0.127878 0.195511
0.525636 0.340088 0.403762
0.655086 0.452699 0.460446
0.788701 0.557169 0.556729
0.877867 0.681539 0.657463
0.210735 0.277828 0.410452
0.211165 0.274277 0.405511
0.221224 0.265735 0.393543
0.285429 0.252583 0.374116
0.380431 0.220450 0.326021
0.529868 0.350693 0.409482
0.655315 0.454334 0.460791
0.789063 0.557854 0.557060
0.877994 0.681799 0.657601
0.250487 0.337142 0.468734
0.250189 0.334451 0.461669
0.262042 0.334874 0.453776
0.323528 0.337009 0.442193
0.436893 0.329546 0.419356
0.541286 0.379578 0.423606
0.655848 0.459082 0.461236
0.790362 0.560297 0.558238
0.878454 0.682742 0.658106
0.302341 0.411138 0.531072
0.302270 0.411073 0.530990
0.287391 0.412506 0.496994
0.355778 0.450052 0.489743
0.486647 0.493007 0.501400
0.570553 0.465926 0.457558
0.661600 0.479893 0.467038
0.795744 0.568940 0.562541
0.880101 0.686428 0.659999
0.328988 0.505971 0.454865
0.336157 0.510227 0.456572
0.357740 0.522062 0.461316
0.408929 0.549261 0.475539
0.488908 0.572401 0.482025
0.601401 0.584515 0.485082
0.709687 0.579568 0.513747
0.816415 0.599768 0.579465
0.885860 0.699281 0.666097
0.476003 0.621348 0.484928
0.477301 0.621540 0.485167
0.481742 0.622199 0.485985
0.497594 0.625721 0.490096
0.538905 0.628472 0.495277
0.642174 0.634865 0.513460
0.796268 0.648904 0.572208
0.872816 0.662272 0.621119
0.906774 0.748207 0.690543
0.606974 0.760530 0.622939
0.607409 0.760607 0.623031
0.608998 0.760885 0.623366
0.614770 0.761893 0.624580
0.631134 0.763467 0.626842
0.673890 0.764131 0.630158
0.800542 0.769812 0.652662
0.880656 0.775844 0.680509
0.880019 0.767100 0.674834
0.736891 0.868385 0.731638
0.737033 0.868395 0.731655
0.737569 0.868433 0.731720
0.739492 0.868569 0.731955
0.746090 0.869036 0.732759
0.768707 0.870519 0.735556
0.829610 0.874309 0.744530
0.889523 0.878298 0.756789
0.889523 0.878298 0.756789
0.166134 0.169917 0.284429
0.168734 0.168716 0.282692
0.177009 0.164507 0.276278
0.212349 0.159516 0.267509
0.307207 0.166218 0.269328
0.410017 0.180954 0.269773
0.645204 0.450948 0.513137
0.804046 0.568889 0.585226
0.877294 0.680259 0.664226
0.196829 0.222508 0.351106
0.198746 0.220763 0.348926
0.206312 0.215182 0.341965
0.232925 0.195993 0.316805
0.307110 0.166168 0.269261
0.409990 0.180912 0.269705
0.645655 0.451796 0.513665
0.804076 0.568990 0.585255
0.877321 0.680314 0.664250
0.271848 0.332188 0.471383
0.273141 0.330784 0.469773
0.278631 0.325751 0.463947
0.302198 0.313056 0.449177
0.363709 0.275021 0.404105
0.409895 0.180760 0.269457
0.647249 0.454853 0.515542
0.804180 0.569351 0.585355
0.877423 0.680518 0.664345
0.323535 0.399661 0.536787
0.324987 0.399329 0.536141
0.328707 0.396344 0.532102
0.345330 0.389027 0.521316
0.409727 0.372306 0.498171
0.501953 0.343552 0.459625
0.652169 0.464642 0.521238
0.804547 0.570627 0.585701
0.877784 0.681241 0.664682
0.354013 0.449841 0.578222
0.355217 0.449799 0.576796
0.358855 0.449052 0.572664
0.378927 0.451792 0.567837
0.440303 0.455582 0.558478
0.550130 0.448777 0.536352
0.666325 0.490411 0.535348
0.805741 0.574929 0.586767
0.879077 0.683880 0.665902
0.440672 0.546138 0.678929
0.440642 0.546110 0.678898
0.440533 0.546011 0.678783
0.395207 0.522494 0.603633
0.470654 0.562254 0.604009
0.607276 0.613769 0.624955
0.702456 0.577094 0.572382
0.807365 0.591839 0.589776
0.884478 0.696041 0.671499
0.443804 0.621112 0.565960
0.446194 0.622822 0.566608
0.453710 0.628017 0.569110
0.474210 0.642185 0.576249
0.526656 0.679749 0.597680
0.607898 0.712465 0.613291
0.743663 0.726462 0.623426
0.872873 0.715724 0.657642
0.905719 0.744916 0.695493
0.599173 0.757835 0.620029
0.599620 0.757917 0.620127
0.601288 0.758223 0.620490
0.607020 0.759270 0.621740
0.625653 0.761684 0.624860
0.670044 0.762394 0.628275
0.798041 0.768268 0.650914
0.880555 0.774505 0.679609
0.879917 0.765584 0.673930
0.734432 0.868210 0.731338
0.734589 0.868221 0.731357
0.735141 0.868261 0.731425
0.737112 0.868400 0.731665
0.743875 0.868879 0.732489
0.766783 0.870398 0.735307
0.828214 0.874221 0.744279
0.889523 0.878298 0.756789
0.889523 0.878298 0.756789
0.246708 0.219576 0.348132
0.248018 0.219496 0.347978
0.252521 0.219222 0.347450
0.270522 0.219610 0.347174
0.316607 0.222782 0.348636
0.403580 0.225974 0.343046
0.499225 0.244765 0.343791
0.789437 0.569623 0.636086
0.891314 0.688559 0.697064
0.260385 0.247609 0.381026
0.261186 0.246213 0.379366
0.263686 0.240658 0.372778
0.270397 0.219589 0.347153
0.316543 0.222762 0.348615
0.403556 0.225960 0.343031
0.499220 0.244755 0.343777
0.789605 0.569838 0.636228
0.891313 0.688598 0.697070
0.342764 0.379805 0.522766
0.343154 0.378914 0.521822
0.343989 0.375701 0.518429
0.348560 0.364047 0.506036
0.357492 0.313509 0.451639
0.403472 0.225911 0.342976
0.499198 0.244719 0.343727
0.790204 0.570603 0.636732
0.891309 0.688740 0.697092
0.400783 0.464881 0.607422
0.400951 0.464275 0.606749
0.401426 0.462069 0.604329
0.405664 0.455112 0.596696
0.425202 0.441347 0.581402
0.479173 0.405531 0.542000
0.499122 0.244589 0.343544
0.792320 0.573305 0.638506
0.891294 0.689256 0.697173
0.450099 0.529239 0.667854
0.450437 0.529165 0.667708
0.451800 0.529176 0.667489
0.455393 0.527028 0.664145
0.465377 0.514988 0.648902
0.518736 0.494593 0.622139
0.617023 0.462268 0.578620
0.797887 0.582340 0.644314
0.891231 0.691065 0.697437
0.480326 0.575942 0.707467
0.480536 0.575799 0.707094
0.481495 0.575371 0.705844
0.486065 0.576221 0.704531
0.502454 0.579206 0.702112
0.556117 0.583413 0.695813
0.674244 0.569709 0.665784
0.816146 0.608755 0.660097
0.890914 0.697675 0.698266
0.471496 0.585326 0.708081
0.471496 0.585325 0.708081
0.471496 0.585323 0.708081
0.471494 0.585317 0.708081
0.519313 0.640892 0.733593
0.587158 0.687388 0.742803
0.745969 0.757853 0.776064
0.864672 0.710365 0.707654
0.903841 0.738093 0.715169
0.566224 0.755621 0.689037
0.566869 0.756203 0.689372
0.569138 0.758254 0.690553
0.576722 0.765108 0.694509
0.599311 0.785297 0.706310
0.656815 0.833845 0.738205
0.749640 0.879136 0.767236
0.917783 0.897715 0.788453
0.956284 0.900484 0.802411
0.726527 0.867621 0.730397
0.726652 0.867630 0.730412
0.727142 0.867668 0.730469
0.728873 0.867801 0.730673
0.735409 0.868280 0.731457
0.758905 0.869902 0.734286
0.823052 0.873893 0.743352
0.889523 0.878298 0.756789
0.889523 0.878298 0.756789
0.344198 0.282876 0.419481
0.344675 0.282864 0.419444
0.346367 0.282825 0.419315
0.352177 0.282692 0.418870
0.370609 0.282774 0.418036
0.411440 0.284931 0.417509
0.490788 0.287538 0.409574
0.592103 0.316141 0.415287
0.884663 0.699690 0.783713
0.344158 0.282873 0.419479
0.344632 0.282861 0.419443
0.346325 0.282822 0.419314
0.352138 0.282689 0.418869
0.370579 0.282767 0.418031
0.411424 0.284926 0.417505
0.490782 0.287534 0.409570
0.592101 0.316139 0.415283
0.884716 0.699785 0.783788
0.367559 0.341240 0.482832
0.367421 0.339768 0.481265
0.366884 0.334396 0.475532
0.364431 0.314592 0.453979
0.370477 0.282745 0.418011
0.411367 0.284912 0.417493
0.490759 0.287518 0.409554
0.592094 0.316128 0.415270
0.884892 0.700100 0.784037
0.473246 0.523206 0.668951
0.473254 0.522915 0.668651
0.473281 0.521874 0.667577
0.473684 0.518183 0.663765
0.475849 0.506113 0.651286
0.480918 0.462532 0.606578
0.490676 0.287462 0.409497
0.592067 0.316090 0.415222
0.885533 0.701254 0.784948
0.533550 0.606024 0.750173
0.533626 0.605970 0.750112
0.533878 0.605754 0.749875
0.534876 0.604609 0.748642
0.534921 0.596161 0.739696
0.542566 0.577907 0.720128
0.588964 0.533634 0.672278
0.591969 0.315954 0.415050
0.887632 0.704908 0.787687
0.569672 0.651349 0.791291
0.569890 0.651471 0.791410
0.570664 0.651907 0.791836
0.573696 0.653780 0.793709
0.582342 0.658800 0.798539
0.592646 0.654842 0.793711
0.634964 0.630808 0.765008
0.750906 0.589281 0.710260
0.894347 0.716420 0.795959
0.565009 0.660692 0.786404
0.565423 0.661003 0.786725
0.566876 0.662095 0.787855
0.571908 0.665808 0.791622
0.585409 0.675677 0.801540
0.620215 0.700072 0.826437
0.684895 0.725134 0.849637
0.825123 0.708869 0.819645
0.914373 0.752629 0.816893
0.480444 0.613484 0.710645
0.480444 0.613483 0.710645
0.480444 0.613482 0.710645
0.480443 0.613479 0.710644
0.480438 0.613466 0.710643
0.611843 0.751302 0.812874
0.720475 0.838375 0.886169
0.921826 0.935672 0.959109
0.972281 0.906379 0.891450
0.677728 0.858765 0.825313
0.677845 0.858860 0.825346
0.678264 0.859202 0.825463
0.679785 0.860452 0.825891
0.685100 0.864625 0.827326
0.701876 0.876940 0.831703
0.767131 0.922856 0.861088
0.914752 0.971998 0.889816
0.976690 0.966509 0.866105
0.431733 0.340224 0.479678
0.431844 0.340223 0.479669
0.432253 0.340217 0.479636
0.433690 0.340196 0.479519
0.439643 0.340276 0.479211
0.459027 0.340709 0.478375
0.497624 0.341232 0.475203
0.580014 0.348523 0.468684
0.705807 0.406309 0.496352
0.431722 0.340225 0.479679
0.431833 0.340223 0.479670
0.432242 0.340217 0.479637
0.433690 0.340196 0.479519
0.439629 0.340275 0.479212
0.459020 0.340709 0.478376
0.497620 0.341232 0.475204
0.580012 0.348523 0.468684
0.705806 0.406308 0.496352
0.431689 0.340225 0.479682
0.431799 0.340223 0.479673
0.432209 0.340218 0.479639
0.433646 0.340197 0.479522
0.439587 0.340274 0.479214
0.458985 0.340708 0.478377
0.497607 0.341233 0.475207
0.580006 0.348521 0.468684
0.705804 0.406307 0.496351
0.491920 0.493662 0.639870
0.491604 0.492943 0.639136
0.490325 0.489846 0.635975
0.486450 0.479642 0.625557
0.465748 0.417593 0.561441
0.458873 0.340706 0.478382
0.497557 0.341235 0.475215
0.579984 0.348515 0.468683
0.705796 0.406301 0.496347
0.570612 0.617313 0.762155
0.570657 0.617295 0.762139
0.570837 0.617244 0.762092
0.571451 0.617057 0.761918
0.574071 0.616530 0.761418
0.581863 0.614605 0.759583
0.596732 0.601785 0.747343
0.579904 0.348495 0.468680
0.705768 0.406282 0.496333
0.604480 0.662343 0.802149
0.604522 0.662338 0.802144
0.604713 0.662357 0.802159
0.605384 0.662405 0.802197
0.607806 0.662561 0.802314
0.617185 0.662947 0.802570
0.642339 0.661463 0.800978
0.717383 0.652990 0.791922
0.705664 0.406210 0.496285
0.634628 0.706113 0.836419
0.634735 0.706180 0.836488
0.635108 0.706414 0.836730
0.636436 0.707240 0.837590
0.640981 0.710077 0.840538
0.655836 0.719239 0.849726
0.682226 0.722209 0.851962
0.773870 0.723527 0.851893
0.855969 0.716141 0.842846
0.630007 0.733819 0.830804
0.630155 0.733931 0.830910
0.630709 0.734347 0.831307
0.632650 0.735884 0.832693
0.639552 0.741272 0.837344
0.659358 0.754950 0.850579
0.710411 0.788317 0.882010
0.836812 0.833830 0.926318
0.939245 0.835799 0.928102
0.500653 0.663448 0.716668
0.500653 0.663447 0.716668
0.500653 0.663447 0.716668
0.500652 0.663446 0.716668
0.500650 0.663441 0.716667
0.500643 0.663425 0.716664
0.708126 0.876477 0.874488
0.867169 0.963821 0.962310
1.018492 1.018492 1.018492
