Assets/Lutify-Free-LUTs-Pack/Lutify Free LUTs Pack/Print Film Pro - Print Film 2/Lutify.me-PrintFilm2-CanonLog2-to-Rec709.cube
# Created with: fylm.ai - Colour Grading and Collaboration Software in Cloud 
# Website: https://fylm.ai 
# META
# Option: Gamut compress
# Block 1: IDT | CanonLog2 Cinema Gamut Daylight
# Block 2: colourMatch | Blending Mode: Normal | {"ColorSpace":0,"CrossCovarianceLimit":50,"ReshapingIterations":1,"PercentSaturationShift":100,"PercentShadingShift":100,"ExtraShading":true,"PercentTint":100,"PercentModified":100}
# Block 3: HSL | Blending Mode: Normal | {"hue":{"Reds":0,"Yellows":0,"Greens":0,"Cyans":0,"Blues":0,"Magentas":0},"saturation":{"Reds":1,"Yellows":0.9,"Greens":0.95,"Cyans":1,"Blues":1,"Magentas":1},"luminance":{"Reds":0.8,"Yellows":0.95,"Greens":0.9,"Cyans":0.8,"Blues":0.8,"Magentas":0.8},"lum_sat":{"Blacks":1,"Shadows":1,"Midtones":1,"Highlights":1,"Whites":1},"sat_sat":{"10":1,"20":1,"30":1,"40":1,"50":1}}
# Block 4: LUT | Filmic Curve Response: Low Contrast 2 (100%)
# Block 5: ODT | Rec709
TITLE "Lutify.me-PrintFilm2-CanonLog2-to-Rec709" 
LUT_3D_SIZE 33
0.000000 0.000000 0.000000
0.000000 0.000000 0.000000
0.000000 0.000000 0.000000
0.000000 0.000000 0.000000
0.000000 0.000000 0.000000
0.000000 0.000000 0.000000
0.000000 0.000000 0.000000
0.000000 0.000000 0.000000
0.000000 0.000000 0.000000
0.017995 0.000000 0.000000
0.061119 0.000000 0.000000
0.096890 0.000000 0.000000
0.138557 0.000000 0.000000
0.203585 0.000000 0.000000
0.280180 0.000000 0.000000
0.365827 0.000000 0.000000
0.474145 0.000000 0.000000
0.574708 0.000000 0.000000
0.673185 0.000000 0.024366
0.779307 0.000000 0.053124
0.871101 0.000000 0.082473
0.942370 0.000000 0.117906
1.000000 0.000000 0.167630
1.000000 0.205080 0.220632
1.000000 0.337696 0.279745
1.000000 0.437573 0.347025
1.000000 0.535533 0.428868
1.000000 0.626430 0.508496
1.000000 0.702821 0.582496
1.000000 0.770415 0.664344
1.000000 0.824271 0.745882
1.000000 0.863247 0.799688
1.000000 0.894965 0.842273
0.000000 0.000000 0.000000
0.000000 0.000000 0.000000
0.000000 0.000000 0.000000
0.000000 0.000000 0.000000
0.000000 0.000000 0.000000
0.000000 0.000000 0.000000
0.000000 0.000000 0.000000
0.000000 0.000000 0.000000
0.000000 0.000000 0.000000
0.046840 0.000000 0.000000
0.076905 0.000000 0.000000
0.116638 0.000000 0.000000
0.159882 0.000000 0.000000
0.226570 0.000000 0.000000
0.299623 0.000000 0.000000
0.381562 0.000000 0.000000
0.481882 0.000000 0.000000
0.580025 0.000000 0.000000
0.676574 0.000000 0.019700
0.781225 0.000000 0.051252
0.872915 0.000000 0.081512
0.943360 0.000000 0.117372
1.000000 0.000000 0.167069
1.000000 0.212120 0.219846
1.000000 0.340885 0.279527
1.000000 0.439446 0.346893
1.000000 0.536825 0.428503
1.000000 0.627405 0.508433
1.000000 0.703392 0.582468
1.000000 0.770736 0.664333
1.000000 0.824447 0.745865
1.000000 0.863345 0.799655
1.000000 0.895024 0.842273
0.000000 0.000000 0.000000
0.000000 0.000000 0.000000
0.000000 0.000000 0.000000
0.000000 0.000000 0.000000
0.000000 0.000000 0.000000
0.000000 0.000000 0.000000
0.000000 0.000000 0.000000
0.000000 0.000000 0.000000
0.023236 0.000000 0.000000
0.062636 0.000000 0.000000
0.094297 0.000000 0.000000
0.131129 0.000000 0.000000
0.175213 0.000000 0.000000
0.244447 0.000000 0.000000
0.311481 0.000000 0.000000
0.392979 0.000000 0.000000
0.488848 0.000000 0.000000
0.584350 0.000000 0.000000
0.680282 0.000000 0.016320
0.782030 0.000000 0.050105
0.874249 0.000000 0.080874
0.944075 0.000000 0.116953
1.000000 0.000000 0.166296
1.000000 0.217190 0.219254
1.000000 0.343230 0.279362
1.000000 0.440828 0.346793
1.000000 0.537782 0.428232
1.000000 0.628127 0.508387
1.000000 0.703815 0.582445
1.000000 0.770974 0.664324
1.000000 0.824579 0.745854
1.000000 0.863418 0.799630
1.000000 0.895067 0.842272
0.000000 0.000000 0.000000
0.000000 0.000000 0.000000
0.000000 0.000000 0.000000
0.000000 0.000000 0.000000
0.000000 0.000000 0.000000
0.000000 0.000000 0.000000
0.000000 0.000000 0.000000
0.000000 0.000000 0.000000
0.045223 0.000000 0.000000
0.074248 0.000000 0.000000
0.107199 0.000000 0.000000
0.142725 0.000000 0.000000
0.188794 0.000000 0.000000
0.254489 0.000000 0.000000
0.320070 0.000000 0.000000
0.399383 0.000000 0.000000
0.493827 0.000000 0.000000
0.588082 0.000000 0.000000
0.683533 0.000000 0.013157
0.782603 0.000000 0.049189
0.875217 0.000000 0.080388
0.944594 0.000000 0.116630
1.000000 0.000000 0.165737
1.000000 0.220875 0.218811
1.000000 0.344957 0.279237
1.000000 0.441849 0.346718
1.000000 0.538489 0.428031
1.000000 0.628663 0.508353
1.000000 0.704129 0.582431
1.000000 0.771149 0.664318
1.000000 0.824677 0.745845
1.000000 0.863474 0.799612
1.000000 0.895101 0.842272
0.000000 0.000000 0.000000
0.000000 0.000000 0.000000
0.000000 0.000000 0.000000
0.000000 0.000000 0.000000
0.000000 0.000000 0.000000
0.000000 0.000000 0.000000
0.002498 0.000000 0.000000
0.040571 0.000000 0.000000
0.063807 0.000000 0.000000
0.088624 0.000000 0.000000
0.118519 0.000000 0.000000
0.154682 0.000000 0.000000
0.201844 0.000000 0.000000
0.264416 0.000000 0.000000
0.331210 0.000000 0.000000
0.405186 0.000000 0.000000
0.498742 0.000000 0.000000
0.592592 0.000000 0.000000
0.686774 0.000000 0.007514
0.783809 0.000000 0.048412
0.876184 0.000000 0.079872
0.945112 0.000000 0.116292
1.000000 0.000000 0.165167
1.000000 0.224557 0.218357
1.000000 0.346692 0.279109
1.000000 0.442883 0.346640
1.000000 0.539205 0.427825
1.000000 0.629205 0.508316
1.000000 0.704445 0.582413
1.000000 0.771327 0.664312
1.000000 0.824776 0.745837
1.000000 0.863528 0.799593
1.000000 0.895135 0.842272
0.000000 0.000000 0.000000
0.000000 0.000000 0.000000
0.000000 0.000000 0.000000
0.000000 0.000000 0.000000
0.000000 0.000000 0.000000
0.000000 0.000000 0.000000
0.032806 0.000000 0.000000
0.060447 0.000000 0.000000
0.085742 0.000000 0.000000
0.113742 0.000000 0.000000
0.136888 0.000000 0.000000
0.171995 0.000000 0.000000
0.218256 0.000000 0.000000
0.277535 0.000000 0.000000
0.344107 0.000000 0.000000
0.412728 0.000000 0.000000
0.505159 0.000000 0.000000
0.598702 0.000000 0.000000
0.691249 0.000000 0.000000
0.785858 0.000000 0.047417
0.877456 0.000000 0.079145
0.945796 0.000000 0.115819
1.000000 0.000000 0.164390
1.000000 0.229425 0.217739
1.000000 0.348946 0.278937
1.000000 0.444270 0.346534
1.000000 0.540168 0.427547
1.000000 0.629935 0.508267
1.000000 0.704872 0.582391
1.000000 0.771567 0.664302
1.000000 0.824908 0.745824
1.000000 0.863603 0.799568
1.000000 0.895180 0.842272
0.000000 0.000000 0.000000
0.000000 0.000000 0.000000
0.000000 0.007101 0.000000
0.000000 0.012796 0.000000
0.000000 0.022014 0.000000
0.000000 0.028976 0.000000
0.043704 0.031814 0.000000
0.067336 0.031727 0.000000
0.098558 0.022349 0.000000
0.136277 0.000000 0.000000
0.167091 0.000000 0.000000
0.198956 0.000000 0.000000
0.238351 0.000000 0.000000
0.296995 0.000000 0.000000
0.353979 0.000000 0.000000
0.426680 0.000000 0.000000
0.513536 0.000000 0.000000
0.606857 0.000000 0.000000
0.697095 0.000000 0.000000
0.788552 0.000000 0.045878
0.879320 0.000000 0.078199
0.946692 0.000000 0.115152
1.000000 0.000000 0.163322
1.000000 0.235404 0.217141
1.000000 0.351953 0.278702
1.000000 0.446129 0.346387
1.000000 0.541461 0.427173
1.000000 0.630912 0.508200
1.000000 0.705445 0.582360
1.000000 0.771889 0.664288
1.000000 0.825088 0.745808
1.000000 0.863704 0.799535
1.000000 0.895240 0.842270
0.000000 0.029037 0.000000
0.000000 0.032278 0.000000
0.000000 0.036142 0.000000
0.000000 0.040093 0.000000
0.000000 0.045181 0.000000
0.000000 0.049868 0.000000
0.045224 0.051719 0.000000
0.074231 0.050835 0.000000
0.113340 0.045490 0.000000
0.152410 0.032431 0.000000
0.193464 0.000000 0.000000
0.229876 0.000000 0.000000
0.271598 0.000000 0.000000
0.320167 0.000000 0.000000
0.371523 0.000000 0.000000
0.442020 0.000000 0.000000
0.525129 0.000000 0.000000
0.617487 0.000000 0.000000
0.704463 0.000000 0.000000
0.794378 0.000000 0.041569
0.883085 0.000000 0.077449
0.947852 0.000000 0.114196
1.000000 0.058396 0.161848
1.000000 0.242941 0.216488
1.000000 0.355952 0.278375
1.000000 0.448614 0.346184
1.000000 0.543191 0.426666
1.000000 0.632223 0.508110
1.000000 0.706212 0.582317
1.000000 0.772323 0.664273
1.000000 0.825328 0.745786
1.000000 0.863838 0.799489
1.000000 0.895322 0.842271
0.000000 0.051008 0.000000
0.000000 0.053188 0.000000
0.000000 0.056535 0.000000
0.000000 0.059877 0.000000
0.000000 0.063020 0.000000
0.000000 0.070856 0.000000
0.034669 0.075141 0.000000
0.080357 0.075016 0.000000
0.123947 0.072344 0.000000
0.174336 0.064282 0.000000
0.217858 0.049905 0.000000
0.261481 0.000000 0.000000
0.303655 0.000000 0.000000
0.350321 0.000000 0.000000
0.395535 0.000000 0.000000
0.459283 0.000000 0.000000
0.539791 0.000000 0.000000
0.631237 0.000000 0.000000
0.713697 0.000000 0.000000
0.799747 0.000000 0.034344
0.886831 0.000000 0.075534
0.950005 0.000000 0.113279
1.000000 0.101841 0.159797
1.000000 0.252741 0.215570
1.000000 0.361247 0.277919
1.000000 0.451920 0.345864
1.000000 0.545505 0.425979
1.000000 0.633975 0.507984
1.000000 0.707242 0.582259
1.000000 0.772902 0.664248
1.000000 0.825651 0.745755
1.000000 0.864018 0.799427
1.000000 0.895429 0.842268
0.000000 0.070367 0.000000
0.000000 0.076227 0.000000
0.000000 0.080649 0.000000
0.000000 0.084389 0.000000
0.000000 0.090232 0.000000
0.000000 0.096604 0.000000
0.000000 0.103017 0.000000
0.072354 0.106083 0.000000
0.127833 0.105262 0.000000
0.188567 0.100208 0.000000
0.240255 0.092384 0.000000
0.293466 0.071694 0.000000
0.336609 0.047159 0.000000
0.392252 0.000000 0.000000
0.439641 0.000000 0.000000
0.491812 0.000000 0.000000
0.567057 0.000000 0.000000
0.644093 0.000000 0.000000
0.725284 0.000000 0.000000
0.808536 0.000000 0.016645
0.890783 0.000000 0.071897
0.953077 0.000000 0.112030
1.000000 0.141040 0.158093
1.000000 0.265379 0.214263
1.000000 0.367895 0.277299
1.000000 0.456293 0.345304
1.000000 0.548592 0.425049
1.000000 0.636314 0.507811
1.000000 0.708615 0.582177
1.000000 0.773678 0.664216
1.000000 0.826083 0.745713
1.000000 0.864261 0.799344
1.000000 0.895576 0.842266
0.000000 0.098941 0.000000
0.000000 0.104704 0.000000
0.000000 0.112150 0.000000
0.000000 0.115663 0.000000
0.000000 0.123057 0.000000
0.000000 0.130083 0.000000
0.000000 0.137674 0.000000
0.038185 0.143754 0.000000
0.123976 0.143770 0.000000
0.193431 0.143229 0.000000
0.253747 0.134310 0.000000
0.316144 0.123531 0.000000
0.373398 0.102612 0.000000
0.434880 0.076689 0.000000
0.478339 0.051871 0.000000
0.530642 0.000000 0.000000
0.591132 0.000000 0.000000
0.661702 0.000000 0.000000
0.738736 0.000000 0.000000
0.817311 0.000000 0.000000
0.896155 0.000000 0.065467
0.955784 0.000000 0.108931
1.000000 0.180899 0.156710
1.000000 0.282048 0.212666
1.000000 0.375827 0.276468
1.000000 0.462078 0.344515
1.000000 0.552710 0.423801
1.000000 0.639420 0.507569
1.000000 0.710447 0.582064
1.000000 0.774712 0.664167
1.000000 0.826663 0.745656
1.000000 0.864587 0.799231
1.000000 0.895774 0.842264
0.000000 0.134916 0.000000
0.000000 0.144598 0.000000
0.000000 0.152412 0.000000
0.000000 0.157306 0.000000
0.000000 0.164585 0.000000
0.000000 0.174840 0.000000
0.000000 0.182549 0.000000
0.000000 0.190105 0.000000
0.103175 0.189678 0.000000
0.190265 0.189757 0.000000
0.261728 0.184706 0.000000
0.331848 0.173696 0.000000
0.401571 0.162668 0.000000
0.476001 0.137866 0.000000
0.530802 0.123186 0.000000
0.574159 0.123261 0.000000
0.633693 0.103108 0.000000
0.694345 0.000000 0.000000
0.759691 0.000000 0.000000
0.827996 0.000000 0.000000
0.902434 0.000000 0.053347
0.959662 0.107203 0.103999
1.000000 0.218400 0.155937
1.000000 0.307325 0.212235
1.000000 0.386136 0.275267
1.000000 0.469690 0.343400
1.000000 0.558386 0.422285
1.000000 0.643533 0.507230
1.000000 0.712879 0.581906
1.000000 0.776090 0.664101
1.000000 0.827416 0.745445
1.000000 0.865024 0.799080
1.000000 0.896041 0.842261
0.000000 0.186372 0.000000
0.000000 0.200097 0.000000
0.000000 0.208129 0.000000
0.000000 0.213350 0.000000
0.000000 0.218353 0.000000
0.000000 0.225327 0.000000
0.000000 0.231577 0.000000
0.000000 0.239502 0.000000
0.000000 0.243068 0.000000
0.176631 0.242918 0.000000
0.262149 0.243721 0.000000
0.340020 0.235164 0.000000
0.419192 0.222870 0.000000
0.510141 0.209335 0.000000
0.580379 0.187675 0.000000
0.631472 0.181978 0.000000
0.678153 0.195370 0.000000
0.733298 0.189798 0.000000
0.785033 0.156553 0.000000
0.849263 0.126383 0.000000
0.911564 0.130437 0.013917
0.965540 0.192795 0.096560
1.000000 0.261147 0.152153
1.000000 0.337314 0.209467
1.000000 0.401180 0.274578
1.000000 0.480742 0.340470
1.000000 0.565862 0.420212
1.000000 0.648947 0.506751
1.000000 0.716094 0.581678
1.000000 0.777914 0.664002
1.000000 0.828412 0.745083
1.000000 0.865605 0.798874
1.000000 0.896396 0.842255
0.000000 0.244335 0.000000
0.000000 0.262133 0.000000
0.000000 0.269244 0.000000
0.000000 0.273754 0.000000
0.000000 0.278145 0.000000
0.000000 0.282975 0.000000
0.000000 0.288358 0.000000
0.000000 0.295212 0.000000
0.000000 0.302017 0.000000
0.135772 0.301171 0.000000
0.247244 0.304717 0.000000
0.339261 0.301183 0.000000
0.427364 0.291767 0.000000
0.529864 0.278009 0.000000
0.610615 0.268473 0.000000
0.679795 0.251424 0.000000
0.734275 0.254594 0.000000
0.775527 0.287421 0.000000
0.821778 0.288855 0.000000
0.870349 0.251666 0.000000
0.926364 0.236915 0.000000
0.973311 0.269905 0.082707
1.000000 0.308608 0.145513
1.000000 0.368282 0.205222
1.000000 0.427016 0.273237
1.000000 0.497155 0.337748
1.000000 0.575651 0.417362
1.000000 0.656019 0.506064
1.000000 0.720313 0.581347
1.000000 0.780316 0.663857
1.000000 0.829733 0.744591
1.000000 0.866380 0.798596
1.000000 0.896872 0.842245
0.000000 0.315953 0.000000
0.000000 0.324804 0.000000
0.000000 0.334154 0.000000
0.000000 0.338120 0.000000
0.000000 0.341755 0.000000
0.000000 0.346080 0.000000
0.000000 0.351413 0.000000
0.000000 0.358258 0.000000
0.000000 0.363708 0.000000
0.000000 0.364691 0.000000
0.212320 0.365964 0.000000
0.319578 0.370642 0.000000
0.430954 0.364153 0.000000
0.539321 0.353335 0.000000
0.625083 0.341525 0.000000
0.701599 0.334659 0.000000
0.781791 0.317294 0.000000
0.820592 0.336019 0.000000
0.853666 0.387052 0.000000
0.894198 0.382165 0.000000
0.938204 0.351041 0.000000
0.977988 0.340734 0.034257
1.000000 0.366486 0.134299
1.000000 0.406890 0.198515
1.000000 0.456374 0.270621
1.000000 0.522166 0.339123
1.000000 0.591271 0.417215
1.000000 0.665165 0.505064
1.000000 0.725565 0.580584
1.000000 0.783462 0.663639
1.000000 0.831477 0.743922
1.000000 0.867410 0.798219
1.000000 0.897507 0.842230
0.000000 0.393540 0.000000
0.000000 0.407585 0.000000
0.000000 0.412250 0.000000
0.000000 0.415301 0.000000
0.000000 0.418208 0.000000
0.000000 0.421949 0.000000
0.000000 0.426748 0.000000
0.000000 0.432709 0.000000
0.000000 0.436956 0.000000
0.000000 0.441847 0.000000
0.111658 0.441611 0.000000
0.285631 0.447462 0.000000
0.414415 0.443560 0.000000
0.543237 0.434841 0.000000
0.635879 0.425083 0.000000
0.718674 0.414093 0.000000
0.801972 0.408940 0.000000
0.865201 0.394655 0.000000
0.891660 0.427297 0.000000
0.910971 0.481953 0.000000
0.950575 0.466876 0.000000
0.981648 0.437239 0.000000
1.000000 0.436020 0.112656
1.000000 0.456396 0.188166
1.000000 0.500601 0.267768
1.000000 0.555913 0.339407
1.000000 0.614065 0.417392
1.000000 0.676933 0.503676
1.000000 0.732516 0.579714
1.000000 0.787431 0.663094
1.000000 0.833769 0.743010
1.000000 0.868768 0.797715
1.000000 0.898350 0.842206
0.000000 0.484451 0.000000
0.000000 0.489969 0.000000
0.000000 0.493614 0.000000
0.000000 0.496211 0.000000
0.000000 0.498719 0.000000
0.000000 0.501912 0.000000
0.000000 0.506027 0.000000
0.000000 0.511219 0.000000
0.000000 0.517572 0.000000
0.000000 0.525250 0.000000
0.000000 0.530717 0.000000
0.212647 0.530075 0.000000
0.393063 0.527434 0.000000
0.527177 0.522791 0.000000
0.629391 0.515103 0.000000
0.720136 0.506187 0.000000
0.811709 0.503094 0.000000
0.879771 0.498427 0.000000
0.928683 0.485998 0.000000
0.938696 0.541524 0.000000
0.955961 0.582942 0.000000
0.984642 0.568532 0.000000
1.000000 0.539340 0.010857
1.000000 0.529730 0.172890
1.000000 0.556284 0.265325
1.000000 0.597362 0.339093
1.000000 0.643116 0.418752
1.000000 0.695898 0.504831
1.000000 0.741505 0.578623
1.000000 0.792498 0.662181
1.000000 0.836797 0.741637
1.000000 0.870616 0.797480
1.000000 0.899468 0.842168
0.000000 0.570954 0.000000
0.000000 0.574569 0.000000
0.000000 0.577265 0.000000
0.000000 0.579187 0.000000
0.000000 0.581066 0.000000
0.000000 0.583485 0.000000
0.000000 0.586562 0.000000
0.000000 0.590000 0.000000
0.000000 0.594773 0.000000
0.000000 0.600574 0.000000
0.000000 0.602567 0.000000
0.000000 0.602262 0.000000
0.353393 0.600341 0.000000
0.505299 0.596745 0.000000
0.628002 0.591382 0.000000
0.726139 0.583613 0.000000
0.813615 0.575390 0.000000
0.878883 0.575271 0.000000
0.929955 0.573492 0.000000
0.973283 0.564564 0.000000
0.969620 0.636868 0.000000
0.981527 0.666060 0.000000
1.000000 0.654397 0.000000
1.000000 0.629710 0.141793
1.000000 0.620605 0.252953
1.000000 0.645396 0.337660
1.000000 0.678396 0.421271
1.000000 0.716553 0.504212
1.000000 0.756873 0.580494
1.000000 0.798970 0.660816
1.000000 0.840750 0.739612
1.000000 0.873028 0.797209
1.000000 0.900939 0.842101
0.000000 0.653812 0.000000
0.000000 0.656644 0.000000
0.000000 0.657807 0.000000
0.000000 0.658140 0.000000
0.000000 0.658464 0.000000
0.000000 0.658877 0.000000
0.000000 0.659394 0.000000
0.000000 0.660037 0.000000
0.000000 0.662926 0.000000
0.000000 0.667547 0.000000
0.000000 0.673030 0.000000
0.000000 0.673296 0.000000
0.278564 0.672217 0.000000
0.475993 0.669383 0.000000
0.608429 0.665543 0.000000
0.714012 0.660157 0.000000
0.812700 0.652635 0.000000
0.879435 0.646795 0.000000
0.926521 0.644567 0.000000
0.969415 0.644427 0.000000
1.000000 0.642091 0.000000
0.986836 0.720189 0.000000
0.997406 0.742344 0.000000
1.000000 0.731245 0.056340
1.000000 0.701696 0.228933
1.000000 0.696784 0.333088
1.000000 0.715107 0.419397
1.000000 0.741398 0.503014
1.000000 0.777813 0.585760
1.000000 0.811227 0.663911
1.000000 0.845780 0.736816
1.000000 0.876145 0.796944
1.000000 0.902777 0.841993
0.000000 0.733686 0.000000
0.000000 0.734075 0.000000
0.000000 0.734344 0.000000
0.000000 0.734869 0.000000
0.000000 0.735728 0.000000
0.000000 0.736848 0.000000
0.000000 0.738295 0.000000
0.000000 0.740138 0.000000
0.000000 0.742449 0.000000
0.000000 0.745139 0.000000
0.000000 0.745616 0.000000
0.000000 0.746146 0.000000
0.247998 0.745043 0.000000
0.437467 0.742743 0.000000
0.582625 0.739274 0.000000
0.694473 0.735113 0.000000
0.797889 0.729457 0.000000
0.867788 0.724152 0.000000
0.919568 0.719932 0.000000
0.960573 0.719202 0.000000
0.994435 0.723060 0.000000
1.000000 0.718439 0.000000
0.997636 0.790355 0.000000
1.000000 0.799172 0.000000
1.000000 0.788816 0.200878
1.000000 0.765614 0.328208
1.000000 0.761816 0.418115
1.000000 0.775100 0.505352
1.000000 0.802145 0.592520
1.000000 0.826545 0.667642
1.000000 0.855037 0.738043
1.000000 0.880085 0.796515
1.000000 0.904881 0.841818
0.000000 0.798390 0.000000
0.000000 0.799316 0.000000
0.000000 0.799975 0.000000
0.000000 0.800450 0.000000
0.000000 0.800920 0.000000
0.000000 0.801345 0.000000
0.000000 0.801448 0.000000
0.000000 0.801564 0.000000
0.000000 0.801728 0.000000
0.000000 0.801911 0.000000
0.000000 0.802066 0.000000
0.000000 0.802154 0.000000
0.306584 0.800993 0.000000
0.435447 0.799208 0.000000
0.553003 0.796576 0.000000
0.678628 0.792548 0.000000
0.784256 0.788275 0.000000
0.855162 0.784067 0.000000
0.908503 0.780298 0.000000
0.952372 0.777322 0.000000
0.984095 0.779957 0.000000
1.000000 0.781298 0.000000
1.000000 0.779363 0.000000
1.000000 0.844332 0.000000
1.000000 0.848092 0.130264
1.000000 0.839088 0.318700
1.000000 0.822200 0.423844
1.000000 0.815930 0.512242
1.000000 0.829578 0.599548
1.000000 0.844402 0.671432
1.000000 0.866744 0.740978
1.000000 0.886410 0.797096
1.000000 0.907572 0.841514
0.000000 0.845399 0.000000
0.000000 0.845412 0.000000
0.000000 0.845417 0.000000
0.000000 0.845418 0.000000
0.000000 0.845418 0.000000
0.000000 0.845414 0.000000
0.000000 0.845404 0.000000
0.000000 0.845381 0.000000
0.000000 0.845326 0.000000
0.000000 0.845211 0.000000
0.169441 0.844988 0.000000
0.304738 0.844573 0.000000
0.395026 0.843404 0.000000
0.475216 0.841916 0.000000
0.564052 0.839719 0.000000
0.667073 0.836454 0.000000
0.774053 0.832351 0.000000
0.845091 0.829267 0.000000
0.899194 0.825839 0.000000
0.944995 0.822876 0.000000
0.977689 0.820989 0.000000
1.000000 0.823462 0.000000
1.000000 0.824780 0.000000
1.000000 0.824178 0.000000
1.000000 0.881181 0.000000
1.000000 0.882543 0.270797
1.000000 0.873270 0.424447
1.000000 0.859555 0.516712
1.000000 0.858573 0.604285
1.000000 0.864815 0.675920
1.000000 0.880069 0.745772
1.000000 0.895722 0.800853
1.000000 0.911823 0.840772
0.000000 0.882523 0.000000
0.000000 0.882430 0.000000
0.000000 0.882357 0.000000
0.099033 0.882302 0.000000
0.140720 0.882244 0.000000
0.178490 0.882165 0.000000
0.214541 0.882072 0.000000
0.252059 0.881948 0.000000
0.292867 0.881772 0.000000
0.336534 0.881527 0.000000
0.382013 0.881196 0.000000
0.431229 0.880621 0.000000
0.481396 0.879611 0.000000
0.539497 0.878213 0.000000
0.609675 0.876209 0.000000
0.682504 0.873699 0.000000
0.767346 0.868885 0.000000
0.836273 0.866003 0.000000
0.890766 0.863503 0.000000
0.936610 0.860634 0.000000
0.972464 0.858561 0.000000
0.996971 0.857315 0.000000
1.000000 0.859617 0.000000
1.000000 0.861100 0.000000
1.000000 0.861090 0.122753
1.000000 0.909407 0.137480
1.000000 0.909216 0.390898
1.000000 0.902533 0.520023
1.000000 0.889307 0.609417
1.000000 0.887845 0.682267
1.000000 0.893779 0.749514
1.000000 0.907039 0.804290
1.000000 0.919566 0.843240
0.391974 0.913154 0.000000
0.402841 0.913037 0.000000
0.410637 0.912951 0.000000
0.416285 0.912886 0.000000
0.421916 0.912819 0.000000
0.429331 0.912730 0.000000
0.439032 0.912608 0.000000
0.451617 0.912443 0.000000
0.467790 0.912218 0.000000
0.488334 0.911911 0.000000
0.514096 0.911492 0.000000
0.543359 0.910858 0.000000
0.576373 0.909948 0.000000
0.616854 0.908735 0.000000
0.662817 0.907215 0.000000
0.717829 0.904730 0.000000
0.776795 0.900382 0.000000
0.829842 0.897661 0.000000
0.883055 0.895224 0.000000
0.928801 0.892906 0.000000
0.965521 0.890592 0.000000
0.990304 0.889034 0.000000
1.000000 0.887995 0.000000
1.000000 0.889734 0.000000
1.000000 0.890787 0.174968
1.000000 0.891088 0.274185
1.000000 0.933509 0.293338
1.000000 0.933546 0.503453
1.000000 0.924573 0.611711
1.000000 0.915992 0.696668
1.000000 0.912387 0.754033
1.000000 0.920079 0.808122
1.000000 0.929378 0.847136
0.570000 0.935296 0.000000
0.574562 0.935204 0.000000
0.577891 0.935136 0.000000
0.580331 0.935086 0.000000
0.582786 0.935035 0.000000
0.586052 0.934967 0.000000
0.590382 0.934876 0.000000
0.596087 0.934755 0.000000
0.603553 0.934594 0.000000
0.613232 0.934381 0.000000
0.625491 0.934077 0.000000
0.640506 0.933594 0.000000
0.659160 0.932972 0.000000
0.686248 0.932031 0.000000
0.719014 0.930830 0.000000
0.755529 0.929416 0.000000
0.793380 0.927884 0.000000
0.833132 0.926192 0.000000
0.876599 0.924273 0.000000
0.920792 0.922330 0.000000
0.958007 0.920496 0.000000
0.982988 0.918979 0.000000
1.000000 0.917829 0.000000
1.000000 0.917216 0.122166
1.000000 0.917121 0.228186
1.000000 0.917643 0.320530
1.000000 0.918565 0.406756
1.000000 0.953909 0.420373
1.000000 0.952285 0.608659
1.000000 0.947432 0.712469
1.000000 0.937662 0.767196
1.000000 0.936268 0.814163
1.000000 0.941850 0.853483
0.684779 0.952249 0.000000
0.687796 0.952172 0.000000
0.689979 0.952111 0.000000
0.691529 0.952056 0.000000
0.693093 0.952001 0.000000
0.695180 0.951926 0.000000
0.697954 0.951827 0.000000
0.701623 0.951695 0.000000
0.706451 0.951520 0.000000
0.712749 0.951289 0.000000
0.720881 0.950988 0.000000
0.731231 0.950599 0.000000
0.744115 0.950107 0.000000
0.759995 0.949487 0.000000
0.779065 0.948720 0.000000
0.800032 0.947847 0.000000
0.824483 0.946797 0.000000
0.852037 0.945578 0.000000
0.882451 0.944201 0.000000
0.916539 0.942662 0.000000
0.953002 0.941003 0.000000
0.977772 0.939672 0.000000
1.000000 0.938387 0.107847
1.000000 0.937604 0.198552
1.000000 0.937321 0.280887
1.000000 0.937632 0.361504
1.000000 0.938383 0.443595
