Assets/Lutify-Free-LUTs-Pack/Lutify Free LUTs Pack/Print Film Pro - Print Film 2/Lutify.me-PrintFilm2-SLog3Cine-to-Rec709.cube
# Created with: fylm.ai - Colour Grading and Collaboration Software in Cloud 
# Website: https://fylm.ai 
# META
# Option: Gamut compress
# Block 1: IDT | Sony S-Log3 S-Gamut3.Cine
# Block 2: colourMatch | Blending Mode: Normal | {"ColorSpace":0,"CrossCovarianceLimit":50,"ReshapingIterations":1,"PercentSaturationShift":100,"PercentShadingShift":100,"ExtraShading":true,"PercentTint":100,"PercentModified":100}
# Block 3: HSL | Blending Mode: Normal | {"hue":{"Reds":0,"Yellows":0,"Greens":0,"Cyans":0,"Blues":0,"Magentas":0},"saturation":{"Reds":1,"Yellows":0.9,"Greens":0.95,"Cyans":1,"Blues":1,"Magentas":1},"luminance":{"Reds":0.8,"Yellows":0.95,"Greens":0.9,"Cyans":0.8,"Blues":0.8,"Magentas":0.8},"lum_sat":{"Blacks":1,"Shadows":1,"Midtones":1,"Highlights":1,"Whites":1},"sat_sat":{"10":1,"20":1,"30":1,"40":1,"50":1}}
# Block 4: LUT | Filmic Curve Response: Low Contrast 2 (100%)
# Block 5: ODT | Rec709
TITLE "Lutify.me-PrintFilm2-SLog3Cine-to-Rec709" 
LUT_3D_SIZE 33
0.000000 0.000000 0.000000
0.000000 0.000000 0.000000
0.000000 0.000000 0.000000
0.000000 0.000000 0.000000
0.000000 0.000000 0.000000
0.000000 0.000000 0.000000
0.000000 0.000000 0.000000
0.000000 0.000000 0.000000
0.000000 0.000000 0.000000
0.000000 0.000000 0.000000
0.027668 0.000000 0.000000
0.064511 0.000000 0.000000
0.098351 0.000000 0.000000
0.137560 0.000000 0.000000
0.196288 0.000000 0.000000
0.267175 0.000000 0.000000
0.345286 0.000000 0.000000
0.443229 0.000000 0.000000
0.542612 0.000000 0.000000
0.633198 0.000000 0.000000
0.726268 0.000000 0.000000
0.826944 0.000000 0.021939
0.906201 0.000000 0.059101
0.966318 0.000000 0.092498
1.000000 0.000000 0.130610
1.000000 0.221545 0.179378
1.000000 0.332334 0.231586
1.000000 0.433148 0.287271
1.000000 0.526946 0.355080
1.000000 0.612034 0.434482
1.000000 0.686649 0.508973
1.000000 0.748995 0.582984
1.000000 0.806497 0.661720
0.000000 0.000000 0.000000
0.000000 0.000000 0.000000
0.000000 0.000000 0.000000
0.000000 0.000000 0.000000
0.000000 0.000000 0.000000
0.000000 0.000000 0.000000
0.000000 0.000000 0.000000
0.000000 0.000000 0.000000
0.000000 0.000000 0.000000
0.000000 0.000000 0.000000
0.048004 0.000000 0.000000
0.077077 0.000000 0.000000
0.114256 0.000000 0.000000
0.155380 0.000000 0.000000
0.214788 0.000000 0.000000
0.283911 0.000000 0.000000
0.357669 0.000000 0.000000
0.452843 0.000000 0.000000
0.549687 0.000000 0.000000
0.638409 0.000000 0.000000
0.730491 0.000000 0.000000
0.829803 0.000000 0.020231
0.908041 0.000000 0.058927
0.967082 0.000000 0.092536
1.000000 0.000000 0.131029
1.000000 0.225805 0.179714
1.000000 0.334392 0.231752
1.000000 0.434762 0.287606
1.000000 0.528207 0.355353
1.000000 0.612755 0.434608
1.000000 0.687118 0.509084
1.000000 0.749264 0.583070
1.000000 0.806654 0.661790
0.000000 0.000000 0.000000
0.000000 0.000000 0.000000
0.000000 0.000000 0.000000
0.000000 0.000000 0.000000
0.000000 0.000000 0.000000
0.000000 0.000000 0.000000
0.000000 0.000000 0.000000
0.000000 0.000000 0.000000
0.000000 0.000000 0.000000
0.029627 0.000000 0.000000
0.063690 0.000000 0.000000
0.093171 0.000000 0.000000
0.128917 0.000000 0.000000
0.169733 0.000000 0.000000
0.233674 0.000000 0.000000
0.297365 0.000000 0.000000
0.369783 0.000000 0.000000
0.460630 0.000000 0.000000
0.556471 0.000000 0.000000
0.643692 0.000000 0.000000
0.734612 0.000000 0.000000
0.832567 0.000000 0.018202
0.909295 0.000000 0.058803
0.967894 0.000000 0.092640
1.000000 0.000000 0.131308
1.000000 0.230561 0.180053
1.000000 0.336588 0.231905
1.000000 0.436371 0.287941
1.000000 0.529463 0.355624
1.000000 0.613476 0.434733
1.000000 0.687589 0.509196
1.000000 0.749536 0.583158
1.000000 0.806811 0.661860
0.000000 0.000000 0.000000
0.000000 0.000000 0.000000
0.000000 0.000000 0.000000
0.000000 0.000000 0.000000
0.000000 0.000000 0.000000
0.000000 0.000000 0.000000
0.000000 0.000000 0.000000
0.000000 0.000000 0.000000
0.014625 0.000000 0.000000
0.053823 0.000000 0.000000
0.079081 0.000000 0.000000
0.110896 0.000000 0.000000
0.143906 0.000000 0.000000
0.187508 0.000000 0.000000
0.249516 0.000000 0.000000
0.311923 0.000000 0.000000
0.382113 0.000000 0.000000
0.468107 0.000000 0.000000
0.562994 0.000000 0.000000
0.649117 0.000000 0.000000
0.738673 0.000000 0.000000
0.835421 0.000000 0.015071
0.910520 0.000000 0.058662
0.968563 0.000000 0.092666
1.000000 0.000000 0.131492
1.000000 0.235258 0.180386
1.000000 0.338768 0.232056
1.000000 0.437972 0.288276
1.000000 0.530715 0.355895
1.000000 0.614194 0.434857
1.000000 0.688057 0.509308
1.000000 0.749805 0.583245
1.000000 0.806969 0.661929
0.000000 0.000000 0.000000
0.000000 0.000000 0.000000
0.000000 0.000000 0.000000
0.000000 0.000000 0.000000
0.000000 0.000000 0.000000
0.000000 0.000000 0.000000
0.000000 0.000000 0.000000
0.027198 0.000000 0.000000
0.054094 0.000000 0.000000
0.072551 0.000000 0.000000
0.097920 0.000000 0.000000
0.125793 0.000000 0.000000
0.159920 0.000000 0.000000
0.205118 0.000000 0.000000
0.262971 0.000000 0.000000
0.326114 0.000000 0.000000
0.393747 0.000000 0.000000
0.475329 0.000000 0.000000
0.569290 0.000000 0.000000
0.654465 0.000000 0.000000
0.742603 0.000000 0.000000
0.838210 0.000000 0.010133
0.911714 0.000000 0.058498
0.969218 0.000000 0.092680
1.000000 0.056980 0.131826
1.000000 0.239871 0.180717
1.000000 0.341156 0.232330
1.000000 0.439565 0.288609
1.000000 0.531963 0.356166
1.000000 0.614912 0.434981
1.000000 0.688524 0.509421
1.000000 0.750074 0.583329
1.000000 0.807125 0.661999
0.000000 0.000000 0.000000
0.000000 0.000000 0.000000
0.000000 0.000000 0.000000
0.000000 0.000000 0.000000
0.000000 0.000000 0.000000
0.000000 0.000000 0.000000
0.023658 0.000000 0.000000
0.051769 0.000000 0.000000
0.070369 0.000000 0.000000
0.096465 0.000000 0.000000
0.118542 0.000000 0.000000
0.141357 0.000000 0.000000
0.175879 0.000000 0.000000
0.220987 0.000000 0.000000
0.276227 0.000000 0.000000
0.337622 0.000000 0.000000
0.404270 0.000000 0.000000
0.482336 0.000000 0.000000
0.575386 0.000000 0.000000
0.659680 0.000000 0.000000
0.746448 0.000000 0.000000
0.840447 0.000000 0.000000
0.912885 0.000000 0.058315
0.969859 0.000000 0.092684
1.000000 0.078648 0.132222
1.000000 0.244408 0.181043
1.000000 0.343745 0.232725
1.000000 0.441151 0.288943
1.000000 0.533207 0.356438
1.000000 0.615627 0.435105
1.000000 0.688989 0.509531
1.000000 0.750342 0.583415
1.000000 0.807280 0.662067
0.000000 0.000000 0.000000
0.000000 0.000599 0.000000
0.000000 0.006646 0.000000
0.000000 0.015680 0.000000
0.000000 0.022877 0.000000
0.000000 0.029521 0.000000
0.038170 0.031356 0.000000
0.058249 0.032000 0.000000
0.080781 0.029025 0.000000
0.110584 0.000000 0.000000
0.140765 0.000000 0.000000
0.167250 0.000000 0.000000
0.197595 0.000000 0.000000
0.238548 0.000000 0.000000
0.293233 0.000000 0.000000
0.347819 0.000000 0.000000
0.416160 0.000000 0.000000
0.491121 0.000000 0.000000
0.582896 0.000000 0.000000
0.665806 0.000000 0.000000
0.751148 0.000000 0.000000
0.842738 0.000000 0.000000
0.914318 0.000000 0.058054
0.970642 0.000000 0.092672
1.000000 0.097726 0.132709
1.000000 0.250013 0.181244
1.000000 0.346957 0.233217
1.000000 0.443127 0.289358
1.000000 0.534760 0.356776
1.000000 0.616518 0.435260
1.000000 0.689570 0.509670
1.000000 0.750679 0.583524
1.000000 0.807478 0.662157
0.000000 0.031858 0.000000
0.000000 0.033919 0.000000
0.000000 0.037232 0.000000
0.000000 0.042431 0.000000
0.000000 0.047239 0.000000
0.000000 0.050142 0.000000
0.043994 0.051130 0.000000
0.065659 0.050326 0.000000
0.092523 0.048548 0.000000
0.128115 0.040682 0.000000
0.161294 0.021446 0.000000
0.196359 0.000000 0.000000
0.228973 0.000000 0.000000
0.265344 0.000000 0.000000
0.314067 0.000000 0.000000
0.364244 0.000000 0.000000
0.430034 0.000000 0.000000
0.502680 0.000000 0.000000
0.593327 0.000000 0.000000
0.673892 0.000000 0.000000
0.757547 0.000000 0.000000
0.845855 0.000000 0.000000
0.916270 0.000000 0.057631
0.971704 0.000000 0.092627
1.000000 0.118288 0.133376
1.000000 0.257705 0.181493
1.000000 0.351302 0.233816
1.000000 0.445881 0.289940
1.000000 0.536926 0.357250
1.000000 0.617859 0.435557
1.000000 0.690383 0.509865
1.000000 0.751146 0.583675
1.000000 0.807750 0.662279
0.000000 0.052552 0.000000
0.000000 0.054503 0.000000
0.000000 0.057507 0.000000
0.000000 0.061297 0.000000
0.000000 0.067229 0.000000
0.000000 0.071044 0.000000
0.040319 0.073469 0.000000
0.071275 0.073213 0.000000
0.103962 0.071445 0.000000
0.144048 0.068330 0.000000
0.183322 0.060051 0.000000
0.220177 0.041750 0.000000
0.258794 0.000000 0.000000
0.296031 0.000000 0.000000
0.338962 0.000000 0.000000
0.383441 0.000000 0.000000
0.446726 0.000000 0.000000
0.518235 0.000000 0.000000
0.605853 0.000000 0.000000
0.684067 0.000000 0.000000
0.765330 0.000000 0.000000
0.849847 0.000000 0.000000
0.918759 0.000000 0.056958
0.973051 0.000000 0.092529
1.000000 0.140076 0.134233
1.000000 0.267570 0.181808
1.000000 0.357171 0.234374
1.000000 0.449496 0.290709
1.000000 0.539779 0.357877
1.000000 0.619935 0.436214
1.000000 0.691452 0.510123
1.000000 0.751764 0.583875
1.000000 0.808113 0.662439
0.000000 0.075152 0.000000
0.000000 0.078678 0.000000
0.000000 0.084647 0.000000
0.000000 0.089332 0.000000
0.000000 0.097071 0.000000
0.000000 0.100561 0.000000
0.000000 0.103833 0.000000
0.069384 0.105016 0.000000
0.112206 0.103546 0.000000
0.156785 0.102152 0.000000
0.204583 0.096770 0.000000
0.245639 0.090457 0.000000
0.286435 0.074388 0.000000
0.331120 0.046559 0.000000
0.378955 0.000000 0.000000
0.423105 0.000000 0.000000
0.469417 0.000000 0.000000
0.544076 0.000000 0.000000
0.619986 0.000000 0.000000
0.696371 0.000000 0.000000
0.774117 0.000000 0.000000
0.855013 0.000000 0.000000
0.921898 0.000000 0.055858
0.974732 0.000000 0.092319
1.000000 0.163896 0.135321
1.000000 0.280102 0.182206
1.000000 0.364800 0.235105
1.000000 0.454910 0.291446
1.000000 0.543528 0.358705
1.000000 0.622668 0.437081
1.000000 0.692861 0.510463
1.000000 0.752578 0.584139
1.000000 0.808590 0.662655
0.000000 0.107845 0.000000
0.000000 0.111721 0.000000
0.000000 0.119824 0.000000
0.000000 0.124479 0.000000
0.000000 0.131649 0.000000
0.000000 0.135950 0.000000
0.000000 0.139233 0.000000
0.055329 0.141817 0.000000
0.111687 0.141556 0.000000
0.167077 0.141060 0.000000
0.217792 0.135842 0.000000
0.264336 0.130067 0.000000
0.312653 0.123309 0.000000
0.360011 0.107743 0.000000
0.413906 0.087859 0.000000
0.462599 0.026273 0.000000
0.509082 0.000000 0.000000
0.568799 0.000000 0.000000
0.637308 0.000000 0.000000
0.708808 0.000000 0.000000
0.782871 0.000000 0.000000
0.861613 0.000000 0.000000
0.925798 0.000000 0.053988
0.976951 0.000000 0.092684
1.000000 0.190552 0.136680
1.000000 0.295907 0.182700
1.000000 0.374668 0.236062
1.000000 0.462065 0.292384
1.000000 0.548425 0.360079
1.000000 0.626261 0.438225
1.000000 0.694696 0.510913
1.000000 0.753647 0.584486
1.000000 0.809220 0.662937
0.000000 0.150675 0.000000
0.000000 0.158575 0.000000
0.000000 0.164165 0.000000
0.000000 0.170936 0.000000
0.000000 0.177932 0.000000
0.000000 0.182104 0.000000
0.000000 0.184052 0.000000
0.000000 0.187895 0.000000
0.105407 0.188840 0.000000
0.169528 0.187254 0.000000
0.218942 0.185270 0.000000
0.276680 0.176631 0.000000
0.332029 0.169075 0.000000
0.389609 0.163757 0.000000
0.448570 0.150524 0.000000
0.493334 0.143904 0.000000
0.549917 0.118226 0.000000
0.605222 0.067223 0.000000
0.663722 0.000000 0.000000
0.728389 0.000000 0.000000
0.796293 0.000000 0.000000
0.869385 0.000000 0.000000
0.930697 0.000000 0.050225
0.979765 0.107782 0.093556
1.000000 0.220987 0.138340
1.000000 0.315688 0.183301
1.000000 0.387357 0.237308
1.000000 0.471348 0.293805
1.000000 0.554812 0.362067
1.000000 0.630983 0.439537
1.000000 0.697002 0.511509
1.000000 0.755050 0.584945
1.000000 0.810048 0.663309
0.000000 0.209477 0.000000
0.000000 0.213650 0.000000
0.000000 0.220283 0.000000
0.000000 0.226192 0.000000
0.000000 0.229720 0.000000
0.000000 0.233187 0.000000
0.000000 0.237160 0.000000
0.000000 0.240279 0.000000
0.081874 0.238654 0.000000
0.156078 0.240325 0.000000
0.215774 0.239074 0.000000
0.282056 0.232792 0.000000
0.345682 0.222969 0.000000
0.410739 0.216965 0.000000
0.474561 0.213627 0.000000
0.531607 0.207332 0.000000
0.584801 0.202065 0.000000
0.645648 0.178202 0.000000
0.702493 0.142552 0.000000
0.752310 0.070502 0.000000
0.815941 0.000000 0.000000
0.880040 0.000000 0.000000
0.937584 0.086251 0.044010
0.984290 0.176052 0.093773
1.000000 0.256556 0.139036
1.000000 0.338758 0.184181
1.000000 0.403569 0.238905
1.000000 0.483305 0.296221
1.000000 0.563128 0.364674
1.000000 0.637136 0.441003
1.000000 0.700261 0.512424
1.000000 0.756883 0.585549
1.000000 0.811349 0.664169
0.000000 0.281026 0.000000
0.000000 0.284847 0.000000
0.000000 0.288072 0.000000
0.000000 0.291167 0.000000
0.000000 0.294354 0.000000
0.000000 0.297581 0.000000
0.000000 0.301295 0.000000
0.000000 0.305678 0.000000
0.000000 0.307473 0.000000
0.114168 0.310504 0.000000
0.203269 0.308712 0.000000
0.278168 0.304051 0.000000
0.348601 0.296015 0.000000
0.430559 0.288762 0.000000
0.503216 0.284346 0.000000
0.566299 0.282730 0.000000
0.625864 0.284592 0.000000
0.681226 0.278861 0.000000
0.737490 0.259886 0.000000
0.789966 0.226530 0.000000
0.836640 0.184484 0.000000
0.896641 0.161897 0.000000
0.947781 0.190957 0.030130
0.989785 0.240516 0.093118
1.000000 0.297691 0.139145
1.000000 0.366107 0.185385
1.000000 0.424130 0.240979
1.000000 0.498676 0.299398
1.000000 0.573898 0.368083
1.000000 0.645069 0.442933
1.000000 0.705293 0.514183
1.000000 0.759339 0.586344
1.000000 0.813221 0.665584
0.000000 0.350444 0.000000
0.000000 0.355547 0.000000
0.000000 0.361095 0.000000
0.000000 0.366395 0.000000
0.000000 0.369286 0.000000
0.000000 0.372216 0.000000
0.000000 0.375782 0.000000
0.000000 0.378619 0.000000
0.000000 0.378407 0.000000
0.000000 0.383550 0.000000
0.149667 0.384905 0.000000
0.254269 0.380875 0.000000
0.337510 0.375240 0.000000
0.432432 0.365032 0.000000
0.513220 0.358649 0.000000
0.583917 0.357159 0.000000
0.645444 0.365548 0.000000
0.716930 0.375186 0.000000
0.771532 0.369664 0.000000
0.819088 0.345681 0.000000
0.865893 0.313982 0.000000
0.913196 0.275492 0.000000
0.957717 0.278123 0.000000
0.995173 0.304434 0.087522
1.000000 0.343878 0.139163
1.000000 0.396692 0.186811
1.000000 0.450008 0.243668
1.000000 0.518222 0.303579
1.000000 0.587814 0.371849
1.000000 0.655208 0.445475
1.000000 0.711755 0.516495
1.000000 0.763668 0.588566
1.000000 0.815709 0.667471
0.000000 0.435838 0.000000
0.000000 0.440415 0.000000
0.000000 0.444841 0.000000
0.000000 0.449199 0.000000
0.000000 0.452551 0.000000
0.000000 0.454893 0.000000
0.000000 0.457929 0.000000
0.000000 0.461868 0.000000
0.000000 0.464210 0.000000
0.000000 0.463737 0.000000
0.000000 0.466445 0.000000
0.176343 0.469986 0.000000
0.306456 0.465011 0.000000
0.418172 0.459418 0.000000
0.504277 0.455398 0.000000
0.589584 0.442228 0.000000
0.656939 0.440277 0.000000
0.730258 0.453821 0.000000
0.794653 0.459778 0.000000
0.840673 0.449880 0.000000
0.886408 0.430422 0.000000
0.929947 0.403706 0.000000
0.964050 0.363519 0.000000
0.998237 0.366968 0.079459
1.000000 0.392710 0.139339
1.000000 0.432999 0.188523
1.000000 0.481828 0.247875
1.000000 0.541314 0.309224
1.000000 0.605644 0.376091
1.000000 0.668023 0.448818
1.000000 0.719979 0.519538
1.000000 0.769439 0.591843
1.000000 0.819130 0.669881
0.000000 0.531276 0.000000
0.000000 0.534842 0.000000
0.000000 0.538335 0.000000
0.000000 0.541790 0.000000
0.000000 0.544781 0.000000
0.000000 0.546650 0.000000
0.000000 0.548996 0.000000
0.000000 0.552281 0.000000
0.000000 0.555903 0.000000
0.000000 0.559947 0.000000
0.000000 0.562475 0.000000
0.000000 0.561166 0.000000
0.271393 0.562106 0.000000
0.384317 0.561453 0.000000
0.480518 0.553145 0.000000
0.576791 0.543581 0.000000
0.660361 0.534407 0.000000
0.743347 0.533578 0.000000
0.805031 0.542106 0.000000
0.860399 0.548578 0.000000
0.899719 0.537601 0.000000
0.938653 0.513224 0.000000
0.969350 0.486349 0.000000
1.000000 0.452463 0.060038
1.000000 0.457232 0.137992
1.000000 0.478774 0.190917
1.000000 0.525327 0.255831
1.000000 0.573157 0.316062
1.000000 0.628245 0.381597
1.000000 0.684000 0.453215
1.000000 0.730313 0.523532
1.000000 0.776707 0.596145
1.000000 0.823213 0.672484
0.000000 0.618918 0.000000
0.000000 0.621213 0.000000
0.000000 0.622566 0.000000
0.000000 0.623905 0.000000
0.000000 0.625233 0.000000
0.000000 0.627598 0.000000
0.000000 0.630646 0.000000
0.000000 0.633223 0.000000
0.000000 0.636174 0.000000
0.000000 0.639563 0.000000
0.000000 0.643380 0.000000
0.000000 0.647477 0.000000
0.220447 0.648369 0.000000
0.350629 0.649628 0.000000
0.447942 0.651350 0.000000
0.544455 0.645391 0.000000
0.647964 0.634537 0.000000
0.739180 0.626674 0.000000
0.807068 0.622081 0.000000
0.859598 0.633129 0.000000
0.902292 0.642429 0.000000
0.940928 0.621670 0.000000
0.970720 0.605622 0.000000
0.998135 0.576055 0.000000
1.000000 0.545716 0.134875
1.000000 0.546600 0.194811
1.000000 0.576600 0.266237
1.000000 0.610439 0.324056
1.000000 0.656125 0.389990
1.000000 0.702696 0.459040
1.000000 0.743085 0.528764
1.000000 0.785722 0.601774
1.000000 0.828408 0.675871
0.000000 0.700541 0.000000
0.000000 0.701438 0.000000
0.000000 0.702307 0.000000
0.000000 0.703166 0.000000
0.000000 0.704017 0.000000
0.000000 0.704841 0.000000
0.000000 0.705845 0.000000
0.000000 0.707245 0.000000
0.000000 0.709100 0.000000
0.000000 0.711509 0.000000
0.000000 0.714366 0.000000
0.000000 0.717650 0.000000
0.206884 0.721105 0.000000
0.326046 0.724576 0.000000
0.432544 0.727913 0.000000
0.535090 0.723889 0.000000
0.634170 0.720200 0.000000
0.722492 0.716301 0.000000
0.796456 0.702082 0.000000
0.854185 0.702950 0.000000
0.897607 0.706287 0.000000
0.938786 0.709978 0.000000
0.966524 0.701316 0.000000
0.990622 0.682149 0.000000
1.000000 0.662055 0.135180
1.000000 0.628160 0.201601
1.000000 0.630878 0.274653
1.000000 0.655108 0.333799
1.000000 0.687974 0.399276
1.000000 0.722855 0.466045
1.000000 0.759281 0.536644
1.000000 0.796900 0.609100
1.000000 0.834937 0.680251
0.000000 0.772002 0.000000
0.000000 0.772498 0.000000
0.000000 0.772987 0.000000
0.000000 0.773469 0.000000
0.000000 0.773944 0.000000
0.000000 0.774420 0.000000
0.000000 0.775015 0.000000
0.000000 0.775836 0.000000
0.000000 0.776959 0.000000
0.000000 0.778438 0.000000
0.000000 0.780223 0.000000
0.000000 0.782207 0.000000
0.240632 0.784344 0.000000
0.345167 0.786729 0.000000
0.439389 0.789273 0.000000
0.526429 0.791355 0.000000
0.624698 0.786687 0.000000
0.715527 0.781198 0.000000
0.789914 0.775483 0.000000
0.843613 0.767629 0.000000
0.892483 0.766033 0.000000
0.932683 0.771445 0.000000
0.959767 0.775430 0.000000
0.982963 0.762477 0.000000
1.000000 0.746644 0.151609
1.000000 0.727615 0.221032
1.000000 0.695741 0.287907
1.000000 0.703002 0.348118
1.000000 0.720208 0.410749
1.000000 0.746006 0.475061
1.000000 0.779501 0.548861
1.000000 0.810512 0.618595
1.000000 0.843013 0.685882
0.000000 0.832519 0.000000
0.000000 0.833071 0.000000
0.000000 0.833616 0.000000
0.000000 0.834156 0.000000
0.000000 0.834691 0.000000
0.000000 0.834990 0.000000
0.000000 0.835256 0.000000
0.000000 0.835622 0.000000
0.000000 0.836099 0.000000
0.000000 0.836718 0.000000
0.000000 0.837519 0.000000
0.212721 0.838458 0.000000
0.307758 0.839519 0.000000
0.384488 0.840707 0.000000
0.462729 0.841853 0.000000
0.552688 0.841181 0.000000
0.641904 0.838873 0.000000
0.714148 0.837085 0.000000
0.774369 0.834997 0.000000
0.832859 0.829907 0.000000
0.884557 0.823136 0.000000
0.926342 0.821202 0.000000
0.951726 0.826420 0.000000
0.977578 0.824805 0.008556
0.997394 0.814795 0.187172
1.000000 0.803671 0.255241
1.000000 0.780608 0.320028
1.000000 0.761198 0.371001
1.000000 0.761802 0.427050
1.000000 0.777508 0.491764
1.000000 0.802607 0.564796
1.000000 0.825699 0.628967
1.000000 0.852802 0.693066
0.000000 0.873043 0.098911
0.000000 0.873158 0.096889
0.000000 0.873272 0.094827
0.000000 0.873384 0.092719
0.000000 0.873496 0.090558
0.000000 0.873605 0.088338
0.107297 0.873741 0.085480
0.160023 0.874001 0.081250
0.205891 0.874218 0.075262
0.248839 0.874528 0.066236
0.294753 0.874956 0.056620
0.345399 0.875534 0.048563
0.398717 0.876196 0.034252
0.454333 0.876821 0.000000
0.522194 0.877226 0.000000
0.597067 0.877441 0.000000
0.664063 0.876311 0.000000
0.719565 0.876954 0.000000
0.778669 0.875318 0.000000
0.828713 0.871806 0.000000
0.874932 0.867826 0.000000
0.917880 0.863424 0.000000
0.945894 0.864470 0.000000
0.971610 0.864733 0.068237
0.993044 0.865025 0.223462
1.000000 0.858865 0.298864
1.000000 0.845347 0.362936
1.000000 0.833180 0.416142
1.000000 0.813479 0.459271
1.000000 0.814353 0.517464
1.000000 0.828223 0.583500
1.000000 0.842651 0.640913
1.000000 0.864406 0.702180
0.320194 0.905139 0.248053
0.327526 0.905172 0.247490
0.334661 0.905204 0.246929
0.341612 0.905236 0.246371
0.348398 0.905267 0.245814
0.355030 0.905298 0.245259
0.363127 0.905335 0.244568
0.374146 0.905386 0.243602
0.388207 0.905450 0.242331
0.406058 0.905550 0.241609
0.428576 0.905680 0.241030
0.456882 0.905838 0.240300
0.494861 0.905950 0.238190
0.540700 0.905965 0.234361
0.592168 0.905890 0.227532
0.646414 0.905764 0.218089
0.694694 0.905847 0.210445
0.736550 0.906211 0.205217
0.782143 0.904892 0.190828
0.828096 0.902502 0.164342
0.873548 0.901541 0.129549
0.911311 0.898568 0.072743
0.940916 0.895819 0.000000
0.966012 0.893605 0.098634
0.986648 0.894994 0.244163
1.000000 0.895610 0.340074
1.000000 0.886729 0.400641
1.000000 0.879485 0.457224
1.000000 0.867458 0.502509
1.000000 0.852972 0.547670
1.000000 0.854719 0.603312
1.000000 0.861930 0.656588
1.000000 0.876049 0.714447
0.487144 0.929263 0.363138
0.491309 0.929309 0.362583
0.495425 0.929355 0.362030
0.499489 0.929401 0.361480
0.503508 0.929447 0.360931
0.507480 0.929492 0.360386
0.512386 0.929549 0.359705
0.519157 0.929629 0.358757
0.527982 0.929696 0.357651
0.539527 0.929642 0.356723
0.553780 0.929589 0.355503
0.571725 0.929528 0.353913
0.594451 0.929451 0.351855
0.622662 0.929360 0.349219
0.652156 0.928734 0.345252
0.685472 0.928443 0.340760
0.723028 0.928413 0.335924
0.760484 0.928516 0.333080
0.798073 0.927337 0.324869
0.837707 0.926935 0.315245
0.873670 0.926542 0.300419
0.905248 0.924541 0.278200
0.935453 0.922010 0.253716
0.960934 0.918587 0.216527
0.981614 0.918606 0.262303
0.999437 0.919575 0.358588
1.000000 0.917497 0.442745
1.000000 0.910118 0.496059
1.000000 0.904444 0.547558
1.000000 0.893333 0.590492
1.000000 0.883643 0.631199
1.000000 0.883283 0.677047
1.000000 0.889412 0.729535
0.618267 0.948995 0.461121
0.620381 0.949024 0.460780
0.622479 0.949054 0.460442
0.624564 0.949084 0.460104
0.626633 0.949114 0.459769
0.628689 0.949145 0.459434
0.631057 0.949156 0.459242
0.634208 0.949153 0.459144
0.638335 0.949151 0.459016
0.643721 0.949147 0.458851
0.650718 0.949144 0.458639
0.659772 0.949129 0.458317
0.671644 0.948784 0.456553
0.686816 0.948336 0.454248
0.705765 0.947769 0.451255
0.727591 0.947153 0.447569
0.753870 0.947158 0.445235
0.782267 0.947240 0.444672
0.812061 0.947347 0.441853
0.845433 0.947359 0.432202
0.877140 0.947442 0.422483
0.905874 0.945735 0.413186
0.930442 0.943767 0.393484
0.955184 0.941482 0.369247
0.977164 0.940186 0.342629
0.995796 0.939459 0.378992
1.000000 0.939197 0.469602
1.000000 0.937176 0.541557
1.000000 0.932988 0.589962
1.000000 0.926025 0.634337
1.000000 0.915932 0.673797
1.000000 0.908000 0.705860
1.000000 0.907199 0.746656
0.700810 0.965700 0.570100
0.701863 0.965693 0.570082
0.702911 0.965686 0.570063
0.703954 0.965680 0.570045
0.704991 0.965673 0.570027
0.706025 0.965667 0.570009
0.707310 0.965659 0.569987
0.709099 0.965649 0.569957
0.711448 0.965635 0.569917
0.714520 0.965618 0.569868
0.718524 0.965597 0.569805
0.723703 0.965571 0.569570
0.730439 0.965531 0.568672
0.740331 0.965452 0.567705
0.753326 0.965349 0.566513
0.769696 0.965233 0.564964
0.788637 0.965143 0.562901
0.810084 0.965099 0.559594
0.832399 0.965091 0.552865
0.855789 0.965144 0.544894
0.881295 0.965357 0.543322
0.906166 0.965609 0.541723
0.928194 0.964285 0.527034
0.950090 0.962497 0.506441
0.971011 0.960617 0.486634
0.991804 0.958300 0.455203
1.000000 0.957319 0.491324
