Assets/Lutify-Free-LUTs-Pack/Lutify Free LUTs Pack/Print Film Pro - Print Film 2/Lutify.me-PrintFilm2-RWG-to-RWG.cube
# Created with: fylm.ai - Colour Grading and Collaboration Software in Cloud 
# Website: https://fylm.ai 
# META
# Option: Gamut compress
# Block 1: colourMatch | Blending Mode: Normal | {"ColorSpace":0,"CrossCovarianceLimit":50,"ReshapingIterations":1,"PercentSaturationShift":100,"PercentShadingShift":100,"ExtraShading":true,"PercentTint":100,"PercentModified":100}
# Block 2: HSL | Blending Mode: Normal | {"hue":{"Reds":0,"Yellows":0,"Greens":0,"Cyans":0,"Blues":0,"Magentas":0},"saturation":{"Reds":1,"Yellows":0.9,"Greens":0.95,"Cyans":1,"Blues":1,"Magentas":1},"luminance":{"Reds":0.8,"Yellows":0.95,"Greens":0.9,"Cyans":0.8,"Blues":0.8,"Magentas":0.8},"lum_sat":{"Blacks":1,"Shadows":1,"Midtones":1,"Highlights":1,"Whites":1},"sat_sat":{"10":1,"20":1,"30":1,"40":1,"50":1}}
# Block 3: LUT | Filmic Curve Response: Low Contrast 2 (100%)
TITLE "ipp2" 
LUT_3D_SIZE 33
0.070015 0.070015 0.070015
0.070015 0.070015 0.070015
0.070015 0.070015 0.070015
0.070205 0.070120 0.070122
0.071292 0.070375 0.070175
0.079730 0.072133 0.071255
0.090506 0.073701 0.072340
0.106812 0.075466 0.073826
0.126008 0.078029 0.075963
0.153094 0.082627 0.079730
0.192867 0.091115 0.086990
0.241043 0.104597 0.099423
0.283373 0.121114 0.114451
0.321598 0.141804 0.133031
0.358033 0.162721 0.154275
0.387926 0.188925 0.175921
0.417734 0.217290 0.200742
0.448155 0.246242 0.226309
0.474956 0.275809 0.251102
0.502506 0.304999 0.277891
0.530324 0.334976 0.305493
0.559178 0.362455 0.333010
0.588786 0.390778 0.362661
0.618916 0.419549 0.393089
0.650498 0.445803 0.422316
0.685478 0.473668 0.454024
0.718903 0.502470 0.485711
0.755859 0.530267 0.518654
0.793754 0.560772 0.552302
0.830755 0.589424 0.585360
0.845479 0.617351 0.606775
0.862516 0.650788 0.631233
0.878451 0.682694 0.655603
0.070015 0.070015 0.070015
0.070015 0.070015 0.070015
0.070015 0.070015 0.070015
0.070293 0.070168 0.070171
0.071891 0.070706 0.070424
0.081510 0.072870 0.071591
0.093496 0.074555 0.072648
0.110297 0.076245 0.074167
0.129566 0.079254 0.076450
0.160127 0.085217 0.081041
0.198219 0.093109 0.088193
0.245248 0.107314 0.100872
0.285997 0.123460 0.115719
0.323512 0.143328 0.133889
0.359193 0.164024 0.154779
0.388904 0.190288 0.176544
0.418004 0.218143 0.200953
0.448545 0.247059 0.226641
0.475283 0.276566 0.251409
0.502671 0.305563 0.278096
0.530432 0.335304 0.305612
0.559272 0.362705 0.333090
0.588865 0.390991 0.362736
0.618970 0.419666 0.393128
0.650543 0.445897 0.422354
0.685519 0.473747 0.454061
0.718938 0.502525 0.485739
0.755886 0.530305 0.518676
0.793770 0.560800 0.552315
0.830767 0.589445 0.585371
0.845488 0.617369 0.606784
0.862523 0.650801 0.631240
0.878458 0.682710 0.655613
0.070015 0.070015 0.070015
0.070015 0.070015 0.070015
0.070015 0.070015 0.070015
0.070178 0.070105 0.070107
0.073445 0.071527 0.070997
0.084229 0.073862 0.071957
0.098217 0.075770 0.073156
0.115628 0.077991 0.074863
0.135753 0.081681 0.077523
0.167391 0.088232 0.082566
0.206368 0.096358 0.090226
0.249725 0.110721 0.102506
0.289295 0.126948 0.117463
0.325609 0.145260 0.134843
0.360291 0.165744 0.155328
0.390303 0.192077 0.177424
0.418364 0.219402 0.201263
0.449126 0.248226 0.227122
0.475716 0.277517 0.251809
0.502898 0.306338 0.278375
0.530579 0.335763 0.305778
0.559402 0.363050 0.333200
0.588973 0.391283 0.362843
0.619043 0.419827 0.393182
0.650604 0.446026 0.422405
0.685576 0.473855 0.454110
0.718986 0.502598 0.485778
0.755923 0.530357 0.518706
0.793791 0.560838 0.552334
0.830783 0.589473 0.585386
0.845502 0.617393 0.606797
0.862532 0.650820 0.631249
0.878466 0.682727 0.655620
0.070547 0.070951 0.070619
0.070550 0.070980 0.070626
0.070913 0.071301 0.070821
0.072121 0.072397 0.071496
0.078711 0.075128 0.072596
0.090253 0.076995 0.073120
0.105344 0.078803 0.074378
0.124229 0.082504 0.076685
0.145802 0.086398 0.079556
0.178605 0.092550 0.084899
0.216132 0.103024 0.093568
0.256876 0.115187 0.105108
0.294630 0.130931 0.119669
0.327544 0.147673 0.135782
0.361718 0.168043 0.156044
0.392214 0.194415 0.178577
0.419494 0.221962 0.202235
0.449924 0.249824 0.227791
0.476300 0.278744 0.252337
0.503240 0.307402 0.278758
0.530782 0.336392 0.306005
0.559581 0.363522 0.333350
0.589124 0.391685 0.362991
0.619144 0.420048 0.393257
0.650688 0.446203 0.422476
0.685654 0.474004 0.454179
0.719055 0.502699 0.485833
0.755975 0.530429 0.518748
0.793820 0.560890 0.552359
0.830806 0.589512 0.585406
0.845521 0.617429 0.606815
0.862544 0.650843 0.631260
0.878475 0.682748 0.655630
0.074818 0.082387 0.074968
0.075365 0.082846 0.075029
0.076181 0.083458 0.075228
0.078242 0.084805 0.075729
0.089587 0.088519 0.077090
0.108019 0.092240 0.078778
0.124885 0.093913 0.080266
0.143348 0.094452 0.081785
0.164171 0.096023 0.084233
0.194275 0.101779 0.089558
0.228009 0.109760 0.097243
0.267931 0.122533 0.109593
0.299404 0.135449 0.122041
0.330925 0.151314 0.137503
0.363776 0.171725 0.157297
0.394518 0.198157 0.180275
0.421075 0.225478 0.203641
0.450777 0.251974 0.228588
0.477127 0.280558 0.253134
0.503787 0.308862 0.279282
0.531059 0.337255 0.306314
0.559827 0.364171 0.333571
0.589329 0.392238 0.363193
0.619282 0.420352 0.393358
0.650804 0.446447 0.422573
0.685762 0.474210 0.454273
0.719151 0.502838 0.485908
0.756046 0.530528 0.518805
0.793861 0.560963 0.552394
0.830838 0.589567 0.585436
0.845547 0.617475 0.606838
0.862563 0.650880 0.631279
0.878487 0.682775 0.655643
0.078147 0.097758 0.079056
0.079042 0.098380 0.079278
0.080502 0.099322 0.079581
0.084150 0.101061 0.080076
0.095762 0.106227 0.082345
0.119305 0.111489 0.085471
0.139140 0.114213 0.087921
0.166183 0.115609 0.090671
0.192738 0.116725 0.094033
0.218093 0.118806 0.098340
0.244588 0.121599 0.103973
0.277193 0.130822 0.114170
0.306052 0.141398 0.125513
0.336788 0.156827 0.140801
0.368623 0.178055 0.160336
0.395980 0.203283 0.181967
0.423198 0.230104 0.205415
0.451579 0.254824 0.229405
0.478211 0.283084 0.254207
0.504541 0.310851 0.279987
0.531439 0.338433 0.306731
0.560165 0.365063 0.333909
0.589613 0.392996 0.363469
0.619473 0.420769 0.393497
0.650963 0.446782 0.422707
0.685910 0.474493 0.454402
0.719283 0.503029 0.486013
0.756143 0.530663 0.518883
0.793917 0.561063 0.552442
0.830881 0.589642 0.585475
0.845582 0.617540 0.606871
0.862589 0.650930 0.631304
0.878507 0.682819 0.655663
0.081101 0.112652 0.083137
0.082172 0.113074 0.083337
0.084585 0.113802 0.083616
0.088840 0.116278 0.084727
0.100116 0.122274 0.087527
0.125204 0.128001 0.091349
0.150207 0.131236 0.094582
0.182049 0.133547 0.098592
0.210783 0.136204 0.103113
0.239399 0.137131 0.108015
0.266854 0.139880 0.114503
0.291806 0.142534 0.121490
0.316940 0.150194 0.131348
0.343850 0.165293 0.145242
0.373056 0.186147 0.163857
0.399515 0.208776 0.184328
0.425313 0.234534 0.206784
0.452854 0.259038 0.230698
0.478953 0.285626 0.254991
0.505441 0.313538 0.280864
0.531961 0.340107 0.307348
0.560626 0.366294 0.334390
0.590000 0.393996 0.363832
0.619734 0.421342 0.393686
0.651183 0.447244 0.422892
0.686113 0.474882 0.454579
0.719465 0.503293 0.486156
0.756278 0.530851 0.518991
0.793994 0.561201 0.552509
0.830940 0.589744 0.585529
0.845632 0.617630 0.606917
0.862622 0.650995 0.631335
0.878531 0.682873 0.655686
0.085179 0.129248 0.088603
0.087024 0.129971 0.088996
0.090110 0.131813 0.089885
0.094046 0.134972 0.091319
0.105642 0.141442 0.094584
0.129485 0.151011 0.100243
0.159494 0.155538 0.104434
0.194181 0.159882 0.109716
0.226810 0.163406 0.115546
0.256794 0.164129 0.120841
0.282752 0.166842 0.127355
0.310606 0.167167 0.134787
0.332822 0.170549 0.142873
0.353099 0.178876 0.152703
0.380192 0.195292 0.168876
0.404607 0.214856 0.187116
0.427720 0.240529 0.208582
0.455288 0.264861 0.233017
0.480187 0.289521 0.256297
0.507082 0.317198 0.282452
0.532673 0.342381 0.308180
0.561262 0.368069 0.335119
0.590532 0.395323 0.364313
0.620094 0.422126 0.393941
0.651484 0.447887 0.423160
0.686394 0.475417 0.454822
0.719715 0.503656 0.486352
0.756463 0.531108 0.519140
0.794100 0.561390 0.552600
0.831022 0.589887 0.585605
0.845699 0.617752 0.606979
0.862669 0.651087 0.631380
0.878567 0.682954 0.655726
0.090050 0.149758 0.096652
0.092240 0.152017 0.097680
0.095259 0.154155 0.098731
0.100796 0.159460 0.101412
0.112244 0.165370 0.104766
0.132158 0.175165 0.110531
0.163659 0.183463 0.116868
0.200502 0.187485 0.122279
0.236105 0.190303 0.128145
0.269347 0.194111 0.135506
0.297355 0.195041 0.141793
0.326457 0.197615 0.150473
0.349285 0.197567 0.157654
0.369359 0.196963 0.164814
0.390502 0.205730 0.176410
0.410987 0.224723 0.192133
0.433196 0.247939 0.212530
0.458888 0.272342 0.236073
0.482333 0.294956 0.258547
0.509283 0.321866 0.284475
0.534027 0.345450 0.309336
0.562128 0.370544 0.336130
0.591263 0.397235 0.365039
0.620586 0.423198 0.394283
0.651897 0.448767 0.423524
0.686779 0.476151 0.455154
0.720060 0.504154 0.486622
0.756719 0.531462 0.519344
0.794245 0.561651 0.552725
0.831135 0.590083 0.585709
0.845792 0.617921 0.607065
0.862735 0.651216 0.631443
0.878616 0.683062 0.655776
0.097488 0.176928 0.108865
0.099529 0.178692 0.109855
0.102475 0.180816 0.111084
0.109772 0.186712 0.114406
0.120398 0.192644 0.118015
0.138178 0.204126 0.125094
0.167043 0.213360 0.132146
0.206619 0.216069 0.137012
0.243982 0.221370 0.144231
0.277780 0.222946 0.150389
0.308334 0.226770 0.158481
0.337279 0.227815 0.166205
0.361057 0.229151 0.173924
0.383313 0.229054 0.181686
0.406268 0.229129 0.191129
0.421761 0.236199 0.200579
0.439895 0.256333 0.216722
0.462704 0.281081 0.239456
0.486733 0.304032 0.262900
0.511786 0.327541 0.286726
0.535967 0.349814 0.310984
0.563448 0.373577 0.337364
0.592258 0.399832 0.366011
0.621258 0.424659 0.394736
0.652464 0.449970 0.424016
0.687307 0.477156 0.455606
0.720535 0.504838 0.486991
0.757071 0.531949 0.519625
0.794446 0.562010 0.552897
0.831289 0.590351 0.585850
0.845920 0.618154 0.607184
0.862825 0.651391 0.631529
0.878684 0.683214 0.655848
0.107193 0.209357 0.125946
0.109330 0.211120 0.127038
0.114100 0.213428 0.128572
0.121621 0.219253 0.132239
0.133371 0.225994 0.136737
0.147920 0.233915 0.142408
0.170740 0.241083 0.148204
0.208924 0.247318 0.154893
0.250978 0.252391 0.162315
0.285405 0.255198 0.168796
0.314520 0.256511 0.174871
0.347633 0.260603 0.184692
0.372331 0.261434 0.192068
0.394157 0.259879 0.198536
0.417878 0.261059 0.208096
0.437388 0.260757 0.216669
0.452159 0.266683 0.225779
0.471382 0.291292 0.245586
0.491835 0.314700 0.267779
0.514129 0.334668 0.289642
0.538661 0.355673 0.313439
0.565366 0.377363 0.338896
0.593914 0.403052 0.367407
0.622178 0.426705 0.395377
0.653238 0.451611 0.424678
0.688032 0.478533 0.456224
0.721187 0.505775 0.487496
0.757512 0.532610 0.519978
0.794721 0.562502 0.553134
0.831503 0.590722 0.586047
0.846097 0.618475 0.607347
0.862950 0.651635 0.631649
0.878776 0.683419 0.655945
0.118992 0.240847 0.144951
0.123191 0.242742 0.146319
0.128684 0.245574 0.148372
0.135647 0.250722 0.151998
0.147777 0.259093 0.158088
0.160748 0.264935 0.162716
0.180000 0.270508 0.167541
0.209566 0.277350 0.174115
0.254102 0.280053 0.179867
0.290286 0.285629 0.187874
0.320512 0.286967 0.193535
0.353226 0.288677 0.201259
0.380137 0.292250 0.210169
0.403925 0.293632 0.218011
0.428467 0.292410 0.226056
0.448634 0.293495 0.234838
0.467874 0.292790 0.243370
0.485017 0.299579 0.254478
0.498729 0.324042 0.272453
0.517832 0.343909 0.293421
0.541847 0.362592 0.316167
0.568232 0.382589 0.341158
0.596494 0.407369 0.369455
0.623653 0.429932 0.396513
0.654294 0.453839 0.425563
0.689022 0.480436 0.457101
0.722085 0.507057 0.488183
0.758077 0.533509 0.520429
0.795101 0.563179 0.553457
0.831797 0.591230 0.586315
0.846339 0.618914 0.607570
0.863120 0.651966 0.631811
0.878902 0.683701 0.656074
0.136676 0.272778 0.166712
0.140106 0.274673 0.168169
0.145124 0.277384 0.170302
0.153513 0.281797 0.173788
0.162324 0.287011 0.177866
0.177085 0.293822 0.183578
0.193727 0.298776 0.188071
0.216398 0.304405 0.193517
0.254321 0.307413 0.198563
0.291825 0.311804 0.205484
0.325176 0.315185 0.212335
0.358533 0.316652 0.219253
0.385377 0.318086 0.226249
0.410875 0.321632 0.235342
0.437434 0.323174 0.244668
0.457711 0.321587 0.251315
0.478381 0.320456 0.259769
0.500176 0.321820 0.270864
0.514719 0.328239 0.280900
0.525612 0.354103 0.298929
0.545526 0.373161 0.320186
0.572216 0.391425 0.345102
0.599854 0.413131 0.372002
0.626067 0.434329 0.398260
0.655754 0.456803 0.426716
0.690373 0.483035 0.458286
0.723320 0.508806 0.489113
0.758854 0.534737 0.521038
0.795621 0.564106 0.553899
0.832200 0.591929 0.586683
0.846672 0.619520 0.607878
0.863354 0.652423 0.632033
0.879079 0.684096 0.656260
0.157702 0.306530 0.191974
0.161464 0.308613 0.193718
0.166758 0.311379 0.196048
0.173594 0.314562 0.198770
0.182410 0.317792 0.201609
0.196012 0.322929 0.206189
0.210405 0.326834 0.209967
0.229882 0.331289 0.214524
0.257924 0.335297 0.219483
0.292254 0.338807 0.225046
0.328743 0.342320 0.231836
0.362405 0.344251 0.238368
0.390288 0.345433 0.244549
0.415875 0.346770 0.251549
0.444735 0.351948 0.263081
0.466725 0.352020 0.270512
0.488013 0.350552 0.277839
0.510978 0.349677 0.287818
0.530460 0.348890 0.297338
0.544817 0.354617 0.307264
0.553803 0.385195 0.326944
0.578178 0.402689 0.350457
0.602955 0.420858 0.374876
0.629408 0.440168 0.400869
0.657984 0.460270 0.428115
0.692045 0.486135 0.459603
0.725016 0.511195 0.490376
0.759923 0.536412 0.521857
0.796334 0.565377 0.554499
0.832756 0.592887 0.587187
0.847132 0.620353 0.608299
0.863676 0.653051 0.632340
0.879319 0.684631 0.656509
0.182728 0.339664 0.218801
0.186129 0.341089 0.220081
0.191258 0.342874 0.221732
0.197458 0.345032 0.223734
0.206210 0.347599 0.226180
0.216611 0.350577 0.229038
0.228917 0.353901 0.232319
0.246439 0.357834 0.236434
0.268108 0.362471 0.241532
0.295074 0.367166 0.247286
0.328823 0.368963 0.251889
0.364170 0.370997 0.257911
0.394757 0.372643 0.264171
0.420706 0.373804 0.270251
0.449514 0.377016 0.279578
0.473813 0.380199 0.288999
0.497243 0.381006 0.297620
0.521017 0.380006 0.306587
0.542309 0.379366 0.316232
0.561889 0.378837 0.326194
0.577241 0.385279 0.337189
0.585095 0.414134 0.356056
0.607160 0.429208 0.378068
0.634049 0.447797 0.404381
0.661349 0.465259 0.430347
0.694886 0.490392 0.461616
0.727355 0.514474 0.492082
0.761451 0.538811 0.523050
0.797312 0.567115 0.555338
0.833517 0.594197 0.587873
0.847762 0.621492 0.608874
0.864120 0.653913 0.632758
0.879649 0.685367 0.656847
0.212501 0.370273 0.245148
0.215536 0.371184 0.246024
0.219100 0.372329 0.247117
0.223890 0.373740 0.248490
0.230861 0.375568 0.250313
0.239713 0.377803 0.252588
0.250137 0.380352 0.255234
0.264750 0.383556 0.258669
0.281771 0.386072 0.261749
0.303352 0.390164 0.266609
0.328416 0.392587 0.270627
0.363523 0.394509 0.275813
0.397111 0.396548 0.282057
0.425032 0.397971 0.288119
0.453624 0.399429 0.295488
0.478224 0.402410 0.303846
0.503561 0.404690 0.313452
0.530042 0.406892 0.324549
0.551961 0.406025 0.333372
0.573205 0.405561 0.343335
0.594234 0.405807 0.354878
0.613379 0.412945 0.368570
0.616636 0.443178 0.385499
0.638100 0.456490 0.407354
0.667005 0.473862 0.434454
0.698638 0.495708 0.464356
0.729988 0.518846 0.493968
0.763462 0.542073 0.524613
0.798712 0.569498 0.556586
0.834584 0.596029 0.588832
0.848625 0.623049 0.609656
0.864728 0.655094 0.633331
0.880106 0.686384 0.657319
0.242707 0.400093 0.271790
0.244825 0.400714 0.272416
0.248018 0.401553 0.273272
0.252427 0.402653 0.274401
0.258011 0.404049 0.275836
0.265102 0.405803 0.277669
0.275130 0.408036 0.280060
0.287290 0.410525 0.282806
0.300686 0.411562 0.284459
0.315635 0.414026 0.287518
0.336467 0.417398 0.291872
0.361208 0.418894 0.295303
0.396585 0.420842 0.300841
0.426812 0.422680 0.306789
0.457079 0.424163 0.313657
0.483065 0.425522 0.320744
0.508137 0.427057 0.328714
0.536676 0.431671 0.341022
0.561613 0.433420 0.351848
0.582822 0.432819 0.360929
0.605069 0.432533 0.371772
0.630294 0.433424 0.386278
0.648147 0.441041 0.399974
0.646985 0.469213 0.413734
0.672895 0.485652 0.439583
0.703845 0.503783 0.468373
0.734100 0.524778 0.497161
0.765923 0.545967 0.526551
0.800689 0.572385 0.558192
0.836174 0.598812 0.590300
0.849807 0.625176 0.610719
0.865561 0.656709 0.634110
0.880728 0.687769 0.657957
0.274639 0.428750 0.298199
0.276355 0.429194 0.298664
0.278891 0.429810 0.299313
0.282283 0.430627 0.300174
0.287058 0.431693 0.301336
0.293376 0.433058 0.302842
0.301133 0.434734 0.304685
0.309501 0.435927 0.306151
0.319621 0.437129 0.307776
0.332110 0.439982 0.310986
0.348561 0.442152 0.313996
0.368842 0.443881 0.317029
0.395504 0.445287 0.320682
0.426958 0.447084 0.325925
0.458084 0.449066 0.332365
0.485701 0.450374 0.338904
0.512606 0.451898 0.346593
0.540481 0.455349 0.357013
0.568568 0.459048 0.368831
0.594083 0.461097 0.380493
0.616660 0.460962 0.390923
0.642600 0.461821 0.404827
0.668123 0.463699 0.420401
0.685659 0.471818 0.434343
0.683004 0.499538 0.447007
0.710039 0.514342 0.473064
0.738214 0.532568 0.500555
0.769008 0.551902 0.529096
0.803396 0.576197 0.560343
0.838346 0.602683 0.592281
0.851373 0.628071 0.612144
0.866700 0.658909 0.635161
0.881581 0.689663 0.658826
0.306302 0.454169 0.322269
0.307913 0.454509 0.322648
0.309853 0.454948 0.323130
0.312392 0.455529 0.323768
0.315505 0.456291 0.324596
0.319354 0.457275 0.325659
0.324369 0.458536 0.327020
0.330824 0.460123 0.328748
0.339422 0.462096 0.330986
0.349779 0.464088 0.333340
0.362429 0.465260 0.335154
0.380810 0.466945 0.337938
0.402240 0.468358 0.340999
0.424600 0.469575 0.344281
0.456878 0.471498 0.350005
0.487375 0.473389 0.356495
0.514715 0.474678 0.363143
0.543754 0.476464 0.371953
0.571786 0.480106 0.383090
0.598643 0.483877 0.395024
0.627300 0.486552 0.408492
0.653549 0.487124 0.421760
0.681027 0.489105 0.437893
0.707293 0.492281 0.455216
0.726773 0.501578 0.470913
0.720415 0.527914 0.480432
0.746972 0.543593 0.506821
0.775391 0.560268 0.533593
0.807460 0.580684 0.563155
0.841299 0.607962 0.594981
0.853340 0.631778 0.613922
0.868253 0.661922 0.636617
0.882746 0.692267 0.660047
0.337452 0.481372 0.348299
0.338376 0.481603 0.348551
0.339586 0.481806 0.348789
0.341171 0.481958 0.348999
0.343352 0.482352 0.349456
0.346316 0.483099 0.350274
0.350173 0.484072 0.351341
0.355393 0.485327 0.352743
0.362427 0.486869 0.354531
0.369880 0.487599 0.355608
0.379354 0.488883 0.357302
0.395838 0.490604 0.359979
0.412652 0.492093 0.362537
0.430967 0.493072 0.365069
0.455201 0.493934 0.368425
0.487458 0.495899 0.374470
0.515970 0.497596 0.380758
0.547004 0.499194 0.388722
0.575572 0.501044 0.397764
0.602386 0.504782 0.409122
0.631781 0.509112 0.422963
0.664700 0.512798 0.439710
0.693233 0.514331 0.455249
0.718563 0.516590 0.470858
0.749107 0.521771 0.492307
0.771044 0.532486 0.510753
0.756795 0.556293 0.513340
0.783860 0.571510 0.540188
0.814413 0.588998 0.568465
0.845260 0.615008 0.598586
0.856062 0.636889 0.616392
0.870351 0.666011 0.638643
0.884329 0.695820 0.661732
0.365571 0.506204 0.372330
0.366147 0.506267 0.372414
0.366929 0.506353 0.372528
0.368044 0.506621 0.372825
0.369624 0.507052 0.373294
0.371929 0.507651 0.373949
0.374975 0.508442 0.374816
0.379234 0.509482 0.375995
0.384870 0.510824 0.377532
0.392362 0.512549 0.379522
0.401258 0.514649 0.381934
0.411559 0.516918 0.384631
0.425769 0.518381 0.386952
0.441765 0.519546 0.389218
0.461244 0.520478 0.391834
0.487060 0.519359 0.393814
0.515542 0.521120 0.399386
0.547837 0.522961 0.406773
0.578049 0.524602 0.414995
0.606711 0.526511 0.424396
0.636615 0.530581 0.437292
0.669657 0.535533 0.453754
0.703570 0.539978 0.472351
0.732027 0.542304 0.489105
0.763128 0.546937 0.510024
0.795407 0.554330 0.534202
0.814240 0.564607 0.550415
0.795906 0.587436 0.549613
0.822336 0.602161 0.575273
0.850606 0.624477 0.603631
0.859890 0.644218 0.619922
0.873171 0.671491 0.641382
0.886472 0.700618 0.663963
0.395687 0.536514 0.401739
0.396137 0.536639 0.401875
0.396751 0.536810 0.402061
0.397586 0.537043 0.402314
0.398891 0.537378 0.402683
0.400821 0.537849 0.403206
0.403399 0.538478 0.403905
0.406975 0.539315 0.404857
0.411676 0.540414 0.406132
0.417561 0.541826 0.407762
0.424512 0.543052 0.409278
0.432475 0.543936 0.410534
0.442815 0.545041 0.412239
0.454946 0.546339 0.414277
0.470238 0.547200 0.416252
0.491113 0.548381 0.419230
0.515003 0.549785 0.423212
0.547311 0.551859 0.429601
0.580192 0.553802 0.437290
0.609274 0.555483 0.445371
0.640035 0.557692 0.455761
0.673323 0.560745 0.469470
0.710671 0.565379 0.488238
0.745984 0.571096 0.509037
0.777651 0.574680 0.529019
0.811551 0.581368 0.553437
0.836399 0.587526 0.572691
0.848619 0.596299 0.583946
0.836693 0.620911 0.587416
0.857534 0.637131 0.610048
0.865026 0.654017 0.624502
0.876955 0.678886 0.644975
0.889700 0.707825 0.667463
0.426647 0.565610 0.430289
0.427037 0.565718 0.430407
0.427572 0.565864 0.430567
0.428302 0.566064 0.430787
0.429295 0.566337 0.431086
0.430620 0.566685 0.431471
0.432139 0.566881 0.431722
0.434375 0.567149 0.432091
0.437382 0.567504 0.432586
0.441311 0.567969 0.433234
0.446366 0.568569 0.434071
0.452673 0.569329 0.435126
0.460295 0.570273 0.436422
0.470400 0.571458 0.438217
0.484897 0.572576 0.440265
0.501708 0.573571 0.442592
0.520678 0.574684 0.445345
0.545282 0.576176 0.449607
0.580361 0.578436 0.456784
0.610456 0.580144 0.464057
0.642571 0.582145 0.473476
0.676164 0.584847 0.485684
0.714347 0.588950 0.502822
0.750924 0.594162 0.522557
0.788776 0.601371 0.546362
0.826449 0.607859 0.572118
0.851169 0.613492 0.590680
0.855480 0.613120 0.593603
0.858327 0.620105 0.597652
0.867036 0.654944 0.619038
0.871762 0.666985 0.630972
0.880499 0.686524 0.648125
0.894016 0.717496 0.672134
0.455011 0.592400 0.456694
0.455264 0.592475 0.456775
0.455611 0.592577 0.456887
0.456086 0.592716 0.457039
0.456734 0.592907 0.457248
0.457609 0.593145 0.457511
0.458755 0.593294 0.457708
0.460379 0.593497 0.457986
0.462549 0.593768 0.458359
0.465421 0.594128 0.458853
0.469174 0.594599 0.459499
0.474007 0.595207 0.460333
0.480295 0.596000 0.461420
0.489070 0.597089 0.462955
0.500231 0.598131 0.464702
0.513068 0.598910 0.466328
0.528974 0.599900 0.468618
0.548375 0.601081 0.471481
0.576317 0.602849 0.476450
0.609988 0.605091 0.483583
0.644112 0.607053 0.492095
0.677979 0.609379 0.502684
0.717340 0.612944 0.518092
0.755038 0.617489 0.536343
0.793320 0.623672 0.558425
0.838392 0.633837 0.588891
0.864815 0.638743 0.607745
0.865350 0.637437 0.607676
0.864382 0.635011 0.606284
0.868332 0.645801 0.612482
0.880770 0.685439 0.639812
0.887168 0.701507 0.654791
0.899509 0.730002 0.678324
0.484209 0.623994 0.487791
0.484375 0.624019 0.487822
0.484602 0.624053 0.487863
0.484913 0.624099 0.487921
0.485339 0.624162 0.488000
0.485922 0.624249 0.488107
0.486715 0.624367 0.488254
0.487789 0.624527 0.488452
0.489237 0.624743 0.488720
0.491764 0.625443 0.489514
0.495155 0.626401 0.490596
0.499593 0.627656 0.492013
0.505271 0.629272 0.493837
0.512244 0.630595 0.495460
0.520376 0.630351 0.495690
0.530642 0.629513 0.495646
0.543563 0.630304 0.497293
0.560055 0.631308 0.499641
0.582315 0.632642 0.502991
0.608787 0.634256 0.507660
0.644571 0.636555 0.515253
0.678683 0.638500 0.523937
0.719673 0.641480 0.537254
0.758731 0.645333 0.553668
0.797409 0.650474 0.573553
0.842021 0.658777 0.601084
0.873103 0.666005 0.622603
0.873024 0.664971 0.622192
0.872912 0.663520 0.621615
0.872656 0.660181 0.620288
0.873601 0.672378 0.625145
0.896544 0.723493 0.665448
0.907008 0.749304 0.688040
0.514937 0.656349 0.519782
0.515083 0.656399 0.519836
0.515284 0.656468 0.519909
0.515559 0.656562 0.520011
0.515937 0.656691 0.520150
0.516454 0.656868 0.520341
0.517159 0.657110 0.520601
0.518120 0.657439 0.520955
0.519422 0.657885 0.521435
0.521177 0.658486 0.522083
0.523484 0.659111 0.522779
0.526706 0.659605 0.523420
0.530933 0.660253 0.524261
0.536386 0.661089 0.525345
0.543079 0.661343 0.525952
0.550370 0.661682 0.526672
0.560157 0.662335 0.527960
0.574734 0.661777 0.528481
0.594242 0.661599 0.530049
0.615043 0.662928 0.533339
0.640581 0.664531 0.537891
0.677342 0.667002 0.545867
0.720717 0.669775 0.557746
0.761489 0.673197 0.572334
0.800532 0.677564 0.589855
0.845450 0.684470 0.614569
0.874833 0.690204 0.633227
0.874779 0.689401 0.632864
0.874703 0.688282 0.632357
0.874597 0.686712 0.631647
0.874447 0.684495 0.630642
