Assets/Lutify-Free-LUTs-Pack/Lutify Free LUTs Pack/Print Film Pro - Print Film 2/Lutify.me-PrintFilm2-SLog1-to-Rec709.cube
# Created with: fylm.ai - Colour Grading and Collaboration Software in Cloud 
# Website: https://fylm.ai 
# META
# Option: Gamut compress
# Block 1: IDT | Sony S-Log S-Gamut 10-bit
# Block 2: colourMatch | Blending Mode: Normal | {"ColorSpace":0,"CrossCovarianceLimit":50,"ReshapingIterations":1,"PercentSaturationShift":100,"PercentShadingShift":100,"ExtraShading":true,"PercentTint":100,"PercentModified":100}
# Block 3: HSL | Blending Mode: Normal | {"hue":{"Reds":0,"Yellows":0,"Greens":0,"Cyans":0,"Blues":0,"Magentas":0},"saturation":{"Reds":1,"Yellows":0.9,"Greens":0.95,"Cyans":1,"Blues":1,"Magentas":1},"luminance":{"Reds":0.8,"Yellows":0.95,"Greens":0.9,"Cyans":0.8,"Blues":0.8,"Magentas":0.8},"lum_sat":{"Blacks":1,"Shadows":1,"Midtones":1,"Highlights":1,"Whites":1},"sat_sat":{"10":1,"20":1,"30":1,"40":1,"50":1}}
# Block 4: LUT | Filmic Curve Response: Low Contrast 2 (100%)
# Block 5: ODT | Rec709
TITLE "Lutify.me-PrintFilm2-SLog1-to-Rec709" 
LUT_3D_SIZE 9
0.000000 0.000000 0.000000
0.000000 0.000000 0.000000
0.020627 0.000000 0.000000
0.163631 0.000000 0.000000
0.402533 0.000000 0.000000
0.680557 0.000000 0.009528
0.925139 0.000000 0.103027
1.000000 0.296349 0.238565
1.000000 0.557301 0.419771
0.000000 0.000000 0.000000
0.000000 0.000000 0.000000
0.114419 0.000000 0.000000
0.244970 0.000000 0.000000
0.444795 0.000000 0.000000
0.702543 0.000000 0.000000
0.930245 0.000000 0.104685
1.000000 0.312707 0.239761
1.000000 0.562276 0.420091
0.000000 0.066780 0.000000
0.000000 0.094834 0.000000
0.184492 0.109692 0.000000
0.352941 0.077357 0.000000
0.514657 0.000000 0.000000
0.733518 0.000000 0.000000
0.938539 0.000000 0.106805
1.000000 0.339800 0.242398
1.000000 0.571219 0.420663
0.000000 0.193582 0.000000
0.000000 0.242728 0.000000
0.000000 0.284973 0.000000
0.402334 0.274734 0.000000
0.625092 0.285468 0.000000
0.795124 0.220237 0.000000
0.953939 0.234094 0.108521
1.000000 0.393429 0.249977
1.000000 0.591320 0.424404
0.000000 0.393934 0.000000
0.000000 0.463044 0.000000
0.000000 0.503900 0.000000
0.215980 0.543496 0.000000
0.632555 0.532802 0.000000
0.854113 0.533488 0.000000
0.969804 0.484558 0.096871
1.000000 0.496688 0.264204
1.000000 0.639158 0.439990
0.000000 0.661219 0.011409
0.000000 0.697599 0.000000
0.000000 0.718785 0.000000
0.000000 0.747307 0.000000
0.507502 0.769370 0.000000
0.823813 0.756416 0.000000
0.955658 0.756508 0.102569
1.000000 0.720744 0.319558
1.000000 0.721115 0.469657
0.000000 0.855468 0.345927
0.000000 0.864356 0.342134
0.000000 0.872227 0.334853
0.000000 0.882780 0.303462
0.368329 0.887266 0.265239
0.762709 0.890099 0.245215
0.927996 0.883691 0.213464
0.994896 0.882422 0.434885
1.000000 0.858372 0.555178
0.000000 0.942267 0.603187
0.000000 0.944172 0.606184
0.000000 0.948053 0.608372
0.000000 0.951813 0.600965
0.416076 0.952844 0.580463
0.707232 0.950497 0.560280
0.890913 0.950977 0.554741
0.975797 0.947410 0.527348
1.000000 0.943976 0.675002
0.348325 0.988896 0.797502
0.384661 0.989140 0.797960
0.438812 0.989525 0.798775
0.521365 0.990145 0.800767
0.626588 0.989903 0.797335
0.731570 0.988946 0.789110
0.854938 0.987649 0.776752
0.948512 0.987452 0.777109
1.000000 0.984833 0.766246
0.000000 0.000000 0.000000
0.000000 0.000000 0.000000
0.041871 0.000000 0.000000
0.169607 0.000000 0.000000
0.411400 0.000000 0.015952
0.692451 0.000000 0.053956
0.926908 0.000000 0.123067
1.000000 0.297635 0.252771
1.000000 0.559205 0.428870
0.000000 0.000000 0.000000
0.000000 0.000000 0.000000
0.112376 0.000000 0.000000
0.242546 0.000000 0.000000
0.451681 0.000000 0.021734
0.705859 0.000000 0.055436
0.931171 0.000000 0.124906
1.000000 0.314064 0.254171
1.000000 0.564188 0.429199
0.000000 0.065882 0.030679
0.000000 0.104002 0.000000
0.158565 0.135118 0.000000
0.337905 0.106716 0.000000
0.510138 0.000000 0.000000
0.729348 0.000000 0.054766
0.938442 0.000000 0.127338
1.000000 0.340392 0.256735
1.000000 0.573147 0.429790
0.000000 0.177422 0.045277
0.000000 0.255488 0.000000
0.000000 0.316119 0.000000
0.364648 0.320070 0.000000
0.613356 0.301413 0.000000
0.791012 0.216626 0.008322
0.952329 0.228876 0.132959
1.000000 0.392759 0.263387
1.000000 0.592181 0.432572
0.000000 0.366242 0.080845
0.000000 0.463629 0.000000
0.000000 0.511609 0.000000
0.172002 0.559513 0.000000
0.615928 0.551477 0.000000
0.850989 0.539130 0.000000
0.968798 0.481247 0.136278
1.000000 0.494060 0.278101
1.000000 0.638165 0.446575
0.000000 0.647971 0.179901
0.000000 0.689576 0.162549
0.000000 0.726042 0.115593
0.000000 0.752211 0.000000
0.494718 0.773659 0.000000
0.818961 0.763930 0.000000
0.954505 0.758628 0.166750
1.000000 0.720141 0.338003
1.000000 0.720387 0.477187
0.000000 0.851939 0.379708
0.000000 0.861860 0.377770
0.000000 0.872020 0.375848
0.000000 0.884416 0.351751
0.363997 0.887876 0.311679
0.762243 0.890908 0.288880
0.927132 0.885448 0.259956
0.994407 0.882403 0.452159
1.000000 0.857993 0.562984
0.000000 0.941232 0.615068
0.000000 0.943200 0.618061
0.000000 0.947187 0.620785
0.000000 0.951757 0.616387
0.417365 0.953314 0.599097
0.706687 0.950704 0.574912
0.889777 0.951155 0.569084
0.975509 0.947684 0.543562
1.000000 0.943973 0.681967
0.339800 0.988648 0.800834
0.377317 0.988900 0.801283
0.432838 0.989298 0.802081
0.514761 0.989931 0.804241
0.625882 0.989886 0.802068
0.731868 0.989065 0.793992
0.854275 0.987724 0.781057
0.948058 0.987613 0.781668
1.000000 0.984913 0.770906
0.000000 0.000000 0.000000
0.000000 0.000000 0.000000
0.044638 0.000000 0.000000
0.161737 0.000000 0.031293
0.405116 0.000000 0.060768
0.707959 0.000000 0.096623
0.933918 0.000000 0.158050
1.000000 0.299724 0.276512
1.000000 0.562562 0.445231
0.000000 0.000000 0.007633
0.000000 0.000000 0.048131
0.083084 0.000000 0.049737
0.239563 0.000000 0.063963
0.455358 0.000000 0.076367
0.723517 0.000000 0.101000
0.935926 0.000000 0.160860
1.000000 0.315870 0.277928
1.000000 0.567562 0.445580
0.000000 0.049172 0.207630
0.000000 0.082029 0.182492
0.136807 0.140026 0.152728
0.335387 0.099526 0.117416
0.513239 0.000000 0.092135
0.737256 0.000000 0.107081
0.940181 0.000000 0.164762
1.000000 0.342240 0.280493
1.000000 0.576550 0.446204
0.000000 0.145923 0.254910
0.000000 0.223587 0.218280
0.000000 0.325802 0.186910
0.355836 0.347754 0.161509
0.604772 0.295799 0.116025
0.786860 0.207844 0.118848
0.952902 0.216404 0.172208
1.000000 0.390816 0.283224
1.000000 0.595618 0.448938
0.000000 0.334808 0.251407
0.000000 0.432283 0.213206
0.000000 0.519058 0.191844
0.108604 0.570674 0.135953
0.610020 0.575716 0.081795
0.844152 0.542561 0.123944
0.965446 0.475653 0.189704
1.000000 0.493723 0.299716
1.000000 0.636356 0.458371
0.000000 0.626674 0.284538
0.000000 0.672166 0.272970
0.000000 0.723437 0.265365
0.000000 0.754941 0.226138
0.493950 0.778190 0.174887
0.818422 0.773877 0.121782
0.953112 0.759724 0.246697
1.000000 0.717896 0.364631
1.000000 0.719054 0.490675
0.000000 0.845584 0.431841
0.000000 0.856270 0.429951
0.000000 0.869504 0.432734
0.000000 0.882774 0.417871
0.358635 0.889576 0.385208
0.756322 0.892350 0.361892
0.924738 0.887180 0.326499
0.993880 0.882190 0.478971
1.000000 0.857293 0.576506
0.000000 0.939406 0.635686
0.000000 0.941422 0.638512
0.000000 0.945558 0.641372
0.000000 0.951649 0.643076
0.419189 0.954089 0.630537
0.705597 0.951061 0.600334
0.887790 0.951458 0.592884
0.975242 0.948124 0.572078
1.000000 0.943964 0.694203
0.323651 0.988193 0.806691
0.363507 0.988461 0.807121
0.421720 0.988883 0.807890
0.502487 0.989533 0.810339
0.622601 0.989893 0.810226
0.732397 0.989276 0.802531
0.853089 0.987859 0.788537
0.947252 0.987897 0.789580
1.000000 0.985055 0.779026
0.000000 0.000000 0.000000
0.000000 0.000000 0.015885
0.050461 0.000000 0.047856
0.133028 0.000000 0.047430
0.370592 0.000000 0.110981
0.688678 0.000000 0.172208
0.945648 0.000000 0.227773
1.000000 0.312401 0.322108
1.000000 0.568188 0.478531
0.000000 0.000000 0.091264
0.000000 0.000000 0.123834
0.077838 0.000000 0.121117
0.202912 0.000000 0.103576
0.435678 0.000000 0.156272
0.715094 0.000000 0.188438
0.950449 0.000000 0.232358
1.000000 0.326681 0.324044
1.000000 0.573952 0.479543
0.000000 0.000000 0.366065
0.000000 0.051520 0.326794
0.076315 0.093340 0.293686
0.324838 0.000000 0.248643
0.507624 0.000000 0.211133
0.750514 0.000000 0.208854
0.952940 0.000000 0.239157
1.000000 0.348904 0.327567
1.000000 0.583416 0.480589
0.000000 0.100259 0.489372
0.000000 0.163934 0.432023
0.000000 0.283098 0.381927
0.327167 0.346276 0.371029
0.593557 0.288937 0.299743
0.790456 0.188331 0.243623
0.959920 0.211115 0.251704
1.000000 0.395142 0.333260
1.000000 0.602557 0.483176
0.000000 0.272715 0.513751
0.000000 0.383641 0.461739
0.000000 0.479863 0.428246
0.000000 0.575621 0.410963
0.605038 0.592167 0.388972
0.835122 0.538751 0.310222
0.964552 0.470057 0.285345
1.000000 0.494040 0.343401
1.000000 0.637815 0.487833
0.000000 0.592509 0.476037
0.000000 0.635437 0.454372
0.000000 0.693356 0.443014
0.000000 0.756202 0.438813
0.481327 0.785661 0.405373
0.815088 0.783396 0.384244
0.948246 0.759106 0.371716
1.000000 0.712522 0.411658
1.000000 0.716317 0.515681
0.000000 0.831180 0.531713
0.000000 0.843397 0.530665
0.000000 0.858650 0.532160
0.000000 0.879367 0.534029
0.340240 0.893546 0.510838
0.753716 0.895299 0.489539
0.920931 0.890518 0.456871
0.992020 0.882255 0.533197
1.000000 0.856099 0.602407
0.000000 0.935774 0.676218
0.000000 0.937817 0.678205
0.000000 0.942094 0.680672
0.000000 0.949706 0.685528
0.410802 0.954059 0.681363
0.702831 0.951812 0.652907
0.884703 0.952184 0.642427
0.973776 0.948975 0.622966
1.000000 0.943949 0.718482
0.286409 0.987137 0.817944
0.332091 0.987524 0.818586
0.397029 0.987996 0.819295
0.483216 0.988718 0.821685
0.615543 0.989910 0.825887
0.732624 0.989635 0.819155
0.850741 0.988139 0.803408
0.946839 0.988108 0.805538
1.000000 0.985348 0.795076
0.000000 0.000000 0.076291
0.000000 0.000000 0.122926
0.044867 0.000000 0.128435
0.151609 0.000000 0.118054
0.277162 0.000000 0.098858
0.667660 0.000000 0.279296
0.933891 0.000000 0.345848
1.000000 0.312786 0.418104
1.000000 0.572000 0.535991
0.000000 0.000000 0.305587
0.000000 0.000000 0.302718
0.000000 0.000000 0.278511
0.209789 0.000000 0.240531
0.371980 0.000000 0.197075
0.695908 0.000000 0.308018
0.939564 0.000000 0.357505
1.000000 0.329307 0.421671
1.000000 0.577886 0.537083
0.000000 0.000000 0.504068
0.000000 0.000000 0.466903
0.000000 0.040747 0.436826
0.250392 0.000000 0.382586
0.492016 0.000000 0.333278
0.739819 0.000000 0.353963
0.951090 0.000000 0.372144
1.000000 0.355416 0.428022
1.000000 0.588450 0.539047
0.000000 0.067184 0.675753
0.000000 0.140750 0.614994
0.000000 0.206686 0.581324
0.238986 0.265770 0.563432
0.598596 0.232874 0.511977
0.787848 0.125479 0.425961
0.965948 0.201209 0.405039
1.000000 0.402489 0.437729
1.000000 0.610099 0.543204
0.000000 0.186857 0.764496
0.000000 0.284460 0.695026
0.000000 0.408401 0.650694
0.000000 0.521833 0.627190
0.568122 0.588854 0.622648
0.822943 0.534970 0.544320
0.966546 0.461434 0.458193
1.000000 0.497291 0.454691
1.000000 0.648422 0.550809
0.000000 0.507122 0.723372
0.000000 0.585466 0.698042
0.000000 0.653551 0.685025
0.000000 0.722343 0.663272
0.423116 0.789826 0.656517
0.802449 0.797482 0.642443
0.939860 0.756879 0.555009
1.000000 0.702789 0.505432
1.000000 0.712664 0.562892
0.000000 0.805578 0.698372
0.000000 0.819475 0.689258
0.000000 0.835807 0.681549
0.000000 0.860650 0.685640
0.259051 0.892599 0.689743
0.738580 0.898624 0.667327
0.914168 0.895107 0.651505
0.987310 0.881577 0.626259
1.000000 0.853353 0.647719
0.000000 0.928005 0.742405
0.000000 0.930389 0.743962
0.000000 0.934612 0.745713
0.000000 0.943847 0.749283
0.369999 0.952192 0.754315
0.700845 0.953729 0.742337
0.880887 0.953638 0.727024
0.969155 0.950557 0.711614
1.000000 0.943883 0.756388
0.171074 0.984588 0.835761
0.247749 0.985077 0.836351
0.334639 0.986035 0.837887
0.446985 0.987158 0.839972
0.586004 0.988590 0.843233
0.725590 0.989591 0.843499
0.847030 0.988679 0.830118
0.944841 0.988427 0.829325
1.000000 0.985889 0.820842
0.000000 0.000000 0.463954
0.000000 0.000000 0.445954
0.000000 0.000000 0.413304
0.141513 0.000000 0.368636
0.357410 0.000000 0.303588
0.511471 0.000000 0.233414
0.922454 0.000000 0.507693
1.000000 0.261283 0.567573
1.000000 0.569566 0.626872
0.000000 0.000000 0.596167
0.000000 0.000000 0.574121
0.000000 0.000000 0.538613
0.148937 0.000000 0.496302
0.404736 0.000000 0.436472
0.621859 0.000000 0.354894
0.932281 0.000000 0.521605
1.000000 0.284264 0.572993
1.000000 0.576689 0.628819
0.000000 0.000000 0.686064
0.000000 0.000000 0.661718
0.000000 0.000000 0.636937
0.136135 0.000000 0.595794
0.456085 0.000000 0.542374
0.709500 0.000000 0.475845
0.943744 0.000000 0.548487
1.000000 0.320141 0.580617
1.000000 0.589466 0.632322
0.000000 0.050002 0.772032
0.000000 0.098791 0.748207
0.000000 0.131869 0.734384
0.000000 0.163118 0.710298
0.504155 0.109614 0.657380
0.787166 0.000000 0.594486
0.958000 0.045595 0.589150
1.000000 0.384473 0.596292
1.000000 0.616110 0.639664
0.000000 0.213344 0.856262
0.000000 0.286133 0.828876
0.000000 0.348756 0.810049
0.000000 0.420410 0.798642
0.481290 0.497625 0.787786
0.828993 0.480838 0.753619
0.966300 0.407113 0.664846
1.000000 0.499182 0.626536
1.000000 0.657366 0.650235
0.000000 0.325337 0.910173
0.000000 0.443264 0.869368
0.000000 0.558046 0.842139
0.000000 0.655349 0.825718
0.296211 0.749936 0.816775
0.774495 0.790799 0.818355
0.928896 0.756060 0.761649
1.000000 0.703620 0.685373
1.000000 0.725673 0.667239
0.000000 0.748071 0.855776
0.000000 0.771756 0.850959
0.000000 0.805862 0.845519
0.000000 0.839177 0.841636
0.000000 0.873963 0.833903
0.715366 0.899295 0.833879
0.903585 0.903204 0.828084
0.978054 0.880814 0.774532
1.000000 0.847789 0.721312
0.000000 0.915085 0.847915
0.000000 0.917739 0.846314
0.000000 0.921667 0.843844
0.000000 0.930526 0.840170
0.000000 0.941169 0.840767
0.668289 0.952602 0.846427
0.871776 0.955545 0.838208
0.963980 0.953637 0.834001
1.000000 0.943303 0.810012
0.000000 0.980133 0.869455
0.000000 0.980633 0.869473
0.000000 0.981817 0.869523
0.324949 0.983712 0.869988
0.533721 0.985659 0.872217
0.709637 0.988323 0.877649
0.846906 0.989982 0.873476
0.941973 0.988994 0.867703
0.997683 0.986975 0.862401
0.000000 0.000000 0.783398
0.000000 0.000000 0.772028
0.000000 0.000000 0.754915
0.000000 0.000000 0.730796
0.347790 0.000000 0.679817
0.647076 0.000000 0.611438
0.830460 0.000000 0.505207
1.000000 0.000000 0.729875
1.000000 0.539218 0.763953
0.000000 0.000000 0.817693
0.000000 0.000000 0.805740
0.000000 0.000000 0.790511
0.000000 0.000000 0.766019
0.359736 0.000000 0.721489
0.673071 0.000000 0.661373
0.870769 0.000000 0.573931
1.000000 0.109133 0.736337
1.000000 0.546274 0.765547
0.000000 0.000000 0.846484
0.000000 0.027643 0.843243
0.000000 0.051126 0.830413
0.000000 0.046005 0.809966
0.375718 0.000000 0.773090
0.697490 0.000000 0.721575
0.911227 0.000000 0.643407
1.000000 0.193103 0.748128
1.000000 0.560314 0.768485
0.000000 0.106398 0.875989
0.000000 0.120142 0.873513
0.000000 0.139475 0.865360
0.000000 0.159665 0.855047
0.387935 0.136714 0.823831
0.727553 0.000000 0.782945
0.945584 0.000000 0.728361
1.000000 0.301815 0.768909
1.000000 0.589382 0.775684
0.000000 0.220660 0.909432
0.000000 0.240876 0.903270
0.000000 0.266828 0.896829
0.000000 0.301422 0.891309
0.372421 0.342267 0.878171
0.756718 0.315529 0.847131
0.976101 0.240518 0.808388
1.000000 0.438146 0.794487
1.000000 0.645583 0.789691
0.000000 0.442925 0.936737
0.000000 0.481881 0.930412
0.000000 0.526419 0.922544
0.000000 0.579599 0.916788
0.000000 0.652544 0.907832
0.708549 0.722768 0.902861
0.937689 0.717165 0.883016
1.000000 0.663613 0.838593
1.000000 0.721494 0.808916
0.000000 0.524167 0.971584
0.000000 0.629230 0.947042
0.000000 0.708843 0.932448
0.000000 0.774745 0.923513
0.000000 0.835607 0.915767
0.637589 0.876345 0.912524
0.888599 0.898943 0.915374
0.971101 0.880238 0.887222
1.000000 0.850029 0.843229
0.000000 0.881326 0.928232
0.000000 0.889279 0.927466
0.000000 0.899500 0.926473
0.000000 0.912205 0.924538
0.000000 0.929984 0.921909
0.582240 0.942115 0.919392
0.854910 0.954887 0.921071
0.958280 0.958469 0.918698
1.000000 0.942465 0.886916
0.000000 0.974033 0.924577
0.000000 0.974492 0.924563
0.000000 0.975117 0.924745
0.000000 0.976162 0.923957
0.375753 0.978098 0.921813
0.642174 0.982130 0.922632
0.835350 0.988867 0.928120
0.937285 0.990252 0.925294
0.993978 0.989865 0.923292
0.000000 0.076835 0.925594
0.000000 0.078315 0.922919
0.000000 0.084070 0.919055
0.000000 0.076423 0.911028
0.314381 0.000000 0.892925
0.621701 0.000000 0.864949
0.899713 0.000000 0.825330
1.000000 0.000000 0.749872
1.000000 0.445469 0.864811
0.000000 0.098572 0.932151
0.000000 0.100628 0.929344
0.000000 0.107123 0.925547
0.000000 0.107119 0.917420
0.317849 0.065586 0.900878
0.627739 0.000000 0.873637
0.906021 0.000000 0.837560
1.000000 0.000000 0.775080
1.000000 0.455403 0.866069
0.000000 0.130744 0.941228
0.000000 0.133291 0.939062
0.000000 0.141932 0.933930
0.000000 0.145221 0.926340
0.322847 0.127149 0.912434
0.637233 0.000000 0.887257
0.915427 0.000000 0.854001
1.000000 0.000000 0.802731
1.000000 0.472923 0.868258
0.000000 0.180131 0.949211
0.000000 0.183991 0.948592
0.000000 0.194796 0.947677
0.000000 0.203755 0.940502
0.317500 0.202060 0.929269
0.650904 0.132116 0.905986
0.927976 0.000000 0.878032
1.000000 0.000000 0.839292
1.000000 0.507122 0.872504
0.000000 0.269775 0.961564
0.000000 0.276312 0.959710
0.000000 0.288836 0.958139
0.000000 0.311799 0.954776
0.316840 0.333259 0.947923
0.649861 0.321621 0.929646
0.937606 0.274864 0.907700
1.000000 0.221057 0.879224
1.000000 0.570227 0.882515
0.000000 0.415576 0.972219
0.000000 0.425276 0.970415
0.000000 0.443928 0.968535
0.000000 0.471832 0.964625
0.200126 0.513878 0.960088
0.625277 0.554885 0.950685
0.919793 0.543844 0.932866
1.000000 0.528849 0.913674
1.000000 0.680238 0.897383
0.000000 0.671224 0.977764
0.000000 0.684750 0.975248
0.000000 0.709181 0.973114
0.000000 0.741992 0.968761
0.000000 0.785756 0.963489
0.505649 0.828821 0.959774
0.854041 0.861009 0.957350
0.975971 0.856870 0.948005
1.000000 0.824109 0.917594
0.000000 0.751127 0.991725
0.000000 0.792339 0.983708
0.000000 0.829061 0.977323
0.000000 0.862813 0.971633
0.000000 0.896101 0.967356
0.423597 0.921489 0.963391
0.817013 0.942480 0.962917
0.948715 0.956122 0.965609
1.000000 0.942489 0.947044
0.000000 0.957450 0.971010
0.000000 0.958740 0.970950
0.000000 0.960994 0.970437
0.000000 0.964600 0.969395
0.000000 0.970277 0.968794
0.566323 0.975967 0.968330
0.788611 0.982468 0.967286
0.926689 0.989946 0.968600
0.991325 0.991371 0.969209
0.000000 0.225868 0.992777
0.000000 0.227049 0.991944
0.128525 0.227699 0.990712
0.231756 0.228012 0.988242
0.389411 0.222104 0.981332
0.592249 0.195179 0.970962
0.866347 0.000000 0.953384
1.000000 0.000000 0.932061
1.000000 0.000000 0.892941
0.000000 0.237860 0.994263
0.000000 0.240173 0.993275
0.129983 0.241715 0.991951
0.234182 0.242556 0.989525
0.389573 0.238458 0.983089
0.593619 0.212707 0.973003
0.868298 0.053272 0.955502
1.000000 0.000000 0.934694
1.000000 0.000000 0.897730
0.000000 0.259131 0.996712
0.000000 0.261742 0.995709
0.128172 0.265373 0.994042
0.237816 0.266834 0.991607
0.389646 0.263989 0.986029
0.595759 0.240411 0.976330
0.868770 0.150260 0.959005
1.000000 0.000000 0.938969
1.000000 0.000000 0.905327
0.000000 0.294943 1.000000
0.000000 0.298537 0.999806
0.096579 0.304025 0.998469
0.239254 0.311478 0.995305
0.385614 0.313231 0.990769
0.598507 0.299083 0.981312
0.867009 0.244705 0.965024
1.000000 0.166355 0.946867
1.000000 0.000000 0.917852
0.000000 0.355339 1.000000
0.000000 0.358949 1.000000
0.000000 0.366785 1.000000
0.204053 0.381358 0.999809
0.374541 0.391285 0.996502
0.584369 0.393513 0.987621
0.867982 0.369771 0.973436
1.000000 0.338781 0.958071
1.000000 0.322735 0.933876
0.000000 0.466744 1.000000
0.000000 0.472278 1.000000
0.000000 0.478452 1.000000
0.000000 0.489107 1.000000
0.330910 0.513385 0.999507
0.569014 0.539569 0.994444
0.850044 0.540862 0.982167
1.000000 0.530223 0.969995
1.000000 0.515239 0.952519
0.000000 0.624249 1.000000
0.000000 0.630789 1.000000
0.000000 0.639114 1.000000
0.000000 0.652858 1.000000
0.000000 0.676205 0.999896
0.505118 0.715471 0.995897
0.806945 0.748458 0.989358
0.971073 0.748725 0.979589
1.000000 0.743071 0.967363
0.000000 0.828148 1.000000
0.000000 0.831802 1.000000
0.000000 0.838120 1.000000
0.000000 0.853346 0.999960
0.000000 0.868761 0.997253
0.394492 0.890101 0.994292
0.751446 0.910471 0.991783
0.925827 0.930537 0.991466
1.000000 0.930401 0.985383
0.000000 0.890458 1.000000
0.000000 0.902351 1.000000
0.000000 0.913097 1.000000
0.000000 0.928598 1.000000
0.000000 0.944658 0.997987
0.287144 0.957700 0.995483
0.707629 0.967877 0.993283
0.903770 0.980783 0.993641
0.985623 0.990045 0.995488
