Assets/Lutify-Free-LUTs-Pack/Lutify Free LUTs Pack/Print Film Pro - Print Film 2/Lutify.me-PrintFilm2-BMDFilmGen4-to-Rec709.cube
# Created with: fylm.ai - Colour Grading and Collaboration Software in Cloud 
# Website: https://fylm.ai 
# META
# Option: Gamut compress
# Block 1: IDT | BMD Wide Gamut BMDFilm Gen 4
# Block 2: colourMatch | Blending Mode: Normal | {"ColorSpace":0,"CrossCovarianceLimit":50,"ReshapingIterations":1,"PercentSaturationShift":100,"PercentShadingShift":100,"ExtraShading":true,"PercentTint":100,"PercentModified":100}
# Block 3: HSL | Blending Mode: Normal | {"hue":{"Reds":0,"Yellows":0,"Greens":0,"Cyans":0,"Blues":0,"Magentas":0},"saturation":{"Reds":1,"Yellows":0.9,"Greens":0.95,"Cyans":1,"Blues":1,"Magentas":1},"luminance":{"Reds":0.8,"Yellows":0.95,"Greens":0.9,"Cyans":0.8,"Blues":0.8,"Magentas":0.8},"lum_sat":{"Blacks":1,"Shadows":1,"Midtones":1,"Highlights":1,"Whites":1},"sat_sat":{"10":1,"20":1,"30":1,"40":1,"50":1}}
# Block 4: LUT | Filmic Curve Response: Low Contrast 2 (100%)
# Block 5: ODT | Rec709
TITLE "Lutify.me-PrintFilm2-BMDFilmGen4-to-Rec709" 
LUT_3D_SIZE 5
0.000000 0.000000 0.000000
0.073030 0.000000 0.000000
0.377298 0.000000 0.000000
0.825684 0.000000 0.000000
1.000000 0.461212 0.221586
0.000000 0.109512 0.000000
0.213554 0.144542 0.000000
0.515944 0.125447 0.000000
0.857318 0.140112 0.000000
1.000000 0.495971 0.223060
0.000000 0.450703 0.000000
0.000000 0.477087 0.000000
0.648948 0.457575 0.000000
0.918413 0.545663 0.000000
1.000000 0.614722 0.225167
0.000000 0.833836 0.000000
0.000000 0.837913 0.000000
0.595219 0.839662 0.000000
0.915452 0.815155 0.000000
1.000000 0.859059 0.270700
0.686132 0.964216 0.302780
0.703913 0.964201 0.301493
0.761064 0.964062 0.296262
0.894052 0.962041 0.285571
1.000000 0.953931 0.235381
0.000000 0.000000 0.000000
0.059283 0.000000 0.031711
0.374886 0.000000 0.082024
0.826908 0.000000 0.117809
1.000000 0.452026 0.269540
0.000000 0.079245 0.223186
0.162635 0.172599 0.185778
0.493217 0.119044 0.118703
0.852474 0.102758 0.117775
1.000000 0.486019 0.271336
0.000000 0.480096 0.159076
0.000000 0.531435 0.103004
0.579828 0.555131 0.000000
0.910660 0.545487 0.061854
1.000000 0.608708 0.282156
0.000000 0.840253 0.000000
0.000000 0.848354 0.000000
0.572713 0.854124 0.000000
0.894875 0.846956 0.000000
1.000000 0.858918 0.341818
0.687486 0.964185 0.399619
0.705425 0.964120 0.397784
0.761964 0.964068 0.392152
0.889259 0.964181 0.384821
0.996263 0.959423 0.338068
0.000000 0.000000 0.050360
0.044550 0.000000 0.098597
0.254103 0.000000 0.118710
0.825131 0.000000 0.337347
1.000000 0.449992 0.406733
0.000000 0.000000 0.452727
0.000000 0.034234 0.410095
0.447746 0.000000 0.356635
0.858105 0.000000 0.375311
1.000000 0.478697 0.407784
0.000000 0.352684 0.629382
0.000000 0.452544 0.606067
0.542729 0.563352 0.596997
0.896719 0.509555 0.459355
1.000000 0.590242 0.419018
0.000000 0.837454 0.590401
0.000000 0.850227 0.593734
0.542638 0.864920 0.567395
0.880571 0.867741 0.521951
1.000000 0.855422 0.519695
0.669124 0.967068 0.623502
0.688573 0.966924 0.621380
0.748974 0.966710 0.617098
0.880548 0.967509 0.604545
0.990176 0.964328 0.564906
0.000000 0.000000 0.205792
0.000000 0.000000 0.227671
0.211855 0.000000 0.274271
0.647058 0.000000 0.372470
1.000000 0.388775 0.714829
0.000000 0.000000 0.709206
0.000000 0.000000 0.686094
0.297289 0.000000 0.646612
0.794364 0.000000 0.601517
1.000000 0.426070 0.723649
0.000000 0.193257 0.858908
0.000000 0.219249 0.851267
0.375510 0.257488 0.829584
0.897934 0.225987 0.782900
1.000000 0.548288 0.749539
0.000000 0.731185 0.893207
0.000000 0.757426 0.889406
0.325555 0.817588 0.883546
0.850431 0.864018 0.885644
0.990972 0.839518 0.807418
0.607837 0.964040 0.872865
0.637736 0.964823 0.873188
0.724496 0.967785 0.875119
0.863518 0.970983 0.868749
0.975353 0.971126 0.854857
0.042492 0.000000 0.321352
0.087867 0.000000 0.338983
0.196184 0.000000 0.401750
0.554069 0.000000 0.590723
1.000000 0.000000 0.791991
0.000000 0.000000 0.860974
0.000000 0.000000 0.858381
0.237235 0.000000 0.852396
0.660755 0.000000 0.842671
1.000000 0.000000 0.845086
0.000000 0.168900 0.963909
0.000000 0.174687 0.960353
0.300517 0.175840 0.952679
0.750007 0.046981 0.929503
1.000000 0.000000 0.904646
0.000000 0.531220 0.983967
0.000000 0.541519 0.982505
0.313337 0.578551 0.979697
0.771457 0.634321 0.968114
1.000000 0.683096 0.949051
0.140997 0.924716 0.978349
0.291305 0.927062 0.978137
0.509321 0.934743 0.976800
0.797484 0.950579 0.975584
0.964536 0.969909 0.977713
