Assets/Lutify-Free-LUTs-Pack/Lutify Free LUTs Pack/Print Film Pro - Print Film 2/Lutify.me-PrintFilm2-FLog-to-Rec709.cube
# Created with: fylm.ai - Colour Grading and Collaboration Software in Cloud 
# Website: https://fylm.ai 
# META
# Option: Gamut compress
# Block 1: IDT | Fujifilm F-Gamut F-Log
# Block 2: colourMatch | Blending Mode: Normal | {"ColorSpace":0,"CrossCovarianceLimit":50,"ReshapingIterations":1,"PercentSaturationShift":100,"PercentShadingShift":100,"ExtraShading":true,"PercentTint":100,"PercentModified":100}
# Block 3: HSL | Blending Mode: Normal | {"hue":{"Reds":0,"Yellows":0,"Greens":0,"Cyans":0,"Blues":0,"Magentas":0},"saturation":{"Reds":1,"Yellows":0.9,"Greens":0.95,"Cyans":1,"Blues":1,"Magentas":1},"luminance":{"Reds":0.8,"Yellows":0.95,"Greens":0.9,"Cyans":0.8,"Blues":0.8,"Magentas":0.8},"lum_sat":{"Blacks":1,"Shadows":1,"Midtones":1,"Highlights":1,"Whites":1},"sat_sat":{"10":1,"20":1,"30":1,"40":1,"50":1}}
# Block 4: LUT | Filmic Curve Response: Low Contrast 2 (100%)
# Block 5: ODT | Rec709
TITLE "Lutify.me-PrintFilm2-FLog-to-Rec709" 
LUT_3D_SIZE 9
0.000000 0.000000 0.000000
0.000000 0.000000 0.000000
0.000000 0.000000 0.000000
0.094645 0.000000 0.000000
0.267975 0.000000 0.000000
0.518249 0.000000 0.000000
0.794004 0.000000 0.068499
0.994514 0.201919 0.175313
1.000000 0.488304 0.349518
0.000000 0.000000 0.000000
0.000000 0.000000 0.000000
0.024885 0.000000 0.000000
0.129213 0.000000 0.000000
0.298169 0.000000 0.000000
0.532830 0.000000 0.000000
0.800405 0.000000 0.068914
0.995617 0.216312 0.176709
1.000000 0.492305 0.350227
0.000000 0.025878 0.000000
0.000000 0.042415 0.000000
0.075490 0.052400 0.000000
0.200138 0.006768 0.000000
0.340316 0.000000 0.000000
0.560323 0.000000 0.000000
0.811619 0.000000 0.069637
0.997141 0.243330 0.178830
1.000000 0.500361 0.352067
0.000000 0.109804 0.000000
0.000000 0.131010 0.000000
0.000000 0.162841 0.000000
0.244606 0.161772 0.000000
0.427847 0.156950 0.000000
0.623910 0.088047 0.000000
0.831723 0.000000 0.070690
0.999096 0.290698 0.182329
1.000000 0.520138 0.357514
0.000000 0.285263 0.000000
0.000000 0.306763 0.000000
0.000000 0.335579 0.000000
0.142770 0.365473 0.000000
0.470424 0.367417 0.000000
0.710114 0.370064 0.000000
0.878253 0.343084 0.033271
1.000000 0.383453 0.191294
1.000000 0.561944 0.368630
0.000000 0.541865 0.000000
0.000000 0.557671 0.000000
0.000000 0.569798 0.000000
0.000000 0.599476 0.000000
0.377951 0.625419 0.000000
0.718649 0.620378 0.000000
0.901609 0.623829 0.000000
0.997262 0.600736 0.229549
1.000000 0.644707 0.395058
0.000000 0.780748 0.232308
0.000000 0.784394 0.226471
0.000000 0.789852 0.215553
0.000000 0.795218 0.197613
0.182498 0.813068 0.164296
0.663637 0.817723 0.136020
0.877618 0.814107 0.102006
0.975849 0.810301 0.324507
1.000000 0.791078 0.468439
0.000000 0.911102 0.511795
0.000000 0.911694 0.510239
0.000000 0.912831 0.507484
0.000000 0.915540 0.501362
0.307717 0.916047 0.486345
0.642857 0.917425 0.468447
0.843677 0.916865 0.467833
0.955423 0.913039 0.451502
1.000000 0.909513 0.597895
0.479585 0.972925 0.748506
0.488674 0.973032 0.748106
0.504760 0.973192 0.747370
0.539170 0.973180 0.745824
0.606691 0.973239 0.742962
0.695337 0.971853 0.731253
0.825925 0.971291 0.726940
0.929393 0.971576 0.728730
0.992986 0.970106 0.722688
0.000000 0.000000 0.000000
0.000000 0.000000 0.000000
0.000000 0.000000 0.000000
0.106665 0.000000 0.000000
0.276549 0.000000 0.000000
0.524272 0.000000 0.028058
0.797443 0.000000 0.082234
0.994281 0.203769 0.183202
1.000000 0.489314 0.355133
0.000000 0.000000 0.000000
0.000000 0.000000 0.000000
0.042149 0.000000 0.000000
0.136775 0.000000 0.000000
0.299863 0.000000 0.000000
0.534296 0.000000 0.028152
0.801905 0.000000 0.082213
0.995392 0.217986 0.184726
1.000000 0.493314 0.355858
0.000000 0.033107 0.000000
0.000000 0.047341 0.000000
0.074528 0.060473 0.000000
0.198368 0.039922 0.000000
0.344160 0.000000 0.000000
0.561331 0.000000 0.025583
0.813434 0.000000 0.083636
0.997311 0.242837 0.187527
1.000000 0.500730 0.357212
0.000000 0.111207 0.000000
0.000000 0.139860 0.000000
0.000000 0.176941 0.000000
0.235705 0.185496 0.000000
0.426772 0.170860 0.000000
0.619816 0.092239 0.000000
0.833023 0.000000 0.087355
0.999350 0.289739 0.191630
1.000000 0.519825 0.362768
0.000000 0.284396 0.000000
0.000000 0.316919 0.000000
0.000000 0.346005 0.000000
0.084792 0.382393 0.000000
0.465453 0.388116 0.000000
0.705160 0.374863 0.000000
0.876213 0.343673 0.080264
1.000000 0.382782 0.201754
1.000000 0.561646 0.373952
0.000000 0.543143 0.000000
0.000000 0.555009 0.000000
0.000000 0.576811 0.000000
0.000000 0.598840 0.000000
0.366686 0.629770 0.000000
0.716150 0.627659 0.000000
0.899960 0.625148 0.067010
0.997229 0.600477 0.243070
1.000000 0.644478 0.399714
0.000000 0.781097 0.264428
0.000000 0.784763 0.260371
0.000000 0.790918 0.252277
0.000000 0.797447 0.232964
0.169579 0.812560 0.202209
0.660600 0.818803 0.180648
0.877319 0.816424 0.157602
0.975484 0.810484 0.338873
1.000000 0.791062 0.473488
0.000000 0.911151 0.526777
0.000000 0.911741 0.525341
0.000000 0.912878 0.522790
0.000000 0.915648 0.516766
0.309921 0.916545 0.501242
0.642932 0.917697 0.481595
0.843770 0.917134 0.481770
0.954992 0.913396 0.464538
1.000000 0.909552 0.602283
0.478099 0.972938 0.752651
0.487222 0.973044 0.752256
0.503797 0.973199 0.751548
0.538970 0.973177 0.750061
0.606507 0.973238 0.747223
0.695690 0.971977 0.735658
0.825451 0.971365 0.730727
0.929323 0.971636 0.732751
0.992877 0.970181 0.726713
0.000000 0.000000 0.000000
0.000000 0.000000 0.000000
0.003208 0.000000 0.000000
0.114790 0.000000 0.013547
0.287843 0.000000 0.039555
0.537843 0.000000 0.057576
0.804653 0.000000 0.106508
0.996681 0.207259 0.202399
1.000000 0.491169 0.365621
0.000000 0.000000 0.000000
0.000000 0.000000 0.011235
0.044422 0.000000 0.024342
0.144352 0.000000 0.037691
0.317998 0.000000 0.046024
0.549086 0.000000 0.059288
0.808608 0.000000 0.106780
0.997198 0.219570 0.203359
1.000000 0.495170 0.366373
0.000000 0.031146 0.088391
0.000000 0.047243 0.084566
0.067338 0.070222 0.075486
0.206910 0.049670 0.064914
0.351158 0.000000 0.052150
0.568944 0.000000 0.062209
0.815623 0.000000 0.107056
0.998062 0.241170 0.205096
1.000000 0.502586 0.367773
0.000000 0.108313 0.126300
0.000000 0.139259 0.114034
0.000000 0.191386 0.100452
0.229558 0.207780 0.088229
0.428267 0.177542 0.057464
0.621755 0.090741 0.067688
0.835248 0.000000 0.112490
0.999874 0.287862 0.209628
1.000000 0.519314 0.371438
0.000000 0.272610 0.133729
0.000000 0.310443 0.122442
0.000000 0.356378 0.104434
0.044204 0.396942 0.051290
0.465689 0.405768 0.000000
0.707124 0.382997 0.000000
0.873699 0.345838 0.126890
1.000000 0.381496 0.221330
1.000000 0.561098 0.383769
0.000000 0.534640 0.174623
0.000000 0.551667 0.171557
0.000000 0.583552 0.152613
0.000000 0.607245 0.109358
0.371282 0.637617 0.038956
0.710917 0.636544 0.000000
0.898634 0.626720 0.145999
0.997195 0.599966 0.265040
1.000000 0.644013 0.408469
0.000000 0.780280 0.316914
0.000000 0.785351 0.315363
0.000000 0.791490 0.307611
0.000000 0.801251 0.291939
0.168321 0.814781 0.258231
0.655220 0.820660 0.238066
0.875172 0.818687 0.221466
0.975129 0.810654 0.364402
1.000000 0.791030 0.482788
0.000000 0.911233 0.550705
0.000000 0.911822 0.549245
0.000000 0.912959 0.546656
0.000000 0.915714 0.541028
0.313768 0.917432 0.527996
0.642974 0.918191 0.505379
0.841772 0.918292 0.506583
0.954110 0.914043 0.488297
1.000000 0.909643 0.610414
0.475839 0.972956 0.760083
0.485023 0.973062 0.759690
0.501715 0.973215 0.758986
0.538617 0.973171 0.757579
0.606184 0.973235 0.754747
0.696366 0.972212 0.743865
0.824577 0.971504 0.737606
0.928883 0.971751 0.739925
0.992704 0.970320 0.733764
0.000000 0.000000 0.019922
0.000000 0.000000 0.048462
0.037562 0.000000 0.057485
0.109353 0.000000 0.057481
0.290856 0.000000 0.093428
0.551125 0.000000 0.118981
0.820865 0.000000 0.153727
1.000000 0.218548 0.246807
1.000000 0.495272 0.389268
0.000000 0.000000 0.085022
0.000000 0.000000 0.096765
0.050243 0.000000 0.097691
0.143411 0.000000 0.090745
0.320942 0.000000 0.109739
0.567129 0.000000 0.125147
0.823352 0.000000 0.156181
1.000000 0.230665 0.248049
1.000000 0.499273 0.390048
0.000000 0.026626 0.213551
0.000000 0.044817 0.205021
0.026404 0.066652 0.192281
0.208844 0.054607 0.171330
0.362189 0.000000 0.140309
0.596066 0.000000 0.139524
0.827657 0.000000 0.160532
1.000000 0.252060 0.250322
1.000000 0.506690 0.391502
0.000000 0.091431 0.290493
0.000000 0.124775 0.270728
0.000000 0.181320 0.251388
0.213546 0.219756 0.241860
0.429119 0.191395 0.198050
0.629337 0.112257 0.165678
0.838240 0.052951 0.169409
1.000000 0.291950 0.252678
1.000000 0.522660 0.394848
0.000000 0.256815 0.319179
0.000000 0.296430 0.305430
0.000000 0.343145 0.286243
0.000000 0.416326 0.276717
0.454382 0.434492 0.259612
0.699683 0.393116 0.207816
0.874924 0.343451 0.193029
1.000000 0.378595 0.264613
1.000000 0.559898 0.404921
0.000000 0.513894 0.323355
0.000000 0.531108 0.322844
0.000000 0.570833 0.316439
0.000000 0.620400 0.309817
0.345323 0.654326 0.282308
0.709325 0.652285 0.259384
0.896813 0.628961 0.247688
0.996927 0.599874 0.313242
1.000000 0.642940 0.428439
0.000000 0.771362 0.400804
0.000000 0.777823 0.401010
0.000000 0.788209 0.402771
0.000000 0.803611 0.397545
0.156027 0.819424 0.368147
0.654026 0.827343 0.356639
0.874401 0.822952 0.329484
0.973081 0.812242 0.416214
1.000000 0.790947 0.503486
0.000000 0.908975 0.589306
0.000000 0.910256 0.589880
0.000000 0.912570 0.590959
0.000000 0.915831 0.586983
0.322528 0.918516 0.577732
0.642766 0.919256 0.554019
0.840852 0.919390 0.551545
0.953317 0.916656 0.536676
1.000000 0.909839 0.630303
0.472283 0.972770 0.773994
0.483465 0.972999 0.774224
0.501058 0.973203 0.773812
0.537952 0.973160 0.772448
0.605563 0.973230 0.769685
0.697993 0.972772 0.762526
0.822622 0.971818 0.752450
0.927689 0.972010 0.755304
0.992326 0.970631 0.748947
0.000000 0.000000 0.241830
0.000000 0.000000 0.239084
0.000000 0.000000 0.226901
0.144400 0.000000 0.211735
0.308952 0.000000 0.188496
0.560315 0.000000 0.238849
0.826186 0.000000 0.272742
1.000000 0.239433 0.320748
1.000000 0.507263 0.441351
0.000000 0.000000 0.293553
0.000000 0.000000 0.289022
0.000000 0.020010 0.274551
0.155749 0.000000 0.250614
0.337580 0.000000 0.224084
0.576912 0.000000 0.252428
0.832750 0.000000 0.277547
1.000000 0.253105 0.323085
1.000000 0.510860 0.442122
0.000000 0.020930 0.363863
0.000000 0.039552 0.352862
0.000000 0.056225 0.340090
0.170792 0.050722 0.313022
0.379949 0.000000 0.281749
0.600784 0.000000 0.277711
0.844478 0.000000 0.285406
1.000000 0.274948 0.326160
1.000000 0.517259 0.443569
0.000000 0.101255 0.471695
0.000000 0.127288 0.454270
0.000000 0.161575 0.435328
0.151798 0.203349 0.422469
0.448157 0.197285 0.391047
0.651505 0.125955 0.331484
0.861589 0.117574 0.305258
1.000000 0.319814 0.332427
1.000000 0.532549 0.446813
0.000000 0.229737 0.535555
0.000000 0.270221 0.518036
0.000000 0.315405 0.500109
0.000000 0.390669 0.489111
0.428217 0.449274 0.483785
0.689068 0.416199 0.415254
0.879669 0.356125 0.353175
1.000000 0.397155 0.347079
1.000000 0.566836 0.454048
0.000000 0.496098 0.557738
0.000000 0.513574 0.551984
0.000000 0.554128 0.545971
0.000000 0.598417 0.533475
0.313303 0.667067 0.527820
0.702505 0.681994 0.513522
0.886882 0.643265 0.439304
0.994809 0.601516 0.403498
1.000000 0.641137 0.474746
0.000000 0.748579 0.573339
0.000000 0.755800 0.572101
0.000000 0.766994 0.569791
0.000000 0.787885 0.572370
0.153084 0.827406 0.574975
0.639632 0.837182 0.554767
0.866040 0.834686 0.543127
0.968796 0.817735 0.509796
1.000000 0.793122 0.550985
0.000000 0.903732 0.657829
0.000000 0.905087 0.659438
0.000000 0.907624 0.661970
0.000000 0.912940 0.665707
0.294905 0.918956 0.667490
0.632526 0.921606 0.642605
0.835279 0.921133 0.635389
0.950650 0.919861 0.623685
1.000000 0.910228 0.676828
0.448306 0.971364 0.796868
0.460377 0.971612 0.797059
0.482100 0.972013 0.797450
0.528860 0.972533 0.798598
0.604437 0.973228 0.798716
0.700590 0.973708 0.796557
0.820867 0.972462 0.782304
0.925179 0.972564 0.785217
0.991551 0.971303 0.779402
0.000000 0.000000 0.543546
0.000000 0.000000 0.536504
0.000000 0.029074 0.522467
0.082429 0.017720 0.495875
0.345060 0.000000 0.456026
0.590920 0.000000 0.417937
0.839460 0.000000 0.458213
1.000000 0.258098 0.491694
1.000000 0.534926 0.547286
0.000000 0.000000 0.561562
0.000000 0.030874 0.555427
0.000000 0.047280 0.545452
0.075042 0.049532 0.515878
0.350866 0.000000 0.474479
0.606059 0.000000 0.436590
0.843822 0.000000 0.466389
1.000000 0.270858 0.495217
1.000000 0.538655 0.548033
0.000000 0.055633 0.591502
0.000000 0.065729 0.585531
0.000000 0.079388 0.580049
0.037047 0.088338 0.556799
0.361190 0.000000 0.513827
0.634338 0.000000 0.469794
0.851316 0.000000 0.481117
1.000000 0.296753 0.500514
1.000000 0.545567 0.549423
0.000000 0.123411 0.644949
0.000000 0.134093 0.639255
0.000000 0.151475 0.634161
0.000000 0.185007 0.622541
0.381016 0.183752 0.590551
0.672990 0.094505 0.550732
0.865189 0.109335 0.508412
1.000000 0.337565 0.511440
1.000000 0.559978 0.552620
0.000000 0.265085 0.713485
0.000000 0.280958 0.708994
0.000000 0.308314 0.702793
0.000000 0.355245 0.691974
0.356703 0.419460 0.681634
0.709655 0.422725 0.652393
0.887454 0.373632 0.576729
1.000000 0.422195 0.536054
1.000000 0.590798 0.559785
0.000000 0.458171 0.756090
0.000000 0.474811 0.752138
0.000000 0.513811 0.742332
0.000000 0.566194 0.732542
0.201988 0.638137 0.727561
0.678218 0.697139 0.726836
0.871644 0.665786 0.662585
0.991116 0.620752 0.585257
1.000000 0.653552 0.575704
0.000000 0.729338 0.772541
0.000000 0.738472 0.771433
0.000000 0.750453 0.769150
0.000000 0.772567 0.765692
0.000000 0.809947 0.754056
0.614856 0.842196 0.757724
0.853656 0.848063 0.750819
0.958890 0.821271 0.683299
1.000000 0.796115 0.632944
0.000000 0.889932 0.782713
0.000000 0.891579 0.782865
0.000000 0.894663 0.783037
0.000000 0.900878 0.783418
0.000000 0.909954 0.787242
0.624910 0.924522 0.793351
0.827910 0.926506 0.783738
0.941586 0.925762 0.776176
1.000000 0.914030 0.747338
0.395742 0.968428 0.834164
0.409986 0.968713 0.834296
0.435511 0.969161 0.834589
0.490222 0.969770 0.835499
0.580967 0.971072 0.837555
0.698918 0.973728 0.840608
0.820778 0.973905 0.831776
0.923263 0.973520 0.830766
0.988645 0.972611 0.824753
0.000000 0.119396 0.790011
0.000000 0.122929 0.788487
0.000000 0.130391 0.785956
0.000000 0.143851 0.775355
0.307648 0.140088 0.748488
0.619930 0.000000 0.714656
0.868157 0.000000 0.670654
1.000000 0.259686 0.692539
1.000000 0.539672 0.709765
0.000000 0.128711 0.794391
0.000000 0.132400 0.792895
0.000000 0.140259 0.790384
0.000000 0.155010 0.781505
0.309270 0.153578 0.754481
0.623130 0.000000 0.722128
0.871763 0.000000 0.676955
1.000000 0.274779 0.696075
1.000000 0.543465 0.710815
0.000000 0.146014 0.801988
0.000000 0.150029 0.800539
0.000000 0.158366 0.798099
0.000000 0.173623 0.792200
0.311142 0.175826 0.766059
0.628599 0.102959 0.735186
0.877923 0.000000 0.688244
1.000000 0.301360 0.702489
1.000000 0.550684 0.712777
0.000000 0.182598 0.816945
0.000000 0.186608 0.815605
0.000000 0.195411 0.813405
0.000000 0.214473 0.809359
0.308003 0.226790 0.789525
0.636137 0.193222 0.758390
0.889741 0.054241 0.714537
1.000000 0.342823 0.712375
1.000000 0.568521 0.717325
0.000000 0.294820 0.846812
0.000000 0.303034 0.845553
0.000000 0.314324 0.843687
0.000000 0.337191 0.839925
0.284007 0.386540 0.834377
0.636552 0.396452 0.809638
0.903665 0.377906 0.782015
1.000000 0.429211 0.733972
1.000000 0.607936 0.727206
0.000000 0.487309 0.870506
0.000000 0.497139 0.868472
0.000000 0.512723 0.867063
0.000000 0.539671 0.862776
0.000000 0.598379 0.857686
0.601849 0.655330 0.854371
0.881553 0.668443 0.837021
0.986691 0.637039 0.784901
1.000000 0.682952 0.747358
0.000000 0.693789 0.882342
0.000000 0.700914 0.881656
0.000000 0.711837 0.880106
0.000000 0.733860 0.877530
0.000000 0.783706 0.872811
0.548048 0.823139 0.869683
0.835291 0.852291 0.874153
0.948844 0.833379 0.835053
1.000000 0.805234 0.786041
0.000000 0.880650 0.889415
0.000000 0.882250 0.889377
0.000000 0.885529 0.889211
0.000000 0.891709 0.888436
0.000000 0.901336 0.887243
0.557817 0.915357 0.883095
0.810202 0.929246 0.884568
0.936204 0.933357 0.883193
0.994675 0.915038 0.843588
0.240897 0.959356 0.894739
0.265426 0.959601 0.894763
0.307004 0.960066 0.894720
0.385711 0.961360 0.894767
0.506350 0.964177 0.895461
0.652212 0.967862 0.897247
0.820300 0.975157 0.902915
0.917651 0.976343 0.898209
0.984658 0.975435 0.896396
0.000000 0.275502 0.926162
0.000000 0.277951 0.925838
0.000000 0.284101 0.924770
0.000000 0.296264 0.922761
0.297659 0.304594 0.915778
0.576839 0.298055 0.900142
0.856813 0.272228 0.879566
1.000000 0.258352 0.853101
1.000000 0.547357 0.853150
0.000000 0.281138 0.926850
0.000000 0.283683 0.926517
0.000000 0.289984 0.925450
0.000000 0.303201 0.923754
0.296904 0.312870 0.917071
0.577384 0.306567 0.901554
0.857353 0.283581 0.881131
1.000000 0.272216 0.854937
1.000000 0.551702 0.853731
0.000000 0.291720 0.928119
0.000000 0.294416 0.927727
0.000000 0.300999 0.926661
0.000000 0.315088 0.925069
0.296714 0.328271 0.919649
0.576450 0.324286 0.904162
0.858183 0.304314 0.883930
1.000000 0.296179 0.858293
1.000000 0.559761 0.854801
0.000000 0.313446 0.931000
0.000000 0.316468 0.930512
0.000000 0.323442 0.929280
0.000000 0.338796 0.927703
0.293509 0.356839 0.924134
0.577715 0.361765 0.908266
0.859671 0.347436 0.888606
1.000000 0.342811 0.865845
1.000000 0.577942 0.857177
0.000000 0.364801 0.936326
0.000000 0.368302 0.935835
0.000000 0.376561 0.934595
0.000000 0.394623 0.931959
0.273732 0.415254 0.929875
0.575154 0.435773 0.917425
0.857381 0.432297 0.899528
1.000000 0.436447 0.878921
1.000000 0.616290 0.862839
0.000000 0.517086 0.942693
0.000000 0.520546 0.942092
0.000000 0.526735 0.941016
0.000000 0.541804 0.939191
0.137234 0.571922 0.936926
0.554818 0.616614 0.932472
0.835472 0.638271 0.919167
0.991738 0.643793 0.904660
1.000000 0.684167 0.873847
0.000000 0.709877 0.946595
0.000000 0.714077 0.945988
0.000000 0.719985 0.945121
0.000000 0.731904 0.943435
0.000000 0.757467 0.941052
0.484659 0.794160 0.938637
0.793578 0.827455 0.937151
0.950767 0.833640 0.926974
1.000000 0.817770 0.897520
0.000000 0.857154 0.949435
0.000000 0.859627 0.949046
0.000000 0.862887 0.948347
0.000000 0.868543 0.947430
0.000000 0.880502 0.946212
0.502518 0.901468 0.943564
0.778213 0.917430 0.943214
0.926933 0.934067 0.947073
0.989015 0.923660 0.924833
0.144027 0.954241 0.951594
0.184477 0.954501 0.951572
0.242959 0.954974 0.951575
0.333770 0.956442 0.951569
0.464767 0.959525 0.951578
0.607208 0.963478 0.951254
0.779665 0.968801 0.949287
0.908773 0.977468 0.952877
0.981844 0.979909 0.951770
0.249180 0.479995 0.985554
0.262226 0.481202 0.985462
0.284735 0.483409 0.985292
0.329846 0.488256 0.984916
0.416117 0.500388 0.983773
0.562817 0.520170 0.979474
0.800534 0.521875 0.968860
0.979440 0.525469 0.957254
1.000000 0.541488 0.941068
0.247505 0.483506 0.985614
0.260688 0.484719 0.985522
0.283398 0.486938 0.985352
0.328824 0.491812 0.984974
0.415010 0.503634 0.983769
0.562446 0.523884 0.979655
0.800008 0.525559 0.969102
0.979009 0.529826 0.957547
1.000000 0.545937 0.941469
0.244252 0.490038 0.985722
0.257704 0.491262 0.985629
0.280814 0.493503 0.985458
0.326845 0.498425 0.985078
0.412903 0.509667 0.983760
0.561724 0.530789 0.979983
0.799006 0.532397 0.969543
0.978180 0.537905 0.958083
1.000000 0.554185 0.942203
0.236839 0.504352 0.986025
0.250313 0.506124 0.985908
0.274431 0.508412 0.985738
0.321981 0.513441 0.985361
0.409226 0.524433 0.983929
0.560586 0.545450 0.980598
0.797950 0.549438 0.970494
0.976174 0.556118 0.959250
1.000000 0.572783 0.943818
0.220371 0.533920 0.986745
0.235134 0.535894 0.986617
0.260048 0.539516 0.986382
0.309374 0.546683 0.985901
0.402098 0.557067 0.984495
0.557737 0.578260 0.981753
0.795299 0.587767 0.972389
0.971055 0.596268 0.961624
1.000000 0.613794 0.947167
0.154444 0.590589 0.987386
0.179668 0.591914 0.987185
0.215204 0.595168 0.986930
0.276118 0.602742 0.986417
0.385826 0.618418 0.985488
0.542825 0.643106 0.982299
0.782074 0.664523 0.975196
0.956058 0.674425 0.965060
1.000000 0.689395 0.952592
0.000000 0.729111 0.987429
0.000000 0.730814 0.987191
0.000000 0.733918 0.986757
0.000000 0.740672 0.985799
0.289078 0.751122 0.984367
0.499771 0.771272 0.982996
0.758141 0.801743 0.979459
0.924034 0.814721 0.972765
1.000000 0.823930 0.963548
0.000000 0.860180 0.986621
0.000000 0.861117 0.986538
0.000000 0.862271 0.986425
0.000000 0.864812 0.986117
0.243705 0.870522 0.985112
0.497739 0.883319 0.983498
0.738957 0.899901 0.981664
0.899364 0.919340 0.981139
0.989512 0.922330 0.976481
0.000000 0.939847 0.986707
0.000000 0.940287 0.986679
0.000000 0.941001 0.986625
0.206742 0.942186 0.986557
0.383224 0.944474 0.986423
0.547504 0.950384 0.985665
0.749981 0.959051 0.984100
0.888426 0.969961 0.984860
0.976279 0.979904 0.987453
