Assets/Lutify-Free-LUTs-Pack/Lutify Free LUTs Pack/Print Film Pro - Print Film 2/Lutify.me-PrintFilm2-ProTune-to-Rec709.cube
# Created with: fylm.ai - Colour Grading and Collaboration Software in Cloud 
# Website: https://fylm.ai 
# META
# Option: Gamut compress
# Block 1: IDT | GoPro ProTune Native ProTune Flat
# Block 2: colourMatch | Blending Mode: Normal | {"ColorSpace":0,"CrossCovarianceLimit":50,"ReshapingIterations":1,"PercentSaturationShift":100,"PercentShadingShift":100,"ExtraShading":true,"PercentTint":100,"PercentModified":100}
# Block 3: HSL | Blending Mode: Normal | {"hue":{"Reds":0,"Yellows":0,"Greens":0,"Cyans":0,"Blues":0,"Magentas":0},"saturation":{"Reds":1,"Yellows":0.9,"Greens":0.95,"Cyans":1,"Blues":1,"Magentas":1},"luminance":{"Reds":0.8,"Yellows":0.95,"Greens":0.9,"Cyans":0.8,"Blues":0.8,"Magentas":0.8},"lum_sat":{"Blacks":1,"Shadows":1,"Midtones":1,"Highlights":1,"Whites":1},"sat_sat":{"10":1,"20":1,"30":1,"40":1,"50":1}}
# Block 4: LUT | Filmic Curve Response: Low Contrast 2 (100%)
# Block 5: ODT | Rec709
TITLE "Lutify.me-PrintFilm2-ProTune-to-Rec709" 
LUT_3D_SIZE 9
0.000000 0.000000 0.000000
0.000000 0.000000 0.000000
0.000000 0.000000 0.000000
0.002225 0.000000 0.000000
0.074498 0.000000 0.000000
0.132328 0.000000 0.000000
0.222490 0.000000 0.000000
0.351490 0.000000 0.040274
0.537916 0.000000 0.071405
0.000000 0.000000 0.000000
0.000000 0.000000 0.000000
0.000000 0.000000 0.000000
0.049880 0.000000 0.000000
0.097529 0.000000 0.000000
0.155269 0.000000 0.000000
0.250833 0.000000 0.013424
0.375360 0.000000 0.044316
0.557260 0.000000 0.076379
0.000000 0.032862 0.000000
0.000000 0.040037 0.000000
0.047119 0.041021 0.000000
0.087077 0.034601 0.000000
0.138337 0.000000 0.000000
0.192600 0.000000 0.000000
0.291682 0.000000 0.019052
0.413954 0.000000 0.048052
0.586351 0.000000 0.082699
0.000000 0.084664 0.000000
0.000000 0.087992 0.000000
0.058836 0.091020 0.000000
0.120063 0.088061 0.000000
0.193454 0.076498 0.000000
0.258213 0.030579 0.000000
0.336104 0.000000 0.000000
0.454875 0.000000 0.047513
0.623931 0.000000 0.088561
0.000000 0.156615 0.000000
0.000000 0.160207 0.000000
0.090938 0.162249 0.000000
0.172818 0.161417 0.000000
0.249876 0.155250 0.000000
0.333711 0.149317 0.000000
0.426583 0.119619 0.000000
0.512047 0.000000 0.031582
0.664481 0.000000 0.089301
0.000000 0.260281 0.000000
0.112453 0.259232 0.000000
0.172601 0.259714 0.000000
0.242807 0.260589 0.000000
0.331565 0.249393 0.000000
0.436502 0.231086 0.000000
0.519374 0.247036 0.000000
0.614231 0.232444 0.000000
0.710271 0.000000 0.069934
0.190320 0.385607 0.000000
0.214979 0.387033 0.000000
0.253412 0.389234 0.000000
0.313041 0.389694 0.000000
0.402235 0.383976 0.000000
0.525420 0.369437 0.000000
0.640994 0.346846 0.000000
0.707637 0.389681 0.000000
0.803201 0.397660 0.000000
0.356673 0.547958 0.000000
0.374394 0.547432 0.000000
0.403797 0.546449 0.000000
0.450471 0.544578 0.000000
0.520525 0.540978 0.000000
0.606311 0.533747 0.000000
0.705781 0.521180 0.000000
0.825550 0.508934 0.000000
0.864531 0.553715 0.000000
0.568478 0.685631 0.000000
0.576981 0.685257 0.000000
0.591764 0.684579 0.000000
0.616271 0.683366 0.000000
0.652505 0.681294 0.000000
0.706930 0.677457 0.000000
0.785876 0.669642 0.000000
0.868176 0.659155 0.000000
0.932448 0.648283 0.000000
0.000000 0.000000 0.000000
0.000000 0.000000 0.000000
0.000000 0.000000 0.000000
0.019852 0.000000 0.000000
0.079460 0.000000 0.000000
0.133160 0.000000 0.000000
0.220961 0.000000 0.018994
0.348174 0.000000 0.045129
0.535884 0.000000 0.074936
0.000000 0.000000 0.000000
0.000000 0.000000 0.000000
0.016296 0.000000 0.000000
0.057382 0.000000 0.000000
0.104196 0.000000 0.000000
0.152783 0.000000 0.000000
0.247742 0.000000 0.026561
0.375968 0.000000 0.049058
0.555093 0.000000 0.080204
0.000000 0.034485 0.000000
0.000000 0.041551 0.000000
0.046964 0.043579 0.000000
0.088857 0.036007 0.000000
0.140848 0.000000 0.000000
0.196741 0.000000 0.000000
0.294704 0.000000 0.033898
0.412390 0.000000 0.054292
0.584770 0.000000 0.088095
0.000000 0.088171 0.000000
0.000000 0.092638 0.000000
0.047808 0.095796 0.000000
0.115532 0.093001 0.000000
0.191178 0.082886 0.000000
0.260181 0.032516 0.000000
0.336019 0.000000 0.030580
0.458223 0.000000 0.056082
0.623029 0.000000 0.094711
0.000000 0.164758 0.000000
0.000000 0.167425 0.000000
0.039744 0.172164 0.000000
0.147955 0.175828 0.000000
0.236518 0.166220 0.000000
0.326116 0.161631 0.000000
0.422675 0.120484 0.000000
0.508840 0.000000 0.043945
0.667171 0.000000 0.097033
0.000000 0.259154 0.000000
0.110735 0.258102 0.000000
0.166364 0.259474 0.000000
0.228036 0.263221 0.000000
0.304382 0.263002 0.000000
0.406789 0.255237 0.000000
0.510519 0.265967 0.000000
0.613632 0.233778 0.000000
0.710587 0.000000 0.082186
0.189498 0.384767 0.000000
0.214216 0.386173 0.000000
0.252718 0.388379 0.000000
0.312350 0.388940 0.000000
0.401602 0.383213 0.000000
0.524798 0.368654 0.000000
0.640537 0.346002 0.000000
0.697606 0.410044 0.000000
0.801011 0.397620 0.000000
0.355789 0.547588 0.000000
0.373563 0.547062 0.000000
0.403042 0.546078 0.000000
0.449816 0.544207 0.000000
0.519988 0.540604 0.000000
0.605925 0.533361 0.000000
0.705493 0.520743 0.000000
0.825382 0.508500 0.000000
0.855450 0.572905 0.000000
0.568048 0.685414 0.000000
0.576562 0.685040 0.000000
0.591366 0.684361 0.000000
0.615954 0.683146 0.000000
0.652227 0.681073 0.000000
0.706727 0.677230 0.000000
0.785715 0.669395 0.000000
0.868098 0.658922 0.000000
0.932410 0.648067 0.000000
0.000000 0.000000 0.000000
0.000000 0.000000 0.000000
0.000000 0.000000 0.000000
0.016250 0.000000 0.000000
0.074124 0.000000 0.000000
0.129959 0.000000 0.014763
0.216952 0.000000 0.034690
0.341215 0.000000 0.052074
0.531861 0.000000 0.081291
0.000000 0.000000 0.000000
0.000000 0.000000 0.007401
0.000000 0.000000 0.006535
0.045190 0.000000 0.002238
0.096586 0.000000 0.015997
0.151857 0.000000 0.026831
0.243046 0.000000 0.041892
0.372627 0.000000 0.057155
0.551664 0.000000 0.087222
0.000000 0.031194 0.048024
0.000000 0.041005 0.046707
0.043967 0.044121 0.046495
0.092881 0.033232 0.044566
0.139007 0.000000 0.041293
0.193750 0.000000 0.041749
0.290092 0.000000 0.049215
0.409084 0.000000 0.065758
0.581854 0.000000 0.096253
0.000000 0.091858 0.032103
0.000000 0.099619 0.030159
0.036462 0.104200 0.031580
0.109079 0.104649 0.035888
0.187670 0.086937 0.040965
0.255871 0.023518 0.046792
0.343970 0.000000 0.052307
0.459008 0.000000 0.073400
0.621119 0.000000 0.105621
0.000000 0.179038 0.000000
0.000000 0.185300 0.000000
0.000000 0.189797 0.000000
0.118941 0.192921 0.000000
0.222477 0.187888 0.000000
0.323662 0.172750 0.000000
0.419579 0.120623 0.022370
0.509401 0.000000 0.066711
0.670074 0.000000 0.111648
0.000000 0.284472 0.000000
0.000000 0.284815 0.000000
0.040265 0.286614 0.000000
0.161178 0.291467 0.000000
0.265099 0.288592 0.000000
0.376242 0.283879 0.000000
0.506778 0.285417 0.000000
0.614172 0.230592 0.000000
0.711011 0.000000 0.101557
0.188011 0.383248 0.000000
0.212833 0.384620 0.000000
0.251463 0.386834 0.000000
0.311101 0.387576 0.000000
0.400458 0.381833 0.000000
0.505227 0.378327 0.000000
0.600769 0.386181 0.000000
0.692744 0.433780 0.000000
0.801381 0.395847 0.000000
0.354188 0.546918 0.000000
0.372057 0.546393 0.000000
0.401674 0.545409 0.000000
0.448629 0.543535 0.000000
0.519017 0.539926 0.000000
0.605227 0.532664 0.000000
0.704973 0.519952 0.000000
0.825077 0.507715 0.000000
0.850662 0.593838 0.000000
0.567268 0.685021 0.000000
0.575804 0.684647 0.000000
0.590644 0.683967 0.000000
0.615379 0.682748 0.000000
0.651726 0.680671 0.000000
0.706359 0.676819 0.000000
0.785422 0.668949 0.000000
0.867958 0.658502 0.000000
0.932342 0.647676 0.000000
0.000000 0.000000 0.000000
0.000000 0.000000 0.000000
0.000000 0.000000 0.017872
0.021224 0.000000 0.024645
0.064105 0.000000 0.025539
0.122757 0.000000 0.036180
0.208883 0.000000 0.046560
0.330262 0.000000 0.060867
0.522705 0.000000 0.093001
0.000000 0.000000 0.032972
0.000000 0.000000 0.038070
0.000000 0.000000 0.042585
0.043152 0.000000 0.041786
0.077682 0.000000 0.040379
0.142619 0.000000 0.046194
0.235752 0.000000 0.054942
0.359835 0.000000 0.071677
0.544341 0.000000 0.101075
0.000000 0.017031 0.097218
0.000000 0.024708 0.094282
0.031095 0.032701 0.092048
0.072003 0.018939 0.081765
0.121643 0.000000 0.065778
0.185480 0.000000 0.064071
0.280486 0.000000 0.070686
0.401807 0.000000 0.084654
0.576790 0.000000 0.113978
0.000000 0.081393 0.114674
0.000000 0.090329 0.113126
0.000000 0.099440 0.111377
0.097239 0.102024 0.108242
0.180983 0.083600 0.105543
0.258083 0.000000 0.097235
0.342075 0.000000 0.089234
0.454654 0.000000 0.100882
0.616345 0.000000 0.125212
0.000000 0.188271 0.088909
0.000000 0.195318 0.088968
0.000000 0.201487 0.085605
0.101738 0.209511 0.087729
0.213571 0.205412 0.093086
0.314951 0.180685 0.095277
0.418083 0.113368 0.097889
0.524948 0.000000 0.110753
0.665812 0.000000 0.139050
0.000000 0.310952 0.000000
0.000000 0.316357 0.000000
0.000000 0.320924 0.000000
0.000000 0.326187 0.000000
0.212739 0.326592 0.000000
0.348456 0.320279 0.000000
0.501334 0.294690 0.000000
0.605408 0.230079 0.087467
0.709864 0.000000 0.131653
0.000000 0.437464 0.000000
0.000000 0.438318 0.000000
0.000000 0.439455 0.000000
0.148757 0.441409 0.000000
0.266182 0.444549 0.000000
0.412937 0.448738 0.000000
0.541560 0.451607 0.000000
0.686395 0.451356 0.000000
0.797374 0.394004 0.083496
0.351277 0.545705 0.000000
0.369320 0.545179 0.000000
0.399192 0.544194 0.000000
0.446479 0.542317 0.000000
0.517257 0.538697 0.000000
0.603967 0.531388 0.000000
0.704031 0.518516 0.000000
0.773573 0.551506 0.000000
0.842780 0.613570 0.000000
0.565858 0.684310 0.000000
0.574432 0.683935 0.000000
0.589338 0.683254 0.000000
0.614339 0.682027 0.000000
0.650817 0.679945 0.000000
0.705694 0.676076 0.000000
0.784891 0.668140 0.000000
0.867705 0.657740 0.000000
0.932219 0.646968 0.000000
0.000000 0.000000 0.039383
0.000000 0.000000 0.045679
0.000000 0.000000 0.051510
0.021926 0.000000 0.054535
0.066904 0.000000 0.051584
0.108929 0.000000 0.045976
0.194044 0.000000 0.054850
0.313731 0.000000 0.073973
0.504675 0.000000 0.111799
0.000000 0.000000 0.069185
0.000000 0.000000 0.072644
0.000000 0.000000 0.075390
0.042395 0.000000 0.071492
0.079880 0.000000 0.065001
0.127767 0.000000 0.055999
0.220104 0.000000 0.066312
0.344417 0.000000 0.087869
0.529104 0.000000 0.124362
0.000000 0.000000 0.137367
0.000000 0.000000 0.134670
0.000000 0.000000 0.128912
0.057892 0.000000 0.117839
0.110503 0.000000 0.101141
0.167063 0.000000 0.085940
0.267416 0.000000 0.094145
0.388182 0.000000 0.110867
0.565329 0.000000 0.141577
0.000000 0.060812 0.216232
0.000000 0.068262 0.212516
0.000000 0.077457 0.204584
0.070617 0.080649 0.199509
0.166888 0.064803 0.183496
0.248816 0.000000 0.154804
0.333083 0.000000 0.133721
0.446117 0.000000 0.140160
0.610843 0.000000 0.160581
0.000000 0.164003 0.225959
0.000000 0.171166 0.225373
0.000000 0.185263 0.223401
0.048420 0.196908 0.218779
0.193475 0.202612 0.220639
0.308479 0.173872 0.204294
0.416901 0.104598 0.186357
0.519325 0.000000 0.170482
0.660899 0.000000 0.184364
0.000000 0.315114 0.185388
0.000000 0.323994 0.186076
0.000000 0.333155 0.187474
0.000000 0.341126 0.182799
0.189374 0.343957 0.185012
0.347617 0.340016 0.194372
0.491581 0.300988 0.187335
0.602871 0.221003 0.183864
0.724913 0.000000 0.197392
0.000000 0.475710 0.000000
0.000000 0.477618 0.000000
0.000000 0.480782 0.000000
0.000000 0.485728 0.000000
0.173536 0.492224 0.000000
0.363511 0.497840 0.000000
0.535086 0.486434 0.000000
0.680021 0.464538 0.113348
0.791024 0.387520 0.176575
0.000000 0.617002 0.000000
0.000000 0.618066 0.000000
0.000000 0.619937 0.000000
0.195142 0.622812 0.000000
0.320495 0.627157 0.000000
0.427167 0.633246 0.000000
0.558815 0.636577 0.000000
0.713312 0.635365 0.000000
0.840747 0.634699 0.000000
0.563296 0.683016 0.000000
0.571942 0.682641 0.000000
0.586967 0.681958 0.000000
0.612378 0.680719 0.000000
0.649170 0.678625 0.000000
0.704497 0.674696 0.000000
0.783900 0.666759 0.000000
0.867242 0.656359 0.000000
0.879931 0.705155 0.000000
0.000000 0.000000 0.105731
0.000000 0.000000 0.107454
0.000000 0.000000 0.110197
0.000000 0.000000 0.105461
0.068066 0.000000 0.096958
0.114959 0.000000 0.079482
0.166382 0.000000 0.058256
0.280521 0.000000 0.079809
0.464105 0.000000 0.123784
0.000000 0.000000 0.149194
0.000000 0.000000 0.147300
0.000000 0.000000 0.144369
0.000000 0.000000 0.137800
0.078380 0.000000 0.124402
0.132566 0.000000 0.101330
0.189143 0.000000 0.074770
0.309663 0.000000 0.097473
0.497872 0.000000 0.144763
0.000000 0.000000 0.218571
0.000000 0.000000 0.216913
0.000000 0.000000 0.208412
0.000000 0.000000 0.196315
0.097794 0.000000 0.179002
0.169462 0.000000 0.147628
0.239310 0.000000 0.111777
0.361134 0.000000 0.136148
0.542343 0.000000 0.173714
0.000000 0.037477 0.301948
0.000000 0.040723 0.294614
0.000000 0.044251 0.290630
0.000000 0.047087 0.275959
0.125007 0.027439 0.249356
0.223165 0.000000 0.221183
0.321475 0.000000 0.187225
0.434244 0.000000 0.192580
0.599554 0.000000 0.211412
0.000000 0.127041 0.363494
0.000000 0.133165 0.360301
0.000000 0.144450 0.352789
0.000000 0.158036 0.347066
0.154354 0.164646 0.339398
0.284346 0.145002 0.324246
0.422135 0.000000 0.281656
0.515512 0.000000 0.246760
0.653858 0.000000 0.250905
0.000000 0.276897 0.366028
0.000000 0.285636 0.363516
0.000000 0.300382 0.359303
0.000000 0.313079 0.357273
0.144063 0.326667 0.362510
0.320149 0.338781 0.362060
0.478985 0.293821 0.338962
0.605575 0.216629 0.312019
0.723885 0.000000 0.286993
0.000000 0.479152 0.309149
0.000000 0.483205 0.310189
0.000000 0.490807 0.312185
0.000000 0.506974 0.316033
0.043897 0.517605 0.311724
0.341736 0.517190 0.315232
0.520510 0.513952 0.329292
0.667907 0.474424 0.316522
0.782858 0.384781 0.310060
0.000000 0.656921 0.027102
0.000000 0.659002 0.018461
0.000000 0.661342 0.013384
0.000000 0.664250 0.040279
0.231663 0.668951 0.070487
0.386917 0.670216 0.092228
0.534350 0.671602 0.121085
0.704198 0.661615 0.166330
0.834750 0.638914 0.253358
0.291051 0.774421 0.000000
0.305769 0.774943 0.000000
0.329989 0.775843 0.000000
0.368017 0.777345 0.000000
0.422747 0.777866 0.000000
0.497227 0.777409 0.000000
0.605279 0.779188 0.000000
0.731383 0.777771 0.000000
0.834147 0.774949 0.000000
0.000000 0.000000 0.240618
0.000000 0.000000 0.237702
0.000000 0.000000 0.231055
0.000000 0.000000 0.216764
0.044389 0.000000 0.198045
0.124202 0.000000 0.164533
0.192472 0.000000 0.115573
0.220460 0.000000 0.062682
0.389447 0.000000 0.104732
0.000000 0.000000 0.287513
0.000000 0.000000 0.281500
0.000000 0.000000 0.275037
0.000000 0.000000 0.258180
0.042487 0.000000 0.234992
0.138659 0.000000 0.198435
0.215696 0.000000 0.141749
0.247645 0.000000 0.080933
0.423405 0.000000 0.127954
0.000000 0.000000 0.343883
0.000000 0.000000 0.339928
0.000000 0.000000 0.329594
0.000000 0.000000 0.313192
0.038782 0.000000 0.291018
0.157519 0.000000 0.256068
0.257587 0.000000 0.198515
0.298159 0.000000 0.120397
0.484289 0.000000 0.178498
0.000000 0.000000 0.413710
0.000000 0.000000 0.408777
0.000000 0.017373 0.401205
0.000000 0.026868 0.387689
0.045125 0.009275 0.359217
0.190065 0.000000 0.327865
0.316449 0.000000 0.284627
0.395392 0.000000 0.217890
0.570340 0.000000 0.252201
0.000000 0.086465 0.491799
0.000000 0.090630 0.487618
0.000000 0.094743 0.483702
0.000000 0.100706 0.473361
0.023178 0.102825 0.453210
0.231012 0.074699 0.417879
0.376568 0.000000 0.372483
0.506248 0.000000 0.325570
0.646860 0.000000 0.318219
0.000000 0.222094 0.538228
0.000000 0.228774 0.535329
0.000000 0.237770 0.532314
0.000000 0.253784 0.529603
0.000000 0.271340 0.524063
0.253806 0.281052 0.519133
0.460556 0.251140 0.491329
0.614020 0.150963 0.446659
0.718444 0.000000 0.392264
0.000000 0.430352 0.540674
0.000000 0.434570 0.540958
0.000000 0.442042 0.541979
0.000000 0.459610 0.543546
0.000000 0.477338 0.539789
0.262000 0.497932 0.538771
0.491585 0.513402 0.548169
0.650043 0.469200 0.514842
0.786423 0.373824 0.476525
0.000000 0.653322 0.482769
0.000000 0.656855 0.483648
0.000000 0.662962 0.484133
0.000000 0.670493 0.487104
0.030103 0.682375 0.490838
0.333744 0.693385 0.496890
0.500292 0.696343 0.495827
0.691036 0.687597 0.511092
0.817255 0.644591 0.489391
0.205540 0.798649 0.260825
0.228527 0.798920 0.260959
0.263156 0.799388 0.261257
0.312662 0.800161 0.261960
0.376720 0.801430 0.263656
0.458795 0.803260 0.267807
0.577805 0.803890 0.281633
0.716207 0.800885 0.311314
0.829954 0.794747 0.354695
0.000000 0.000000 0.445904
0.000000 0.000000 0.441035
0.000000 0.000000 0.432764
0.000000 0.000000 0.412099
0.000000 0.000000 0.387586
0.098929 0.000000 0.337571
0.219243 0.000000 0.267484
0.285293 0.000000 0.154121
0.322844 0.000000 0.089202
0.000000 0.000000 0.478895
0.000000 0.000000 0.472205
0.000000 0.000000 0.464996
0.000000 0.000000 0.444397
0.000000 0.000000 0.419180
0.103269 0.000000 0.374561
0.236857 0.000000 0.303980
0.310683 0.000000 0.189228
0.323177 0.000000 0.089013
0.000000 0.000000 0.523913
0.000000 0.000000 0.516533
0.000000 0.000000 0.505184
0.000000 0.000000 0.495310
0.000000 0.000000 0.468237
0.103931 0.000000 0.427699
0.256228 0.000000 0.366896
0.356482 0.000000 0.259278
0.343661 0.000000 0.105101
0.000000 0.000000 0.569467
0.000000 0.000000 0.565813
0.000000 0.000000 0.560983
0.000000 0.000000 0.544704
0.000000 0.000000 0.523370
0.121121 0.000000 0.489874
0.291474 0.000000 0.441990
0.421111 0.000000 0.366586
0.459918 0.000000 0.210362
0.000000 0.057957 0.617814
0.000000 0.059860 0.615351
0.000000 0.062652 0.611256
0.000000 0.070328 0.604453
0.000000 0.072899 0.586920
0.142779 0.057998 0.559992
0.329950 0.000000 0.513216
0.489890 0.000000 0.467461
0.619698 0.000000 0.382340
0.000000 0.167879 0.675098
0.000000 0.170185 0.673626
0.000000 0.175733 0.671073
0.000000 0.184669 0.666040
0.000000 0.195918 0.659019
0.170813 0.196310 0.646441
0.380382 0.156980 0.604845
0.561622 0.000000 0.566479
0.719899 0.000000 0.507089
0.000000 0.360150 0.713553
0.000000 0.363483 0.712499
0.000000 0.369505 0.710736
0.000000 0.386932 0.708286
0.000000 0.406800 0.703867
0.160446 0.427806 0.700385
0.415217 0.443361 0.697726
0.632658 0.406959 0.679237
0.802175 0.299744 0.624795
0.000000 0.600778 0.706481
0.000000 0.604583 0.706873
0.000000 0.611030 0.707563
0.000000 0.620740 0.707052
0.000000 0.633871 0.703726
0.214837 0.649721 0.706965
0.440515 0.667629 0.707505
0.662321 0.682137 0.712805
0.805233 0.631460 0.690975
0.000000 0.794809 0.646678
0.000000 0.795699 0.647305
0.000000 0.797231 0.648428
0.138715 0.800090 0.649526
0.284623 0.804511 0.652397
0.407471 0.810940 0.655893
0.550104 0.816756 0.659761
0.697990 0.815740 0.662198
0.813159 0.811994 0.678139
0.000000 0.000000 0.656095
0.000000 0.000000 0.651787
0.000000 0.000000 0.644455
0.000000 0.000000 0.631789
0.000000 0.000000 0.613250
0.000000 0.000000 0.584648
0.197628 0.000000 0.528408
0.354846 0.000000 0.421938
0.388703 0.000000 0.190860
0.000000 0.000000 0.671250
0.000000 0.000000 0.666743
0.000000 0.000000 0.659734
0.000000 0.000000 0.648053
0.000000 0.000000 0.627943
0.000000 0.000000 0.600370
0.203355 0.000000 0.553524
0.369277 0.000000 0.457302
0.422962 0.000000 0.227261
0.000000 0.000000 0.691247
0.000000 0.000000 0.687363
0.000000 0.000000 0.681093
0.000000 0.000000 0.670768
0.000000 0.000000 0.652917
0.000000 0.000000 0.625014
0.217994 0.000000 0.583925
0.387709 0.000000 0.507136
0.482089 0.000000 0.307367
0.000000 0.000000 0.720451
0.000000 0.000000 0.717312
0.000000 0.000000 0.711926
0.000000 0.000000 0.702356
0.000000 0.000000 0.686075
0.000000 0.000000 0.660936
0.235528 0.000000 0.621269
0.420695 0.000000 0.562453
0.566118 0.000000 0.439359
0.000000 0.064794 0.750499
0.000000 0.067423 0.749300
0.000000 0.071540 0.747253
0.000000 0.074762 0.742950
0.000000 0.076033 0.731256
0.000000 0.074539 0.711508
0.262177 0.000000 0.673057
0.455925 0.000000 0.627106
0.644121 0.000000 0.558001
0.000000 0.138679 0.779077
0.000000 0.139992 0.778200
0.000000 0.142133 0.776681
0.000000 0.145467 0.774132
0.000000 0.154154 0.769899
0.000000 0.159020 0.756746
0.301815 0.144420 0.728393
0.506779 0.000000 0.697129
0.698629 0.000000 0.646116
0.000000 0.293336 0.816846
0.000000 0.295819 0.816197
0.000000 0.298409 0.815181
0.000000 0.302405 0.813307
0.000000 0.309847 0.810725
0.000000 0.325279 0.807369
0.347184 0.324061 0.795232
0.558483 0.278968 0.763034
0.761162 0.170689 0.728995
0.000000 0.522339 0.831851
0.000000 0.524390 0.831490
0.000000 0.528037 0.830849
0.000000 0.534978 0.829876
0.000000 0.551323 0.828815
0.000000 0.574996 0.826555
0.360713 0.592708 0.824862
0.591436 0.604991 0.824209
0.792338 0.571964 0.808103
0.000000 0.751587 0.824112
0.000000 0.752831 0.823929
0.000000 0.754977 0.823615
0.000000 0.758559 0.823092
0.000000 0.766335 0.822425
0.255006 0.776049 0.821908
0.443085 0.786979 0.823750
0.634445 0.799564 0.825733
0.788262 0.806049 0.831732
