Assets/Lutify-Free-LUTs-Pack/Lutify Free LUTs Pack/Print Film Pro - Print Film 2/Lutify.me-PrintFilm2-DWG-to-DWG.cube
# Created with: fylm.ai - Colour Grading and Collaboration Software in Cloud 
# Website: https://fylm.ai 
# META
# Option: Gamut compress
# Block 2: colourMatch | Blending Mode: Normal | {"ColorSpace":0,"CrossCovarianceLimit":50,"ReshapingIterations":1,"PercentSaturationShift":100,"PercentShadingShift":100,"ExtraShading":true,"PercentTint":100,"PercentModified":100}
# Block 3: HSL | Blending Mode: Normal | {"hue":{"Reds":0,"Yellows":0,"Greens":0,"Cyans":0,"Blues":0,"Magentas":0},"saturation":{"Reds":1,"Yellows":0.9,"Greens":0.95,"Cyans":1,"Blues":1,"Magentas":1},"luminance":{"Reds":0.8,"Yellows":0.95,"Greens":0.9,"Cyans":0.8,"Blues":0.8,"Magentas":0.8},"lum_sat":{"Blacks":1,"Shadows":1,"Midtones":1,"Highlights":1,"Whites":1},"sat_sat":{"10":1,"20":1,"30":1,"40":1,"50":1}}
# Block 4: LUT | Filmic Curve Response: Low Contrast 2 (100%)
TITLE "dwg" 
LUT_3D_SIZE 9
-0.033384 -0.033384 -0.033384
-0.003306 -0.025054 -0.027055
0.104608 -0.007715 -0.013683
0.277961 0.064672 0.057330
0.415446 0.177926 0.168276
0.528538 0.304846 0.278278
0.645154 0.422748 0.394578
0.781246 0.536683 0.527260
0.903194 0.653021 0.648418
-0.015359 0.023352 -0.015184
0.057963 0.046797 -0.009395
0.171672 0.057918 0.009450
0.296518 0.090523 0.070309
0.418874 0.189817 0.171955
0.530065 0.309509 0.279934
0.645913 0.424120 0.395284
0.781509 0.537075 0.527502
0.903273 0.653163 0.648492
0.014719 0.141624 0.011010
0.083547 0.167148 0.023241
0.228347 0.182352 0.057386
0.341928 0.195684 0.115171
0.433766 0.225208 0.185983
0.534840 0.323984 0.285178
0.647682 0.428133 0.396985
0.782344 0.538322 0.528272
0.903527 0.653615 0.648726
0.095349 0.287745 0.091945
0.137386 0.295558 0.100144
0.255230 0.309193 0.126938
0.388828 0.308321 0.176263
0.480102 0.318311 0.235668
0.548859 0.357073 0.298942
0.652926 0.440448 0.402070
0.785041 0.542320 0.530740
0.904346 0.655079 0.649517
0.228706 0.409748 0.196019
0.246761 0.411404 0.198942
0.292975 0.414454 0.207259
0.409835 0.414806 0.236952
0.512735 0.421756 0.288666
0.607983 0.428230 0.355224
0.670242 0.472688 0.417614
0.792127 0.554515 0.537241
0.906976 0.659788 0.652060
0.358235 0.516814 0.299370
0.365031 0.516883 0.300215
0.386227 0.515311 0.301944
0.436537 0.512149 0.309371
0.529495 0.516806 0.341836
0.638233 0.526288 0.404000
0.754781 0.540514 0.493828
0.814946 0.590006 0.557138
0.914599 0.674273 0.659524
0.482430 0.626691 0.408923
0.485892 0.625175 0.408061
0.498093 0.620575 0.406357
0.515848 0.618521 0.407724
0.556055 0.620622 0.418386
0.657483 0.626715 0.458612
0.792374 0.639819 0.544569
0.918446 0.666671 0.651498
0.936738 0.718008 0.680684
0.617375 0.745149 0.529144
0.617908 0.745105 0.529199
0.619596 0.744961 0.529371
0.624938 0.744507 0.529914
0.640880 0.743148 0.531539
0.686739 0.744557 0.543457
0.813317 0.752736 0.598845
0.934822 0.767476 0.683009
0.934429 0.760463 0.681108
0.759079 0.895471 0.677670
0.759300 0.895484 0.677718
0.760004 0.895521 0.677870
0.762277 0.895641 0.678361
0.769488 0.896023 0.679918
0.792029 0.897128 0.684714
0.849389 0.897337 0.698905
0.941381 0.900840 0.736560
0.941304 0.899335 0.735722
-0.030847 -0.030293 -0.026342
-0.000618 -0.020377 -0.005657
0.102490 -0.005248 0.011289
0.274471 0.064912 0.072342
0.413080 0.178526 0.174472
0.526999 0.304239 0.279294
0.644648 0.422313 0.395145
0.780831 0.536486 0.527205
0.903148 0.652972 0.648467
-0.011887 0.030135 0.058948
0.056081 0.056465 0.058681
0.162891 0.055448 0.044310
0.291765 0.093659 0.085677
0.416887 0.190913 0.178376
0.528950 0.308997 0.281193
0.645437 0.423685 0.395878
0.781092 0.536877 0.527435
0.903226 0.653111 0.648540
0.011968 0.143198 0.077011
0.080891 0.176310 0.075921
0.217997 0.198789 0.082960
0.336133 0.206126 0.126239
0.430404 0.230102 0.191617
0.534657 0.322955 0.286910
0.647457 0.427770 0.397800
0.781925 0.538123 0.528178
0.903479 0.653561 0.648773
0.092383 0.295665 0.125240
0.132266 0.305719 0.128017
0.240160 0.324133 0.143719
0.375479 0.322318 0.175507
0.467640 0.337113 0.234096
0.546294 0.358037 0.299576
0.652708 0.440096 0.402997
0.784610 0.542122 0.530646
0.904299 0.655025 0.649539
0.225007 0.420046 0.212851
0.240426 0.422250 0.214979
0.281402 0.427354 0.220409
0.391898 0.425025 0.237305
0.512486 0.421426 0.288395
0.607809 0.427829 0.355002
0.669162 0.472709 0.417742
0.791935 0.554361 0.537399
0.906929 0.659732 0.652083
0.350061 0.527211 0.310156
0.355904 0.527871 0.311010
0.372674 0.528190 0.312289
0.422197 0.523659 0.314739
0.529306 0.516690 0.341696
0.638150 0.526186 0.403912
0.754698 0.540395 0.493740
0.814270 0.589752 0.556857
0.914553 0.674216 0.659557
0.469473 0.639321 0.418680
0.471754 0.638762 0.418421
0.478880 0.638315 0.418785
0.506736 0.626718 0.412854
0.555939 0.620581 0.418329
0.657417 0.626676 0.458561
0.792346 0.639782 0.544538
0.918431 0.666639 0.651481
0.936700 0.717952 0.680742
0.598746 0.761470 0.540446
0.600738 0.759121 0.538658
0.607626 0.755273 0.536195
0.624877 0.744496 0.529895
0.640827 0.743137 0.531520
0.686698 0.744541 0.543433
0.813294 0.752721 0.598826
0.934822 0.767463 0.683005
0.934428 0.760453 0.681105
0.759053 0.895466 0.677661
0.759274 0.895478 0.677709
0.759978 0.895515 0.677861
0.762253 0.895635 0.678352
0.769462 0.896017 0.679909
0.792008 0.897123 0.684705
0.849372 0.897331 0.698896
0.941381 0.900836 0.736558
0.941304 0.899329 0.735719
-0.027536 -0.026635 -0.010542
-0.004677 -0.013693 0.030225
0.083953 -0.004383 0.050583
0.263970 0.063581 0.116837
0.414094 0.179005 0.196544
0.524561 0.302210 0.286258
0.641966 0.420893 0.396689
0.779571 0.535929 0.527268
0.902997 0.652803 0.648617
-0.009494 0.012236 0.091826
0.020806 0.026408 0.104570
0.126380 0.030585 0.098160
0.290069 0.098953 0.143812
0.417144 0.190483 0.199780
0.526214 0.306472 0.287918
0.642613 0.422258 0.397316
0.779828 0.536316 0.527494
0.903077 0.652944 0.648690
0.057983 0.160727 0.249401
0.087632 0.179210 0.235421
0.216588 0.222076 0.228608
0.333540 0.204991 0.191977
0.426315 0.225665 0.209343
0.531387 0.320375 0.293218
0.644968 0.426518 0.399492
0.780652 0.537552 0.528220
0.903330 0.653397 0.648926
0.099660 0.289313 0.245849
0.135383 0.309864 0.245115
0.241446 0.339506 0.243315
0.365886 0.350325 0.229746
0.460876 0.349337 0.253349
0.543189 0.358701 0.306212
0.650924 0.438982 0.405189
0.783308 0.541520 0.530547
0.904150 0.654861 0.649689
0.227232 0.429371 0.273163
0.243145 0.430807 0.271149
0.282186 0.437360 0.267509
0.376085 0.451158 0.273382
0.489639 0.442317 0.286602
0.582651 0.460862 0.350033
0.666585 0.471629 0.419108
0.790617 0.553777 0.537206
0.906781 0.659554 0.652158
0.348821 0.535386 0.333957
0.354064 0.536336 0.334407
0.369497 0.538576 0.335632
0.404966 0.544045 0.338971
0.502844 0.539100 0.347112
0.637883 0.525858 0.403627
0.754437 0.540014 0.493458
0.813652 0.589220 0.557477
0.914409 0.674040 0.659660
0.462531 0.651370 0.433711
0.463939 0.651596 0.433860
0.468534 0.652550 0.434526
0.482613 0.655323 0.436885
0.530592 0.641667 0.429369
0.657203 0.626552 0.458397
0.792256 0.639667 0.544441
0.918386 0.666534 0.651429
0.936580 0.717775 0.680923
0.578242 0.793307 0.567894
0.578840 0.793354 0.567951
0.579870 0.792488 0.567123
0.583672 0.788718 0.563780
0.630294 0.751707 0.536771
0.686568 0.744492 0.543361
0.813222 0.752675 0.598765
0.934820 0.767424 0.682995
0.934426 0.760420 0.681097
0.716019 0.919617 0.694046
0.717838 0.917752 0.692524
0.721727 0.914367 0.689813
0.747538 0.900685 0.680615
0.769376 0.895996 0.679877
0.791941 0.897103 0.684678
0.849320 0.897311 0.698867
0.941380 0.900822 0.736550
0.941303 0.899315 0.735711
-0.023934 -0.022418 0.011219
-0.003274 -0.007159 0.062705
0.068858 0.007081 0.092702
0.176208 0.008641 0.087366
0.403757 0.178893 0.259363
0.527728 0.304910 0.320585
0.639347 0.418441 0.406692
0.777166 0.534366 0.528386
0.902503 0.652249 0.649137
0.005168 0.036711 0.149535
0.030669 0.055127 0.170694
0.099726 0.059104 0.168922
0.219639 0.048362 0.143645
0.409111 0.192920 0.269151
0.528668 0.308705 0.321617
0.639924 0.419794 0.407257
0.777397 0.534755 0.528606
0.902582 0.652391 0.649210
0.114356 0.194972 0.333662
0.122228 0.192139 0.323889
0.173672 0.188638 0.306089
0.304726 0.180737 0.282690
0.426538 0.235634 0.293076
0.531528 0.320629 0.324659
0.641864 0.424108 0.409115
0.778130 0.535988 0.529302
0.902838 0.652846 0.649444
0.170710 0.293130 0.402736
0.172344 0.303037 0.390308
0.231210 0.335968 0.378925
0.366771 0.372118 0.380551
0.457883 0.348304 0.336992
0.539725 0.354006 0.333395
0.647422 0.436164 0.414296
0.780500 0.539955 0.531459
0.903665 0.654320 0.650201
0.219607 0.416106 0.386798
0.232319 0.421365 0.384143
0.278669 0.438287 0.384710
0.382581 0.467017 0.386377
0.487236 0.475020 0.371044
0.577096 0.465859 0.378740
0.663263 0.472141 0.428972
0.787892 0.552249 0.538044
0.906318 0.659038 0.652627
0.355048 0.545116 0.405394
0.360148 0.546323 0.405299
0.375011 0.548638 0.404054
0.407574 0.553579 0.400539
0.493000 0.569133 0.402751
0.601511 0.562716 0.402484
0.711166 0.577405 0.475662
0.811249 0.589119 0.558747
0.913957 0.673471 0.659964
0.463988 0.659357 0.464571
0.465484 0.659852 0.464708
0.470136 0.660764 0.464922
0.482851 0.663364 0.465590
0.516786 0.669977 0.467681
0.610956 0.670996 0.471350
0.791965 0.639289 0.544126
0.918239 0.666194 0.651260
0.936204 0.717243 0.681432
0.576478 0.800858 0.580671
0.576939 0.801028 0.580792
0.578519 0.801591 0.581228
0.583202 0.802969 0.582321
0.594187 0.803990 0.582446
0.640627 0.798684 0.578580
0.812984 0.752524 0.598566
0.934813 0.767300 0.682962
0.934420 0.760313 0.681068
0.695154 0.931742 0.705072
0.695372 0.931734 0.705068
0.696078 0.931705 0.705053
0.698379 0.931588 0.704977
0.704949 0.930772 0.704276
0.786724 0.897323 0.683961
0.849146 0.897245 0.698769
0.941377 0.900773 0.736523
0.941301 0.899266 0.735684
-0.018212 -0.019031 0.031166
0.001754 -0.005741 0.075727
0.049675 0.013094 0.116077
0.156876 0.033169 0.144381
0.293649 0.058002 0.160985
0.518356 0.304476 0.387125
0.644780 0.424734 0.442196
0.771656 0.532020 0.533614
0.900986 0.650427 0.650637
0.001141 0.016828 0.123229
0.025935 0.036625 0.154589
0.071495 0.048886 0.170261
0.163846 0.042930 0.157998
0.293609 0.057930 0.160873
0.520198 0.309169 0.389562
0.645149 0.425802 0.442544
0.771861 0.532359 0.533803
0.901065 0.650569 0.650711
0.169763 0.248962 0.399674
0.173884 0.244928 0.393836
0.183702 0.232433 0.377118
0.263444 0.213347 0.351515
0.361917 0.169017 0.292563
0.525850 0.324650 0.398206
0.646299 0.429137 0.443624
0.772516 0.533441 0.534408
0.901321 0.651026 0.650953
0.236904 0.329374 0.475892
0.233880 0.324527 0.465451
0.245626 0.324421 0.455107
0.320541 0.329172 0.443111
0.437824 0.319906 0.418905
0.540996 0.365046 0.417567
0.649646 0.439272 0.446782
0.774621 0.536909 0.536341
0.902149 0.652503 0.651732
0.284692 0.408133 0.528723
0.275170 0.410710 0.513439
0.284075 0.426141 0.500603
0.362406 0.457591 0.496985
0.488686 0.494075 0.504124
0.572894 0.467555 0.459566
0.655927 0.466603 0.454028
0.781511 0.548417 0.542541
0.904813 0.657275 0.654244
0.340234 0.526948 0.499592
0.344566 0.528483 0.499084
0.358118 0.533016 0.497832
0.402287 0.550289 0.501516
0.497715 0.587585 0.510875
0.604815 0.595006 0.496135
0.704280 0.581854 0.504374
0.803220 0.585157 0.562013
0.912549 0.671697 0.661566
0.473241 0.670558 0.529083
0.474767 0.671030 0.529124
0.479498 0.672496 0.529240
0.491374 0.675883 0.528695
0.519670 0.679247 0.524638
0.607947 0.698218 0.530682
0.732172 0.692992 0.533925
0.870821 0.707442 0.626418
0.935135 0.715744 0.683142
0.579398 0.805682 0.604135
0.579877 0.805805 0.604209
0.581270 0.806172 0.604410
0.585451 0.808053 0.605531
0.597735 0.814169 0.609261
0.631386 0.823076 0.613922
0.741236 0.826010 0.620449
0.934791 0.766917 0.682858
0.934400 0.759964 0.680973
0.696289 0.943480 0.721079
0.696431 0.943489 0.721083
0.696896 0.943525 0.721106
0.698404 0.943641 0.721187
0.703507 0.943994 0.721483
0.721687 0.945017 0.722302
0.770038 0.938178 0.716789
0.941369 0.900615 0.736435
0.941293 0.899106 0.735595
0.048045 0.061071 0.192090
0.062115 0.069576 0.202886
0.092710 0.081967 0.217906
0.149522 0.094082 0.230607
0.284946 0.110748 0.241578
0.397706 0.133306 0.249398
0.632441 0.422490 0.501047
0.782062 0.540206 0.566225
0.899313 0.648803 0.656704
0.047686 0.060813 0.191773
0.061898 0.069412 0.202662
0.092571 0.081893 0.217819
0.149405 0.094020 0.230536
0.284921 0.110710 0.241530
0.397702 0.133280 0.249359
0.633194 0.424065 0.502053
0.782138 0.540491 0.566309
0.899382 0.648929 0.656768
0.075568 0.106478 0.247841
0.083984 0.107511 0.248989
0.105229 0.106829 0.247422
0.149030 0.093822 0.230309
0.284841 0.110587 0.241379
0.397689 0.133198 0.249233
0.635452 0.428639 0.504709
0.782376 0.541394 0.566574
0.899600 0.649326 0.656971
0.298151 0.382757 0.536687
0.298318 0.381259 0.534452
0.301178 0.375928 0.526986
0.318168 0.363848 0.511181
0.398314 0.342657 0.483463
0.488384 0.304134 0.437043
0.641578 0.441553 0.511477
0.783129 0.544265 0.567409
0.900305 0.650603 0.657622
0.347904 0.446958 0.590974
0.344407 0.443758 0.584910
0.345726 0.441860 0.576807
0.367802 0.446116 0.571516
0.442468 0.451527 0.561325
0.551104 0.443058 0.537237
0.660431 0.479805 0.531233
0.785317 0.552633 0.569784
0.902571 0.654703 0.659771
0.415057 0.528913 0.663642
0.393242 0.518248 0.639623
0.380386 0.520805 0.618078
0.401994 0.536067 0.611567
0.479189 0.570903 0.612833
0.606113 0.613987 0.626080
0.698027 0.580816 0.575085
0.795652 0.579706 0.579311
0.909678 0.667880 0.666658
0.454052 0.638709 0.612595
0.455252 0.639295 0.612486
0.458949 0.641094 0.612149
0.472351 0.648539 0.611724
0.511686 0.669719 0.616336
0.613141 0.720463 0.631158
0.740483 0.730444 0.624022
0.859214 0.707692 0.642175
0.932275 0.711605 0.688619
0.587367 0.822516 0.662139
0.587848 0.822723 0.662207
0.589375 0.823380 0.662424
0.594189 0.825457 0.663100
0.606614 0.831125 0.664564
0.635574 0.835535 0.661296
0.740013 0.860497 0.675832
0.893326 0.849690 0.691652
0.985662 0.866247 0.753823
0.699772 0.957962 0.748255
0.699925 0.957978 0.748263
0.700416 0.958032 0.748288
0.702004 0.958208 0.748372
0.707005 0.958754 0.748601
0.723461 0.960613 0.749665
0.767358 0.965022 0.752712
0.899635 0.960476 0.760525
0.941266 0.898584 0.735304
0.141702 0.166248 0.316460
0.145678 0.167469 0.317722
0.158298 0.169871 0.320124
0.195194 0.173286 0.323004
0.272390 0.178108 0.325500
0.388344 0.187020 0.324866
0.490330 0.209127 0.329708
0.764978 0.536416 0.615891
0.916430 0.657871 0.690615
0.141621 0.166209 0.316418
0.145595 0.167432 0.317682
0.158218 0.169854 0.320106
0.195125 0.173270 0.322988
0.272352 0.178093 0.325483
0.388339 0.187008 0.324852
0.490327 0.209118 0.329697
0.765288 0.536873 0.616178
0.916438 0.657964 0.690633
0.141357 0.166083 0.316282
0.145327 0.167313 0.317554
0.157964 0.169797 0.320046
0.194902 0.173219 0.322937
0.272234 0.178045 0.325434
0.388323 0.186968 0.324805
0.490318 0.209092 0.329661
0.766328 0.538345 0.617106
0.916461 0.658252 0.690688
0.140492 0.165671 0.315839
0.144450 0.166923 0.317135
0.157130 0.169614 0.319853
0.194176 0.173051 0.322770
0.271848 0.177889 0.325274
0.388269 0.186840 0.324651
0.490288 0.209005 0.329544
0.769234 0.542760 0.619912
0.916538 0.659190 0.690870
0.420459 0.507616 0.661239
0.420583 0.506880 0.660149
0.420325 0.504165 0.656303
0.426806 0.501792 0.651953
0.441424 0.486852 0.632471
0.510525 0.463001 0.602118
0.600282 0.420874 0.551851
0.777604 0.556393 0.628450
0.916774 0.662176 0.691436
0.467602 0.567468 0.711759
0.467050 0.566827 0.710360
0.464899 0.563420 0.705080
0.467115 0.561321 0.697585
0.488484 0.565772 0.694037
0.555661 0.572686 0.687402
0.670644 0.559924 0.659177
0.800604 0.594767 0.652158
0.917355 0.671152 0.692965
0.510109 0.621108 0.759823
0.517138 0.630894 0.766435
0.508106 0.630802 0.754855
0.503549 0.634901 0.740896
0.522396 0.651135 0.735370
0.591683 0.692384 0.744146
0.740600 0.751857 0.768114
0.852202 0.705382 0.704302
0.929071 0.706099 0.706107
0.568199 0.769089 0.741095
0.568514 0.769354 0.741079
0.569638 0.770190 0.741032
0.573451 0.773538 0.740235
0.584696 0.784215 0.738186
0.623206 0.812469 0.746320
0.746415 0.883423 0.775643
0.906110 0.895272 0.771456
1.001477 0.880072 0.788063
0.711941 0.979389 0.806815
0.712097 0.979434 0.806826
0.712596 0.979578 0.806859
0.714205 0.980045 0.806965
0.719369 0.981534 0.807307
0.737901 0.986555 0.808961
0.772059 0.984825 0.802158
0.905252 1.000412 0.816828
0.994387 0.981623 0.809218
0.238981 0.249967 0.405513
0.240492 0.249741 0.405252
0.245624 0.249357 0.404758
0.262659 0.250272 0.405330
0.305980 0.250948 0.404830
0.378271 0.253011 0.403510
0.478632 0.257378 0.396937
0.581414 0.287165 0.407201
0.906603 0.660084 0.745968
0.238951 0.249967 0.405514
0.240462 0.249741 0.405252
0.245586 0.249352 0.404754
0.262629 0.250266 0.405325
0.305962 0.250945 0.404827
0.378264 0.253008 0.403507
0.478630 0.257375 0.396934
0.581414 0.287163 0.407198
0.906697 0.660238 0.746083
0.238851 0.249967 0.405515
0.240367 0.249740 0.405253
0.245467 0.249336 0.404739
0.262545 0.250251 0.405310
0.305908 0.250935 0.404818
0.378240 0.252998 0.403497
0.478626 0.257367 0.396924
0.581413 0.287156 0.407188
0.906996 0.660732 0.746451
0.238533 0.249967 0.405520
0.240054 0.249739 0.405256
0.245075 0.249284 0.404692
0.262263 0.250197 0.405260
0.305734 0.250904 0.404790
0.378161 0.252963 0.403463
0.478611 0.257337 0.396890
0.581409 0.287133 0.407156
0.907961 0.662324 0.747638
0.237470 0.249968 0.405538
0.239024 0.249736 0.405270
0.243789 0.249114 0.404540
0.261338 0.250023 0.405097
0.305156 0.250800 0.404696
0.377906 0.252851 0.403352
0.478564 0.257240 0.396780
0.581396 0.287058 0.407050
0.911282 0.667359 0.751378
0.558539 0.646086 0.800860
0.559063 0.646456 0.801191
0.559059 0.645704 0.800255
0.558346 0.643082 0.796971
0.562399 0.639981 0.792166
0.567340 0.621926 0.770423
0.622486 0.592489 0.734561
0.723885 0.542309 0.673214
0.919561 0.680768 0.761657
0.567955 0.667193 0.810896
0.569270 0.668309 0.811967
0.573182 0.671632 0.815162
0.581155 0.677696 0.820804
0.598223 0.690251 0.832432
0.623087 0.703385 0.841371
0.681374 0.710974 0.839726
0.814058 0.692682 0.805273
0.945224 0.723687 0.790184
0.509425 0.637646 0.758875
0.514143 0.647307 0.763235
0.538174 0.679226 0.785449
0.567762 0.709288 0.810400
0.603429 0.741562 0.838596
0.651967 0.782279 0.874541
0.725484 0.839852 0.903586
0.904323 0.918798 0.942707
1.002122 0.867801 0.861804
0.703341 0.921924 0.897331
0.703433 0.922025 0.897334
0.703726 0.922347 0.897341
0.704668 0.923384 0.897367
0.707648 0.926623 0.897439
0.719066 0.935975 0.898707
0.756155 0.958975 0.905089
0.913624 1.033187 0.944310
1.048220 1.037533 0.921320
0.337491 0.321625 0.478858
0.338096 0.321573 0.478789
0.340030 0.321447 0.478603
0.346042 0.321382 0.478369
0.363482 0.322032 0.478575
0.403127 0.320447 0.475418
0.469131 0.320491 0.471448
0.567905 0.327194 0.465527
0.682485 0.371990 0.486920
0.337474 0.321624 0.478858
0.338084 0.321573 0.478788
0.340018 0.321447 0.478604
0.346030 0.321380 0.478368
0.363475 0.322032 0.478575
0.403120 0.320446 0.475417
0.469128 0.320490 0.471447
0.567905 0.327193 0.465526
0.682485 0.371990 0.486919
0.337439 0.321624 0.478858
0.338044 0.321572 0.478789
0.339983 0.321445 0.478603
0.346000 0.321374 0.478363
0.363438 0.322030 0.478574
0.403107 0.320443 0.475414
0.469121 0.320487 0.471444
0.567904 0.327190 0.465523
0.682483 0.371987 0.486916
0.337319 0.321621 0.478858
0.337924 0.321569 0.478789
0.339862 0.321440 0.478601
0.345886 0.321356 0.478347
0.363337 0.322024 0.478571
0.403053 0.320433 0.475406
0.469097 0.320475 0.471434
0.567900 0.327181 0.465512
0.682480 0.371980 0.486907
0.336925 0.321612 0.478858
0.337536 0.321560 0.478789
0.339478 0.321422 0.478592
0.345527 0.321299 0.478296
0.362996 0.322002 0.478558
0.402872 0.320401 0.475380
0.469017 0.320440 0.471401
0.567887 0.327149 0.465476
0.682470 0.371958 0.486878
0.335659 0.321590 0.478865
0.336241 0.321532 0.478791
0.338202 0.321367 0.478568
0.344324 0.321107 0.478127
0.361880 0.321933 0.478520
0.402276 0.320295 0.475293
0.468757 0.320322 0.471292
0.567842 0.327047 0.465358
0.682434 0.371884 0.486782
0.609056 0.694456 0.843243
0.609434 0.694750 0.843542
0.610615 0.695665 0.844479
0.614322 0.698525 0.847367
0.624802 0.706398 0.855180
0.648840 0.724145 0.873193
0.677490 0.733791 0.882571
0.751231 0.733717 0.881582
0.867975 0.680975 0.817163
0.610448 0.719032 0.844279
0.611013 0.719508 0.844727
0.612723 0.720921 0.846087
0.617631 0.724843 0.849811
0.630737 0.735094 0.859694
0.659695 0.756985 0.881095
0.709150 0.791050 0.915339
0.818819 0.838276 0.963018
0.969307 0.843887 0.966160
0.512267 0.673247 0.760820
0.512267 0.673247 0.760820
0.529286 0.707403 0.776455
0.572198 0.764722 0.813369
0.612897 0.811855 0.845751
0.664882 0.864702 0.885571
0.731023 0.927786 0.932211
0.865555 1.003161 1.003309
1.077014 1.082185 1.082003
