Assets/Lutify-Free-LUTs-Pack/Lutify Free LUTs Pack/Print Film Pro - Print Film 2/Lutify.me-PrintFilm2-RWG-to-Rec709.cube
# Created with: fylm.ai - Colour Grading and Collaboration Software in Cloud 
# Website: https://fylm.ai 
# META
# Option: Gamut compress
# Block 1: IDT | RED REDWideGamutRGB Log3G10
# Block 2: colourMatch | Blending Mode: Normal | {"ColorSpace":0,"CrossCovarianceLimit":50,"ReshapingIterations":1,"PercentSaturationShift":100,"PercentShadingShift":100,"ExtraShading":true,"PercentTint":100,"PercentModified":100}
# Block 3: HSL | Blending Mode: Normal | {"hue":{"Reds":0,"Yellows":0,"Greens":0,"Cyans":0,"Blues":0,"Magentas":0},"saturation":{"Reds":1,"Yellows":0.9,"Greens":0.95,"Cyans":1,"Blues":1,"Magentas":1},"luminance":{"Reds":0.8,"Yellows":0.95,"Greens":0.9,"Cyans":0.8,"Blues":0.8,"Magentas":0.8},"lum_sat":{"Blacks":1,"Shadows":1,"Midtones":1,"Highlights":1,"Whites":1},"sat_sat":{"10":1,"20":1,"30":1,"40":1,"50":1}}
# Block 4: LUT | Filmic Curve Response: Low Contrast 2 (100%)
# Block 5: ODT | Rec709
TITLE "Lutify.me-PrintFilm2-RWG-to-Rec709" 
LUT_3D_SIZE 9
0.000000 0.000000 0.000000
0.000000 0.000000 0.000000
0.069820 0.000000 0.000000
0.335253 0.000000 0.000000
0.757496 0.000000 0.000000
1.000000 0.287665 0.030818
1.000000 0.691332 0.328562
1.000000 0.896607 0.716251
1.000000 0.979701 0.910325
0.000000 0.000000 0.000000
0.000000 0.000000 0.000000
0.125684 0.000000 0.000000
0.372853 0.000000 0.000000
0.769109 0.000000 0.000000
1.000000 0.300246 0.000000
1.000000 0.693637 0.327567
1.000000 0.896847 0.716212
1.000000 0.979732 0.910329
0.000000 0.087371 0.000000
0.000000 0.108236 0.000000
0.228595 0.125881 0.000000
0.519331 0.000000 0.000000
0.811418 0.000000 0.000000
1.000000 0.341299 0.000000
1.000000 0.701757 0.323886
1.000000 0.897709 0.716058
1.000000 0.979843 0.910322
0.000000 0.300109 0.000000
0.000000 0.332208 0.000000
0.000000 0.378508 0.000000
0.639064 0.361437 0.000000
0.939919 0.283432 0.000000
1.000000 0.465424 0.000000
1.000000 0.728512 0.309207
1.000000 0.900749 0.715443
1.000000 0.980241 0.910315
0.000000 0.668656 0.000000
0.000000 0.680476 0.000000
0.000000 0.701086 0.000000
0.525949 0.709997 0.000000
0.943311 0.689282 0.000000
1.000000 0.675742 0.000000
1.000000 0.802763 0.222883
1.000000 0.910452 0.712083
1.000000 0.981626 0.910239
0.000000 0.904118 0.000000
0.000000 0.904679 0.000000
0.000000 0.907299 0.000000
0.464688 0.908426 0.000000
0.876977 0.891558 0.000000
1.000000 0.887262 0.000000
1.000000 0.889704 0.454504
1.000000 0.938360 0.685277
1.000000 0.986075 0.909648
0.657942 0.986268 0.041035
0.664458 0.986096 0.048904
0.685937 0.985518 0.068119
0.750596 0.984860 0.130318
0.865382 0.979290 0.166659
0.994000 0.973237 0.307880
1.000000 0.972449 0.623680
1.000000 0.973593 0.785215
1.000000 0.998019 0.904364
0.909207 1.000000 0.656708
0.909869 1.000000 0.657019
0.912212 1.000000 0.658139
0.920737 1.000000 0.662411
0.940975 1.000000 0.669804
0.979567 1.000000 0.684761
1.000000 1.000000 0.780946
1.000000 1.000000 0.856106
1.000000 1.000000 0.850009
0.987877 1.000000 0.879935
0.987938 1.000000 0.879959
0.988166 1.000000 0.880050
0.988960 1.000000 0.880372
0.991568 1.000000 0.881518
0.998637 1.000000 0.885594
1.000000 1.000000 0.898561
1.000000 1.000000 0.918159
1.000000 1.000000 0.918159
0.000000 0.000000 0.000000
0.000000 0.000000 0.000000
0.074851 0.000000 0.000000
0.330233 0.000000 0.000000
0.754017 0.000000 0.000000
1.000000 0.282864 0.073713
1.000000 0.690382 0.335704
1.000000 0.896495 0.717474
1.000000 0.979689 0.910461
0.000000 0.000000 0.000000
0.000000 0.000000 0.000000
0.118501 0.000000 0.000000
0.362376 0.000000 0.000000
0.766077 0.000000 0.000000
1.000000 0.295605 0.064875
1.000000 0.692692 0.334757
1.000000 0.896736 0.717435
1.000000 0.979721 0.910456
0.000000 0.090289 0.000000
0.000000 0.110509 0.000000
0.208042 0.135143 0.000000
0.482332 0.000000 0.000000
0.800463 0.000000 0.000000
1.000000 0.337366 0.000000
1.000000 0.700837 0.331236
1.000000 0.897597 0.717289
1.000000 0.979832 0.910458
0.000000 0.295220 0.000000
0.000000 0.327811 0.000000
0.000000 0.375564 0.000000
0.637273 0.358086 0.000000
0.939055 0.278414 0.000000
1.000000 0.462041 0.000000
1.000000 0.727844 0.317241
1.000000 0.900641 0.716696
1.000000 0.980228 0.910439
0.000000 0.666508 0.000000
0.000000 0.678608 0.000000
0.000000 0.700139 0.000000
0.523884 0.709233 0.000000
0.943231 0.688435 0.000000
1.000000 0.674739 0.000000
1.000000 0.802104 0.235893
1.000000 0.910476 0.713582
1.000000 0.981615 0.910373
0.000000 0.904017 0.000000
0.000000 0.904491 0.000000
0.000000 0.907148 0.000000
0.462528 0.908365 0.000000
0.876758 0.891464 0.000000
1.000000 0.887169 0.000000
1.000000 0.889616 0.454313
1.000000 0.938248 0.687669
1.000000 0.986066 0.909793
0.657294 0.986273 0.039295
0.663836 0.986101 0.047554
0.685398 0.985521 0.067287
0.750208 0.984853 0.129830
0.865245 0.979285 0.166442
0.993982 0.973226 0.307755
1.000000 0.972439 0.623614
1.000000 0.973584 0.785205
1.000000 0.998014 0.904591
0.909143 1.000000 0.656654
0.909805 1.000000 0.656965
0.912154 1.000000 0.658086
0.920683 1.000000 0.662358
0.940944 1.000000 0.669767
0.979554 1.000000 0.684726
1.000000 1.000000 0.780922
1.000000 1.000000 0.856100
1.000000 1.000000 0.850002
0.987870 1.000000 0.879933
0.987931 1.000000 0.879956
0.988159 1.000000 0.880047
0.988954 1.000000 0.880369
0.991565 1.000000 0.881516
0.998635 1.000000 0.885592
1.000000 1.000000 0.898559
1.000000 1.000000 0.918159
1.000000 1.000000 0.918159
0.000000 0.000000 0.000000
0.000000 0.000000 0.000000
0.058783 0.000000 0.023886
0.307955 0.000000 0.062643
0.766619 0.000000 0.085590
1.000000 0.273500 0.145091
1.000000 0.687013 0.360172
1.000000 0.896097 0.721793
1.000000 0.979645 0.910940
0.000000 0.000000 0.000000
0.000000 0.000000 0.043579
0.082826 0.000000 0.051788
0.353490 0.000000 0.077322
0.769109 0.000000 0.082800
1.000000 0.288429 0.141544
1.000000 0.689348 0.359375
1.000000 0.896337 0.721761
1.000000 0.979677 0.910935
0.000000 0.055383 0.243213
0.000000 0.078624 0.219730
0.153924 0.162003 0.175650
0.453688 0.034986 0.092198
0.789132 0.000000 0.065152
1.000000 0.327508 0.127139
1.000000 0.697574 0.356416
1.000000 0.897201 0.721632
1.000000 0.979788 0.910937
0.000000 0.284827 0.040049
0.000000 0.347426 0.000000
0.000000 0.440426 0.000000
0.537232 0.448993 0.000000
0.878129 0.427365 0.000000
1.000000 0.455823 0.000000
1.000000 0.724869 0.344622
1.000000 0.900251 0.721122
1.000000 0.980184 0.910926
0.000000 0.658341 0.000000
0.000000 0.671631 0.000000
0.000000 0.696542 0.000000
0.516322 0.706443 0.000000
0.942942 0.685340 0.000000
1.000000 0.671073 0.000000
1.000000 0.799737 0.282404
1.000000 0.910432 0.718686
1.000000 0.981573 0.910863
0.000000 0.903667 0.000000
0.000000 0.903799 0.000000
0.000000 0.906596 0.000000
0.454600 0.908145 0.000000
0.875964 0.891123 0.000000
1.000000 0.886832 0.000000
1.000000 0.889295 0.453622
1.000000 0.937853 0.696080
1.000000 0.986030 0.910316
0.654935 0.986293 0.031835
0.661572 0.986120 0.042182
0.683437 0.985534 0.064168
0.748798 0.984827 0.128054
0.864747 0.979266 0.165655
0.993918 0.973189 0.307304
1.000000 0.972400 0.623377
1.000000 0.973550 0.785170
1.000000 0.997996 0.905410
0.908908 1.000000 0.656456
0.909577 1.000000 0.656770
0.911929 1.000000 0.657891
0.920470 1.000000 0.662160
0.940832 1.000000 0.669634
0.979510 1.000000 0.684597
1.000000 1.000000 0.780835
1.000000 1.000000 0.856080
1.000000 1.000000 0.849979
0.987850 1.000000 0.879924
0.987911 1.000000 0.879948
0.988139 1.000000 0.880039
0.988934 1.000000 0.880361
0.991547 1.000000 0.881508
0.998624 1.000000 0.885584
1.000000 1.000000 0.898552
1.000000 1.000000 0.918159
1.000000 1.000000 0.918159
0.000000 0.000000 0.000000
0.000000 0.000000 0.053550
0.046351 0.000000 0.075249
0.182502 0.000000 0.061162
0.734667 0.000000 0.263900
1.000000 0.269272 0.301835
1.000000 0.681901 0.438570
1.000000 0.894660 0.736618
1.000000 0.979500 0.912614
0.000000 0.000000 0.111265
0.000000 0.000000 0.142750
0.052943 0.000000 0.144232
0.236229 0.000000 0.106991
0.751214 0.000000 0.276809
1.000000 0.280568 0.301101
1.000000 0.684411 0.438048
1.000000 0.894905 0.736581
1.000000 0.979527 0.912615
0.000000 0.000000 0.467477
0.000000 0.000000 0.446512
0.000000 0.032723 0.394438
0.401866 0.000000 0.310663
0.791915 0.000000 0.304497
1.000000 0.315847 0.297203
1.000000 0.692910 0.436140
1.000000 0.895784 0.736437
1.000000 0.979630 0.912613
0.000000 0.145144 0.685911
0.000000 0.177253 0.651027
0.000000 0.340014 0.563309
0.475717 0.497449 0.532999
0.854814 0.383518 0.345461
1.000000 0.423701 0.275813
1.000000 0.720499 0.428553
1.000000 0.898883 0.735885
1.000000 0.980029 0.912609
0.000000 0.618736 0.327554
0.000000 0.675566 0.307832
0.000000 0.754417 0.287927
0.000000 0.805494 0.188222
0.843841 0.800658 0.000000
1.000000 0.780142 0.127798
1.000000 0.793533 0.396943
1.000000 0.909151 0.734442
1.000000 0.981425 0.912579
0.000000 0.902326 0.000000
0.000000 0.902333 0.000000
0.000000 0.904485 0.000000
0.424055 0.907326 0.000000
0.873030 0.889873 0.000000
1.000000 0.885601 0.000000
1.000000 0.888120 0.451113
1.000000 0.936583 0.720383
1.000000 0.985904 0.912186
0.646122 0.986370 0.000000
0.653124 0.986190 0.000000
0.676128 0.985581 0.050549
0.743593 0.984733 0.121344
0.862922 0.979196 0.162778
0.993682 0.973052 0.305668
1.000000 0.972261 0.622520
1.000000 0.973428 0.785045
1.000000 0.997931 0.908253
0.908058 1.000000 0.655742
0.908735 1.000000 0.656058
0.911121 1.000000 0.657188
0.919702 1.000000 0.661450
0.940422 1.000000 0.669152
0.979350 1.000000 0.684132
1.000000 1.000000 0.780522
1.000000 1.000000 0.856009
1.000000 1.000000 0.849896
0.987769 1.000000 0.879893
0.987830 1.000000 0.879917
0.988059 1.000000 0.880007
0.988862 1.000000 0.880331
0.991481 1.000000 0.881477
0.998588 1.000000 0.885557
1.000000 1.000000 0.898527
1.000000 1.000000 0.918159
1.000000 1.000000 0.918159
0.000000 0.000000 0.172813
0.000000 0.000000 0.177996
0.019621 0.000000 0.176565
0.163467 0.000000 0.143700
0.413790 0.000000 0.126355
1.000000 0.000000 0.601658
1.000000 0.683944 0.633560
1.000000 0.889770 0.780387
1.000000 0.979010 0.917629
0.000000 0.000000 0.330726
0.000000 0.000000 0.324409
0.000000 0.000000 0.307941
0.196353 0.000000 0.249469
0.413467 0.000000 0.126023
1.000000 0.000000 0.605004
1.000000 0.685882 0.633328
1.000000 0.890020 0.780404
1.000000 0.979038 0.917638
0.000000 0.000000 0.717135
0.000000 0.000000 0.701426
0.000000 0.000000 0.662354
0.257457 0.000000 0.594592
0.657231 0.000000 0.417902
1.000000 0.176771 0.620396
1.000000 0.692482 0.632463
1.000000 0.890923 0.780469
1.000000 0.979139 0.917667
0.000000 0.076154 0.860888
0.000000 0.111842 0.846235
0.000000 0.162794 0.827205
0.265460 0.206543 0.792577
0.838960 0.000000 0.706659
1.000000 0.375338 0.653914
1.000000 0.711704 0.626325
1.000000 0.894112 0.780676
1.000000 0.979502 0.917777
0.000000 0.323778 0.943348
0.000000 0.323738 0.943262
0.000000 0.502399 0.887350
0.000000 0.714609 0.850582
0.798184 0.817250 0.841687
0.993424 0.752240 0.698680
1.000000 0.776964 0.615133
1.000000 0.904792 0.780254
1.000000 0.980898 0.918169
0.000000 0.896358 0.682273
0.000000 0.902665 0.681689
0.000000 0.918075 0.680235
0.000000 0.942179 0.686258
0.728735 0.946639 0.633471
0.969370 0.942598 0.504769
1.000000 0.929730 0.596375
1.000000 0.935294 0.776022
1.000000 0.985453 0.918273
0.609883 0.986711 0.000000
0.618473 0.986505 0.000000
0.646414 0.985810 0.000000
0.723115 0.984398 0.091233
0.855947 0.978955 0.151830
0.992764 0.972552 0.299541
1.000000 0.971752 0.619408
1.000000 0.972982 0.784589
1.000000 0.997687 0.917207
0.904918 1.000000 0.653141
0.905609 1.000000 0.653462
0.908111 1.000000 0.654620
0.916853 1.000000 0.658861
0.938918 1.000000 0.667404
0.978765 1.000000 0.682447
1.000000 1.000000 0.779384
1.000000 1.000000 0.855753
1.000000 1.000000 0.849596
0.987484 1.000000 0.879782
0.987545 1.000000 0.879806
0.987776 1.000000 0.879896
0.988592 1.000000 0.880221
0.991250 1.000000 0.881370
0.998457 1.000000 0.885461
1.000000 1.000000 0.898435
1.000000 1.000000 0.918159
1.000000 1.000000 0.918159
0.000000 0.000000 0.334378
0.000000 0.000000 0.329999
0.000000 0.000000 0.314190
0.155258 0.000000 0.291103
0.408349 0.000000 0.279805
0.733939 0.000000 0.242127
1.000000 0.586398 0.862919
1.000000 0.896045 0.871902
1.000000 0.977810 0.934853
0.000000 0.000000 0.528901
0.000000 0.000000 0.521914
0.000000 0.000000 0.499643
0.158955 0.000000 0.419182
0.408058 0.000000 0.279666
0.733838 0.000000 0.241967
1.000000 0.590670 0.863529
1.000000 0.896183 0.871883
1.000000 0.977834 0.934852
0.000000 0.000000 0.866908
0.000000 0.000000 0.863835
0.000000 0.000000 0.852338
0.146451 0.000000 0.819352
0.552682 0.000000 0.682946
0.733471 0.000000 0.241392
1.000000 0.605693 0.865629
1.000000 0.896681 0.871815
1.000000 0.977920 0.934862
0.000000 0.124343 0.955627
0.000000 0.127684 0.954820
0.000000 0.133544 0.950169
0.143293 0.140258 0.936546
0.665741 0.000000 0.899020
1.000000 0.000000 0.814270
1.000000 0.649801 0.871402
1.000000 0.898434 0.871550
1.000000 0.978227 0.934895
0.000000 0.349270 0.984569
0.000000 0.363665 0.982800
0.000000 0.392095 0.978079
0.000000 0.458238 0.969785
0.659621 0.519940 0.953259
1.000000 0.505132 0.921766
1.000000 0.750129 0.882841
1.000000 0.904264 0.870407
1.000000 0.979301 0.934979
0.000000 0.581111 1.000000
0.000000 0.581089 1.000000
0.000000 0.581010 1.000000
0.000000 0.830287 0.971157
0.479795 0.914738 0.958116
0.941778 0.947989 0.959217
1.000000 0.916748 0.899708
1.000000 0.925010 0.865218
1.000000 0.983835 0.935636
0.000000 0.992570 0.891653
0.000000 0.993087 0.891487
0.000000 0.994418 0.891974
0.332442 0.996836 0.893819
0.715076 1.000000 0.899237
0.911709 1.000000 0.886420
1.000000 0.997293 0.849668
1.000000 0.991572 0.884801
1.000000 0.996809 0.937328
0.892861 1.000000 0.643415
0.893629 1.000000 0.643753
0.896444 1.000000 0.645008
0.905796 1.000000 0.649347
0.933067 1.000000 0.660935
0.976519 1.000000 0.676390
1.000000 1.000000 0.775175
1.000000 1.000000 0.854820
1.000000 1.000000 0.848505
0.986406 1.000000 0.879374
0.986475 1.000000 0.879400
0.986719 1.000000 0.879491
0.987579 1.000000 0.879819
0.990382 1.000000 0.880978
0.997964 1.000000 0.885109
1.000000 1.000000 0.898102
1.000000 1.000000 0.918159
1.000000 1.000000 0.918159
0.154350 0.000000 0.516565
0.160015 0.000000 0.515964
0.178891 0.000000 0.513894
0.243074 0.000000 0.511110
0.402274 0.000000 0.509342
0.741107 0.000000 0.469424
1.000000 0.000000 0.413768
1.000000 0.864159 0.963956
1.000000 0.977796 0.970896
0.131310 0.000000 0.621471
0.141342 0.000000 0.616044
0.172044 0.000000 0.594599
0.242678 0.000000 0.511056
0.402046 0.000000 0.509285
0.741025 0.000000 0.469381
1.000000 0.000000 0.413720
1.000000 0.864548 0.964002
1.000000 0.977815 0.970894
0.147293 0.000000 0.940821
0.161519 0.000000 0.939701
0.198096 0.000000 0.935633
0.294616 0.000000 0.919222
0.470235 0.000000 0.820313
0.740726 0.000000 0.469224
1.000000 0.000000 0.413546
1.000000 0.865920 0.964166
1.000000 0.977884 0.970885
0.198814 0.115869 1.000000
0.212362 0.114445 1.000000
0.254469 0.107046 1.000000
0.372972 0.058010 1.000000
0.607137 0.000000 0.987206
0.934157 0.000000 0.948210
1.000000 0.000000 0.412916
1.000000 0.870646 0.964741
1.000000 0.978134 0.970855
0.130227 0.399854 1.000000
0.155010 0.401279 1.000000
0.218996 0.405146 1.000000
0.358415 0.417017 1.000000
0.607477 0.424217 1.000000
0.962946 0.385365 0.997838
1.000000 0.282145 0.966441
1.000000 0.885029 0.966799
1.000000 0.979003 0.970737
0.000000 0.689140 1.000000
0.000000 0.691934 1.000000
0.000000 0.702072 1.000000
0.000000 0.729788 1.000000
0.470125 0.776188 1.000000
0.883864 0.818322 1.000000
1.000000 0.821495 0.992169
1.000000 0.919392 0.971316
1.000000 0.982087 0.970229
0.000000 0.812944 1.000000
0.000000 0.812939 1.000000
0.000000 0.812922 1.000000
0.000000 0.812860 1.000000
0.000000 0.960745 1.000000
0.819719 0.984070 1.000000
0.995206 0.998412 1.000000
1.000000 0.986844 0.980048
1.000000 0.994434 0.972525
0.715481 1.000000 0.973082
0.718088 1.000000 0.973115
0.727077 1.000000 0.973233
0.754992 1.000000 0.973644
0.819400 1.000000 0.975044
0.914428 1.000000 0.979148
0.984489 1.000000 0.977289
1.000000 1.000000 0.970159
1.000000 1.000000 0.979868
0.982434 1.000000 0.878007
0.982503 1.000000 0.878029
0.982771 1.000000 0.878116
0.983706 1.000000 0.878424
0.986838 1.000000 0.879535
0.995784 1.000000 0.883713
1.000000 1.000000 0.896897
1.000000 1.000000 0.918159
1.000000 1.000000 0.918159
0.449251 0.000000 0.735916
0.451478 0.000000 0.735735
0.459380 0.000000 0.735090
0.486556 0.000000 0.732870
0.571925 0.000000 0.727587
0.748448 0.000000 0.718363
0.998295 0.000000 0.668183
1.000000 0.000000 0.608953
1.000000 0.961505 1.000000
0.449072 0.000000 0.735918
0.451283 0.000000 0.735737
0.459186 0.000000 0.735092
0.486376 0.000000 0.732872
0.571801 0.000000 0.727574
0.748384 0.000000 0.718356
0.998283 0.000000 0.668171
1.000000 0.000000 0.608939
1.000000 0.961567 1.000000
0.474886 0.000000 0.881285
0.476960 0.000000 0.878566
0.484305 0.000000 0.868300
0.502551 0.000000 0.824987
0.571372 0.000000 0.727531
0.748151 0.000000 0.718329
0.998237 0.000000 0.668125
1.000000 0.000000 0.608890
1.000000 0.961775 1.000000
0.638327 0.000000 1.000000
0.640474 0.000000 1.000000
0.648105 0.000000 1.000000
0.674181 0.000000 1.000000
0.750779 0.000000 1.000000
0.885579 0.000000 0.999363
0.998073 0.000000 0.667958
1.000000 0.000000 0.608714
1.000000 0.962527 1.000000
0.659849 0.410155 1.000000
0.662165 0.410015 1.000000
0.670379 0.409351 1.000000
0.698517 0.406284 1.000000
0.784407 0.387511 1.000000
0.928417 0.341722 1.000000
1.000000 0.166861 1.000000
1.000000 0.000000 0.608075
1.000000 0.964945 1.000000
0.613031 0.728039 1.000000
0.615653 0.728302 1.000000
0.624837 0.729272 1.000000
0.656404 0.732559 1.000000
0.739920 0.745676 1.000000
0.869165 0.745706 1.000000
1.000000 0.741201 1.000000
1.000000 0.718423 1.000000
1.000000 0.972041 1.000000
0.361836 0.904641 1.000000
0.370044 0.904810 1.000000
0.397432 0.905390 1.000000
0.475683 0.907568 1.000000
0.620224 0.913360 1.000000
0.815455 0.926277 1.000000
0.969914 0.941293 1.000000
1.000000 0.943886 1.000000
1.000000 0.988922 1.000000
0.000000 0.939451 1.000000
0.000000 0.939450 1.000000
0.000000 0.939448 1.000000
0.000000 0.939441 1.000000
0.000000 0.939414 1.000000
0.693640 1.000000 1.000000
0.949946 1.000000 1.000000
1.000000 1.000000 1.000000
1.000000 1.000000 1.000000
0.898212 1.000000 1.000000
0.898430 1.000000 1.000000
0.899205 1.000000 1.000000
0.901920 1.000000 1.000000
0.910711 1.000000 1.000000
0.934093 1.000000 1.000000
0.978971 1.000000 1.000000
1.000000 1.000000 1.000000
1.000000 1.000000 0.999125
0.796295 0.000000 0.868432
0.796777 0.000000 0.868401
0.798557 0.000000 0.868286
0.804776 0.000000 0.867885
0.829786 0.000000 0.866553
0.903481 0.000000 0.862654
1.000000 0.000000 0.851224
1.000000 0.000000 0.816189
1.000000 0.157423 0.789963
0.796246 0.000000 0.868435
0.796728 0.000000 0.868404
0.798509 0.000000 0.868289
0.804776 0.000000 0.867885
0.829729 0.000000 0.866556
0.903456 0.000000 0.862655
1.000000 0.000000 0.851226
1.000000 0.000000 0.816190
1.000000 0.157417 0.789963
0.796102 0.000000 0.868444
0.796584 0.000000 0.868413
0.798365 0.000000 0.868299
0.804585 0.000000 0.867897
0.829556 0.000000 0.866565
0.903334 0.000000 0.862662
1.000000 0.000000 0.851233
1.000000 0.000000 0.816192
1.000000 0.157397 0.789963
0.885022 0.000000 1.000000
0.884788 0.000000 1.000000
0.884196 0.000000 1.000000
0.883958 0.000000 1.000000
0.873303 0.000000 0.968418
0.902944 0.000000 0.862684
1.000000 0.000000 0.851259
1.000000 0.000000 0.816201
1.000000 0.157315 0.789963
0.956151 0.340028 1.000000
0.956434 0.339745 1.000000
0.957499 0.338855 1.000000
0.961143 0.335634 1.000000
0.975145 0.325550 1.000000
1.000000 0.289647 1.000000
1.000000 0.000000 1.000000
1.000000 0.000000 0.816231
1.000000 0.157032 0.789964
0.910915 0.737053 1.000000
0.911177 0.736999 1.000000
0.912117 0.737037 1.000000
0.915479 0.737052 1.000000
0.927145 0.737027 1.000000
0.960574 0.736495 1.000000
1.000000 0.722888 1.000000
1.000000 0.671392 1.000000
1.000000 0.156000 0.789966
0.871243 0.913866 1.000000
0.871514 0.913903 1.000000
0.872459 0.914036 1.000000
0.875819 0.914449 1.000000
0.886877 0.915916 1.000000
0.918990 0.922107 1.000000
0.973307 0.923401 1.000000
1.000000 0.920060 1.000000
1.000000 0.905050 1.000000
0.804370 0.988121 1.000000
0.804885 0.988140 1.000000
0.806795 0.988210 1.000000
0.813227 0.988529 1.000000
0.833197 0.989755 1.000000
0.880487 0.991846 1.000000
0.953286 0.996900 1.000000
1.000000 1.000000 1.000000
1.000000 0.999354 1.000000
0.000000 1.000000 1.000000
0.000000 1.000000 1.000000
0.000000 1.000000 1.000000
0.000000 1.000000 1.000000
0.000000 1.000000 1.000000
0.000000 1.000000 1.000000
0.919314 1.000000 1.000000
1.000000 1.000000 1.000000
1.000000 1.000000 1.000000
