Assets/Lutify-Free-LUTs-Pack/Lutify Free LUTs Pack/Print Film Pro - Print Film 2/Lutify.me-PrintFilm2-RWG-to-RWG.cube
# Created with: fylm.ai - Colour Grading and Collaboration Software in Cloud 
# Website: https://fylm.ai 
# META
# Option: Gamut compress
# Block 1: colourMatch | Blending Mode: Normal | {"ColorSpace":0,"CrossCovarianceLimit":50,"ReshapingIterations":1,"PercentSaturationShift":100,"PercentShadingShift":100,"ExtraShading":true,"PercentTint":100,"PercentModified":100}
# Block 2: HSL | Blending Mode: Normal | {"hue":{"Reds":0,"Yellows":0,"Greens":0,"Cyans":0,"Blues":0,"Magentas":0},"saturation":{"Reds":1,"Yellows":0.9,"Greens":0.95,"Cyans":1,"Blues":1,"Magentas":1},"luminance":{"Reds":0.8,"Yellows":0.95,"Greens":0.9,"Cyans":0.8,"Blues":0.8,"Magentas":0.8},"lum_sat":{"Blacks":1,"Shadows":1,"Midtones":1,"Highlights":1,"Whites":1},"sat_sat":{"10":1,"20":1,"30":1,"40":1,"50":1}}
# Block 3: LUT | Filmic Curve Response: Low Contrast 2 (100%)
TITLE "ipp2" 
LUT_3D_SIZE 5
0.070015 0.070015 0.070015
0.126008 0.078029 0.075963
0.417734 0.217290 0.200742
0.650498 0.445803 0.422316
0.878451 0.682694 0.655603
0.090050 0.149758 0.096652
0.236105 0.190303 0.128145
0.433196 0.247939 0.212530
0.651897 0.448767 0.423524
0.878616 0.683062 0.655776
0.242707 0.400093 0.271790
0.300686 0.411562 0.284459
0.508137 0.427057 0.328714
0.672895 0.485652 0.439583
0.880728 0.687769 0.657957
0.484209 0.623994 0.487791
0.489237 0.624743 0.488720
0.543563 0.630304 0.497293
0.797409 0.650474 0.573553
0.907008 0.749304 0.688040
0.737805 0.868449 0.731749
0.738483 0.868497 0.731832
0.746918 0.869094 0.732860
0.830137 0.874343 0.744625
0.889523 0.878298 0.756789
0.070507 0.070809 0.072444
0.125981 0.083491 0.106200
0.420390 0.219279 0.223738
0.650065 0.445120 0.424590
0.878405 0.682597 0.655759
0.110759 0.172786 0.244931
0.220670 0.223868 0.228755
0.427285 0.249032 0.231298
0.651451 0.448069 0.425703
0.878569 0.682965 0.655931
0.235424 0.396750 0.268609
0.296236 0.409988 0.282850
0.507396 0.425797 0.327693
0.671920 0.484670 0.441795
0.880681 0.687673 0.658120
0.483658 0.623811 0.487593
0.488730 0.624566 0.488531
0.543238 0.630175 0.497150
0.797328 0.650363 0.573458
0.906998 0.749237 0.688239
0.737742 0.868445 0.731742
0.738420 0.868493 0.731824
0.746863 0.869090 0.732853
0.830100 0.874340 0.744618
0.889523 0.878298 0.756789
0.112639 0.119881 0.203264
0.137211 0.122089 0.206049
0.314251 0.127985 0.195719
0.655020 0.452227 0.460343
0.877831 0.681465 0.657423
0.210735 0.277828 0.410452
0.221224 0.265735 0.393543
0.380431 0.220450 0.326021
0.655315 0.454334 0.460791
0.877994 0.681799 0.657601
0.302341 0.411138 0.531072
0.287391 0.412506 0.496994
0.486647 0.493007 0.501400
0.661600 0.479893 0.467038
0.880101 0.686428 0.659999
0.476003 0.621348 0.484928
0.481742 0.622199 0.485985
0.538905 0.628472 0.495277
0.796268 0.648904 0.572208
0.906774 0.748207 0.690543
0.736891 0.868385 0.731638
0.737569 0.868433 0.731720
0.746090 0.869036 0.732759
0.829610 0.874309 0.744530
0.889523 0.878298 0.756789
0.246708 0.219576 0.348132
0.252521 0.219222 0.347450
0.316607 0.222782 0.348636
0.499225 0.244765 0.343791
0.891314 0.688559 0.697064
0.342764 0.379805 0.522766
0.343989 0.375701 0.518429
0.357492 0.313509 0.451639
0.499198 0.244719 0.343727
0.891309 0.688740 0.697092
0.450099 0.529239 0.667854
0.451800 0.529176 0.667489
0.465377 0.514988 0.648902
0.617023 0.462268 0.578620
0.891231 0.691065 0.697437
0.471496 0.585326 0.708081
0.471496 0.585323 0.708081
0.519313 0.640892 0.733593
0.745969 0.757853 0.776064
0.903841 0.738093 0.715169
0.726527 0.867621 0.730397
0.727142 0.867668 0.730469
0.735409 0.868280 0.731457
0.823052 0.873893 0.743352
0.889523 0.878298 0.756789
0.431733 0.340224 0.479678
0.432253 0.340217 0.479636
0.439643 0.340276 0.479211
0.497624 0.341232 0.475203
0.705807 0.406309 0.496352
0.431689 0.340225 0.479682
0.432209 0.340218 0.479639
0.439587 0.340274 0.479214
0.497607 0.341233 0.475207
0.705804 0.406307 0.496351
0.570612 0.617313 0.762155
0.570837 0.617244 0.762092
0.574071 0.616530 0.761418
0.596732 0.601785 0.747343
0.705768 0.406282 0.496333
0.634628 0.706113 0.836419
0.635108 0.706414 0.836730
0.640981 0.710077 0.840538
0.682226 0.722209 0.851962
0.855969 0.716141 0.842846
0.500653 0.663448 0.716668
0.500653 0.663447 0.716668
0.500650 0.663441 0.716667
0.708126 0.876477 0.874488
1.018492 1.018492 1.018492
