Assets/Lutify-Free-LUTs-Pack/Lutify Free LUTs Pack/Print Film Pro - Print Film 2/Lutify.me-PrintFilm2-DJIDLog-to-Rec709.cube
# Created with: fylm.ai - Colour Grading and Collaboration Software in Cloud 
# Website: https://fylm.ai 
# META
# Option: Gamut compress
# Block 1: IDT | DJI D-Gamut D-Log
# Block 2: colourMatch | Blending Mode: Normal | {"ColorSpace":0,"CrossCovarianceLimit":50,"ReshapingIterations":1,"PercentSaturationShift":100,"PercentShadingShift":100,"ExtraShading":true,"PercentTint":100,"PercentModified":100}
# Block 3: HSL | Blending Mode: Normal | {"hue":{"Reds":0,"Yellows":0,"Greens":0,"Cyans":0,"Blues":0,"Magentas":0},"saturation":{"Reds":1,"Yellows":0.9,"Greens":0.95,"Cyans":1,"Blues":1,"Magentas":1},"luminance":{"Reds":0.8,"Yellows":0.95,"Greens":0.9,"Cyans":0.8,"Blues":0.8,"Magentas":0.8},"lum_sat":{"Blacks":1,"Shadows":1,"Midtones":1,"Highlights":1,"Whites":1},"sat_sat":{"10":1,"20":1,"30":1,"40":1,"50":1}}
# Block 4: LUT | Filmic Curve Response: Low Contrast 2 (100%)
# Block 5: ODT | Rec709
TITLE "Lutify.me-PrintFilm2-DJIDLog-to-Rec709" 
LUT_3D_SIZE 5
0.000000 0.000000 0.000000
0.000000 0.000000 0.000000
0.453728 0.000000 0.000000
1.000000 0.382239 0.202058
1.000000 0.888280 0.777513
0.000000 0.062966 0.000000
0.163085 0.096748 0.000000
0.544707 0.000000 0.000000
1.000000 0.413522 0.201936
1.000000 0.889362 0.778292
0.000000 0.500299 0.000000
0.000000 0.529615 0.000000
0.731700 0.520739 0.000000
1.000000 0.630880 0.204966
1.000000 0.895843 0.783015
0.509502 0.946200 0.191696
0.552448 0.946134 0.187174
0.723420 0.946341 0.183843
0.984770 0.938606 0.178186
1.000000 0.946906 0.822697
0.940606 1.000000 0.888091
0.941177 1.000000 0.888159
0.944697 1.000000 0.888600
0.974012 1.000000 0.894858
1.000000 1.000000 0.912076
0.000000 0.000000 0.000000
0.017386 0.000000 0.000000
0.460252 0.000000 0.066946
1.000000 0.372966 0.244182
1.000000 0.887963 0.780421
0.000000 0.047078 0.160570
0.112811 0.115631 0.124584
0.531466 0.000000 0.072802
1.000000 0.404794 0.245690
1.000000 0.889050 0.781187
0.000000 0.537251 0.000000
0.000000 0.573544 0.000000
0.660527 0.607633 0.000000
1.000000 0.624232 0.263196
1.000000 0.895756 0.785969
0.494451 0.945865 0.314735
0.539970 0.946332 0.311375
0.723257 0.947568 0.308024
0.983569 0.941727 0.285384
1.000000 0.946693 0.825293
0.940542 1.000000 0.890526
0.941130 1.000000 0.890593
0.944652 1.000000 0.891008
0.973717 1.000000 0.896907
1.000000 1.000000 0.914192
0.000000 0.000000 0.000000
0.000000 0.000000 0.096597
0.296334 0.000000 0.130635
1.000000 0.374453 0.451894
1.000000 0.886000 0.794881
0.000000 0.000000 0.473506
0.000000 0.000000 0.432238
0.481635 0.000000 0.354932
1.000000 0.409118 0.457662
1.000000 0.887104 0.795627
0.000000 0.356781 0.709313
0.000000 0.455737 0.682372
0.606559 0.627396 0.661190
1.000000 0.585609 0.470444
1.000000 0.893912 0.800318
0.476624 0.952270 0.675793
0.523390 0.952170 0.672586
0.704070 0.950079 0.646834
0.973701 0.949823 0.613142
1.000000 0.945231 0.838637
0.939103 1.000000 0.903951
0.939719 1.000000 0.904007
0.943791 1.000000 0.904390
0.973469 1.000000 0.908570
1.000000 1.000000 0.923142
0.000000 0.000000 0.759074
0.000000 0.000000 0.756057
0.200939 0.000000 0.744331
0.998631 0.000000 0.768082
1.000000 0.892309 0.896951
0.000000 0.000000 0.890963
0.000000 0.000000 0.881462
0.231427 0.000000 0.852219
1.000000 0.000000 0.812521
1.000000 0.893214 0.897252
0.000000 0.207536 0.961378
0.000000 0.222859 0.957731
0.282391 0.272409 0.945376
1.000000 0.284800 0.895183
1.000000 0.898789 0.899131
0.000000 0.886849 0.966434
0.000000 0.891275 0.966033
0.289511 0.911998 0.963057
0.947490 0.954592 0.964454
1.000000 0.937302 0.903896
0.938072 1.000000 0.966262
0.938665 1.000000 0.966236
0.942315 1.000000 0.966254
0.968771 1.000000 0.963161
1.000000 1.000000 0.964873
0.403829 0.182774 1.000000
0.422849 0.180898 1.000000
0.515723 0.170136 1.000000
0.899281 0.029762 1.000000
1.000000 0.549430 0.999667
0.408963 0.211722 1.000000
0.425957 0.210814 1.000000
0.517669 0.204813 1.000000
0.901613 0.153503 1.000000
1.000000 0.562201 0.999999
0.433208 0.357588 1.000000
0.450151 0.358007 1.000000
0.530854 0.361307 1.000000
0.900352 0.364315 1.000000
1.000000 0.634465 1.000000
0.450000 0.751040 1.000000
0.463207 0.753525 1.000000
0.539179 0.764660 1.000000
0.848593 0.805545 1.000000
1.000000 0.861969 1.000000
0.809231 1.000000 1.000000
0.811308 1.000000 1.000000
0.823710 1.000000 1.000000
0.900016 1.000000 1.000000
1.000000 1.000000 1.000000
