Assets/Lutify-Free-LUTs-Pack/Lutify Free LUTs Pack/Print Film Pro - Print Film 2/Lutify.me-PrintFilm2-FLog2-to-Rec709.cube
# Created with: fylm.ai - Colour Grading and Collaboration Software in Cloud 
# Website: https://fylm.ai 
# META
# Option: Gamut compress
# Block 1: IDT | Fujifilm F-Gamut F-Log2
# Block 2: colourMatch | Blending Mode: Normal | {"ColorSpace":0,"CrossCovarianceLimit":50,"ReshapingIterations":1,"PercentSaturationShift":100,"PercentShadingShift":100,"ExtraShading":true,"PercentTint":100,"PercentModified":100}
# Block 3: HSL | Blending Mode: Normal | {"hue":{"Reds":0,"Yellows":0,"Greens":0,"Cyans":0,"Blues":0,"Magentas":0},"saturation":{"Reds":1,"Yellows":0.9,"Greens":0.95,"Cyans":1,"Blues":1,"Magentas":1},"luminance":{"Reds":0.8,"Yellows":0.95,"Greens":0.9,"Cyans":0.8,"Blues":0.8,"Magentas":0.8},"lum_sat":{"Blacks":1,"Shadows":1,"Midtones":1,"Highlights":1,"Whites":1},"sat_sat":{"10":1,"20":1,"30":1,"40":1,"50":1}}
# Block 4: LUT | Filmic Curve Response: Low Contrast 2 (100%)
# Block 5: ODT | Rec709
TITLE "Lutify.me-PrintFilm2-FLog2-to-Rec709" 
LUT_3D_SIZE 5
0.000000 0.000000 0.000000
0.000000 0.000000 0.000000
0.485038 0.000000 0.000000
1.000000 0.405020 0.290198
1.000000 0.904809 0.844454
0.000000 0.042089 0.000000
0.097436 0.065343 0.000000
0.536840 0.000000 0.000000
1.000000 0.423831 0.292888
1.000000 0.905161 0.844647
0.000000 0.506837 0.000000
0.000000 0.541745 0.000000
0.686116 0.587893 0.000000
1.000000 0.589611 0.331209
1.000000 0.908477 0.846483
0.293105 0.957076 0.682993
0.353892 0.957985 0.680674
0.645655 0.956446 0.660215
0.984258 0.954546 0.645780
1.000000 0.946585 0.875207
0.930027 1.000000 0.973450
0.930477 1.000000 0.973464
0.934617 1.000000 0.973435
0.965263 1.000000 0.971504
1.000000 1.000000 0.975636
0.000000 0.000000 0.000000
0.026203 0.000000 0.000000
0.505989 0.000000 0.062323
1.000000 0.409272 0.311410
1.000000 0.904982 0.845560
0.000000 0.042236 0.116700
0.084409 0.090818 0.095240
0.545301 0.000000 0.069860
1.000000 0.425397 0.312516
1.000000 0.905333 0.845752
0.000000 0.496160 0.188086
0.000000 0.558398 0.167816
0.679643 0.610490 0.000000
1.000000 0.588554 0.353982
1.000000 0.908645 0.847575
0.284661 0.957112 0.701149
0.350956 0.958001 0.698957
0.647262 0.956996 0.681721
0.983318 0.954955 0.663148
1.000000 0.946558 0.875795
0.930023 1.000000 0.973712
0.930472 1.000000 0.973726
0.934612 1.000000 0.973695
0.965268 1.000000 0.971836
1.000000 1.000000 0.975829
0.000000 0.000000 0.505374
0.000000 0.022924 0.478831
0.553346 0.000000 0.385767
1.000000 0.452353 0.506022
1.000000 0.906600 0.855613
0.000000 0.056219 0.569207
0.000000 0.085394 0.556641
0.604677 0.000000 0.452368
1.000000 0.468582 0.511064
1.000000 0.906946 0.855791
0.000000 0.427540 0.729515
0.000000 0.492021 0.714177
0.645230 0.665900 0.697963
1.000000 0.606767 0.542325
1.000000 0.910213 0.857488
0.000000 0.949967 0.804669
0.213351 0.951985 0.805139
0.651980 0.959283 0.814498
0.976736 0.958427 0.794600
1.000000 0.946311 0.881187
0.928728 1.000000 0.975481
0.929307 1.000000 0.975555
0.934573 1.000000 0.976076
0.965543 1.000000 0.974665
1.000000 1.000000 0.977615
0.063846 0.414379 0.970223
0.188040 0.419202 0.969832
0.530477 0.448372 0.960940
1.000000 0.458144 0.918546
1.000000 0.921157 0.922073
0.000000 0.425953 0.970529
0.178252 0.430881 0.970135
0.527187 0.464761 0.961909
1.000000 0.477558 0.920590
1.000000 0.921537 0.922242
0.000000 0.544748 0.974003
0.000000 0.552880 0.973449
0.511054 0.598722 0.968645
1.000000 0.636948 0.934343
1.000000 0.925103 0.923846
0.000000 0.918225 0.976749
0.000000 0.919847 0.976373
0.475722 0.933768 0.974169
0.962282 0.968181 0.976076
1.000000 0.951457 0.933615
0.911866 1.000000 0.989663
0.912574 1.000000 0.989693
0.919049 1.000000 0.989975
0.965200 1.000000 0.992939
1.000000 1.000000 0.992976
0.825210 0.887884 1.000000
0.826691 0.888073 1.000000
0.840058 0.889834 1.000000
0.927153 0.901070 1.000000
1.000000 0.919526 1.000000
0.825132 0.888364 1.000000
0.826613 0.888552 1.000000
0.839977 0.890302 1.000000
0.927112 0.901570 1.000000
1.000000 0.919952 1.000000
0.824446 0.892818 1.000000
0.825922 0.892995 1.000000
0.839242 0.894650 1.000000
0.926751 0.906261 1.000000
1.000000 0.923927 1.000000
0.820748 0.931600 1.000000
0.822084 0.931801 1.000000
0.834136 0.933670 1.000000
0.921660 0.944796 1.000000
1.000000 0.957910 1.000000
0.880931 1.000000 1.000000
0.881636 1.000000 1.000000
0.888117 1.000000 1.000000
0.939222 1.000000 1.000000
1.000000 1.000000 1.000000
