Assets/Lutify-Free-LUTs-Pack/Lutify Free LUTs Pack/Print Film Pro - Print Film 2/Lutify.me-PrintFilm2-FLog-to-Rec709.cube
# Created with: fylm.ai - Colour Grading and Collaboration Software in Cloud 
# Website: https://fylm.ai 
# META
# Option: Gamut compress
# Block 1: IDT | Fujifilm F-Gamut F-Log
# Block 2: colourMatch | Blending Mode: Normal | {"ColorSpace":0,"CrossCovarianceLimit":50,"ReshapingIterations":1,"PercentSaturationShift":100,"PercentShadingShift":100,"ExtraShading":true,"PercentTint":100,"PercentModified":100}
# Block 3: HSL | Blending Mode: Normal | {"hue":{"Reds":0,"Yellows":0,"Greens":0,"Cyans":0,"Blues":0,"Magentas":0},"saturation":{"Reds":1,"Yellows":0.9,"Greens":0.95,"Cyans":1,"Blues":1,"Magentas":1},"luminance":{"Reds":0.8,"Yellows":0.95,"Greens":0.9,"Cyans":0.8,"Blues":0.8,"Magentas":0.8},"lum_sat":{"Blacks":1,"Shadows":1,"Midtones":1,"Highlights":1,"Whites":1},"sat_sat":{"10":1,"20":1,"30":1,"40":1,"50":1}}
# Block 4: LUT | Filmic Curve Response: Low Contrast 2 (100%)
# Block 5: ODT | Rec709
TITLE "Lutify.me-PrintFilm2-FLog-to-Rec709" 
LUT_3D_SIZE 33
0.000000 0.000000 0.000000
0.000000 0.000000 0.000000
0.000000 0.000000 0.000000
0.000000 0.000000 0.000000
0.000000 0.000000 0.000000
0.000000 0.000000 0.000000
0.000000 0.000000 0.000000
0.000000 0.000000 0.000000
0.000000 0.000000 0.000000
0.000000 0.000000 0.000000
0.040972 0.000000 0.000000
0.067351 0.000000 0.000000
0.094645 0.000000 0.000000
0.126390 0.000000 0.000000
0.159891 0.000000 0.000000
0.211990 0.000000 0.000000
0.267975 0.000000 0.000000
0.321548 0.000000 0.000000
0.382308 0.000000 0.000000
0.448601 0.000000 0.000000
0.518249 0.000000 0.000000
0.589790 0.000000 0.009470
0.661308 0.000000 0.027953
0.727070 0.000000 0.048286
0.794004 0.000000 0.068499
0.863832 0.000000 0.089822
0.916728 0.000000 0.113979
0.959680 0.000000 0.142996
0.994514 0.201919 0.175313
1.000000 0.288009 0.214733
1.000000 0.357800 0.261408
1.000000 0.423116 0.302209
1.000000 0.488304 0.349518
0.000000 0.000000 0.000000
0.000000 0.000000 0.000000
0.000000 0.000000 0.000000
0.000000 0.000000 0.000000
0.000000 0.000000 0.000000
0.000000 0.000000 0.000000
0.000000 0.000000 0.000000
0.000000 0.000000 0.000000
0.000000 0.000000 0.000000
0.009558 0.000000 0.000000
0.051713 0.000000 0.000000
0.075054 0.000000 0.000000
0.105300 0.000000 0.000000
0.133811 0.000000 0.000000
0.169250 0.000000 0.000000
0.222062 0.000000 0.000000
0.275725 0.000000 0.000000
0.327985 0.000000 0.000000
0.386879 0.000000 0.000000
0.452563 0.000000 0.000000
0.521861 0.000000 0.000000
0.593237 0.000000 0.008657
0.663993 0.000000 0.027757
0.728509 0.000000 0.048450
0.795622 0.000000 0.068551
0.865024 0.000000 0.089985
0.917515 0.000000 0.114193
0.960181 0.000000 0.143431
0.994788 0.205499 0.175654
1.000000 0.290240 0.214965
1.000000 0.359046 0.261500
1.000000 0.424212 0.302281
1.000000 0.489280 0.349691
0.000000 0.000000 0.000000
0.000000 0.000000 0.000000
0.000000 0.000000 0.000000
0.000000 0.000000 0.000000
0.000000 0.000000 0.000000
0.000000 0.000000 0.000000
0.000000 0.000000 0.000000
0.000000 0.000000 0.000000
0.000000 0.000000 0.000000
0.026071 0.000000 0.000000
0.059621 0.000000 0.000000
0.085012 0.000000 0.000000
0.114106 0.000000 0.000000
0.142762 0.000000 0.000000
0.179517 0.000000 0.000000
0.229920 0.000000 0.000000
0.283034 0.000000 0.000000
0.334313 0.000000 0.000000
0.391364 0.000000 0.000000
0.456471 0.000000 0.000000
0.525418 0.000000 0.000000
0.596322 0.000000 0.006180
0.666398 0.000000 0.027316
0.730434 0.000000 0.048419
0.797225 0.000000 0.068662
0.866205 0.000000 0.090144
0.918293 0.000000 0.114405
0.960675 0.036392 0.143865
0.995058 0.209026 0.175994
1.000000 0.292455 0.215198
1.000000 0.360289 0.261592
1.000000 0.425304 0.302351
1.000000 0.490254 0.349863
0.000000 0.000000 0.000000
0.000000 0.000000 0.000000
0.000000 0.000000 0.000000
0.000000 0.000000 0.000000
0.000000 0.000000 0.000000
0.000000 0.000000 0.000000
0.000000 0.000000 0.000000
0.000000 0.000000 0.000000
0.000000 0.000000 0.000000
0.040139 0.000000 0.000000
0.067559 0.000000 0.000000
0.093737 0.000000 0.000000
0.121575 0.000000 0.000000
0.151191 0.000000 0.000000
0.189116 0.000000 0.000000
0.237463 0.000000 0.000000
0.290241 0.000000 0.000000
0.339753 0.000000 0.000000
0.395783 0.000000 0.000000
0.460334 0.000000 0.000000
0.528923 0.000000 0.000000
0.599303 0.000000 0.000000
0.668776 0.000000 0.026824
0.732360 0.000000 0.048370
0.798738 0.000000 0.068785
0.867371 0.000000 0.090300
0.919063 0.000000 0.114614
0.961164 0.058274 0.144296
0.995325 0.212505 0.176334
1.000000 0.294655 0.215430
1.000000 0.361770 0.261770
1.000000 0.426394 0.302421
1.000000 0.491227 0.350036
0.000000 0.000000 0.000000
0.000000 0.000000 0.000000
0.000000 0.000000 0.000000
0.000000 0.000000 0.000000
0.000000 0.000000 0.000000
0.000000 0.000000 0.000000
0.000000 0.000000 0.000000
0.000000 0.000000 0.000000
0.024885 0.000000 0.000000
0.055178 0.000000 0.000000
0.077298 0.000000 0.000000
0.104087 0.000000 0.000000
0.129213 0.000000 0.000000
0.159729 0.000000 0.000000
0.198058 0.000000 0.000000
0.245699 0.000000 0.000000
0.298169 0.000000 0.000000
0.344599 0.000000 0.000000
0.400627 0.000000 0.000000
0.464580 0.000000 0.000000
0.532830 0.000000 0.000000
0.602576 0.000000 0.000000
0.671389 0.000000 0.026211
0.734478 0.000000 0.048295
0.800405 0.000000 0.068914
0.868439 0.000000 0.090482
0.919908 0.000000 0.114841
0.961699 0.073775 0.144774
0.995617 0.216312 0.176709
1.000000 0.297082 0.215687
1.000000 0.363663 0.262076
1.000000 0.427600 0.302500
1.000000 0.492305 0.350227
0.000000 0.000000 0.000000
0.000000 0.000000 0.000000
0.000000 0.000000 0.000000
0.000000 0.000000 0.000000
0.000000 0.000000 0.000000
0.000000 0.000000 0.000000
0.000000 0.000000 0.000000
0.028482 0.000000 0.000000
0.055085 0.000000 0.000000
0.073276 0.000000 0.000000
0.096607 0.000000 0.000000
0.117314 0.000000 0.000000
0.141908 0.000000 0.000000
0.171884 0.000000 0.000000
0.208935 0.000000 0.000000
0.255991 0.000000 0.000000
0.307742 0.000000 0.000000
0.350497 0.000000 0.000000
0.406657 0.000000 0.000000
0.469770 0.000000 0.000000
0.537751 0.000000 0.000000
0.606566 0.000000 0.000000
0.674577 0.000000 0.025350
0.737065 0.000000 0.048176
0.802444 0.000000 0.069067
0.869590 0.000000 0.090703
0.920692 0.000000 0.115132
0.962350 0.088359 0.145362
0.995972 0.220937 0.177170
1.000000 0.300052 0.216004
1.000000 0.365988 0.262454
1.000000 0.429251 0.302709
1.000000 0.493632 0.350463
0.000000 0.000000 0.000000
0.000000 0.000000 0.000000
0.000000 0.000000 0.000000
0.000000 0.000000 0.000000
0.000000 0.000000 0.000000
0.000000 0.000000 0.000000
0.015556 0.000000 0.000000
0.046920 0.000000 0.000000
0.064829 0.000000 0.000000
0.087203 0.000000 0.000000
0.112063 0.000000 0.000000
0.136708 0.000000 0.000000
0.160805 0.000000 0.000000
0.189837 0.000000 0.000000
0.223089 0.000000 0.000000
0.268968 0.000000 0.000000
0.316654 0.000000 0.000000
0.357825 0.000000 0.000000
0.414276 0.000000 0.000000
0.476257 0.000000 0.000000
0.543734 0.000000 0.000000
0.611420 0.000000 0.000000
0.678451 0.000000 0.024087
0.740212 0.000000 0.047987
0.804928 0.000000 0.069239
0.870990 0.000000 0.090964
0.921601 0.000000 0.115485
0.962978 0.104550 0.145912
0.996399 0.226535 0.177734
1.000000 0.303678 0.216394
1.000000 0.368837 0.262919
1.000000 0.431484 0.303109
1.000000 0.495262 0.350753
0.000000 0.000000 0.000000
0.000000 0.000000 0.000000
0.000000 0.003357 0.000000
0.000000 0.009291 0.000000
0.000000 0.019877 0.000000
0.000000 0.029528 0.000000
0.018732 0.034725 0.000000
0.050289 0.036779 0.000000
0.070100 0.037716 0.000000
0.095977 0.035102 0.000000
0.125682 0.023897 0.000000
0.152474 0.000000 0.000000
0.181426 0.000000 0.000000
0.211351 0.000000 0.000000
0.243758 0.000000 0.000000
0.281245 0.000000 0.000000
0.326174 0.000000 0.000000
0.369810 0.000000 0.000000
0.423527 0.000000 0.000000
0.484586 0.000000 0.000000
0.551072 0.000000 0.000000
0.617189 0.000000 0.000000
0.683152 0.000000 0.022107
0.744037 0.000000 0.047683
0.807950 0.000000 0.069433
0.872686 0.000000 0.091266
0.922697 0.000000 0.115907
0.963670 0.121525 0.146515
0.996777 0.233977 0.178271
1.000000 0.308095 0.216873
1.000000 0.372323 0.263491
1.000000 0.434224 0.303600
1.000000 0.497377 0.351202
0.000000 0.025878 0.000000
0.000000 0.029553 0.000000
0.000000 0.033197 0.000000
0.000000 0.036861 0.000000
0.000000 0.042415 0.000000
0.000000 0.047843 0.000000
0.017795 0.051220 0.000000
0.052002 0.051929 0.000000
0.075490 0.052400 0.000000
0.104828 0.051180 0.000000
0.136402 0.047134 0.000000
0.166405 0.036587 0.000000
0.200138 0.006768 0.000000
0.230748 0.000000 0.000000
0.263013 0.000000 0.000000
0.303328 0.000000 0.000000
0.340316 0.000000 0.000000
0.385971 0.000000 0.000000
0.435143 0.000000 0.000000
0.494825 0.000000 0.000000
0.560323 0.000000 0.000000
0.623970 0.000000 0.000000
0.688852 0.000000 0.018678
0.748675 0.000000 0.047198
0.811619 0.000000 0.069637
0.874733 0.000000 0.091607
0.924014 0.000000 0.116408
0.964494 0.139213 0.147247
0.997141 0.243330 0.178830
1.000000 0.313466 0.217463
1.000000 0.376583 0.264197
1.000000 0.437580 0.304206
1.000000 0.500361 0.352067
0.000000 0.047176 0.000000
0.000000 0.049216 0.000000
0.000000 0.051539 0.000000
0.000000 0.053677 0.000000
0.000000 0.056769 0.000000
0.000000 0.063272 0.000000
0.000000 0.069093 0.000000
0.046321 0.071965 0.000000
0.076659 0.072721 0.000000
0.109510 0.072120 0.000000
0.147741 0.071035 0.000000
0.181536 0.066628 0.000000
0.214413 0.059260 0.000000
0.249046 0.050794 0.000000
0.281886 0.033816 0.000000
0.322672 0.000000 0.000000
0.361220 0.000000 0.000000
0.405101 0.000000 0.000000
0.449025 0.000000 0.000000
0.507570 0.000000 0.000000
0.571038 0.000000 0.000000
0.632228 0.000000 0.000000
0.695701 0.000000 0.012694
0.754302 0.000000 0.046809
0.816065 0.000000 0.069836
0.877192 0.000000 0.091983
0.925585 0.000000 0.116994
0.965466 0.158082 0.148129
0.997548 0.252962 0.179485
1.000000 0.319981 0.218187
1.000000 0.381446 0.265040
1.000000 0.441687 0.304952
1.000000 0.504020 0.353135
0.000000 0.064230 0.000000
0.000000 0.066952 0.000000
0.000000 0.070200 0.000000
0.000000 0.074156 0.000000
0.000000 0.078198 0.000000
0.000000 0.086725 0.000000
0.000000 0.092325 0.000000
0.016200 0.096948 0.000000
0.070502 0.100043 0.000000
0.109690 0.101759 0.000000
0.152990 0.098289 0.000000
0.194860 0.098296 0.000000
0.231239 0.095935 0.000000
0.265703 0.090496 0.000000
0.303098 0.085684 0.000000
0.342302 0.072860 0.000000
0.383598 0.051621 0.000000
0.430018 0.000000 0.000000
0.469869 0.000000 0.000000
0.522631 0.000000 0.000000
0.583954 0.000000 0.000000
0.642367 0.000000 0.000000
0.702618 0.000000 0.000000
0.760971 0.000000 0.046118
0.820861 0.000000 0.069969
0.880123 0.000000 0.092373
0.927547 0.079192 0.117745
0.966598 0.178589 0.149188
0.998008 0.263357 0.180265
1.000000 0.327452 0.219111
1.000000 0.387011 0.266042
1.000000 0.446412 0.305845
1.000000 0.508499 0.354453
0.000000 0.085689 0.000000
0.000000 0.087924 0.000000
0.000000 0.090855 0.000000
0.000000 0.095876 0.000000
0.000000 0.102418 0.000000
0.000000 0.109807 0.000000
0.000000 0.119861 0.000000
0.000000 0.125535 0.000000
0.049979 0.127869 0.000000
0.106387 0.129603 0.000000
0.155309 0.130281 0.000000
0.197435 0.126878 0.000000
0.238987 0.128742 0.000000
0.279958 0.127152 0.000000
0.320099 0.122837 0.000000
0.362022 0.117482 0.000000
0.406541 0.106769 0.000000
0.453427 0.092313 0.000000
0.495509 0.072866 0.000000
0.547101 0.000000 0.000000
0.599484 0.000000 0.000000
0.653563 0.000000 0.000000
0.710752 0.000000 0.000000
0.767873 0.000000 0.044507
0.825820 0.000000 0.070318
0.883604 0.000000 0.092718
0.929973 0.125866 0.118744
0.967892 0.201248 0.150447
0.998525 0.275826 0.181201
1.000000 0.335993 0.220290
1.000000 0.393781 0.267084
1.000000 0.451795 0.306909
1.000000 0.513894 0.355923
0.000000 0.109804 0.000000
0.000000 0.113855 0.000000
0.000000 0.118689 0.000000
0.000000 0.124893 0.000000
0.000000 0.131010 0.000000
0.000000 0.137327 0.000000
0.000000 0.148315 0.000000
0.000000 0.156429 0.000000
0.000000 0.162841 0.000000
0.086296 0.163366 0.000000
0.148130 0.166025 0.000000
0.197636 0.166753 0.000000
0.244606 0.161772 0.000000
0.290186 0.164599 0.000000
0.334462 0.165511 0.000000
0.382426 0.162254 0.000000
0.427847 0.156950 0.000000
0.474973 0.148681 0.000000
0.521027 0.140162 0.000000
0.569026 0.122426 0.000000
0.623910 0.088047 0.000000
0.669882 0.000000 0.000000
0.721039 0.000000 0.000000
0.775632 0.000000 0.041371
0.831723 0.000000 0.070690
0.887597 0.106449 0.093610
0.932786 0.164774 0.119877
0.969337 0.226690 0.151928
0.999096 0.290698 0.182329
1.000000 0.346287 0.221742
1.000000 0.402001 0.268370
1.000000 0.458356 0.308222
1.000000 0.520138 0.357514
0.000000 0.140571 0.000000
0.000000 0.147107 0.000000
0.000000 0.152530 0.000000
0.000000 0.160492 0.000000
0.000000 0.166652 0.000000
0.000000 0.172251 0.000000
0.000000 0.183310 0.000000
0.000000 0.192460 0.000000
0.000000 0.199086 0.000000
0.000000 0.204375 0.000000
0.127755 0.204514 0.000000
0.186703 0.207573 0.000000
0.241176 0.204523 0.000000
0.295559 0.199118 0.000000
0.341652 0.204502 0.000000
0.396284 0.207320 0.000000
0.451632 0.205059 0.000000
0.494699 0.201282 0.000000
0.543847 0.192841 0.000000
0.591286 0.183330 0.000000
0.644499 0.169979 0.000000
0.693839 0.144519 0.000000
0.736805 0.124272 0.000000
0.785415 0.117250 0.034069
0.838972 0.125102 0.069660
0.893422 0.154314 0.094955
0.935897 0.200883 0.121997
0.970907 0.255741 0.153642
0.999714 0.308276 0.183704
1.000000 0.358665 0.223536
1.000000 0.411957 0.269955
1.000000 0.466336 0.309842
1.000000 0.527751 0.359483
0.000000 0.183499 0.000000
0.000000 0.188177 0.000000
0.000000 0.192965 0.000000
0.000000 0.201433 0.000000
0.000000 0.207066 0.000000
0.000000 0.212577 0.000000
0.000000 0.223246 0.000000
0.000000 0.230712 0.000000
0.000000 0.237810 0.000000
0.000000 0.244486 0.000000
0.070317 0.249898 0.000000
0.159034 0.254460 0.000000
0.224487 0.253556 0.000000
0.286553 0.250055 0.000000
0.341711 0.245225 0.000000
0.400386 0.253156 0.000000
0.465650 0.255471 0.000000
0.518863 0.255514 0.000000
0.563938 0.249806 0.000000
0.611931 0.245741 0.000000
0.665166 0.236981 0.000000
0.713956 0.221264 0.000000
0.759867 0.199252 0.000000
0.800281 0.186412 0.015186
0.849533 0.185100 0.067476
0.901220 0.201082 0.095326
0.940029 0.237866 0.124268
0.972482 0.284930 0.155425
1.000000 0.328583 0.185431
1.000000 0.373522 0.225759
1.000000 0.423993 0.271915
1.000000 0.477877 0.312032
1.000000 0.537021 0.361919
0.000000 0.231940 0.000000
0.000000 0.238148 0.000000
0.000000 0.246676 0.000000
0.000000 0.251269 0.000000
0.000000 0.255156 0.000000
0.000000 0.263664 0.000000
0.000000 0.272805 0.000000
0.000000 0.279247 0.000000
0.000000 0.286348 0.000000
0.000000 0.294588 0.000000
0.000000 0.301353 0.000000
0.094653 0.305247 0.000000
0.198534 0.309817 0.000000
0.270322 0.310179 0.000000
0.335034 0.307231 0.000000
0.408484 0.301328 0.000000
0.471149 0.308127 0.000000
0.535680 0.314305 0.000000
0.588735 0.310948 0.000000
0.636105 0.306803 0.000000
0.690563 0.299678 0.000000
0.735855 0.293721 0.000000
0.779854 0.281631 0.000000
0.823578 0.272310 0.000000
0.863803 0.258837 0.059594
0.910183 0.253479 0.094917
0.944704 0.280699 0.125703
0.974088 0.320213 0.156917
1.000000 0.353308 0.187832
1.000000 0.391339 0.228525
1.000000 0.438521 0.274341
1.000000 0.493018 0.314876
1.000000 0.548285 0.364923
0.000000 0.285263 0.000000
0.000000 0.290245 0.000000
0.000000 0.296399 0.000000
0.000000 0.301772 0.000000
0.000000 0.306763 0.000000
0.000000 0.311441 0.000000
0.000000 0.317626 0.000000
0.000000 0.327129 0.000000
0.000000 0.335579 0.000000
0.000000 0.345592 0.000000
0.000000 0.356421 0.000000
0.000000 0.358598 0.000000
0.142770 0.365473 0.000000
0.239278 0.367339 0.000000
0.315804 0.365976 0.000000
0.397630 0.369313 0.000000
0.470424 0.367417 0.000000
0.539037 0.371191 0.000000
0.599606 0.376250 0.000000
0.654019 0.373785 0.000000
0.710114 0.370064 0.000000
0.756054 0.364867 0.000000
0.797152 0.360595 0.000000
0.839083 0.349863 0.000000
0.878253 0.343084 0.033271
0.917465 0.326037 0.091840
0.948200 0.333350 0.127050
0.975956 0.358252 0.159197
1.000000 0.383453 0.191294
1.000000 0.415442 0.233605
1.000000 0.456042 0.277359
1.000000 0.511127 0.318443
1.000000 0.561944 0.368630
0.000000 0.339216 0.000000
0.000000 0.344187 0.000000
0.000000 0.350426 0.000000
0.000000 0.356210 0.000000
0.000000 0.361223 0.000000
0.000000 0.364689 0.000000
0.000000 0.368908 0.000000
0.000000 0.378468 0.000000
0.000000 0.390707 0.000000
0.000000 0.398652 0.000000
0.000000 0.407456 0.000000
0.000000 0.414709 0.000000
0.000000 0.422591 0.000000
0.176348 0.430063 0.000000
0.275612 0.434314 0.000000
0.374928 0.431998 0.000000
0.460036 0.429138 0.000000
0.538946 0.423377 0.000000
0.599775 0.430261 0.000000
0.659546 0.434250 0.000000
0.723245 0.435053 0.000000
0.770457 0.432219 0.000000
0.811777 0.429299 0.000000
0.851457 0.416375 0.000000
0.887725 0.406556 0.000000
0.924699 0.399757 0.088874
0.952124 0.395706 0.129819
0.977765 0.403362 0.162638
1.000000 0.419826 0.197516
1.000000 0.444869 0.240337
1.000000 0.480029 0.282931
1.000000 0.531603 0.323056
1.000000 0.578481 0.373211
0.000000 0.402137 0.000000
0.000000 0.409391 0.000000
0.000000 0.414619 0.000000
0.000000 0.419411 0.000000
0.000000 0.423896 0.000000
0.000000 0.426626 0.000000
0.000000 0.429892 0.000000
0.000000 0.435588 0.000000
0.000000 0.445650 0.000000
0.000000 0.455791 0.000000
0.000000 0.463847 0.000000
0.000000 0.471858 0.000000
0.000000 0.479696 0.000000
0.000000 0.487402 0.000000
0.222732 0.494290 0.000000
0.348694 0.492691 0.000000
0.441603 0.493639 0.000000
0.523537 0.495307 0.000000
0.594336 0.490587 0.000000
0.658079 0.493323 0.000000
0.728727 0.497995 0.000000
0.780733 0.494583 0.000000
0.822915 0.494620 0.000000
0.861765 0.486755 0.000000
0.895533 0.478159 0.000000
0.929640 0.472918 0.085807
0.957555 0.462096 0.131886
0.980436 0.456913 0.166914
1.000000 0.464167 0.205294
1.000000 0.480805 0.249169
1.000000 0.510323 0.289527
1.000000 0.553524 0.330294
1.000000 0.597323 0.379370
0.000000 0.468996 0.000000
0.000000 0.475177 0.000000
0.000000 0.480832 0.000000
0.000000 0.484936 0.000000
0.000000 0.489259 0.000000
0.000000 0.491922 0.000000
0.000000 0.494659 0.000000
0.000000 0.497798 0.000000
0.000000 0.502403 0.000000
0.000000 0.512382 0.000000
0.000000 0.522210 0.000000
0.000000 0.532187 0.000000
0.000000 0.540263 0.000000
0.000000 0.548213 0.000000
0.128794 0.555282 0.000000
0.309468 0.559974 0.000000
0.412086 0.558289 0.000000
0.501776 0.559687 0.000000
0.578473 0.556813 0.000000
0.651604 0.553643 0.000000
0.726523 0.557862 0.000000
0.783555 0.558543 0.000000
0.830376 0.558912 0.000000
0.868814 0.556664 0.000000
0.900624 0.549645 0.000000
0.932142 0.545685 0.085125
0.958545 0.536328 0.137163
0.982154 0.525947 0.174813
1.000000 0.524467 0.213860
1.000000 0.529591 0.257826
1.000000 0.547622 0.297194
1.000000 0.581419 0.338921
1.000000 0.618775 0.385953
0.000000 0.541865 0.000000
0.000000 0.545285 0.000000
0.000000 0.550236 0.000000
0.000000 0.554307 0.000000
0.000000 0.557671 0.000000
0.000000 0.560079 0.000000
0.000000 0.564507 0.000000
0.000000 0.566951 0.000000
0.000000 0.569798 0.000000
0.000000 0.573856 0.000000
0.000000 0.579129 0.000000
0.000000 0.587162 0.000000
0.000000 0.599476 0.000000
0.000000 0.609038 0.000000
0.000000 0.616014 0.000000
0.249714 0.622767 0.000000
0.377951 0.625419 0.000000
0.473886 0.623465 0.000000
0.553623 0.624209 0.000000
0.635075 0.621468 0.000000
0.718649 0.620378 0.000000
0.777557 0.621376 0.000000
0.829295 0.627206 0.000000
0.870386 0.630072 0.000000
0.901609 0.623829 0.000000
0.931963 0.620534 0.085763
0.957109 0.611806 0.146673
0.979532 0.601951 0.191199
0.997262 0.600736 0.229549
1.000000 0.594473 0.269852
1.000000 0.594628 0.307773
1.000000 0.615187 0.350478
1.000000 0.644707 0.395058
0.000000 0.604845 0.000000
0.000000 0.607152 0.000000
0.000000 0.609963 0.000000
0.000000 0.612213 0.000000
0.000000 0.614362 0.000000
0.000000 0.616775 0.000000
0.000000 0.620524 0.000000
0.000000 0.624598 0.000000
0.000000 0.629571 0.000000
0.000000 0.634006 0.000000
0.000000 0.637853 0.000000
0.000000 0.642697 0.000000
0.000000 0.649066 0.000000
0.000000 0.657229 0.000000
0.000000 0.667777 0.000000
0.157043 0.674393 0.000000
0.326713 0.681154 0.000000
0.441629 0.681844 0.000000
0.526175 0.685990 0.000000
0.611540 0.686715 0.000000
0.703768 0.683180 0.000000
0.768512 0.678487 0.000000
0.819392 0.680571 0.000000
0.864874 0.688738 0.000000
0.899364 0.685548 0.000000
0.929505 0.684195 0.098547
0.953757 0.678020 0.153899
0.974987 0.668638 0.207631
0.991981 0.663290 0.245786
1.000000 0.662543 0.288565
1.000000 0.651965 0.325285
1.000000 0.655914 0.365775
1.000000 0.674983 0.407437
0.000000 0.667314 0.083407
0.000000 0.669264 0.077174
0.000000 0.671156 0.070419
0.000000 0.672995 0.062906
0.000000 0.674978 0.053134
0.000000 0.677378 0.041568
0.000000 0.680607 0.000000
0.000000 0.684405 0.000000
0.000000 0.688796 0.000000
0.000000 0.693659 0.000000
0.000000 0.696399 0.000000
0.000000 0.699695 0.000000
0.000000 0.704679 0.000000
0.000000 0.710009 0.000000
0.000000 0.715646 0.000000
0.000000 0.721337 0.000000
0.278905 0.726952 0.000000
0.403718 0.732365 0.000000
0.500748 0.737239 0.000000
0.592644 0.738047 0.000000
0.687876 0.734483 0.000000
0.755908 0.731933 0.000000
0.808913 0.727842 0.000000
0.854849 0.732932 0.000000
0.893465 0.736040 0.000000
0.926703 0.734707 0.124836
0.949855 0.733323 0.176227
0.970255 0.725274 0.224036
0.986437 0.717960 0.264754
1.000000 0.716489 0.308913
1.000000 0.710814 0.351690
1.000000 0.704973 0.385832
1.000000 0.708605 0.422820
0.000000 0.727022 0.163847
0.000000 0.728420 0.161329
0.000000 0.729749 0.159392
0.000000 0.731004 0.158231
0.000000 0.732361 0.156964
0.000000 0.733984 0.155432
0.000000 0.737116 0.153205
0.000000 0.740272 0.149959
0.000000 0.741890 0.143465
0.000000 0.743365 0.134877
0.000000 0.745077 0.124103
0.000000 0.747037 0.110035
0.000000 0.749820 0.100609
0.000000 0.756147 0.080632
0.000000 0.763048 0.045679
0.000000 0.767783 0.000000
0.228126 0.772138 0.000000
0.372280 0.776384 0.000000
0.479586 0.780482 0.000000
0.578031 0.781933 0.000000
0.670743 0.779083 0.000000
0.738378 0.779732 0.000000
0.796370 0.778636 0.000000
0.844554 0.775072 0.000000
0.884700 0.777039 0.044265
0.921609 0.776695 0.154086
0.944839 0.779278 0.207955
0.965340 0.773813 0.250181
0.981038 0.767033 0.290331
0.996332 0.762422 0.334184
1.000000 0.761495 0.379999
1.000000 0.752453 0.409912
1.000000 0.747378 0.443378
0.000000 0.780748 0.232308
0.000000 0.781697 0.230839
0.000000 0.782621 0.229442
0.000000 0.783473 0.228100
0.000000 0.784394 0.226471
0.000000 0.785507 0.224496
0.000000 0.786887 0.222168
0.000000 0.788568 0.219437
0.000000 0.789852 0.215553
0.000000 0.790835 0.210465
0.000000 0.792009 0.205233
0.000000 0.793505 0.201772
0.000000 0.795218 0.197613
0.000000 0.797135 0.192586
0.000000 0.800961 0.185421
0.000000 0.807925 0.175483
0.182498 0.813068 0.164296
0.351824 0.815960 0.154086
0.465488 0.818649 0.145308
0.569644 0.819202 0.139273
0.663637 0.817723 0.136020
0.728562 0.818135 0.121954
0.783264 0.818704 0.106414
0.833265 0.816609 0.104661
0.877618 0.814107 0.102006
0.913779 0.814366 0.180224
0.940149 0.815579 0.237432
0.959436 0.816314 0.285554
0.975849 0.810301 0.324507
0.991407 0.805797 0.366769
1.000000 0.804413 0.408764
1.000000 0.798072 0.439194
1.000000 0.791078 0.468439
0.000000 0.827735 0.301029
0.000000 0.828304 0.300647
0.000000 0.828859 0.300274
0.000000 0.829400 0.299458
0.000000 0.829985 0.298245
0.000000 0.830689 0.296774
0.000000 0.831534 0.295013
0.000000 0.832588 0.293019
0.000000 0.833826 0.290641
0.000000 0.835032 0.287499
0.000000 0.835629 0.282702
0.000000 0.836341 0.278119
0.000000 0.837263 0.275079
0.000000 0.838036 0.267666
0.000000 0.839048 0.259856
0.000000 0.841449 0.254132
0.139022 0.843606 0.246215
0.340596 0.847012 0.239500
0.461464 0.848914 0.234252
0.559018 0.850552 0.229649
0.647786 0.850716 0.226830
0.716823 0.852285 0.231004
0.772751 0.852784 0.226826
0.823697 0.850490 0.220032
0.867592 0.850036 0.216699
0.906264 0.849530 0.212858
0.932240 0.849941 0.264933
0.952278 0.850782 0.318640
