Assets/Lutify-Free-LUTs-Pack/Lutify Free LUTs Pack/Print Film Pro - Print Film 2/Lutify.me-PrintFilm2-DWG-to-DWG.cube
# Created with: fylm.ai - Colour Grading and Collaboration Software in Cloud 
# Website: https://fylm.ai 
# META
# Option: Gamut compress
# Block 2: colourMatch | Blending Mode: Normal | {"ColorSpace":0,"CrossCovarianceLimit":50,"ReshapingIterations":1,"PercentSaturationShift":100,"PercentShadingShift":100,"ExtraShading":true,"PercentTint":100,"PercentModified":100}
# Block 3: HSL | Blending Mode: Normal | {"hue":{"Reds":0,"Yellows":0,"Greens":0,"Cyans":0,"Blues":0,"Magentas":0},"saturation":{"Reds":1,"Yellows":0.9,"Greens":0.95,"Cyans":1,"Blues":1,"Magentas":1},"luminance":{"Reds":0.8,"Yellows":0.95,"Greens":0.9,"Cyans":0.8,"Blues":0.8,"Magentas":0.8},"lum_sat":{"Blacks":1,"Shadows":1,"Midtones":1,"Highlights":1,"Whites":1},"sat_sat":{"10":1,"20":1,"30":1,"40":1,"50":1}}
# Block 4: LUT | Filmic Curve Response: Low Contrast 2 (100%)
TITLE "dwg" 
LUT_3D_SIZE 33
-0.033384 -0.033384 -0.033384
-0.031488 -0.032078 -0.032054
-0.027220 -0.030041 -0.030699
-0.018362 -0.027434 -0.028664
-0.003306 -0.025054 -0.027055
0.018090 -0.022466 -0.025049
0.043166 -0.019450 -0.022575
0.072175 -0.014648 -0.018869
0.104608 -0.007715 -0.013683
0.144532 0.001716 -0.005119
0.189240 0.018170 0.009640
0.236542 0.040209 0.031736
0.277961 0.064672 0.057330
0.314496 0.090383 0.083259
0.351040 0.115700 0.111578
0.384564 0.144575 0.140538
0.415446 0.177926 0.168276
0.443896 0.210736 0.195668
0.472987 0.241872 0.223737
0.499563 0.272175 0.249904
0.528538 0.304846 0.278278
0.556606 0.335621 0.305995
0.585159 0.363941 0.334461
0.614870 0.391204 0.363891
0.645154 0.422748 0.394578
0.676033 0.449698 0.425079
0.710430 0.477210 0.458383
0.745631 0.506905 0.492966
0.781246 0.536683 0.527260
0.816860 0.564953 0.561480
0.854575 0.594785 0.597786
0.888782 0.625665 0.631034
0.903194 0.653021 0.648418
-0.030267 -0.029052 -0.030253
-0.026145 -0.026470 -0.028187
-0.019815 -0.023824 -0.027007
-0.006851 -0.021632 -0.025636
0.009770 -0.020005 -0.024360
0.028176 -0.017977 -0.022984
0.054163 -0.014177 -0.020485
0.080192 -0.009245 -0.017333
0.113604 -0.002639 -0.011846
0.153679 0.008105 -0.001959
0.197039 0.026264 0.013038
0.241464 0.045637 0.034449
0.281773 0.069924 0.060157
0.317143 0.093794 0.085297
0.352396 0.118601 0.112743
0.385839 0.147668 0.141680
0.416172 0.179907 0.168983
0.444485 0.212497 0.196261
0.473330 0.242966 0.224081
0.499810 0.273070 0.250148
0.528875 0.305644 0.278619
0.556855 0.336162 0.306240
0.585279 0.364260 0.334572
0.615033 0.391525 0.364044
0.645288 0.422978 0.394701
0.676103 0.449849 0.425146
0.710484 0.477308 0.458432
0.745697 0.507002 0.493024
0.781290 0.536748 0.527300
0.816889 0.564991 0.561504
0.854597 0.594818 0.597806
0.888797 0.625690 0.631048
0.903207 0.653045 0.648430
-0.024347 -0.017899 -0.024180
-0.020064 -0.014138 -0.023589
-0.009666 -0.010544 -0.022285
0.006430 -0.007503 -0.021249
0.029390 -0.004443 -0.019453
0.049982 -0.003122 -0.018428
0.070898 -0.002121 -0.016721
0.095384 -0.000479 -0.013614
0.126968 0.005859 -0.007904
0.163775 0.018314 0.001831
0.204275 0.033324 0.016076
0.247364 0.053552 0.038131
0.285391 0.075456 0.062701
0.319818 0.097624 0.087292
0.353984 0.122026 0.114104
0.387165 0.151515 0.142937
0.416786 0.181993 0.169610
0.445055 0.214416 0.196826
0.473981 0.244574 0.224692
0.500263 0.274160 0.250553
0.529203 0.306589 0.278969
0.557137 0.336808 0.306518
0.585422 0.364644 0.334706
0.615229 0.391909 0.364227
0.645449 0.423256 0.394850
0.676186 0.450030 0.425226
0.710549 0.477426 0.458490
0.745776 0.507119 0.493093
0.781343 0.536827 0.527349
0.816923 0.565036 0.561534
0.854621 0.594860 0.597829
0.888816 0.625723 0.631066
0.903224 0.653075 0.648445
-0.020294 -0.001394 -0.019619
-0.013416 0.004338 -0.018975
-0.002337 0.010281 -0.017900
0.020219 0.015797 -0.016330
0.046858 0.020041 -0.014293
0.067466 0.021867 -0.012706
0.091018 0.023508 -0.010190
0.119667 0.025440 -0.006311
0.148125 0.026810 -0.000819
0.179398 0.032743 0.007843
0.215122 0.044298 0.021811
0.254930 0.064445 0.042937
0.289470 0.082070 0.065647
0.323605 0.102829 0.090161
0.356069 0.126485 0.115976
0.388841 0.156209 0.144436
0.417645 0.184999 0.170521
0.445967 0.217153 0.197689
0.474854 0.246722 0.225520
0.500889 0.275615 0.251106
0.529573 0.307842 0.279385
0.557408 0.337658 0.306794
0.585613 0.365157 0.334882
0.615481 0.392422 0.364465
0.645664 0.423627 0.395048
0.676298 0.450274 0.425334
0.710637 0.477584 0.458569
0.745883 0.507275 0.493186
0.781414 0.536933 0.527414
0.816970 0.565098 0.561574
0.854654 0.594916 0.597859
0.888841 0.625766 0.631090
0.903245 0.653112 0.648465
-0.015359 0.023352 -0.015184
-0.008317 0.026834 -0.015000
0.005118 0.034380 -0.014113
0.029488 0.042359 -0.011639
0.057963 0.046797 -0.009395
0.082484 0.050532 -0.007108
0.111148 0.053390 -0.002832
0.142180 0.054739 0.002093
0.171672 0.057918 0.009450
0.200203 0.060726 0.018613
0.229554 0.063619 0.030679
0.264633 0.076623 0.049411
0.296518 0.090523 0.070309
0.327584 0.110053 0.093487
0.358844 0.132630 0.118385
0.390896 0.161506 0.146131
0.418874 0.189817 0.171955
0.447136 0.220565 0.198771
0.476007 0.249511 0.226599
0.501724 0.277546 0.251839
0.530065 0.309509 0.279934
0.557770 0.338808 0.307167
0.585868 0.365842 0.335118
0.615734 0.393099 0.364720
0.645913 0.424120 0.395284
0.676447 0.450600 0.425478
0.710754 0.477796 0.458673
0.746026 0.507486 0.493312
0.781509 0.537075 0.527502
0.817033 0.565181 0.561628
0.854697 0.594992 0.597900
0.888874 0.625823 0.631122
0.903273 0.653163 0.648492
-0.009869 0.047367 -0.011268
-0.003309 0.051448 -0.010975
0.011532 0.058674 -0.009689
0.034771 0.065764 -0.007605
0.065664 0.070617 -0.004941
0.092091 0.073612 -0.002426
0.123698 0.078198 0.003012
0.157733 0.081723 0.010276
0.189590 0.083464 0.019422
0.217806 0.087284 0.029541
0.245490 0.089224 0.042022
0.276206 0.093073 0.058342
0.304053 0.104027 0.076434
0.333082 0.120846 0.097920
0.364369 0.143772 0.123160
0.394709 0.169927 0.149663
0.420671 0.195899 0.173908
0.448600 0.224578 0.200062
0.477524 0.253109 0.227997
0.502837 0.280101 0.252807
0.530720 0.311724 0.280664
0.558252 0.340339 0.307658
0.586228 0.366765 0.335448
0.616072 0.394002 0.365059
0.646197 0.424772 0.395563
0.676647 0.451035 0.425669
0.710910 0.478080 0.458812
0.746217 0.507767 0.493478
0.781636 0.537265 0.527619
0.817117 0.565291 0.561700
0.854756 0.595094 0.597955
0.888920 0.625901 0.631165
0.903312 0.653232 0.648528
-0.004043 0.075620 -0.006286
0.002407 0.080191 -0.005913
0.018320 0.086443 -0.004379
0.043707 0.095712 -0.001393
0.072819 0.102486 0.002327
0.101560 0.106158 0.005557
0.134996 0.110612 0.011491
0.173489 0.114275 0.020553
0.206282 0.117626 0.031652
0.234781 0.119868 0.042787
0.263552 0.123792 0.056792
0.292193 0.124435 0.072315
0.316542 0.128269 0.087804
0.340836 0.137560 0.104674
0.370989 0.157368 0.129095
0.398870 0.179310 0.153488
0.423918 0.202689 0.176772
0.450610 0.229901 0.201793
0.479571 0.258015 0.229928
0.504403 0.283928 0.254227
0.531608 0.314659 0.281639
0.558895 0.342459 0.308348
0.586709 0.367991 0.335884
0.616523 0.395208 0.365511
0.646576 0.425642 0.395932
0.676916 0.451621 0.425927
0.711121 0.478462 0.459001
0.746459 0.508144 0.493690
0.781807 0.537521 0.527777
0.817229 0.565439 0.561795
0.854835 0.595232 0.598030
0.888981 0.626006 0.631223
0.903364 0.653325 0.648576
0.002237 0.106100 0.000548
0.012519 0.111614 0.001783
0.026561 0.118747 0.003836
0.050553 0.127907 0.007450
0.077705 0.136111 0.011826
0.107718 0.140996 0.016630
0.144762 0.144235 0.022846
0.183945 0.146732 0.031991
0.217502 0.150283 0.043466
0.248963 0.154452 0.057310
0.278230 0.156781 0.071511
0.307735 0.159752 0.087575
0.331128 0.161752 0.101949
0.351303 0.164898 0.115816
0.377477 0.172798 0.135088
0.404156 0.190491 0.158235
0.428406 0.212813 0.180956
0.453389 0.237937 0.204518
0.481494 0.263476 0.231871
0.506601 0.289270 0.256420
0.533068 0.318774 0.283224
0.559728 0.345265 0.309270
0.587350 0.369660 0.336507
0.617126 0.396815 0.366112
0.647065 0.426752 0.396403
0.677275 0.452402 0.426270
0.711403 0.478974 0.459252
0.746725 0.508642 0.493936
0.782036 0.537862 0.527988
0.817381 0.565638 0.561925
0.854940 0.595415 0.598130
0.889062 0.626144 0.631299
0.903433 0.653448 0.648639
0.014719 0.141624 0.011010
0.024867 0.146397 0.012749
0.037295 0.151989 0.014872
0.057591 0.157689 0.017839
0.083547 0.167148 0.023241
0.114317 0.173715 0.029494
0.151022 0.177962 0.036080
0.192886 0.182403 0.046756
0.228347 0.182352 0.057386
0.260949 0.185847 0.071024
0.291204 0.190402 0.086686
0.320861 0.191702 0.102334
0.341928 0.195684 0.115171
0.363689 0.197471 0.129693
0.387626 0.201645 0.146692
0.410266 0.208241 0.164597
0.433766 0.225208 0.185983
0.457333 0.247407 0.208563
0.483449 0.270033 0.233798
0.509513 0.296089 0.259437
0.534840 0.323984 0.285178
0.560749 0.348288 0.310341
0.588231 0.372101 0.337445
0.617927 0.398949 0.366904
0.647682 0.428133 0.396985
0.677754 0.453449 0.426730
0.711780 0.479656 0.459587
0.747080 0.509308 0.494266
0.782344 0.538322 0.528272
0.817603 0.565942 0.562119
0.855081 0.595661 0.598262
0.889172 0.626333 0.631404
0.903527 0.653615 0.648726
0.028617 0.177703 0.025409
0.038333 0.182949 0.027835
0.052685 0.188432 0.030764
0.067620 0.192144 0.033028
0.089678 0.199853 0.038206
0.120713 0.205782 0.044262
0.158842 0.210235 0.051872
0.200814 0.213104 0.062120
0.234401 0.215370 0.072488
0.270790 0.215677 0.085542
0.301962 0.217202 0.099558
0.333237 0.223802 0.117696
0.355420 0.224161 0.130446
0.377034 0.228399 0.144270
0.398906 0.230381 0.159647
0.419591 0.234594 0.175002
0.439022 0.242265 0.191806
0.462137 0.259685 0.213590
0.487218 0.280685 0.237690
0.513040 0.304957 0.263189
0.536717 0.329584 0.287170
0.562090 0.352243 0.311769
0.589467 0.375611 0.338754
0.618992 0.401926 0.367996
0.648504 0.430009 0.397772
0.678394 0.454850 0.427345
0.712284 0.480568 0.460032
0.747556 0.510200 0.494709
0.782757 0.538936 0.528650
0.817922 0.566388 0.562401
0.855271 0.595992 0.598441
0.889319 0.626584 0.631543
0.903651 0.653835 0.648843
0.048955 0.216540 0.045033
0.059069 0.219804 0.047127
0.069421 0.223950 0.050006
0.082353 0.227131 0.052541
0.102113 0.234149 0.057908
0.126603 0.239548 0.063045
0.165351 0.245291 0.071558
0.207638 0.247275 0.080601
0.243411 0.248800 0.090511
0.278130 0.250799 0.102794
0.312024 0.248763 0.115880
0.346923 0.251484 0.133895
0.371426 0.256731 0.148804
0.392241 0.258509 0.161992
0.413075 0.261548 0.175635
0.432423 0.265008 0.190046
0.450055 0.266965 0.203312
0.469319 0.277562 0.220842
0.493734 0.294378 0.243758
0.516589 0.315150 0.266929
0.539547 0.336594 0.290038
0.563927 0.357787 0.313751
0.591092 0.380242 0.340451
0.620399 0.405652 0.369379
0.649594 0.432587 0.398848
0.679244 0.456708 0.428158
0.712957 0.481783 0.460624
0.748192 0.511390 0.495298
0.783310 0.539759 0.529158
0.818348 0.566988 0.562779
0.855527 0.596437 0.598682
0.889514 0.626920 0.631728
0.903819 0.654137 0.649007
0.071210 0.254812 0.068588
0.079438 0.256786 0.070347
0.088575 0.260136 0.073028
0.102107 0.264460 0.076809
0.117392 0.267665 0.079857
0.138514 0.271041 0.083819
0.170436 0.275791 0.090681
0.212318 0.278749 0.099391
0.248214 0.280108 0.108208
0.284117 0.281292 0.119350
0.318674 0.280579 0.131997
0.356576 0.277819 0.148250
0.383709 0.281691 0.164062
0.407085 0.284439 0.178407
0.428357 0.287792 0.192883
0.447786 0.291467 0.206519
0.463931 0.298017 0.219468
0.480946 0.301587 0.233139
0.502789 0.312853 0.252962
0.521632 0.327141 0.271912
0.543524 0.345985 0.293936
0.566703 0.365474 0.316800
0.593215 0.386282 0.342620
0.622250 0.410563 0.371272
0.651034 0.435985 0.400251
0.680343 0.458996 0.429163
0.713851 0.483397 0.461406
0.749038 0.512974 0.496080
0.784051 0.540857 0.529836
0.818920 0.567791 0.563286
0.855866 0.597030 0.599002
0.889780 0.627374 0.631979
0.904045 0.654540 0.649225
0.095349 0.287745 0.091945
0.103793 0.289794 0.093707
0.114031 0.291370 0.095417
0.124207 0.293209 0.097622
0.137386 0.295558 0.100144
0.155050 0.299311 0.104477
0.179725 0.302706 0.109564
0.216578 0.307557 0.118176
0.255230 0.309193 0.126938
0.290716 0.307929 0.135629
0.326138 0.309805 0.148648
0.362268 0.306702 0.162528
0.388828 0.308321 0.176263
0.413663 0.311997 0.191292
0.440142 0.314959 0.208131
0.462969 0.313986 0.222691
0.480102 0.318311 0.235668
0.495366 0.327030 0.248548
0.512741 0.332805 0.263192
0.527914 0.341957 0.277833
0.548859 0.357073 0.298942
0.570795 0.373773 0.320787
0.597130 0.395056 0.346447
0.625679 0.417064 0.374635
0.652926 0.440448 0.402070
0.681833 0.462119 0.430521
0.715113 0.485713 0.462526
0.750166 0.515069 0.497117
0.785041 0.542320 0.530740
0.819685 0.568864 0.563962
0.856383 0.597843 0.599470
0.890133 0.627977 0.632312
0.904346 0.655079 0.649517
0.126253 0.321067 0.118140
0.132017 0.322127 0.119242
0.139758 0.323319 0.120484
0.149263 0.324809 0.122212
0.160234 0.326789 0.124371
0.173431 0.328894 0.127151
0.195617 0.331797 0.131650
0.223352 0.334965 0.137780
0.259804 0.336540 0.145343
0.294954 0.335629 0.153012
0.330546 0.337073 0.164707
0.369113 0.334900 0.178315
0.395444 0.336259 0.191002
0.420339 0.337738 0.204137
0.447249 0.341987 0.221256
0.470848 0.344186 0.236449
0.491689 0.343302 0.249986
0.514045 0.342785 0.265846
0.528675 0.353397 0.278956
0.542159 0.361696 0.291380
0.556290 0.372157 0.306199
0.576184 0.385559 0.326077
0.601667 0.405516 0.350989
0.629795 0.424567 0.378480
0.654970 0.444955 0.403854
0.683794 0.466418 0.432364
0.716906 0.489094 0.464154
0.751657 0.517837 0.498497
0.786361 0.544265 0.531940
0.820708 0.570295 0.564865
0.857095 0.598934 0.600108
0.890606 0.628788 0.632760
0.904750 0.655800 0.649907
0.159734 0.354202 0.145860
0.164316 0.354970 0.146672
0.169714 0.355871 0.147715
0.176633 0.357064 0.149181
0.185788 0.358561 0.151049
0.200813 0.360683 0.153826
0.218553 0.362535 0.157088
0.237877 0.364785 0.161165
0.265337 0.365440 0.165957
0.299316 0.367756 0.174549
0.336016 0.366040 0.183056
0.373542 0.364253 0.194716
0.399833 0.365541 0.206469
0.424719 0.366836 0.218540
0.452811 0.370688 0.234713
0.479172 0.374393 0.251603
0.501777 0.375593 0.265933
0.522886 0.374585 0.279989
0.547262 0.374094 0.297439
0.561464 0.381872 0.309776
0.570284 0.393706 0.319706
0.585609 0.404979 0.335742
0.607796 0.417864 0.357024
0.634000 0.433882 0.382382
0.658101 0.451132 0.406719
0.686361 0.472082 0.434740
0.719399 0.493853 0.466424
0.753622 0.521480 0.500305
0.787926 0.546816 0.533382
0.822076 0.572224 0.566069
0.858047 0.600388 0.600958
0.891239 0.629883 0.633357
0.905291 0.656765 0.650429
0.192242 0.381586 0.170120
0.196842 0.382037 0.170828
0.202599 0.382565 0.171681
0.210043 0.383255 0.172847
0.218601 0.384146 0.174281
0.229857 0.385255 0.176341
0.242249 0.386465 0.178606
0.257871 0.388025 0.181689
0.277310 0.389791 0.186040
0.304303 0.392217 0.192712
0.339680 0.390414 0.199761
0.377021 0.388849 0.210140
0.406506 0.390630 0.221967
0.431823 0.391832 0.233656
0.457650 0.393334 0.246887
0.483014 0.396865 0.261850
0.507522 0.400410 0.277936
0.532530 0.402172 0.294395
0.555807 0.401553 0.310225
0.577983 0.401645 0.326591
0.594932 0.405984 0.340369
0.600031 0.423004 0.348708
0.616925 0.434252 0.366154
0.639258 0.446630 0.387418
0.663395 0.460511 0.411479
0.690078 0.479518 0.438140
0.722663 0.500076 0.469342
0.756015 0.526098 0.502480
0.789870 0.550163 0.535177
0.823884 0.574778 0.567679
0.859320 0.602334 0.602095
0.892173 0.631554 0.634252
0.906013 0.658059 0.651127
0.228706 0.409748 0.196019
0.232171 0.410080 0.196583
0.236096 0.410450 0.197210
0.240715 0.410870 0.197920
0.246761 0.411404 0.198942
0.254685 0.412066 0.200328
0.264881 0.412923 0.202132
0.277228 0.414068 0.204540
0.292975 0.414454 0.207259
0.315218 0.414858 0.211260
0.342967 0.414506 0.216958
0.380363 0.413012 0.225904
0.409835 0.414806 0.236952
0.436039 0.416331 0.247908
0.463696 0.417690 0.260833
0.489390 0.419324 0.274811
0.512735 0.421756 0.288666
0.538213 0.424655 0.305291
0.565784 0.428581 0.324791
0.586579 0.427940 0.339045
0.607983 0.428230 0.355224
0.630440 0.429109 0.372946
0.632256 0.451967 0.379672
0.648079 0.460826 0.395792
0.670242 0.472688 0.417614
0.695746 0.489657 0.443326
0.727321 0.508329 0.473586
0.759231 0.531730 0.505271
0.792127 0.554515 0.537241
0.826281 0.578146 0.569817
0.861229 0.604974 0.603777
0.893428 0.633809 0.635458
0.906976 0.659788 0.652060
0.264433 0.439424 0.223926
0.266797 0.439593 0.224240
0.269585 0.439786 0.224604
0.273324 0.440040 0.225170
0.277845 0.440068 0.225674
0.283397 0.440600 0.226680
0.290663 0.441311 0.228082
0.300578 0.441635 0.229537
0.313246 0.440471 0.230473
0.331156 0.441188 0.234042
0.353769 0.440353 0.237896
0.383908 0.438746 0.243863
0.412985 0.440309 0.253246
0.439423 0.441912 0.263627
0.467472 0.443500 0.275710
0.494022 0.444786 0.288294
0.518497 0.446374 0.302040
0.543684 0.448776 0.317224
0.571974 0.453897 0.336607
0.597698 0.456296 0.354825
0.618864 0.456005 0.369740
0.640092 0.456257 0.385928
0.666697 0.458106 0.407424
0.665666 0.482154 0.412019
0.680993 0.490768 0.427592
0.703162 0.501829 0.449823
0.734130 0.519501 0.479955
0.763699 0.539097 0.509041
0.796262 0.560416 0.540827
0.829463 0.582606 0.572621
0.863903 0.608495 0.606105
0.895094 0.636804 0.637055
0.908257 0.662194 0.653326
0.295964 0.465654 0.249124
0.297623 0.465743 0.249370
0.299589 0.465845 0.249659
0.302183 0.465976 0.250036
0.305583 0.466137 0.250520
0.310017 0.466333 0.251148
0.316582 0.466230 0.251882
0.325082 0.466051 0.252791
0.335922 0.466451 0.254692
0.349164 0.466931 0.257309
0.369261 0.464961 0.259406
0.393715 0.463407 0.263703
0.414724 0.464500 0.269983
0.442477 0.466022 0.279163
0.470816 0.467830 0.290611
0.497805 0.469320 0.302696
0.522274 0.470563 0.314596
0.548919 0.472394 0.329750
0.575884 0.476405 0.347065
0.603726 0.480338 0.365901
0.629317 0.483452 0.384653
0.652739 0.483769 0.401781
0.677156 0.484718 0.420694
0.704748 0.487494 0.443562
0.697185 0.513433 0.443285
0.714880 0.519915 0.460518
0.742238 0.532238 0.487105
0.770025 0.547232 0.514304
0.801280 0.568157 0.545238
0.833682 0.588653 0.576346
0.867389 0.613111 0.609118
0.897298 0.640760 0.639156
0.909853 0.665236 0.654902
0.327050 0.490796 0.273722
0.328503 0.490834 0.273915
0.330233 0.490878 0.274142
0.332525 0.490927 0.274434
0.335485 0.490990 0.274810
0.339366 0.491145 0.275393
0.344397 0.491410 0.276238
0.350179 0.491716 0.277241
0.358393 0.492047 0.278707
0.371542 0.490498 0.279695
0.390306 0.488468 0.281360
0.406840 0.487028 0.283978
0.422555 0.487778 0.288037
0.444656 0.488966 0.295114
0.473685 0.490654 0.305343
0.501312 0.492408 0.316579
0.525953 0.493710 0.328148
0.553266 0.495270 0.342079
0.580735 0.497195 0.357807
0.607790 0.501419 0.375961
0.633500 0.505330 0.393851
0.662536 0.508959 0.415237
0.689443 0.510292 0.435800
0.715914 0.512502 0.457143
0.743448 0.516162 0.480419
0.733835 0.543130 0.478144
0.751739 0.549213 0.495889
0.778055 0.559731 0.521338
0.807098 0.577841 0.550453
0.838359 0.596513 0.580699
0.870732 0.618837 0.612067
0.900200 0.645957 0.641896
0.911855 0.669046 0.656858
0.358235 0.516814 0.299370
0.359403 0.516823 0.299511
0.360796 0.516834 0.299680
0.362650 0.516848 0.299903
0.365031 0.516883 0.300215
0.367977 0.516980 0.300671
0.371854 0.517093 0.301259
0.377961 0.516373 0.301436
0.386227 0.515311 0.301944
0.396267 0.514129 0.302735
0.410291 0.511779 0.303263
0.422991 0.511502 0.305821
0.436537 0.512149 0.309371
0.453512 0.513004 0.314040
0.476878 0.513555 0.321257
0.504324 0.515214 0.331501
0.529495 0.516806 0.341836
0.556955 0.518248 0.355134
0.586870 0.520180 0.371240
0.612190 0.522030 0.386094
0.638233 0.526288 0.404000
0.667022 0.530877 0.424682
0.699563 0.535402 0.449236
0.729327 0.537480 0.472544
0.754781 0.540514 0.493828
0.781295 0.545109 0.516810
0.773636 0.571744 0.515647
0.790218 0.578549 0.532592
0.814946 0.590006 0.557138
0.845426 0.606949 0.586998
0.875217 0.626781 0.616202
0.904051 0.652787 0.645417
0.914599 0.674273 0.659524
0.392176 0.542182 0.325141
0.392942 0.542150 0.325203
0.393905 0.542116 0.325286
0.395021 0.542099 0.325414
0.396487 0.542075 0.325583
0.398433 0.542043 0.325806
0.401008 0.541988 0.326092
0.404892 0.541506 0.326223
0.410894 0.540180 0.326176
0.419239 0.539590 0.327118
0.432363 0.538896 0.328809
0.442325 0.538634 0.330534
0.453276 0.539185 0.333407
0.467244 0.539756 0.336988
0.485990 0.538861 0.341235
0.507573 0.538949 0.347627
0.532470 0.540486 0.357339
0.560548 0.542190 0.369340
0.590835 0.543802 0.384093
0.616239 0.545516 0.398418
0.644576 0.547774 0.415707
0.672986 0.552255 0.435242
0.704538 0.557509 0.458754
0.739810 0.563124 0.486374
0.766335 0.565570 0.507753
0.797228 0.570264 0.534015
0.828129 0.577048 0.561425
0.811477 0.602746 0.552061
0.828304 0.607946 0.569017
0.854532 0.620989 0.595310
0.882771 0.638997 0.623266
0.909045 0.661745 0.650170
0.918192 0.681263 0.662997
0.421801 0.572538 0.354717
0.422406 0.572451 0.354719
0.423137 0.572337 0.354714
0.424109 0.572192 0.354714
0.425411 0.571991 0.354707
0.427143 0.571726 0.354702
0.429448 0.571360 0.354685
0.432669 0.570900 0.354704
0.438629 0.570312 0.355241
0.447114 0.568461 0.355183
0.455382 0.565743 0.354378
0.461429 0.566024 0.355636
0.470527 0.566469 0.357830
0.482675 0.567084 0.361050
0.497685 0.567684 0.364896
0.514565 0.568516 0.369990
0.535857 0.569699 0.377078
0.563812 0.571401 0.387904
0.594931 0.573283 0.401481
0.620472 0.574630 0.413953
0.649153 0.576609 0.430168
0.677559 0.578935 0.447717
0.709575 0.582526 0.469503
0.746320 0.587437 0.496896
0.780692 0.593514 0.524679
0.810616 0.597963 0.549729
0.845799 0.604881 0.580448
0.875869 0.613130 0.607712
0.852720 0.637735 0.592069
0.870700 0.643335 0.610188
0.894367 0.655463 0.634038
0.915186 0.673325 0.656011
0.922858 0.690389 0.667470
0.450916 0.598934 0.381015
0.451422 0.598843 0.381002
0.452032 0.598726 0.380980
0.452850 0.598569 0.380950
0.453948 0.598352 0.380905
0.455409 0.598068 0.380849
0.457354 0.597689 0.380773
0.460104 0.597118 0.380691
0.465284 0.595560 0.380311
0.473020 0.593557 0.380019
0.480365 0.591815 0.379865
0.486288 0.592106 0.381114
0.493857 0.592489 0.382849
0.503372 0.592996 0.385382
0.514214 0.593568 0.388289
0.527685 0.594276 0.391887
0.544704 0.595243 0.397344
0.567031 0.596528 0.404850
0.598287 0.598551 0.417481
0.624397 0.600116 0.429227
0.653374 0.601776 0.443602
0.681916 0.603927 0.460262
0.714414 0.606961 0.481136
0.751262 0.611382 0.507266
0.786975 0.616893 0.534829
0.820620 0.623400 0.562475
0.859546 0.631063 0.595942
0.893547 0.639441 0.626360
0.905138 0.642191 0.636909
0.894573 0.672409 0.632583
0.905266 0.675269 0.644502
0.923112 0.688828 0.663588
0.928929 0.702252 0.673144
0.482430 0.626691 0.408923
0.483002 0.626446 0.408785
0.483702 0.626136 0.408607
0.484642 0.625718 0.408368
0.485892 0.625175 0.408061
0.487604 0.624500 0.407769
0.490221 0.623621 0.407499
0.494055 0.622477 0.407221
0.498093 0.620575 0.406357
0.503156 0.617957 0.405080
0.506481 0.618059 0.405734
0.510570 0.618261 0.406603
0.515848 0.618521 0.407724
0.522682 0.618878 0.409463
0.531359 0.619337 0.411783
0.542293 0.619910 0.414701
0.556055 0.620622 0.418386
0.574193 0.621662 0.424387
0.599264 0.623102 0.432936
0.627958 0.624952 0.444864
0.657483 0.626715 0.458612
0.686158 0.628514 0.473476
0.719118 0.631061 0.492808
0.756091 0.634905 0.517656
0.792374 0.639819 0.544569
0.826069 0.645676 0.571460
0.870641 0.655813 0.609226
0.907034 0.664452 0.641340
0.918446 0.666671 0.651498
0.919787 0.665782 0.652579
0.926932 0.704653 0.664916
0.931841 0.706164 0.671895
0.936738 0.718008 0.680684
0.515069 0.655007 0.437499
0.515532 0.654755 0.437339
0.516105 0.654444 0.437160
0.516893 0.654024 0.436950
0.517891 0.653368 0.436583
0.519198 0.652490 0.436087
0.520955 0.651310 0.435418
0.523923 0.649739 0.434635
0.528062 0.647638 0.433618
0.530069 0.647585 0.433918
0.532466 0.647711 0.434432
0.535607 0.647873 0.435103
0.539702 0.648086 0.435979
0.545098 0.648361 0.437130
0.552070 0.648734 0.438894
0.560930 0.649218 0.441285
0.572392 0.649841 0.444372
0.587687 0.650675 0.448521
0.607541 0.651832 0.455227
0.630825 0.653202 0.463328
0.661405 0.655189 0.476083
0.690424 0.656936 0.489903
0.723831 0.659206 0.507848
0.760937 0.662462 0.530675
0.797788 0.666605 0.556124
0.831511 0.671353 0.581494
0.876592 0.680192 0.618475
