Assets/Lutify-Free-LUTs-Pack/Lutify Free LUTs Pack/Print Film Pro - Print Film 2/Lutify.me-PrintFilm2-DWG-to-DWG.cube
# Created with: fylm.ai - Colour Grading and Collaboration Software in Cloud 
# Website: https://fylm.ai 
# META
# Option: Gamut compress
# Block 2: colourMatch | Blending Mode: Normal | {"ColorSpace":0,"CrossCovarianceLimit":50,"ReshapingIterations":1,"PercentSaturationShift":100,"PercentShadingShift":100,"ExtraShading":true,"PercentTint":100,"PercentModified":100}
# Block 3: HSL | Blending Mode: Normal | {"hue":{"Reds":0,"Yellows":0,"Greens":0,"Cyans":0,"Blues":0,"Magentas":0},"saturation":{"Reds":1,"Yellows":0.9,"Greens":0.95,"Cyans":1,"Blues":1,"Magentas":1},"luminance":{"Reds":0.8,"Yellows":0.95,"Greens":0.9,"Cyans":0.8,"Blues":0.8,"Magentas":0.8},"lum_sat":{"Blacks":1,"Shadows":1,"Midtones":1,"Highlights":1,"Whites":1},"sat_sat":{"10":1,"20":1,"30":1,"40":1,"50":1}}
# Block 4: LUT | Filmic Curve Response: Low Contrast 2 (100%)
TITLE "dwg" 
LUT_3D_SIZE 5
-0.033384 -0.033384 -0.033384
0.104608 -0.007715 -0.013683
0.415446 0.177926 0.168276
0.645154 0.422748 0.394578
0.903194 0.653021 0.648418
0.014719 0.141624 0.011010
0.228347 0.182352 0.057386
0.433766 0.225208 0.185983
0.647682 0.428133 0.396985
0.903527 0.653615 0.648726
0.228706 0.409748 0.196019
0.292975 0.414454 0.207259
0.512735 0.421756 0.288666
0.670242 0.472688 0.417614
0.906976 0.659788 0.652060
0.482430 0.626691 0.408923
0.498093 0.620575 0.406357
0.556055 0.620622 0.418386
0.792374 0.639819 0.544569
0.936738 0.718008 0.680684
0.759079 0.895471 0.677670
0.760004 0.895521 0.677870
0.769488 0.896023 0.679918
0.849389 0.897337 0.698905
0.941304 0.899335 0.735722
-0.027536 -0.026635 -0.010542
0.083953 -0.004383 0.050583
0.414094 0.179005 0.196544
0.641966 0.420893 0.396689
0.902997 0.652803 0.648617
0.057983 0.160727 0.249401
0.216588 0.222076 0.228608
0.426315 0.225665 0.209343
0.644968 0.426518 0.399492
0.903330 0.653397 0.648926
0.227232 0.429371 0.273163
0.282186 0.437360 0.267509
0.489639 0.442317 0.286602
0.666585 0.471629 0.419108
0.906781 0.659554 0.652158
0.462531 0.651370 0.433711
0.468534 0.652550 0.434526
0.530592 0.641667 0.429369
0.792256 0.639667 0.544441
0.936580 0.717775 0.680923
0.716019 0.919617 0.694046
0.721727 0.914367 0.689813
0.769376 0.895996 0.679877
0.849320 0.897311 0.698867
0.941303 0.899315 0.735711
-0.018212 -0.019031 0.031166
0.049675 0.013094 0.116077
0.293649 0.058002 0.160985
0.644780 0.424734 0.442196
0.900986 0.650427 0.650637
0.169763 0.248962 0.399674
0.183702 0.232433 0.377118
0.361917 0.169017 0.292563
0.646299 0.429137 0.443624
0.901321 0.651026 0.650953
0.284692 0.408133 0.528723
0.284075 0.426141 0.500603
0.488686 0.494075 0.504124
0.655927 0.466603 0.454028
0.904813 0.657275 0.654244
0.473241 0.670558 0.529083
0.479498 0.672496 0.529240
0.519670 0.679247 0.524638
0.732172 0.692992 0.533925
0.935135 0.715744 0.683142
0.696289 0.943480 0.721079
0.696896 0.943525 0.721106
0.703507 0.943994 0.721483
0.770038 0.938178 0.716789
0.941293 0.899106 0.735595
0.141702 0.166248 0.316460
0.158298 0.169871 0.320124
0.272390 0.178108 0.325500
0.490330 0.209127 0.329708
0.916430 0.657871 0.690615
0.141357 0.166083 0.316282
0.157964 0.169797 0.320046
0.272234 0.178045 0.325434
0.490318 0.209092 0.329661
0.916461 0.658252 0.690688
0.420459 0.507616 0.661239
0.420325 0.504165 0.656303
0.441424 0.486852 0.632471
0.600282 0.420874 0.551851
0.916774 0.662176 0.691436
0.510109 0.621108 0.759823
0.508106 0.630802 0.754855
0.522396 0.651135 0.735370
0.740600 0.751857 0.768114
0.929071 0.706099 0.706107
0.711941 0.979389 0.806815
0.712596 0.979578 0.806859
0.719369 0.981534 0.807307
0.772059 0.984825 0.802158
0.994387 0.981623 0.809218
0.337491 0.321625 0.478858
0.340030 0.321447 0.478603
0.363482 0.322032 0.478575
0.469131 0.320491 0.471448
0.682485 0.371990 0.486920
0.337439 0.321624 0.478858
0.339983 0.321445 0.478603
0.363438 0.322030 0.478574
0.469121 0.320487 0.471444
0.682483 0.371987 0.486916
0.336925 0.321612 0.478858
0.339478 0.321422 0.478592
0.362996 0.322002 0.478558
0.469017 0.320440 0.471401
0.682470 0.371958 0.486878
0.609056 0.694456 0.843243
0.610615 0.695665 0.844479
0.624802 0.706398 0.855180
0.677490 0.733791 0.882571
0.867975 0.680975 0.817163
0.512267 0.673247 0.760820
0.529286 0.707403 0.776455
0.612897 0.811855 0.845751
0.731023 0.927786 0.932211
1.077014 1.082185 1.082003
