Assets/Lutify-Free-LUTs-Pack/Lutify Free LUTs Pack/Print Film Pro - Print Film 2/Lutify.me-PrintFilm2-Cineon-to-Rec709.cube
# Created with: fylm.ai - Colour Grading and Collaboration Software in Cloud 
# Website: https://fylm.ai 
# META
# Option: Gamut compress
# Block 1: IDT | ADX10
# Block 2: colourMatch | Blending Mode: Normal | {"ColorSpace":0,"CrossCovarianceLimit":50,"ReshapingIterations":1,"PercentSaturationShift":100,"PercentShadingShift":100,"ExtraShading":true,"PercentTint":100,"PercentModified":100}
# Block 3: HSL | Blending Mode: Normal | {"hue":{"Reds":0,"Yellows":0,"Greens":0,"Cyans":0,"Blues":0,"Magentas":0},"saturation":{"Reds":1,"Yellows":0.9,"Greens":0.95,"Cyans":1,"Blues":1,"Magentas":1},"luminance":{"Reds":0.8,"Yellows":0.95,"Greens":0.9,"Cyans":0.8,"Blues":0.8,"Magentas":0.8},"lum_sat":{"Blacks":1,"Shadows":1,"Midtones":1,"Highlights":1,"Whites":1},"sat_sat":{"10":1,"20":1,"30":1,"40":1,"50":1}}
# Block 4: LUT | Filmic Curve Response: Low Contrast 2 (100%)
# Block 5: ODT | Rec709
TITLE "Lutify.me-PrintFilm2-Cineon-to-Rec709" 
LUT_3D_SIZE 5
0.000000 0.000000 0.000000
0.000000 0.000000 0.000000
0.166680 0.000000 0.000000
0.576930 0.000000 0.035138
0.993809 0.363058 0.219502
0.000000 0.031084 0.000000
0.073628 0.064614 0.000000
0.327553 0.071991 0.000000
0.745787 0.098395 0.076618
1.000000 0.526631 0.329195
0.000000 0.293500 0.069195
0.000000 0.400131 0.000000
0.501056 0.488265 0.000000
0.911621 0.555405 0.179255
1.000000 0.728031 0.482938
0.000000 0.830148 0.505429
0.000000 0.864250 0.546820
0.453882 0.903252 0.575479
0.917798 0.917235 0.615300
1.000000 0.929951 0.764228
0.600821 0.994380 0.907708
0.673033 0.998185 0.919726
0.774670 1.000000 0.931384
0.920463 1.000000 0.945789
1.000000 1.000000 0.955801
0.000000 0.000000 0.000000
0.000000 0.000000 0.000000
0.193569 0.000000 0.053736
0.608535 0.000000 0.102621
1.000000 0.375055 0.275577
0.000000 0.030293 0.057447
0.070689 0.074466 0.079403
0.342692 0.075814 0.098041
0.761284 0.096192 0.144013
1.000000 0.544615 0.374201
0.000000 0.274205 0.161425
0.000000 0.403639 0.190717
0.518139 0.502576 0.217229
0.918008 0.544374 0.261056
1.000000 0.732447 0.520626
0.000000 0.818184 0.516305
0.000000 0.855443 0.561091
0.485102 0.899398 0.600769
0.923453 0.914747 0.648885
1.000000 0.926291 0.772836
0.572113 0.992593 0.902974
0.656299 0.996455 0.915730
0.769005 1.000000 0.928453
0.923569 1.000000 0.942761
1.000000 1.000000 0.954153
0.000000 0.000000 0.107949
0.000000 0.000000 0.182105
0.215616 0.000000 0.250362
0.652801 0.000000 0.346385
1.000000 0.439489 0.478397
0.000000 0.030952 0.237376
0.000000 0.072123 0.293346
0.364487 0.095721 0.355783
0.800318 0.175987 0.414999
1.000000 0.584229 0.554009
0.000000 0.239943 0.421598
0.000000 0.365855 0.477331
0.503877 0.525745 0.559701
0.917542 0.564919 0.551647
1.000000 0.737183 0.633019
0.000000 0.790964 0.623175
0.000000 0.834609 0.682723
0.495837 0.895360 0.751653
0.922099 0.917702 0.797316
1.000000 0.923378 0.813785
0.533099 0.990132 0.902885
0.630080 0.994128 0.916863
0.758508 1.000000 0.930537
0.927551 1.000000 0.947251
1.000000 1.000000 0.958977
0.000000 0.041487 0.558930
0.000000 0.089846 0.663572
0.000000 0.166585 0.742555
0.669047 0.218883 0.789579
1.000000 0.495598 0.838876
0.000000 0.079505 0.630048
0.000000 0.134837 0.721594
0.239464 0.219452 0.781759
0.815776 0.319371 0.826912
1.000000 0.645515 0.862414
0.000000 0.268557 0.762470
0.000000 0.341714 0.815843
0.365607 0.477127 0.858730
0.915061 0.608233 0.879953
1.000000 0.781638 0.884117
0.000000 0.742501 0.850353
0.000000 0.793910 0.883631
0.388543 0.869756 0.909206
0.911992 0.922651 0.935903
1.000000 0.929303 0.925595
0.437226 0.983951 0.925751
0.559237 0.988896 0.940512
0.718063 0.994145 0.954479
0.921680 1.000000 0.972687
1.000000 1.000000 0.985078
0.000000 0.294477 0.920861
0.000000 0.378669 0.950081
0.219312 0.478569 0.971394
0.580419 0.616584 0.985875
0.939175 0.739020 0.986316
0.000000 0.332511 0.937165
0.000000 0.429215 0.960275
0.323670 0.539543 0.980439
0.695271 0.674621 0.989239
0.982319 0.789316 0.988836
0.000000 0.428224 0.951287
0.000000 0.520151 0.972229
0.425808 0.624755 0.987758
0.812431 0.742229 0.991966
1.000000 0.845973 0.993165
0.000000 0.751879 0.967986
0.000000 0.797673 0.982024
0.454993 0.843724 0.990981
0.862871 0.898264 0.997577
1.000000 0.936248 1.000000
0.286697 0.973225 0.982363
0.469614 0.976981 0.991687
0.667924 0.984258 0.998312
0.897902 0.996730 1.000000
1.000000 1.000000 1.000000
