Assets/Lutify-Free-LUTs-Pack/Lutify Free LUTs Pack/Print Film Pro - Print Film 2/Lutify.me-PrintFilm2-LLog-to-Rec709.cube
# Created with: fylm.ai - Colour Grading and Collaboration Software in Cloud 
# Website: https://fylm.ai 
# META
# Option: Gamut compress
# Block 1: IDT | Leica BT2020 L-Log
# Block 2: colourMatch | Blending Mode: Normal | {"ColorSpace":0,"CrossCovarianceLimit":50,"ReshapingIterations":1,"PercentSaturationShift":100,"PercentShadingShift":100,"ExtraShading":true,"PercentTint":100,"PercentModified":100}
# Block 3: HSL | Blending Mode: Normal | {"hue":{"Reds":0,"Yellows":0,"Greens":0,"Cyans":0,"Blues":0,"Magentas":0},"saturation":{"Reds":1,"Yellows":0.9,"Greens":0.95,"Cyans":1,"Blues":1,"Magentas":1},"luminance":{"Reds":0.8,"Yellows":0.95,"Greens":0.9,"Cyans":0.8,"Blues":0.8,"Magentas":0.8},"lum_sat":{"Blacks":1,"Shadows":1,"Midtones":1,"Highlights":1,"Whites":1},"sat_sat":{"10":1,"20":1,"30":1,"40":1,"50":1}}
# Block 4: LUT | Filmic Curve Response: Low Contrast 2 (100%)
# Block 5: ODT | Rec709
TITLE "Lutify.me-PrintFilm2-LLog-to-Rec709" 
LUT_3D_SIZE 5
0.000000 0.000000 0.000000
0.000000 0.000000 0.000000
0.334338 0.000000 0.000000
0.973282 0.115269 0.154419
1.000000 0.790009 0.660032
0.000000 0.020993 0.000000
0.071091 0.049910 0.000000
0.394666 0.000000 0.000000
0.977071 0.178597 0.158627
1.000000 0.791700 0.660825
0.000000 0.353275 0.000000
0.000000 0.402526 0.000000
0.554719 0.439017 0.000000
0.987332 0.420666 0.176549
1.000000 0.804483 0.668692
0.000000 0.895856 0.461599
0.000000 0.898429 0.456580
0.388854 0.905259 0.429182
0.946464 0.902141 0.400281
1.000000 0.885296 0.735682
0.827666 1.000000 0.915004
0.829905 1.000000 0.915062
0.844452 1.000000 0.914856
0.911243 1.000000 0.908132
1.000000 1.000000 0.913894
0.000000 0.000000 0.000000
0.000000 0.000000 0.000000
0.356716 0.000000 0.042928
0.974156 0.137455 0.179809
1.000000 0.790588 0.664705
0.000000 0.027202 0.082767
0.063977 0.065961 0.071511
0.407154 0.000000 0.049671
0.976397 0.184798 0.182360
1.000000 0.792276 0.665490
0.000000 0.341630 0.130485
0.000000 0.415200 0.099093
0.545570 0.472103 0.000000
0.987705 0.419098 0.208010
1.000000 0.804370 0.672197
0.000000 0.896051 0.507718
0.000000 0.898630 0.502580
0.381432 0.906524 0.471365
0.945071 0.903362 0.441926
1.000000 0.885202 0.738641
0.827639 1.000000 0.916238
0.829877 1.000000 0.916294
0.844417 1.000000 0.916203
0.911260 1.000000 0.909418
1.000000 1.000000 0.914981
0.000000 0.000000 0.327308
0.000000 0.000000 0.310470
0.387659 0.000000 0.248604
0.992087 0.180123 0.347269
1.000000 0.795539 0.696713
0.000000 0.020218 0.424964
0.000000 0.055141 0.403150
0.446487 0.000000 0.328796
0.994108 0.231553 0.357962
1.000000 0.797211 0.697451
0.000000 0.292418 0.601593
0.000000 0.361726 0.579733
0.508000 0.529882 0.563564
0.990683 0.428034 0.402254
1.000000 0.808355 0.702424
0.000000 0.882254 0.677283
0.000000 0.887947 0.678393
0.366173 0.910564 0.688771
0.938929 0.910170 0.648461
1.000000 0.884521 0.759266
0.823404 1.000000 0.923037
0.826187 1.000000 0.923343
0.842838 1.000000 0.924374
0.912293 1.000000 0.918655
1.000000 1.000000 0.922169
0.000000 0.246153 0.911313
0.000000 0.252711 0.910631
0.366473 0.271931 0.892996
1.000000 0.188013 0.832754
1.000000 0.819660 0.843486
0.000000 0.264912 0.913959
0.000000 0.270951 0.913223
0.366251 0.297514 0.897869
1.000000 0.237369 0.839150
1.000000 0.821465 0.844227
0.000000 0.381160 0.927516
0.000000 0.390769 0.926740
0.340528 0.448642 0.919410
0.998247 0.463602 0.871325
1.000000 0.833468 0.849239
0.000000 0.836877 0.942190
0.000000 0.843992 0.940855
0.000000 0.874444 0.937004
0.914893 0.924863 0.938099
1.000000 0.891382 0.867856
0.783156 1.000000 0.954601
0.786693 1.000000 0.954717
0.808986 1.000000 0.955519
0.911229 1.000000 0.961683
1.000000 1.000000 0.959507
0.628196 0.765021 1.000000
0.634559 0.765800 1.000000
0.677021 0.772544 1.000000
0.869726 0.794504 1.000000
1.000000 0.822530 0.995154
0.627664 0.766977 1.000000
0.634030 0.767750 1.000000
0.676536 0.774451 1.000000
0.869429 0.796672 1.000000
1.000000 0.824372 0.995273
0.624134 0.779959 1.000000
0.630570 0.780716 1.000000
0.673385 0.787104 1.000000
0.867495 0.811073 1.000000
1.000000 0.836592 0.996070
0.620184 0.857604 1.000000
0.625628 0.858103 1.000000
0.666971 0.862792 1.000000
0.853523 0.885495 1.000000
1.000000 0.902329 1.000000
0.718804 0.992199 1.000000
0.722751 0.992371 1.000000
0.747855 0.993106 1.000000
0.860974 0.997561 1.000000
1.000000 1.000000 1.000000
