Assets/Lutify-Free-LUTs-Pack/Lutify Free LUTs Pack/Print Film Pro - Print Film 2/Lutify.me-PrintFilm2-FLog2-to-Rec709.cube
# Created with: fylm.ai - Colour Grading and Collaboration Software in Cloud 
# Website: https://fylm.ai 
# META
# Option: Gamut compress
# Block 1: IDT | Fujifilm F-Gamut F-Log2
# Block 2: colourMatch | Blending Mode: Normal | {"ColorSpace":0,"CrossCovarianceLimit":50,"ReshapingIterations":1,"PercentSaturationShift":100,"PercentShadingShift":100,"ExtraShading":true,"PercentTint":100,"PercentModified":100}
# Block 3: HSL | Blending Mode: Normal | {"hue":{"Reds":0,"Yellows":0,"Greens":0,"Cyans":0,"Blues":0,"Magentas":0},"saturation":{"Reds":1,"Yellows":0.9,"Greens":0.95,"Cyans":1,"Blues":1,"Magentas":1},"luminance":{"Reds":0.8,"Yellows":0.95,"Greens":0.9,"Cyans":0.8,"Blues":0.8,"Magentas":0.8},"lum_sat":{"Blacks":1,"Shadows":1,"Midtones":1,"Highlights":1,"Whites":1},"sat_sat":{"10":1,"20":1,"30":1,"40":1,"50":1}}
# Block 4: LUT | Filmic Curve Response: Low Contrast 2 (100%)
# Block 5: ODT | Rec709
TITLE "Lutify.me-PrintFilm2-FLog2-to-Rec709" 
LUT_3D_SIZE 9
0.000000 0.000000 0.000000
0.000000 0.000000 0.000000
0.000000 0.000000 0.000000
0.160081 0.000000 0.000000
0.485038 0.000000 0.000000
0.870207 0.000000 0.092161
1.000000 0.405020 0.290198
1.000000 0.740502 0.592394
1.000000 0.904809 0.844454
0.000000 0.000000 0.000000
0.000000 0.000000 0.000000
0.047644 0.000000 0.000000
0.198148 0.000000 0.000000
0.500108 0.000000 0.000000
0.874499 0.000000 0.092850
1.000000 0.409993 0.290582
1.000000 0.741388 0.592746
1.000000 0.904912 0.844511
0.000000 0.042089 0.000000
0.000000 0.052302 0.000000
0.097436 0.065343 0.000000
0.276260 0.000000 0.000000
0.536840 0.000000 0.000000
0.882133 0.000000 0.094319
1.000000 0.423831 0.292888
1.000000 0.743497 0.593588
1.000000 0.905161 0.844647
0.000000 0.183689 0.000000
0.000000 0.207135 0.000000
0.000000 0.242670 0.000000
0.341575 0.245375 0.000000
0.639305 0.241632 0.000000
0.905771 0.203994 0.098279
1.000000 0.461597 0.299944
1.000000 0.750125 0.596299
1.000000 0.905957 0.845085
0.000000 0.506837 0.000000
0.000000 0.525558 0.000000
0.000000 0.541745 0.000000
0.000000 0.586585 0.000000
0.686116 0.587893 0.000000
0.935421 0.583976 0.091492
1.000000 0.589611 0.331209
1.000000 0.777104 0.612788
1.000000 0.908477 0.846483
0.000000 0.831949 0.308872
0.000000 0.834075 0.306226
0.000000 0.838655 0.296936
0.000000 0.842659 0.267681
0.604470 0.854107 0.236038
0.908906 0.852831 0.221611
1.000000 0.843521 0.467000
1.000000 0.840576 0.659938
1.000000 0.917383 0.851802
0.293105 0.957076 0.682993
0.314044 0.957349 0.682326
0.353892 0.957985 0.680674
0.457987 0.958510 0.680136
0.645655 0.956446 0.660215
0.866004 0.956554 0.650677
0.984258 0.954546 0.645780
1.000000 0.947025 0.783822
1.000000 0.946585 0.875207
0.781879 1.000000 0.889979
0.783066 1.000000 0.889920
0.785866 1.000000 0.889779
0.794456 1.000000 0.889344
0.819577 1.000000 0.889085
0.872365 1.000000 0.882418
0.959723 1.000000 0.882958
1.000000 0.998927 0.885634
1.000000 0.995854 0.932987
0.930027 1.000000 0.973450
0.930159 1.000000 0.973454
0.930477 1.000000 0.973464
0.931487 1.000000 0.973497
0.934617 1.000000 0.973435
0.943798 1.000000 0.973147
0.965263 1.000000 0.971504
0.998538 1.000000 0.973453
1.000000 1.000000 0.975636
0.000000 0.000000 0.000000
0.000000 0.000000 0.000000
0.000000 0.000000 0.000000
0.172903 0.000000 0.000000
0.491548 0.000000 0.024852
0.871108 0.000000 0.104074
1.000000 0.406297 0.296458
1.000000 0.740825 0.594588
1.000000 0.904860 0.844780
0.000000 0.000000 0.000000
0.000000 0.000000 0.000000
0.057424 0.000000 0.000000
0.205970 0.000000 0.000000
0.501507 0.000000 0.025188
0.873793 0.000000 0.104056
1.000000 0.411101 0.296749
1.000000 0.741711 0.594939
1.000000 0.904963 0.844837
0.000000 0.046326 0.000000
0.000000 0.057929 0.000000
0.095143 0.077324 0.000000
0.276202 0.032270 0.000000
0.537409 0.000000 0.019596
0.882911 0.000000 0.105990
1.000000 0.423429 0.298111
1.000000 0.743818 0.595783
1.000000 0.905212 0.844973
0.000000 0.183846 0.000000
0.000000 0.218214 0.000000
0.000000 0.259511 0.000000
0.333056 0.270220 0.000000
0.640685 0.243144 0.000000
0.904436 0.203944 0.114688
1.000000 0.462462 0.305438
1.000000 0.750439 0.598492
1.000000 0.906008 0.845411
0.000000 0.508291 0.000000
0.000000 0.524086 0.000000
0.000000 0.547859 0.000000
0.000000 0.591594 0.000000
0.683782 0.596302 0.000000
0.934137 0.584710 0.124266
1.000000 0.589298 0.337963
1.000000 0.777052 0.614479
1.000000 0.908526 0.846805
0.000000 0.832147 0.335278
0.000000 0.834276 0.333848
0.000000 0.838860 0.326294
0.000000 0.843874 0.294724
0.606235 0.853710 0.261905
0.908580 0.854299 0.247802
1.000000 0.843598 0.473563
1.000000 0.840517 0.661721
1.000000 0.917373 0.852050
0.289431 0.957092 0.688471
0.310676 0.957366 0.687804
0.353421 0.957987 0.686231
0.457682 0.958510 0.685685
0.646135 0.956611 0.666732
0.865909 0.956639 0.656936
0.983974 0.954678 0.651048
1.000000 0.947015 0.784976
1.000000 0.946577 0.875380
0.781865 1.000000 0.890602
0.783051 1.000000 0.890543
0.785851 1.000000 0.890402
0.794440 1.000000 0.889967
0.819560 1.000000 0.889703
0.872441 1.000000 0.883128
0.959715 1.000000 0.883603
1.000000 0.998956 0.886162
1.000000 0.995854 0.933098
0.930025 1.000000 0.973527
0.930158 1.000000 0.973531
0.930475 1.000000 0.973542
0.931486 1.000000 0.973574
0.934616 1.000000 0.973512
0.943796 1.000000 0.973222
0.965264 1.000000 0.971602
0.998536 1.000000 0.973519
1.000000 1.000000 0.975693
0.000000 0.000000 0.000000
0.000000 0.000000 0.000000
0.026203 0.000000 0.000000
0.182532 0.000000 0.037328
0.505989 0.000000 0.062323
0.875057 0.000000 0.132505
1.000000 0.409272 0.311410
1.000000 0.741596 0.599815
1.000000 0.904982 0.845560
0.000000 0.000000 0.000000
0.000000 0.000000 0.024456
0.056664 0.000000 0.037362
0.218354 0.000000 0.050420
0.518323 0.000000 0.065187
0.877673 0.000000 0.132892
1.000000 0.414075 0.311738
1.000000 0.742480 0.600166
1.000000 0.905086 0.845617
0.000000 0.042236 0.116700
0.000000 0.056513 0.110277
0.084409 0.090818 0.095240
0.283114 0.042421 0.076663
0.545301 0.000000 0.069860
0.883498 0.000000 0.133600
1.000000 0.425397 0.312516
1.000000 0.744581 0.601008
1.000000 0.905333 0.845752
0.000000 0.174981 0.168340
0.000000 0.207419 0.148641
0.000000 0.276547 0.131320
0.331612 0.294830 0.108565
0.636779 0.246254 0.079712
0.904798 0.201479 0.146463
1.000000 0.464463 0.318489
1.000000 0.751184 0.603717
1.000000 0.906129 0.846187
0.000000 0.496160 0.188086
0.000000 0.517640 0.183957
0.000000 0.558398 0.167816
0.000000 0.601672 0.105387
0.679643 0.610490 0.000000
0.932177 0.585806 0.179769
1.000000 0.588554 0.353982
1.000000 0.776926 0.618507
1.000000 0.908645 0.847575
0.000000 0.831949 0.383410
0.000000 0.834660 0.383350
0.000000 0.839251 0.380546
0.000000 0.847042 0.356738
0.607534 0.855450 0.323886
0.906545 0.856215 0.300911
1.000000 0.843775 0.488931
1.000000 0.840377 0.665946
1.000000 0.917349 0.852642
0.284661 0.957112 0.701149
0.306351 0.957386 0.700487
0.350956 0.958001 0.698957
0.456969 0.958511 0.698409
0.647262 0.956996 0.681721
0.865697 0.956824 0.670249
0.983318 0.954955 0.663148
1.000000 0.946989 0.787696
1.000000 0.946558 0.875795
0.781833 1.000000 0.892079
0.783018 1.000000 0.892020
0.785818 1.000000 0.891879
0.794403 1.000000 0.891443
0.819517 1.000000 0.891168
0.872620 1.000000 0.884811
0.959695 1.000000 0.885130
1.000000 0.999026 0.887417
1.000000 0.995856 0.933364
0.930023 1.000000 0.973712
0.930155 1.000000 0.973716
0.930472 1.000000 0.973726
0.931483 1.000000 0.973758
0.934612 1.000000 0.973695
0.943792 1.000000 0.973404
0.965268 1.000000 0.971836
0.998532 1.000000 0.973676
1.000000 1.000000 0.975829
0.000000 0.000000 0.100403
0.000000 0.000000 0.113026
0.054036 0.000000 0.114238
0.190163 0.000000 0.104913
0.514729 0.000000 0.165918
0.896300 0.000000 0.213156
1.000000 0.418465 0.360608
1.000000 0.744007 0.616284
1.000000 0.905374 0.848038
0.000000 0.000000 0.174363
0.000000 0.000000 0.180672
0.055497 0.000000 0.167179
0.225199 0.000000 0.143637
0.532200 0.000000 0.177540
0.897760 0.000000 0.215472
1.000000 0.423269 0.361067
1.000000 0.744884 0.616634
1.000000 0.905477 0.848094
0.000000 0.036001 0.300074
0.000000 0.053228 0.286581
0.000000 0.083054 0.269629
0.297081 0.046518 0.235532
0.567814 0.000000 0.204445
0.900942 0.000000 0.220838
1.000000 0.434600 0.362160
1.000000 0.746969 0.617476
1.000000 0.905724 0.848226
0.000000 0.142487 0.403426
0.000000 0.183831 0.378220
0.000000 0.254143 0.354401
0.306293 0.323985 0.344423
0.637438 0.264108 0.268793
0.908928 0.219578 0.236542
1.000000 0.469505 0.365620
1.000000 0.753517 0.620179
1.000000 0.906517 0.848655
0.000000 0.476356 0.440462
0.000000 0.493848 0.428719
0.000000 0.531854 0.418848
0.000000 0.620551 0.408079
0.678826 0.639681 0.383904
0.928363 0.586783 0.310422
1.000000 0.589525 0.400903
1.000000 0.776536 0.631210
1.000000 0.909024 0.850019
0.000000 0.819836 0.506493
0.000000 0.824172 0.506016
0.000000 0.832756 0.508780
0.000000 0.851233 0.511253
0.592303 0.860546 0.476938
0.900563 0.862085 0.459264
1.000000 0.843881 0.534612
1.000000 0.839935 0.679066
1.000000 0.917271 0.854532
0.255382 0.955979 0.732633
0.284514 0.956491 0.732915
0.341324 0.957631 0.733585
0.454909 0.958513 0.734618
0.650833 0.958160 0.722519
0.865066 0.957375 0.707096
0.981389 0.955793 0.699252
1.000000 0.947397 0.796052
1.000000 0.946498 0.877116
0.781735 1.000000 0.896669
0.782920 1.000000 0.896610
0.785716 1.000000 0.896469
0.794292 1.000000 0.896031
0.819403 1.000000 0.895325
0.873195 1.000000 0.890042
0.959638 1.000000 0.889446
1.000000 0.999243 0.891345
1.000000 0.995860 0.934220
0.929897 1.000000 0.974238
0.930066 1.000000 0.974261
0.930464 1.000000 0.974313
0.931474 1.000000 0.974344
0.934602 1.000000 0.974278
0.943780 1.000000 0.973982
0.965281 1.000000 0.972582
0.998505 1.000000 0.974173
1.000000 1.000000 0.976264
0.000000 0.000000 0.505374
0.000000 0.000000 0.497366
0.000000 0.022924 0.478831
0.221108 0.000000 0.438626
0.553346 0.000000 0.385767
0.896359 0.000000 0.439481
1.000000 0.452353 0.506022
1.000000 0.751066 0.665538
1.000000 0.906600 0.855613
0.000000 0.000000 0.525826
0.000000 0.023504 0.518289
0.000000 0.044369 0.504023
0.224653 0.000000 0.459151
0.569430 0.000000 0.406883
0.899018 0.000000 0.445251
1.000000 0.457179 0.507515
1.000000 0.751920 0.665881
1.000000 0.906702 0.855666
0.000000 0.056219 0.569207
0.000000 0.068546 0.562435
0.000000 0.085394 0.556641
0.232705 0.086188 0.513125
0.604677 0.000000 0.452368
0.904833 0.000000 0.459897
1.000000 0.468582 0.511064
1.000000 0.753951 0.666703
1.000000 0.906946 0.855791
0.000000 0.183520 0.658265
0.000000 0.196858 0.652385
0.000000 0.225083 0.643797
0.200504 0.283225 0.629259
0.667348 0.272140 0.581220
0.925590 0.251694 0.494162
1.000000 0.501030 0.519247
1.000000 0.760328 0.669331
1.000000 0.907732 0.856197
0.000000 0.427540 0.729515
0.000000 0.445579 0.724761
0.000000 0.492021 0.714177
0.000000 0.580969 0.701066
0.645230 0.665900 0.697963
0.920305 0.610470 0.601014
1.000000 0.606767 0.542325
1.000000 0.781076 0.677526
1.000000 0.910213 0.857488
0.000000 0.798083 0.759194
0.000000 0.803173 0.756970
0.000000 0.811580 0.752797
0.000000 0.829900 0.742437
0.580064 0.872729 0.749699
0.887343 0.876564 0.734904
0.997610 0.845848 0.661578
1.000000 0.840297 0.714437
1.000000 0.917692 0.861384
0.000000 0.949967 0.804669
0.000000 0.950588 0.804804
0.213351 0.951985 0.805139
0.393664 0.954482 0.806298
0.651980 0.959283 0.814498
0.856710 0.959366 0.800023
0.976736 0.958427 0.794600
1.000000 0.948042 0.818918
1.000000 0.946311 0.881187
0.770198 1.000000 0.907124
0.771764 1.000000 0.907194
0.775448 1.000000 0.907360
0.786655 1.000000 0.907887
0.816836 1.000000 0.908895
0.875263 1.000000 0.907373
0.958389 1.000000 0.902783
1.000000 0.999594 0.904989
1.000000 0.995831 0.936942
0.928728 1.000000 0.975481
0.928899 1.000000 0.975503
0.929307 1.000000 0.975555
0.930606 1.000000 0.975722
0.934573 1.000000 0.976076
0.943745 1.000000 0.975765
0.965543 1.000000 0.974665
0.998308 1.000000 0.975673
1.000000 1.000000 0.977615
0.000000 0.155885 0.841050
0.000000 0.160465 0.840112
0.000000 0.170394 0.838085
0.085009 0.179840 0.825774
0.569487 0.131912 0.787512
0.927423 0.000000 0.735523
1.000000 0.466110 0.758455
1.000000 0.774692 0.786836
1.000000 0.910381 0.876226
0.000000 0.163282 0.843705
0.000000 0.167975 0.842779
0.000000 0.178207 0.840778
0.079860 0.189754 0.829775
0.570434 0.148623 0.792142
0.929512 0.000000 0.739851
1.000000 0.470977 0.759600
1.000000 0.775485 0.787162
1.000000 0.910470 0.876270
0.000000 0.180795 0.849607
0.000000 0.185775 0.848698
0.000000 0.196755 0.846739
0.058519 0.214635 0.838715
0.570160 0.184511 0.802462
0.934010 0.000000 0.749633
1.000000 0.482479 0.762291
1.000000 0.777368 0.787940
1.000000 0.910697 0.876375
0.000000 0.242257 0.865275
0.000000 0.248578 0.864665
0.000000 0.262574 0.862934
0.000000 0.287581 0.859314
0.580426 0.294319 0.831068
0.944347 0.247286 0.783919
1.000000 0.517038 0.770493
1.000000 0.783261 0.790412
1.000000 0.911457 0.876714
0.000000 0.466106 0.895099
0.000000 0.474600 0.894440
0.000000 0.488152 0.892494
0.000000 0.533134 0.887233
0.542681 0.608862 0.881564
0.926684 0.627862 0.854813
1.000000 0.637713 0.799411
1.000000 0.802868 0.798023
1.000000 0.913862 0.877791
0.000000 0.747942 0.908528
0.000000 0.752789 0.908093
0.000000 0.762664 0.906830
0.000000 0.797179 0.901801
0.462522 0.848711 0.897091
0.872074 0.881088 0.901585
0.988171 0.856435 0.854614
1.000000 0.847860 0.809928
1.000000 0.921118 0.881116
0.000000 0.941127 0.914541
0.000000 0.941416 0.914357
0.000000 0.942076 0.913924
0.183338 0.943992 0.912281
0.552246 0.949148 0.909147
0.846072 0.961857 0.914802
0.971331 0.965134 0.910869
1.000000 0.948375 0.873602
1.000000 0.946039 0.894449
0.738636 0.999589 0.933081
0.740450 0.999646 0.933126
0.744719 0.999780 0.933235
0.756861 1.000000 0.933515
0.793878 1.000000 0.934840
0.870415 1.000000 0.939398
0.956126 1.000000 0.935603
1.000000 1.000000 0.935608
1.000000 0.995712 0.944667
0.925002 1.000000 0.979052
0.925181 1.000000 0.979071
0.925608 1.000000 0.979118
0.926967 1.000000 0.979267
0.931250 1.000000 0.979628
0.943406 1.000000 0.980671
0.966413 1.000000 0.980402
0.997721 1.000000 0.979980
1.000000 1.000000 0.981561
0.063846 0.414379 0.970223
0.119661 0.415842 0.970106
0.188040 0.419202 0.969832
0.307592 0.430279 0.968928
0.530477 0.448372 0.960940
0.892236 0.449304 0.942054
1.000000 0.458144 0.918546
1.000000 0.777617 0.910632
1.000000 0.921157 0.922073
0.048214 0.417807 0.970316
0.114144 0.419279 0.970199
0.185275 0.422661 0.969924
0.305992 0.433982 0.969046
0.529533 0.453226 0.961232
0.891752 0.454114 0.942408
1.000000 0.463922 0.919159
1.000000 0.778515 0.910783
1.000000 0.921269 0.922123
0.000000 0.425953 0.970529
0.098792 0.427446 0.970411
0.178252 0.430881 0.970135
0.302437 0.442419 0.969250
0.527187 0.464761 0.961909
0.890558 0.465485 0.943234
1.000000 0.477558 0.920590
1.000000 0.780646 0.911143
1.000000 0.921537 0.922242
0.000000 0.451798 0.971270
0.040003 0.453283 0.971111
0.152670 0.456711 0.970741
0.289818 0.468877 0.969822
0.519414 0.500870 0.963952
0.886380 0.500717 0.945679
1.000000 0.517305 0.924941
1.000000 0.787344 0.912292
1.000000 0.922398 0.922626
0.000000 0.544748 0.974003
0.000000 0.547314 0.973831
0.000000 0.552880 0.973449
0.238956 0.567334 0.972436
0.511054 0.598722 0.968645
0.872530 0.618951 0.954585
1.000000 0.636948 0.934343
1.000000 0.807233 0.915615
1.000000 0.925103 0.923846
0.000000 0.773435 0.974482
0.000000 0.775512 0.974193
0.000000 0.779564 0.973692
0.000000 0.788456 0.972974
0.414843 0.814667 0.970361
0.822539 0.855237 0.966980
0.985781 0.864766 0.958040
1.000000 0.862143 0.926990
1.000000 0.932212 0.926676
0.000000 0.918225 0.976749
0.000000 0.918748 0.976598
0.000000 0.919847 0.976373
0.000000 0.922890 0.975871
0.475722 0.933768 0.974169
0.805663 0.951398 0.973284
0.962282 0.968181 0.976076
1.000000 0.954116 0.952259
1.000000 0.951457 0.933615
0.700454 0.995175 0.980542
0.702182 0.995194 0.980520
0.706263 0.995238 0.980467
0.718806 0.995375 0.980304
0.755985 0.996075 0.979371
0.835339 0.997824 0.977924
0.950382 1.000000 0.982677
1.000000 1.000000 0.981830
1.000000 0.996512 0.965289
0.911866 1.000000 0.989663
0.912075 1.000000 0.989672
0.912574 1.000000 0.989693
0.914163 1.000000 0.989760
0.919049 1.000000 0.989975
0.932610 1.000000 0.990640
0.965200 1.000000 0.992939
0.997237 1.000000 0.992253
1.000000 1.000000 0.992976
0.558376 0.714156 1.000000
0.561789 0.714577 1.000000
0.569860 0.715578 1.000000
0.594828 0.718683 1.000000
0.662789 0.727960 1.000000
0.807760 0.741501 1.000000
0.980873 0.757839 0.998663
1.000000 0.776340 0.986646
1.000000 0.922352 0.979588
0.558091 0.715063 1.000000
0.561504 0.715484 1.000000
0.569583 0.716482 1.000000
0.594570 0.719581 1.000000
0.662567 0.728855 1.000000
0.807474 0.742648 1.000000
0.980595 0.758872 0.998699
1.000000 0.777259 0.986687
1.000000 0.922450 0.979608
0.557406 0.717225 1.000000
0.560828 0.717644 1.000000
0.568922 0.718637 1.000000
0.593954 0.721719 1.000000
0.662011 0.730963 1.000000
0.806796 0.745375 1.000000
0.979934 0.761325 0.998783
1.000000 0.779440 0.986787
1.000000 0.922687 0.979656
0.555248 0.724049 1.000000
0.558693 0.724461 1.000000
0.566837 0.725437 1.000000
0.592018 0.728465 1.000000
0.660189 0.737553 1.000000
0.804659 0.753921 1.000000
0.977856 0.768988 0.999049
1.000000 0.786491 0.987154
1.000000 0.923444 0.979810
0.547064 0.747219 1.000000
0.550632 0.747633 1.000000
0.559068 0.748612 1.000000
0.585126 0.751647 1.000000
0.653824 0.760170 1.000000
0.800671 0.781535 1.000000
0.971151 0.793716 0.999845
1.000000 0.809222 0.988648
1.000000 0.925859 0.980296
0.533952 0.808815 1.000000
0.537226 0.809107 1.000000
0.544961 0.809799 1.000000
0.568488 0.811944 1.000000
0.637343 0.819623 1.000000
0.789273 0.839311 1.000000
0.956266 0.854786 1.000000
1.000000 0.864988 0.993029
1.000000 0.933319 0.981812
0.548139 0.916305 1.000000
0.551487 0.916430 1.000000
0.559342 0.916725 1.000000
0.583022 0.918075 1.000000
0.645753 0.921644 1.000000
0.779675 0.931426 1.000000
0.934811 0.950720 1.000000
1.000000 0.956982 1.000000
1.000000 0.957152 0.988229
0.649255 0.983985 1.000000
0.651266 0.984030 1.000000
0.655996 0.984138 1.000000
0.670591 0.984533 1.000000
0.715222 0.985709 1.000000
0.808880 0.989141 1.000000
0.928248 0.996961 1.000000
1.000000 1.000000 1.000000
1.000000 0.998358 0.998930
0.892738 1.000000 1.000000
0.892963 1.000000 1.000000
0.893500 1.000000 1.000000
0.895205 1.000000 1.000000
0.900431 1.000000 1.000000
0.913829 1.000000 1.000000
0.947924 1.000000 1.000000
0.995130 1.000000 1.000000
1.000000 1.000000 1.000000
0.825210 0.887884 1.000000
0.825647 0.887940 1.000000
0.826691 0.888073 1.000000
0.830001 0.888500 1.000000
0.840058 0.889834 1.000000
0.867388 0.893843 1.000000
0.927153 0.901070 1.000000
1.000000 0.907053 1.000000
1.000000 0.919526 1.000000
0.825187 0.888025 1.000000
0.825624 0.888081 1.000000
0.826668 0.888214 1.000000
0.829978 0.888640 1.000000
0.840034 0.889972 1.000000
0.867358 0.893973 1.000000
0.927141 0.901217 1.000000
1.000000 0.907191 1.000000
1.000000 0.919652 1.000000
0.825132 0.888364 1.000000
0.825569 0.888419 1.000000
0.826613 0.888552 1.000000
0.829922 0.888976 1.000000
0.839977 0.890302 1.000000
0.867286 0.894285 1.000000
0.927112 0.901570 1.000000
1.000000 0.907522 1.000000
1.000000 0.919952 1.000000
0.824959 0.889445 1.000000
0.825395 0.889500 1.000000
0.826439 0.889630 1.000000
0.829746 0.890049 1.000000
0.839793 0.891356 1.000000
0.867067 0.895294 1.000000
0.927022 0.902703 1.000000
1.000000 0.908580 1.000000
1.000000 0.920913 1.000000
0.824446 0.892818 1.000000
0.824882 0.892871 1.000000
0.825922 0.892995 1.000000
0.829221 0.893394 1.000000
0.839242 0.894650 1.000000
0.866418 0.898503 1.000000
0.926751 0.906261 1.000000
1.000000 0.911904 1.000000
1.000000 0.923927 1.000000
0.823272 0.902933 1.000000
0.823698 0.902978 1.000000
0.824714 0.903084 1.000000
0.827935 0.903426 1.000000
0.837707 0.904508 1.000000
0.864548 0.908113 1.000000
0.926083 0.916815 1.000000
1.000000 0.922184 1.000000
1.000000 0.932788 1.000000
0.820748 0.931600 1.000000
0.821142 0.931659 1.000000
0.822084 0.931801 1.000000
0.825067 0.932254 1.000000
0.834136 0.933670 1.000000
0.859234 0.936509 1.000000
0.921660 0.944796 1.000000
1.000000 0.950363 1.000000
1.000000 0.957910 1.000000
0.834798 0.983961 1.000000
0.835123 0.983975 1.000000
0.835899 0.984009 1.000000
0.838369 0.984118 1.000000
0.845932 0.984630 1.000000
0.867082 0.985956 1.000000
0.918340 0.990102 1.000000
0.990557 0.996843 1.000000
1.000000 0.998797 1.000000
0.880931 1.000000 1.000000
0.881139 1.000000 1.000000
0.881636 1.000000 1.000000
0.883222 1.000000 1.000000
0.888117 1.000000 1.000000
0.902498 1.000000 1.000000
0.939222 1.000000 1.000000
0.988282 1.000000 1.000000
1.000000 1.000000 1.000000
