Assets/Lutify-Free-LUTs-Pack/Lutify Free LUTs Pack/Print Film Pro - Print Film 2/Lutify.me-PrintFilm2-ProTune-to-Rec709.cube
# Created with: fylm.ai - Colour Grading and Collaboration Software in Cloud 
# Website: https://fylm.ai 
# META
# Option: Gamut compress
# Block 1: IDT | GoPro ProTune Native ProTune Flat
# Block 2: colourMatch | Blending Mode: Normal | {"ColorSpace":0,"CrossCovarianceLimit":50,"ReshapingIterations":1,"PercentSaturationShift":100,"PercentShadingShift":100,"ExtraShading":true,"PercentTint":100,"PercentModified":100}
# Block 3: HSL | Blending Mode: Normal | {"hue":{"Reds":0,"Yellows":0,"Greens":0,"Cyans":0,"Blues":0,"Magentas":0},"saturation":{"Reds":1,"Yellows":0.9,"Greens":0.95,"Cyans":1,"Blues":1,"Magentas":1},"luminance":{"Reds":0.8,"Yellows":0.95,"Greens":0.9,"Cyans":0.8,"Blues":0.8,"Magentas":0.8},"lum_sat":{"Blacks":1,"Shadows":1,"Midtones":1,"Highlights":1,"Whites":1},"sat_sat":{"10":1,"20":1,"30":1,"40":1,"50":1}}
# Block 4: LUT | Filmic Curve Response: Low Contrast 2 (100%)
# Block 5: ODT | Rec709
TITLE "Lutify.me-PrintFilm2-ProTune-to-Rec709" 
LUT_3D_SIZE 5
0.000000 0.000000 0.000000
0.000000 0.000000 0.000000
0.074498 0.000000 0.000000
0.222490 0.000000 0.000000
0.537916 0.000000 0.071405
0.000000 0.032862 0.000000
0.047119 0.041021 0.000000
0.138337 0.000000 0.000000
0.291682 0.000000 0.019052
0.586351 0.000000 0.082699
0.000000 0.156615 0.000000
0.090938 0.162249 0.000000
0.249876 0.155250 0.000000
0.426583 0.119619 0.000000
0.664481 0.000000 0.089301
0.190320 0.385607 0.000000
0.253412 0.389234 0.000000
0.402235 0.383976 0.000000
0.640994 0.346846 0.000000
0.803201 0.397660 0.000000
0.568478 0.685631 0.000000
0.591764 0.684579 0.000000
0.652505 0.681294 0.000000
0.785876 0.669642 0.000000
0.932448 0.648283 0.000000
0.000000 0.000000 0.000000
0.000000 0.000000 0.000000
0.074124 0.000000 0.000000
0.216952 0.000000 0.034690
0.531861 0.000000 0.081291
0.000000 0.031194 0.048024
0.043967 0.044121 0.046495
0.139007 0.000000 0.041293
0.290092 0.000000 0.049215
0.581854 0.000000 0.096253
0.000000 0.179038 0.000000
0.000000 0.189797 0.000000
0.222477 0.187888 0.000000
0.419579 0.120623 0.022370
0.670074 0.000000 0.111648
0.188011 0.383248 0.000000
0.251463 0.386834 0.000000
0.400458 0.381833 0.000000
0.600769 0.386181 0.000000
0.801381 0.395847 0.000000
0.567268 0.685021 0.000000
0.590644 0.683967 0.000000
0.651726 0.680671 0.000000
0.785422 0.668949 0.000000
0.932342 0.647676 0.000000
0.000000 0.000000 0.039383
0.000000 0.000000 0.051510
0.066904 0.000000 0.051584
0.194044 0.000000 0.054850
0.504675 0.000000 0.111799
0.000000 0.000000 0.137367
0.000000 0.000000 0.128912
0.110503 0.000000 0.101141
0.267416 0.000000 0.094145
0.565329 0.000000 0.141577
0.000000 0.164003 0.225959
0.000000 0.185263 0.223401
0.193475 0.202612 0.220639
0.416901 0.104598 0.186357
0.660899 0.000000 0.184364
0.000000 0.475710 0.000000
0.000000 0.480782 0.000000
0.173536 0.492224 0.000000
0.535086 0.486434 0.000000
0.791024 0.387520 0.176575
0.563296 0.683016 0.000000
0.586967 0.681958 0.000000
0.649170 0.678625 0.000000
0.783900 0.666759 0.000000
0.879931 0.705155 0.000000
0.000000 0.000000 0.240618
0.000000 0.000000 0.231055
0.044389 0.000000 0.198045
0.192472 0.000000 0.115573
0.389447 0.000000 0.104732
0.000000 0.000000 0.343883
0.000000 0.000000 0.329594
0.038782 0.000000 0.291018
0.257587 0.000000 0.198515
0.484289 0.000000 0.178498
0.000000 0.086465 0.491799
0.000000 0.094743 0.483702
0.023178 0.102825 0.453210
0.376568 0.000000 0.372483
0.646860 0.000000 0.318219
0.000000 0.430352 0.540674
0.000000 0.442042 0.541979
0.000000 0.477338 0.539789
0.491585 0.513402 0.548169
0.786423 0.373824 0.476525
0.205540 0.798649 0.260825
0.263156 0.799388 0.261257
0.376720 0.801430 0.263656
0.577805 0.803890 0.281633
0.829954 0.794747 0.354695
0.000000 0.000000 0.656095
0.000000 0.000000 0.644455
0.000000 0.000000 0.613250
0.197628 0.000000 0.528408
0.388703 0.000000 0.190860
0.000000 0.000000 0.691247
0.000000 0.000000 0.681093
0.000000 0.000000 0.652917
0.217994 0.000000 0.583925
0.482089 0.000000 0.307367
0.000000 0.064794 0.750499
0.000000 0.071540 0.747253
0.000000 0.076033 0.731256
0.262177 0.000000 0.673057
0.644121 0.000000 0.558001
0.000000 0.293336 0.816846
0.000000 0.298409 0.815181
0.000000 0.309847 0.810725
0.347184 0.324061 0.795232
0.761162 0.170689 0.728995
0.000000 0.751587 0.824112
0.000000 0.754977 0.823615
0.000000 0.766335 0.822425
0.443085 0.786979 0.823750
0.788262 0.806049 0.831732
