Assets/Lutify-Free-LUTs-Pack/Lutify Free LUTs Pack/Print Film Pro - Print Film 2/Lutify.me-PrintFilm2-CanonLog1-to-Rec709.cube
# Created with: fylm.ai - Colour Grading and Collaboration Software in Cloud 
# Website: https://fylm.ai 
# META
# Option: Gamut compress
# Block 1: IDT | CanonLog Cinema Gamut Daylight
# Block 2: colourMatch | Blending Mode: Normal | {"ColorSpace":0,"CrossCovarianceLimit":50,"ReshapingIterations":1,"PercentSaturationShift":100,"PercentShadingShift":100,"ExtraShading":true,"PercentTint":100,"PercentModified":100}
# Block 3: HSL | Blending Mode: Normal | {"hue":{"Reds":0,"Yellows":0,"Greens":0,"Cyans":0,"Blues":0,"Magentas":0},"saturation":{"Reds":1,"Yellows":0.9,"Greens":0.95,"Cyans":1,"Blues":1,"Magentas":1},"luminance":{"Reds":0.8,"Yellows":0.95,"Greens":0.9,"Cyans":0.8,"Blues":0.8,"Magentas":0.8},"lum_sat":{"Blacks":1,"Shadows":1,"Midtones":1,"Highlights":1,"Whites":1},"sat_sat":{"10":1,"20":1,"30":1,"40":1,"50":1}}
# Block 4: LUT | Filmic Curve Response: Low Contrast 2 (100%)
# Block 5: ODT | Rec709
TITLE "Lutify.me-PrintFilm2-CanonLog1-to-Rec709" 
LUT_3D_SIZE 9
0.000000 0.000000 0.000000
0.000000 0.000000 0.000000
0.000000 0.000000 0.000000
0.075026 0.000000 0.000000
0.288462 0.000000 0.000000
0.659555 0.000000 0.000000
0.905815 0.000000 0.056495
1.000000 0.074110 0.176722
1.000000 0.422311 0.324551
0.000000 0.000000 0.000000
0.000000 0.014294 0.000000
0.172750 0.000000 0.000000
0.338839 0.000000 0.000000
0.557815 0.000000 0.000000
0.744368 0.000000 0.000000
0.925852 0.000000 0.021318
1.000000 0.214026 0.169547
1.000000 0.445234 0.321122
0.000000 0.108925 0.000000
0.000000 0.154521 0.000000
0.288397 0.162592 0.000000
0.500176 0.087654 0.000000
0.669053 0.000000 0.000000
0.814652 0.000000 0.000000
0.942605 0.000000 0.000000
1.000000 0.290119 0.163908
1.000000 0.465922 0.317729
0.000000 0.236192 0.000000
0.000000 0.321078 0.000000
0.270312 0.344945 0.000000
0.583953 0.319575 0.000000
0.784560 0.277126 0.000000
0.915983 0.186395 0.000000
0.968759 0.305769 0.000000
1.000000 0.386691 0.145594
1.000000 0.518967 0.319057
0.000000 0.396173 0.000000
0.000000 0.515192 0.000000
0.000000 0.544189 0.000000
0.587406 0.532956 0.000000
0.823595 0.516240 0.000000
0.948978 0.495893 0.000000
0.996936 0.536761 0.000000
1.000000 0.546859 0.045448
1.000000 0.608337 0.316528
0.000000 0.668654 0.000000
0.000000 0.697857 0.000000
0.000000 0.710765 0.000000
0.538441 0.705227 0.000000
0.818017 0.691148 0.000000
0.943886 0.680214 0.000000
1.000000 0.677762 0.000000
1.000000 0.763119 0.000000
1.000000 0.728799 0.297967
0.000000 0.830289 0.000000
0.000000 0.834413 0.000000
0.145812 0.834154 0.000000
0.513117 0.829979 0.000000
0.789259 0.820556 0.000000
0.924444 0.812673 0.000000
0.998347 0.812224 0.000000
1.000000 0.811494 0.000000
1.000000 0.870470 0.233520
0.239731 0.911047 0.000000
0.407250 0.910325 0.000000
0.513874 0.908857 0.000000
0.637146 0.905375 0.000000
0.784200 0.896752 0.000000
0.906797 0.891035 0.000000
0.984528 0.886266 0.000000
1.000000 0.886692 0.000000
1.000000 0.888046 0.273173
0.664934 0.953851 0.000000
0.700815 0.952863 0.000000
0.730295 0.951773 0.000000
0.774427 0.950047 0.000000
0.830040 0.947690 0.000000
0.897865 0.944636 0.000000
0.970991 0.941221 0.000000
1.000000 0.938803 0.195678
1.000000 0.938762 0.368774
0.000000 0.000000 0.000000
0.000000 0.000000 0.000000
0.033240 0.000000 0.000000
0.122182 0.000000 0.000000
0.250151 0.000000 0.000000
0.666560 0.000000 0.058206
0.918705 0.000000 0.125278
1.000000 0.080576 0.228264
1.000000 0.422947 0.358659
0.000000 0.000000 0.000000
0.000000 0.000000 0.000000
0.110492 0.000000 0.000000
0.284759 0.000000 0.000000
0.508240 0.000000 0.000000
0.735409 0.000000 0.054988
0.926650 0.000000 0.118112
1.000000 0.204877 0.223690
1.000000 0.447333 0.357368
0.000000 0.096892 0.000000
0.000000 0.124647 0.000000
0.243096 0.155270 0.000000
0.441583 0.131155 0.000000
0.597091 0.000000 0.000000
0.774771 0.000000 0.000000
0.940367 0.000000 0.110488
1.000000 0.274951 0.215365
1.000000 0.468630 0.355649
0.000000 0.226221 0.000000
0.000000 0.298961 0.000000
0.249348 0.329695 0.000000
0.572686 0.303989 0.000000
0.734973 0.334229 0.000000
0.855334 0.337635 0.000000
0.963693 0.291225 0.072266
1.000000 0.377969 0.206009
1.000000 0.511326 0.347437
0.000000 0.376879 0.000000
0.000000 0.501497 0.000000
0.000000 0.536529 0.000000
0.576914 0.525593 0.000000
0.819220 0.508874 0.000000
0.919032 0.535555 0.000000
0.975513 0.584985 0.000000
1.000000 0.535270 0.176408
1.000000 0.602319 0.350261
0.000000 0.657296 0.000000
0.000000 0.693215 0.000000
0.000000 0.706873 0.000000
0.525006 0.701861 0.000000
0.814323 0.687526 0.000000
0.943234 0.676268 0.000000
1.000000 0.689032 0.000000
1.000000 0.765099 0.000000
1.000000 0.725212 0.343376
0.000000 0.827900 0.000000
0.000000 0.833308 0.000000
0.000000 0.833187 0.000000
0.502078 0.829171 0.000000
0.784915 0.819659 0.000000
0.923550 0.811617 0.000000
0.998198 0.811195 0.000000
1.000000 0.810238 0.000000
1.000000 0.869892 0.311746
0.206894 0.910497 0.000000
0.391364 0.910103 0.000000
0.502854 0.908652 0.000000
0.631145 0.905174 0.000000
0.781019 0.896568 0.000000
0.905805 0.890630 0.000000
0.984335 0.885821 0.000000
1.000000 0.886272 0.000000
1.000000 0.887644 0.272217
0.660890 0.953827 0.000000
0.696853 0.952877 0.000000
0.726987 0.951770 0.000000
0.771925 0.950020 0.000000
0.828517 0.947629 0.000000
0.897036 0.944546 0.000000
0.970726 0.941108 0.000000
1.000000 0.938679 0.194714
1.000000 0.938636 0.368205
0.000000 0.000000 0.000000
0.000000 0.000000 0.000000
0.046872 0.000000 0.000000
0.138784 0.000000 0.015735
0.241620 0.000000 0.016077
0.630523 0.000000 0.090073
0.920069 0.000000 0.175785
1.000000 0.063013 0.273512
1.000000 0.422664 0.390418
0.000000 0.000000 0.000000
0.000000 0.000000 0.000000
0.074472 0.000000 0.042449
0.243132 0.000000 0.064371
0.492528 0.000000 0.098598
0.742884 0.000000 0.129272
0.939842 0.000000 0.181168
1.000000 0.208629 0.273107
1.000000 0.448186 0.389443
0.000000 0.062498 0.279420
0.000000 0.081504 0.252609
0.176800 0.188196 0.202965
0.417947 0.128963 0.154445
0.596992 0.000000 0.119832
0.779013 0.000000 0.130688
0.943338 0.000000 0.178316
1.000000 0.277120 0.270765
1.000000 0.469927 0.388480
0.000000 0.195352 0.227788
0.000000 0.294279 0.170655
0.000000 0.420791 0.116367
0.460457 0.433889 0.064583
0.700884 0.394537 0.048528
0.838573 0.322833 0.111921
0.958391 0.270154 0.169184
1.000000 0.364689 0.261011
1.000000 0.510404 0.381111
0.000000 0.344694 0.087644
0.000000 0.562363 0.000000
0.000000 0.604022 0.000000
0.351643 0.642226 0.000000
0.700746 0.630310 0.000000
0.881219 0.627406 0.000000
0.971259 0.577673 0.110330
1.000000 0.524201 0.248554
1.000000 0.595977 0.380159
0.000000 0.666416 0.000000
0.000000 0.714793 0.000000
0.000000 0.730498 0.000000
0.397027 0.731019 0.000000
0.752477 0.719862 0.000000
0.925591 0.692523 0.000000
0.959599 0.779455 0.000000
1.000000 0.765835 0.201412
1.000000 0.725928 0.384931
0.000000 0.825364 0.000000
0.000000 0.832165 0.000000
0.000000 0.832191 0.000000
0.490681 0.828350 0.000000
0.780427 0.818757 0.000000
0.922642 0.810551 0.000000
0.998049 0.810155 0.000000
0.999531 0.871924 0.000000
1.000000 0.868930 0.377120
0.164286 0.909930 0.000000
0.374479 0.909876 0.000000
0.491453 0.908442 0.000000
0.624983 0.904973 0.000000
0.777782 0.896384 0.000000
0.904797 0.890223 0.000000
0.984142 0.885373 0.000000
1.000000 0.885849 0.000000
1.000000 0.917472 0.195532
0.656755 0.953804 0.000000
0.692783 0.952894 0.000000
0.723605 0.951769 0.000000
0.769387 0.949994 0.000000
0.826976 0.947568 0.000000
0.896202 0.944456 0.000000
0.970459 0.940996 0.000000
1.000000 0.938554 0.193746
1.000000 0.938510 0.367635
0.000000 0.000000 0.000000
0.000000 0.000000 0.000000
0.039139 0.000000 0.044363
0.140526 0.000000 0.049281
0.254270 0.000000 0.049769
0.496251 0.000000 0.095817
0.902739 0.000000 0.249993
1.000000 0.000000 0.334103
1.000000 0.421965 0.448713
0.000000 0.000000 0.000000
0.000000 0.000000 0.032877
0.060452 0.000000 0.080015
0.165311 0.000000 0.064351
0.397920 0.000000 0.134122
0.709161 0.000000 0.231618
0.935876 0.000000 0.274367
1.000000 0.197010 0.343544
1.000000 0.450010 0.448499
0.000000 0.000000 0.488747
0.000000 0.000000 0.447698
0.052818 0.077668 0.367040
0.368969 0.000000 0.303451
0.573115 0.000000 0.276446
0.773464 0.000000 0.279241
0.954687 0.000000 0.287352
1.000000 0.279699 0.346562
1.000000 0.472565 0.447928
0.000000 0.131671 0.599813
0.000000 0.170201 0.561745
0.000000 0.353663 0.476417
0.410565 0.431327 0.465381
0.672493 0.377807 0.390901
0.839951 0.269192 0.325190
0.966477 0.252608 0.299089
1.000000 0.368040 0.345399
1.000000 0.516381 0.445322
0.000000 0.286695 0.562417
0.000000 0.482876 0.465791
0.000000 0.585362 0.424355
0.268979 0.669905 0.410033
0.681266 0.670815 0.385928
0.864683 0.624205 0.320169
0.965629 0.555473 0.304381
1.000000 0.507888 0.338855
1.000000 0.586173 0.434423
0.000000 0.603167 0.317355
0.000000 0.746899 0.283251
0.000000 0.783142 0.260972
0.000000 0.803077 0.214586
0.625003 0.809741 0.179769
0.843212 0.802782 0.131993
0.952270 0.792818 0.254450
1.000000 0.761726 0.360519
1.000000 0.717298 0.441892
0.000000 0.866833 0.000000
0.000000 0.875509 0.000000
0.000000 0.879676 0.000000
0.000000 0.886605 0.000000
0.595336 0.890053 0.000000
0.814940 0.884718 0.000000
0.937691 0.875969 0.000000
0.993067 0.885848 0.257508
1.000000 0.869924 0.465987
0.000000 0.908826 0.000000
0.339145 0.909429 0.000000
0.468730 0.908032 0.000000
0.612867 0.904593 0.000000
0.771461 0.896040 0.000000
0.902849 0.889445 0.000000
0.983773 0.884515 0.000000
1.000000 0.885186 0.000000
1.000000 0.934204 0.317987
0.648682 0.953764 0.000000
0.684513 0.952874 0.000000
0.717008 0.951770 0.000000
0.764486 0.949946 0.000000
0.824013 0.947454 0.000000
0.894609 0.944285 0.000000
0.969950 0.940784 0.000000
1.000000 0.938317 0.191903
1.000000 0.938272 0.366558
0.000000 0.000000 0.000000
0.000000 0.000000 0.000000
0.019078 0.000000 0.066181
0.130278 0.000000 0.082399
0.256810 0.000000 0.081698
0.382517 0.000000 0.077432
0.850435 0.000000 0.331255
1.000000 0.000000 0.442488
1.000000 0.405988 0.525727
0.000000 0.000000 0.000000
0.000000 0.000000 0.059387
0.030667 0.000000 0.118566
0.143068 0.000000 0.099922
0.256222 0.000000 0.080410
0.597110 0.000000 0.245627
0.913751 0.000000 0.406935
1.000000 0.074332 0.457207
1.000000 0.437067 0.531033
0.000000 0.000000 0.623636
0.000000 0.000000 0.585714
0.000000 0.000000 0.511964
0.277632 0.000000 0.443083
0.511597 0.000000 0.373133
0.745912 0.000000 0.407590
0.936434 0.000000 0.445417
1.000000 0.221192 0.474338
1.000000 0.466727 0.535747
0.000000 0.042755 0.796382
0.000000 0.095607 0.756153
0.000000 0.226529 0.677850
0.297585 0.285551 0.647573
0.653074 0.241437 0.596539
0.827759 0.116501 0.516624
0.961238 0.187952 0.487331
1.000000 0.357708 0.491045
1.000000 0.520701 0.542114
0.000000 0.221554 0.824086
0.000000 0.265788 0.793277
0.000000 0.476212 0.714109
0.000000 0.599247 0.692857
0.636009 0.656747 0.689627
0.844045 0.606510 0.619437
0.965184 0.526335 0.544213
1.000000 0.500001 0.499377
1.000000 0.594673 0.541379
0.000000 0.386226 0.795826
0.000000 0.652806 0.693074
0.000000 0.726162 0.674554
0.000000 0.784758 0.652101
0.579639 0.823518 0.651277
0.827069 0.820249 0.640468
0.938902 0.788326 0.563098
1.000000 0.745874 0.513175
1.000000 0.701988 0.536475
0.000000 0.837951 0.544339
0.000000 0.866190 0.544590
0.000000 0.881066 0.547026
0.000000 0.898544 0.539947
0.554909 0.900350 0.508377
0.795929 0.901740 0.500275
0.923073 0.895619 0.470510
0.984999 0.889442 0.532562
1.000000 0.865798 0.576688
0.000000 0.944368 0.377343
0.000000 0.943903 0.362223
0.000000 0.943747 0.350957
0.343553 0.944124 0.340747
0.585823 0.945313 0.325193
0.783383 0.944630 0.323925
0.907360 0.942201 0.315739
0.977641 0.938002 0.298718
1.000000 0.938960 0.542807
0.632401 0.953699 0.000000
0.667853 0.952842 0.000000
0.703747 0.951791 0.000000
0.754822 0.949864 0.000000
0.818217 0.947242 0.000000
0.891536 0.943962 0.000000
0.968968 0.940378 0.000000
1.000000 0.937866 0.188367
1.000000 0.937816 0.364513
0.000000 0.000000 0.000000
0.000000 0.000000 0.026750
0.000000 0.000000 0.105758
0.098830 0.000000 0.123428
0.248980 0.000000 0.130258
0.391376 0.000000 0.118796
0.549146 0.000000 0.113453
1.000000 0.000000 0.552979
1.000000 0.353031 0.624404
0.000000 0.000000 0.000000
0.000000 0.000000 0.081862
0.000000 0.000000 0.139579
0.098573 0.000000 0.122215
0.248676 0.000000 0.129125
0.390951 0.000000 0.117619
0.807229 0.000000 0.392352
1.000000 0.000000 0.587786
1.000000 0.394789 0.631407
0.000000 0.000000 0.758241
0.000000 0.000000 0.716522
0.000000 0.000000 0.646108
0.118904 0.000000 0.582811
0.435354 0.000000 0.504687
0.602817 0.000000 0.353409
0.903038 0.000000 0.534099
1.000000 0.000000 0.608138
1.000000 0.431828 0.637387
0.000000 0.000000 0.882936
0.000000 0.000000 0.840039
0.000000 0.117624 0.787832
0.000000 0.155028 0.756257
0.531348 0.054978 0.705576
0.795732 0.000000 0.644219
0.954963 0.000000 0.628680
1.000000 0.276754 0.646382
1.000000 0.488826 0.649976
0.000000 0.154251 0.930672
0.000000 0.202602 0.902719
0.000000 0.359676 0.849279
0.000000 0.451859 0.834729
0.525880 0.523878 0.824046
0.842338 0.495810 0.791548
0.970977 0.411124 0.721849
1.000000 0.465692 0.684375
1.000000 0.579354 0.671301
0.000000 0.326611 0.934570
0.000000 0.372593 0.917005
0.000000 0.593121 0.858372
0.000000 0.701076 0.841664
0.419675 0.780012 0.835422
0.793357 0.811745 0.836797
0.924176 0.781292 0.792382
0.997592 0.734558 0.733454
1.000000 0.704410 0.683993
0.000000 0.723474 0.850272
0.000000 0.806052 0.834247
0.000000 0.837665 0.830014
0.000000 0.866560 0.822860
0.391243 0.890566 0.813428
0.767283 0.907224 0.819723
0.906246 0.905782 0.810447
0.971266 0.886393 0.767322
1.000000 0.859066 0.711324
0.000000 0.924612 0.734619
0.000000 0.932644 0.737846
0.000000 0.939753 0.740096
0.168925 0.945811 0.742382
0.556846 0.950190 0.746734
0.762671 0.949076 0.722263
0.892001 0.949953 0.717533
0.963620 0.946606 0.700533
1.000000 0.940031 0.736153
0.445180 0.983268 0.640265
0.495924 0.982590 0.634170
0.537336 0.982062 0.629637
0.602391 0.981807 0.621654
0.686188 0.981280 0.614450
0.778436 0.980560 0.609289
0.884166 0.979814 0.607170
0.953927 0.978210 0.602487
1.000000 0.975123 0.592585
0.000000 0.000000 0.000000
0.000000 0.000000 0.100165
0.000000 0.000000 0.169313
0.081863 0.000000 0.191220
0.213860 0.000000 0.197404
0.391478 0.000000 0.186294
0.555701 0.000000 0.174482
0.755068 0.000000 0.204461
1.000000 0.158976 0.740306
0.000000 0.000000 0.000000
0.000000 0.000000 0.095695
0.000000 0.000000 0.168028
0.081420 0.000000 0.190458
0.213967 0.000000 0.196631
0.391200 0.000000 0.185596
0.555637 0.000000 0.173817
0.968457 0.000000 0.572471
1.000000 0.260950 0.755101
0.000000 0.000000 0.856454
0.000000 0.000000 0.809422
0.000000 0.000000 0.754236
0.000000 0.000000 0.695281
0.301790 0.000000 0.611214
0.545520 0.000000 0.426686
0.555574 0.000000 0.173151
1.000000 0.000000 0.673715
1.000000 0.328975 0.768173
0.000000 0.000000 0.951737
0.000000 0.000000 0.907944
0.000000 0.074404 0.880783
0.000000 0.102524 0.860393
0.365117 0.000000 0.822688
0.705858 0.000000 0.774395
0.907036 0.000000 0.694064
1.000000 0.000000 0.751087
1.000000 0.405717 0.783124
0.000000 0.030836 0.980291
0.000000 0.132745 0.947498
0.000000 0.232337 0.918361
0.000000 0.287139 0.905964
0.378564 0.321253 0.889141
0.759181 0.277243 0.857901
0.963859 0.169253 0.824577
1.000000 0.329221 0.809369
1.000000 0.516779 0.800443
0.000000 0.264060 0.995760
0.000000 0.320790 0.975849
0.000000 0.501100 0.937171
0.000000 0.585208 0.925052
0.184644 0.666178 0.915659
0.723542 0.723068 0.910488
0.928802 0.712112 0.893185
1.000000 0.652071 0.856848
1.000000 0.670305 0.825543
0.000000 0.461082 0.991824
0.000000 0.493968 0.982173
0.000000 0.704383 0.933764
0.000000 0.790394 0.922308
0.000000 0.848275 0.914867
0.684091 0.880860 0.912366
0.888574 0.898915 0.915353
0.961150 0.882470 0.891423
1.000000 0.851741 0.855719
0.000000 0.874894 0.911809
0.000000 0.895650 0.909040
0.000000 0.906855 0.907942
0.000000 0.921090 0.905189
0.189489 0.932583 0.901283
0.686018 0.942094 0.898336
0.873836 0.953624 0.903876
0.952770 0.953033 0.898851
0.995716 0.938869 0.871147
0.000000 0.973582 0.851252
0.000000 0.974987 0.852420
0.298743 0.976097 0.853026
0.466582 0.978111 0.854419
0.631059 0.980504 0.858084
0.757123 0.982796 0.861481
0.866327 0.982265 0.851041
0.941354 0.982031 0.849483
0.990517 0.980113 0.841392
0.000000 0.000000 0.000000
0.000000 0.000000 0.205491
0.000000 0.000000 0.248900
0.058915 0.000000 0.265035
0.178884 0.000000 0.273857
0.357272 0.000000 0.267845
0.552989 0.000000 0.247559
0.716910 0.000000 0.233626
1.000000 0.000000 0.595638
0.000000 0.000000 0.000000
0.000000 0.000000 0.203468
0.000000 0.000000 0.248199
0.058329 0.000000 0.264425
0.178539 0.000000 0.273337
0.357316 0.000000 0.267329
0.552889 0.000000 0.247091
0.716781 0.000000 0.233196
1.000000 0.000000 0.733051
0.000000 0.000000 0.875286
0.000000 0.000000 0.824686
0.000000 0.000000 0.781955
0.000000 0.000000 0.720130
0.202538 0.000000 0.601846
0.391543 0.000000 0.369308
0.552788 0.000000 0.246622
0.716651 0.000000 0.232765
1.000000 0.000000 0.786090
0.000000 0.000000 0.994105
0.000000 0.000000 0.948553
0.000000 0.022066 0.935578
0.000000 0.052106 0.918415
0.248815 0.000000 0.894835
0.575959 0.000000 0.858310
0.849945 0.000000 0.797751
0.884940 0.000000 0.512911
1.000000 0.000000 0.829976
0.000000 0.000000 1.000000
0.000000 0.137220 0.976981
0.000000 0.192470 0.962893
0.000000 0.232309 0.955473
0.251176 0.253024 0.943441
0.626478 0.213668 0.921186
0.910628 0.000000 0.894635
1.000000 0.000000 0.855493
1.000000 0.329009 0.868931
0.000000 0.165342 1.000000
0.000000 0.267288 0.994052
0.000000 0.353449 0.976895
0.000000 0.417348 0.968091
0.149436 0.471768 0.960525
0.611756 0.509399 0.948900
0.910617 0.490515 0.930748
1.000000 0.466966 0.915048
1.000000 0.555619 0.897403
0.000000 0.397762 1.000000
0.000000 0.468730 1.000000
0.000000 0.629759 0.979835
0.000000 0.712622 0.969510
0.000000 0.771210 0.962203
0.528066 0.818013 0.958115
0.849946 0.847097 0.954655
0.965280 0.837981 0.945699
1.000000 0.799077 0.919669
0.000000 0.587089 1.000000
0.000000 0.595433 1.000000
0.000000 0.792392 0.975731
0.000000 0.855442 0.964918
0.000000 0.892988 0.960183
0.540448 0.919358 0.956035
0.825806 0.936747 0.955999
0.941892 0.948113 0.959311
0.990561 0.936549 0.942152
0.000000 0.947422 0.954165
0.000000 0.952829 0.952890
0.000000 0.956666 0.952355
0.000000 0.961479 0.951852
0.373189 0.967278 0.951531
0.642258 0.971414 0.950104
0.828906 0.978231 0.948407
0.930228 0.985015 0.952413
0.983954 0.984362 0.949689
0.000000 0.000000 0.128283
0.000000 0.000000 0.335039
0.000000 0.000000 0.352009
0.000000 0.000000 0.367984
0.160169 0.000000 0.369462
0.314530 0.000000 0.369286
0.522823 0.000000 0.358244
0.717390 0.000000 0.329158
0.881392 0.000000 0.308605
0.000000 0.000000 0.113005
0.000000 0.000000 0.334278
0.000000 0.000000 0.351468
0.000000 0.000000 0.367653
0.159766 0.000000 0.369128
0.314295 0.000000 0.369000
0.522840 0.000000 0.357932
0.717295 0.000000 0.328883
0.881338 0.000000 0.308352
0.000000 0.000000 0.525718
0.000000 0.000000 0.576373
0.000000 0.000000 0.537005
0.000000 0.000000 0.454250
0.159363 0.000000 0.368795
0.314060 0.000000 0.368714
0.522857 0.000000 0.357621
0.717201 0.000000 0.328608
0.881285 0.000000 0.308099
0.000000 0.000000 1.000000
0.000000 0.000000 0.980682
0.000000 0.000000 0.968238
0.000000 0.000000 0.955055
0.178349 0.000000 0.937619
0.463042 0.000000 0.908638
0.706853 0.000000 0.849501
0.717023 0.000000 0.328087
0.881182 0.000000 0.307620
0.000000 0.049169 1.000000
0.000000 0.144804 1.000000
0.000000 0.172910 0.998194
0.000000 0.197656 0.993282
0.192427 0.207053 0.982970
0.511476 0.172833 0.968108
0.802652 0.000000 0.947220
0.996296 0.000000 0.920823
1.000000 0.000000 0.835914
0.000000 0.160759 1.000000
0.000000 0.272851 1.000000
0.000000 0.318399 1.000000
0.000000 0.360007 1.000000
0.111761 0.407331 0.997130
0.504234 0.428731 0.988665
0.811095 0.408404 0.974415
1.000000 0.377688 0.958704
1.000000 0.315116 0.937208
0.000000 0.284251 1.000000
0.000000 0.430601 1.000000
0.000000 0.497807 1.000000
0.000000 0.556832 1.000000
0.000000 0.609704 0.998321
0.454585 0.657177 0.993318
0.777322 0.692994 0.985022
0.963059 0.685889 0.974182
1.000000 0.672685 0.962724
0.000000 0.528650 1.000000
0.000000 0.614600 1.000000
0.000000 0.740703 1.000000
0.000000 0.799932 0.999094
0.000000 0.840721 0.993150
0.321448 0.869988 0.989478
0.734670 0.895310 0.986410
0.911161 0.914156 0.986281
0.992668 0.909363 0.979833
0.000000 0.722895 1.000000
0.000000 0.722797 1.000000
0.000000 0.859107 1.000000
0.000000 0.906311 0.994870
0.000000 0.931421 0.990361
0.346016 0.948213 0.987512
0.737430 0.961256 0.985280
0.898374 0.972882 0.986063
0.977189 0.980905 0.988252
