Assets/Lutify-Free-LUTs-Pack/Lutify Free LUTs Pack/Print Film Pro - Print Film 2/Lutify.me-PrintFilm2-DragonColor2RLF-to-Rec709.cube
# Created with: fylm.ai - Colour Grading and Collaboration Software in Cloud 
# Website: https://fylm.ai 
# META
# Option: Gamut compress
# Block 1: IDT | RED DragonColor2 REDLogFilm
# Block 2: colourMatch | Blending Mode: Normal | {"ColorSpace":0,"CrossCovarianceLimit":50,"ReshapingIterations":1,"PercentSaturationShift":100,"PercentShadingShift":100,"ExtraShading":true,"PercentTint":100,"PercentModified":100}
# Block 3: HSL | Blending Mode: Normal | {"hue":{"Reds":0,"Yellows":0,"Greens":0,"Cyans":0,"Blues":0,"Magentas":0},"saturation":{"Reds":1,"Yellows":0.9,"Greens":0.95,"Cyans":1,"Blues":1,"Magentas":1},"luminance":{"Reds":0.8,"Yellows":0.95,"Greens":0.9,"Cyans":0.8,"Blues":0.8,"Magentas":0.8},"lum_sat":{"Blacks":1,"Shadows":1,"Midtones":1,"Highlights":1,"Whites":1},"sat_sat":{"10":1,"20":1,"30":1,"40":1,"50":1}}
# Block 4: LUT | Filmic Curve Response: Low Contrast 2 (100%)
# Block 5: ODT | Rec709
TITLE "Lutify.me-PrintFilm2-DragonColor2RLF-to-Rec709" 
LUT_3D_SIZE 5
0.000000 0.000000 0.000000
0.000000 0.000000 0.000000
0.212608 0.000000 0.000000
0.800415 0.000000 0.000000
1.000000 0.623563 0.161253
0.000000 0.030311 0.000000
0.057503 0.045951 0.000000
0.293471 0.000000 0.000000
0.815708 0.000000 0.000000
1.000000 0.629708 0.162387
0.000000 0.364087 0.000000
0.024292 0.371459 0.000000
0.495031 0.355813 0.000000
0.894003 0.375835 0.000000
1.000000 0.671059 0.171968
0.587647 0.863322 0.172044
0.607385 0.862935 0.167019
0.701869 0.862714 0.129370
0.918713 0.850688 0.000000
1.000000 0.855976 0.303920
0.932259 0.992473 0.810063
0.932749 0.992478 0.809911
0.936105 0.992517 0.808831
0.956465 0.992399 0.801184
1.000000 0.988780 0.718550
0.000000 0.000000 0.000000
0.000000 0.000000 0.000000
0.230666 0.000000 0.010357
0.797516 0.000000 0.000000
1.000000 0.625129 0.185199
0.000000 0.038626 0.071193
0.056668 0.057048 0.062712
0.297225 0.000000 0.025404
0.812440 0.000000 0.000000
1.000000 0.631238 0.186518
0.000000 0.390425 0.000000
0.000000 0.399109 0.000000
0.470675 0.407688 0.000000
0.892056 0.382168 0.000000
1.000000 0.671992 0.197259
0.585836 0.863991 0.242756
0.602568 0.864333 0.239376
0.699601 0.864587 0.219761
0.916575 0.855263 0.000000
1.000000 0.855836 0.327745
0.932033 0.992530 0.813880
0.932535 0.992535 0.813767
0.935973 0.992575 0.812966
0.956337 0.992553 0.805838
1.000000 0.988897 0.725743
0.000000 0.000000 0.294476
0.000000 0.000000 0.282634
0.280003 0.000000 0.240239
0.835617 0.000000 0.234696
1.000000 0.619053 0.313499
0.000000 0.038714 0.367274
0.000000 0.049854 0.355084
0.324733 0.000000 0.305608
0.845748 0.000000 0.242523
1.000000 0.625269 0.315157
0.000000 0.376934 0.517770
0.000000 0.398614 0.516349
0.444785 0.466093 0.500991
0.886610 0.394594 0.284265
1.000000 0.667012 0.327523
0.576251 0.874491 0.559446
0.594157 0.874514 0.557047
0.689917 0.873960 0.544444
0.907675 0.872504 0.447591
1.000000 0.861429 0.452250
0.929770 0.992897 0.835448
0.930276 0.992902 0.835350
0.933744 0.992937 0.834655
0.954504 0.993071 0.830075
1.000000 0.989645 0.769035
0.000000 0.201243 0.867654
0.000000 0.203606 0.866035
0.276744 0.210806 0.848982
0.876819 0.058602 0.793308
1.000000 0.660717 0.731821
0.000000 0.218019 0.871205
0.000000 0.221385 0.870669
0.288862 0.232089 0.854384
0.882397 0.135397 0.799209
1.000000 0.666276 0.733225
0.000000 0.355456 0.889851
0.000000 0.362219 0.889205
0.362993 0.395595 0.884253
0.901740 0.413731 0.844867
1.000000 0.701828 0.742885
0.498390 0.856931 0.909422
0.517850 0.858108 0.909273
0.619711 0.865404 0.908374
0.882108 0.891682 0.909774
1.000000 0.860109 0.786568
0.926586 0.994960 0.924063
0.927091 0.994958 0.923986
0.930133 0.994968 0.923705
0.948639 0.994961 0.922056
1.000000 0.993651 0.899148
0.625353 0.685983 1.000000
0.630195 0.686686 1.000000
0.661736 0.691581 1.000000
0.824503 0.696713 1.000000
1.000000 0.743540 0.982618
0.626551 0.688903 1.000000
0.631373 0.689600 1.000000
0.662635 0.694468 1.000000
0.824500 0.700254 1.000000
1.000000 0.746099 0.982720
0.635029 0.708676 1.000000
0.639530 0.709363 1.000000
0.669024 0.714017 1.000000
0.824800 0.724303 1.000000
1.000000 0.763264 0.983424
0.681344 0.826540 1.000000
0.685334 0.826975 1.000000
0.712039 0.830034 1.000000
0.843986 0.849615 1.000000
1.000000 0.870375 0.989714
0.902286 0.987438 1.000000
0.902834 0.987487 1.000000
0.906596 0.987832 1.000000
0.930146 0.990030 1.000000
0.994056 0.997478 1.000000
