Assets/Lutify-Free-LUTs-Pack/Lutify Free LUTs Pack/Print Film Pro - Print Film 2/Lutify.me-PrintFilm2-SLog3CineVenice-to-Rec709.cube
# Created with: fylm.ai - Colour Grading and Collaboration Software in Cloud 
# Website: https://fylm.ai 
# META
# Option: Gamut compress
# Block 1: IDT | Sony Venice S-Log3 S-Gamut3.Cine
# Block 2: colourMatch | Blending Mode: Normal | {"ColorSpace":0,"CrossCovarianceLimit":50,"ReshapingIterations":1,"PercentSaturationShift":100,"PercentShadingShift":100,"ExtraShading":true,"PercentTint":100,"PercentModified":100}
# Block 3: HSL | Blending Mode: Normal | {"hue":{"Reds":0,"Yellows":0,"Greens":0,"Cyans":0,"Blues":0,"Magentas":0},"saturation":{"Reds":1,"Yellows":0.9,"Greens":0.95,"Cyans":1,"Blues":1,"Magentas":1},"luminance":{"Reds":0.8,"Yellows":0.95,"Greens":0.9,"Cyans":0.8,"Blues":0.8,"Magentas":0.8},"lum_sat":{"Blacks":1,"Shadows":1,"Midtones":1,"Highlights":1,"Whites":1},"sat_sat":{"10":1,"20":1,"30":1,"40":1,"50":1}}
# Block 4: LUT | Filmic Curve Response: Low Contrast 2 (100%)
# Block 5: ODT | Rec709
TITLE "Lutify.me-PrintFilm2-SLog3CineVenice-to-Rec709" 
LUT_3D_SIZE 33
0.000000 0.000000 0.000000
0.000000 0.000000 0.000000
0.000000 0.000000 0.000000
0.000000 0.000000 0.000000
0.000000 0.000000 0.000000
0.000000 0.000000 0.000000
0.000000 0.000000 0.000000
0.000000 0.000000 0.000000
0.000000 0.000000 0.000000
0.000000 0.000000 0.000000
0.036280 0.000000 0.000000
0.068970 0.000000 0.000000
0.103940 0.000000 0.000000
0.143828 0.000000 0.000000
0.205130 0.000000 0.000000
0.278125 0.000000 0.000000
0.356564 0.000000 0.000000
0.457279 0.000000 0.000000
0.556654 0.000000 0.000000
0.648352 0.000000 0.000000
0.741543 0.000000 0.000000
0.840855 0.000000 0.000000
0.916580 0.000000 0.051292
0.974341 0.000000 0.085882
1.000000 0.000000 0.122944
1.000000 0.229196 0.170447
1.000000 0.337206 0.220803
1.000000 0.437590 0.278041
1.000000 0.532039 0.344392
1.000000 0.614904 0.422270
1.000000 0.688536 0.496094
1.000000 0.749481 0.569906
1.000000 0.808146 0.651170
0.000000 0.000000 0.000000
0.000000 0.000000 0.000000
0.000000 0.000000 0.000000
0.000000 0.000000 0.000000
0.000000 0.000000 0.000000
0.000000 0.000000 0.000000
0.000000 0.000000 0.000000
0.000000 0.000000 0.000000
0.000000 0.000000 0.000000
0.010292 0.000000 0.000000
0.052893 0.000000 0.000000
0.082175 0.000000 0.000000
0.119155 0.000000 0.000000
0.162343 0.000000 0.000000
0.223250 0.000000 0.000000
0.293146 0.000000 0.000000
0.369076 0.000000 0.000000
0.466310 0.000000 0.000000
0.563557 0.000000 0.000000
0.653481 0.000000 0.000000
0.745657 0.000000 0.000000
0.843532 0.000000 0.000000
0.917766 0.000000 0.051072
0.975027 0.000000 0.085850
1.000000 0.000000 0.123084
1.000000 0.233262 0.170572
1.000000 0.339473 0.221001
1.000000 0.439149 0.278354
1.000000 0.533414 0.344719
1.000000 0.615798 0.422477
1.000000 0.688925 0.496131
1.000000 0.749706 0.569945
1.000000 0.808374 0.651339
0.000000 0.000000 0.000000
0.000000 0.000000 0.000000
0.000000 0.000000 0.000000
0.000000 0.000000 0.000000
0.000000 0.000000 0.000000
0.000000 0.000000 0.000000
0.000000 0.000000 0.000000
0.000000 0.000000 0.000000
0.000000 0.000000 0.000000
0.037432 0.000000 0.000000
0.067207 0.000000 0.000000
0.098951 0.000000 0.000000
0.134324 0.000000 0.000000
0.177964 0.000000 0.000000
0.242006 0.000000 0.000000
0.307816 0.000000 0.000000
0.381274 0.000000 0.000000
0.474053 0.000000 0.000000
0.570163 0.000000 0.000000
0.658672 0.000000 0.000000
0.749640 0.000000 0.000000
0.846141 0.000000 0.000000
0.918926 0.000000 0.050827
0.975697 0.000000 0.085801
1.000000 0.000000 0.123216
1.000000 0.237260 0.170692
1.000000 0.341721 0.221197
1.000000 0.440700 0.278666
1.000000 0.534784 0.344997
1.000000 0.616688 0.422683
1.000000 0.689316 0.496172
1.000000 0.749993 0.570031
1.000000 0.808602 0.651507
0.000000 0.000000 0.000000
0.000000 0.000000 0.000000
0.000000 0.000000 0.000000
0.000000 0.000000 0.000000
0.000000 0.000000 0.000000
0.000000 0.000000 0.000000
0.000000 0.000000 0.000000
0.000000 0.000000 0.000000
0.020126 0.000000 0.000000
0.057587 0.000000 0.000000
0.082951 0.000000 0.000000
0.115205 0.000000 0.000000
0.149052 0.000000 0.000000
0.196338 0.000000 0.000000
0.258441 0.000000 0.000000
0.322010 0.000000 0.000000
0.393696 0.000000 0.000000
0.481467 0.000000 0.000000
0.576762 0.000000 0.000000
0.663710 0.000000 0.000000
0.753334 0.000000 0.000000
0.848686 0.000000 0.000000
0.920062 0.000000 0.050556
0.976350 0.000000 0.085738
1.000000 0.039513 0.123340
1.000000 0.241192 0.170808
1.000000 0.343952 0.221392
1.000000 0.442245 0.278977
1.000000 0.536152 0.345275
1.000000 0.617575 0.422889
1.000000 0.689821 0.496362
1.000000 0.750286 0.570122
1.000000 0.808830 0.651675
0.000000 0.000000 0.000000
0.000000 0.000000 0.000000
0.000000 0.000000 0.000000
0.000000 0.000000 0.000000
0.000000 0.000000 0.000000
0.000000 0.000000 0.000000
0.000000 0.000000 0.000000
0.030750 0.000000 0.000000
0.056258 0.000000 0.000000
0.075247 0.000000 0.000000
0.101672 0.000000 0.000000
0.130257 0.000000 0.000000
0.165175 0.000000 0.000000
0.212306 0.000000 0.000000
0.271840 0.000000 0.000000
0.335498 0.000000 0.000000
0.404792 0.000000 0.000000
0.488560 0.000000 0.000000
0.582896 0.000000 0.000000
0.668914 0.000000 0.000000
0.757108 0.000000 0.000000
0.851185 0.000000 0.000000
0.921175 0.000000 0.050259
0.976988 0.000000 0.085659
1.000000 0.071220 0.123457
1.000000 0.245067 0.170921
1.000000 0.346166 0.221587
1.000000 0.443783 0.279288
1.000000 0.537512 0.345551
1.000000 0.618461 0.423093
1.000000 0.690330 0.496585
1.000000 0.750579 0.570213
1.000000 0.809058 0.651844
0.000000 0.000000 0.000000
0.000000 0.000000 0.000000
0.000000 0.000000 0.000000
0.000000 0.000000 0.000000
0.000000 0.000000 0.000000
0.000000 0.000000 0.000000
0.023087 0.000000 0.000000
0.052482 0.000000 0.000000
0.072110 0.000000 0.000000
0.099770 0.000000 0.000000
0.121058 0.000000 0.000000
0.145568 0.000000 0.000000
0.181831 0.000000 0.000000
0.228021 0.000000 0.000000
0.284529 0.000000 0.000000
0.346523 0.000000 0.000000
0.415160 0.000000 0.000000
0.495617 0.000000 0.000000
0.588826 0.000000 0.000000
0.673721 0.000000 0.000000
0.760698 0.000000 0.000000
0.852940 0.000000 0.000000
0.922266 0.000000 0.049936
0.977578 0.000000 0.085592
1.000000 0.090049 0.123602
1.000000 0.248884 0.171031
1.000000 0.348364 0.221780
1.000000 0.445313 0.279598
1.000000 0.538869 0.345827
1.000000 0.619345 0.423299
1.000000 0.690838 0.496809
1.000000 0.750865 0.570257
1.000000 0.809285 0.652012
0.000000 0.000000 0.000000
0.000000 0.001731 0.000000
0.000000 0.006844 0.000000
0.000000 0.013079 0.000000
0.000000 0.022845 0.000000
0.000000 0.030106 0.000000
0.035200 0.032428 0.000000
0.057725 0.033057 0.000000
0.081796 0.029812 0.000000
0.113168 0.000000 0.000000
0.144240 0.000000 0.000000
0.170719 0.000000 0.000000
0.203211 0.000000 0.000000
0.246416 0.000000 0.000000
0.302095 0.000000 0.000000
0.356554 0.000000 0.000000
0.427299 0.000000 0.000000
0.504280 0.000000 0.000000
0.595901 0.000000 0.000000
0.679507 0.000000 0.000000
0.765038 0.000000 0.000000
0.855084 0.000000 0.000000
0.923599 0.000000 0.049492
0.978283 0.000000 0.085502
1.000000 0.106648 0.124004
1.000000 0.253982 0.171164
1.000000 0.351075 0.222188
1.000000 0.447219 0.279985
1.000000 0.540563 0.346174
1.000000 0.620450 0.423556
1.000000 0.691472 0.497090
1.000000 0.751222 0.570302
1.000000 0.809569 0.652221
0.000000 0.031403 0.000000
0.000000 0.034604 0.000000
0.000000 0.036208 0.000000
0.000000 0.040659 0.000000
0.000000 0.046582 0.000000
0.000000 0.050459 0.000000
0.038036 0.051765 0.000000
0.062967 0.051192 0.000000
0.091823 0.049297 0.000000
0.129602 0.041011 0.000000
0.164348 0.019384 0.000000
0.200489 0.000000 0.000000
0.233820 0.000000 0.000000
0.271951 0.000000 0.000000
0.321300 0.000000 0.000000
0.373859 0.000000 0.000000
0.440269 0.000000 0.000000
0.515683 0.000000 0.000000
0.605340 0.000000 0.000000
0.687344 0.000000 0.000000
0.770939 0.000000 0.000000
0.857996 0.000000 0.000000
0.925414 0.000000 0.048795
0.979241 0.000000 0.085344
1.000000 0.125480 0.124552
1.000000 0.261478 0.171344
1.000000 0.355317 0.222604
1.000000 0.449874 0.280526
1.000000 0.542926 0.346659
1.000000 0.621991 0.423915
1.000000 0.692357 0.497481
1.000000 0.751718 0.570365
1.000000 0.809969 0.652468
0.000000 0.051641 0.000000
0.000000 0.054049 0.000000
0.000000 0.056109 0.000000
0.000000 0.060002 0.000000
0.000000 0.065435 0.000000
0.000000 0.070155 0.000000
0.026259 0.073941 0.000000
0.063495 0.075013 0.000000
0.100182 0.073081 0.000000
0.143091 0.069573 0.000000
0.185211 0.060816 0.000000
0.223701 0.040766 0.000000
0.263325 0.000000 0.000000
0.302609 0.000000 0.000000
0.344962 0.000000 0.000000
0.392574 0.000000 0.000000
0.455982 0.000000 0.000000
0.533102 0.000000 0.000000
0.617198 0.000000 0.000000
0.697292 0.000000 0.000000
0.778458 0.000000 0.000000
0.861746 0.000000 0.000000
0.927725 0.000000 0.047722
0.980459 0.000000 0.085073
1.000000 0.146047 0.125248
1.000000 0.271082 0.171571
1.000000 0.361038 0.223089
1.000000 0.453934 0.281035
1.000000 0.545961 0.347339
1.000000 0.624027 0.424388
1.000000 0.693523 0.498001
1.000000 0.752533 0.570668
1.000000 0.810494 0.652792
0.000000 0.072971 0.000000
0.000000 0.076285 0.000000
0.000000 0.080186 0.000000
0.000000 0.086360 0.000000
0.000000 0.091569 0.000000
0.000000 0.099344 0.000000
0.000000 0.103731 0.000000
0.051789 0.107165 0.000000
0.102014 0.105133 0.000000
0.151782 0.104154 0.000000
0.203973 0.097943 0.000000
0.247599 0.091173 0.000000
0.290569 0.073330 0.000000
0.336958 0.037728 0.000000
0.385408 0.000000 0.000000
0.429817 0.000000 0.000000
0.478680 0.000000 0.000000
0.558038 0.000000 0.000000
0.630691 0.000000 0.000000
0.708071 0.000000 0.000000
0.786856 0.000000 0.000000
0.866845 0.000000 0.000000
0.930631 0.000000 0.046008
0.981984 0.000000 0.084608
1.000000 0.168957 0.126120
1.000000 0.283297 0.171850
1.000000 0.368477 0.223725
1.000000 0.459252 0.281706
1.000000 0.549594 0.348422
1.000000 0.626706 0.425015
1.000000 0.695057 0.498685
1.000000 0.753705 0.571205
1.000000 0.811189 0.653222
0.000000 0.102168 0.000000
0.000000 0.108085 0.000000
0.000000 0.112177 0.000000
0.000000 0.119248 0.000000
0.000000 0.125419 0.000000
0.000000 0.132498 0.000000
0.000000 0.138349 0.000000
0.000000 0.142941 0.000000
0.089585 0.143796 0.000000
0.155080 0.144266 0.000000
0.212135 0.138695 0.000000
0.263768 0.131421 0.000000
0.314921 0.124004 0.000000
0.365060 0.106509 0.000000
0.420385 0.081868 0.000000
0.469993 0.000000 0.000000
0.517110 0.000000 0.000000
0.579229 0.000000 0.000000
0.648467 0.000000 0.000000
0.719909 0.000000 0.000000
0.795202 0.000000 0.000000
0.873175 0.000000 0.000000
0.934439 0.000000 0.042605
0.984068 0.000000 0.084868
1.000000 0.194904 0.127185
1.000000 0.298726 0.172187
1.000000 0.378106 0.224556
1.000000 0.466193 0.282590
1.000000 0.554359 0.349852
1.000000 0.630229 0.425840
1.000000 0.697183 0.499517
1.000000 0.755242 0.571913
1.000000 0.812101 0.653788
0.000000 0.140001 0.000000
0.000000 0.148555 0.000000
0.000000 0.154673 0.000000
0.000000 0.163508 0.000000
0.000000 0.168401 0.000000
0.000000 0.175817 0.000000
0.000000 0.183045 0.000000
0.000000 0.187559 0.000000
0.044688 0.190924 0.000000
0.148037 0.190067 0.000000
0.207019 0.188662 0.000000
0.270176 0.179843 0.000000
0.331129 0.170188 0.000000
0.392534 0.163637 0.000000
0.453147 0.149315 0.000000
0.500028 0.138953 0.000000
0.556579 0.109332 0.000000
0.613223 0.000000 0.000000
0.673615 0.000000 0.000000
0.738484 0.000000 0.000000
0.809346 0.000000 0.000000
0.880332 0.000000 0.000000
0.939106 0.000000 0.035554
0.987119 0.112401 0.084631
1.000000 0.224754 0.128442
1.000000 0.318058 0.172579
1.000000 0.390494 0.225640
1.000000 0.475178 0.284202
1.000000 0.560587 0.351740
1.000000 0.634825 0.426929
1.000000 0.700072 0.500530
1.000000 0.757242 0.572977
1.000000 0.813295 0.654540
0.000000 0.194873 0.000000
0.000000 0.204217 0.000000
0.000000 0.211306 0.000000
0.000000 0.216441 0.000000
0.000000 0.221669 0.000000
0.000000 0.228874 0.000000
0.000000 0.233356 0.000000
0.000000 0.239319 0.000000
0.000000 0.244263 0.000000
0.118980 0.242872 0.000000
0.188566 0.245211 0.000000
0.266648 0.236873 0.000000
0.338717 0.227039 0.000000
0.410877 0.218758 0.000000
0.477751 0.213989 0.000000
0.537332 0.205543 0.000000
0.592612 0.198674 0.000000
0.654880 0.171140 0.000000
0.708958 0.126191 0.000000
0.760825 0.035900 0.000000
0.827575 0.000000 0.000000
0.891290 0.000000 0.000000
0.945566 0.085285 0.021226
0.991516 0.175198 0.082832
1.000000 0.258817 0.128431
1.000000 0.340497 0.173211
1.000000 0.406324 0.227046
1.000000 0.486786 0.286490
1.000000 0.568696 0.354229
1.000000 0.640788 0.428367
1.000000 0.703831 0.501864
1.000000 0.759847 0.574494
1.000000 0.814852 0.655660
0.000000 0.263643 0.000000
0.000000 0.272883 0.000000
0.000000 0.280474 0.000000
0.000000 0.284339 0.000000
0.000000 0.287936 0.000000
0.000000 0.291214 0.000000
0.000000 0.295739 0.000000
0.000000 0.301233 0.000000
0.000000 0.307887 0.000000
0.000000 0.312782 0.000000
0.150156 0.315262 0.000000
0.250720 0.310039 0.000000
0.332233 0.301884 0.000000
0.421546 0.292793 0.000000
0.502738 0.286021 0.000000
0.569844 0.282558 0.000000
0.631629 0.282356 0.000000
0.687153 0.274100 0.000000
0.745225 0.253199 0.000000
0.797122 0.214551 0.000000
0.845342 0.174037 0.000000
0.906319 0.151741 0.000000
0.954856 0.190257 0.000000
0.996553 0.239256 0.080749
1.000000 0.295780 0.128039
1.000000 0.367277 0.174074
1.000000 0.426409 0.228868
1.000000 0.501707 0.289497
1.000000 0.579200 0.357494
1.000000 0.648480 0.430261
1.000000 0.708697 0.503623
1.000000 0.763223 0.576494
1.000000 0.816885 0.657210
0.000000 0.339855 0.000000
0.000000 0.344098 0.000000
0.000000 0.347975 0.000000
0.000000 0.351412 0.000000
0.000000 0.354614 0.000000
0.000000 0.359747 0.000000
0.000000 0.367101 0.000000
0.000000 0.376075 0.000000
0.000000 0.383390 0.000000
0.000000 0.385472 0.000000
0.000000 0.388979 0.000000
0.187347 0.389878 0.000000
0.303641 0.383299 0.000000
0.411524 0.373704 0.000000
0.504764 0.362613 0.000000
0.583250 0.358133 0.000000
0.648985 0.364393 0.000000
0.722547 0.373107 0.000000
0.778535 0.367305 0.000000
0.825088 0.340824 0.000000
0.874375 0.303756 0.000000
0.920367 0.267758 0.000000
0.963777 0.276388 0.000000
1.000000 0.302505 0.072371
1.000000 0.341284 0.127161
1.000000 0.399229 0.175076
1.000000 0.451695 0.231223
1.000000 0.520610 0.293461
1.000000 0.592791 0.360809
1.000000 0.658310 0.432755
1.000000 0.714950 0.505940
1.000000 0.767566 0.579126
1.000000 0.819524 0.659244
0.000000 0.423520 0.000000
0.000000 0.426518 0.000000
0.000000 0.429586 0.000000
0.000000 0.432430 0.000000
0.000000 0.435149 0.000000
0.000000 0.438326 0.000000
0.000000 0.444393 0.000000
0.000000 0.452593 0.000000
0.000000 0.460501 0.000000
0.000000 0.467794 0.000000
0.000000 0.472465 0.000000
0.000000 0.474379 0.000000
0.223784 0.475675 0.000000
0.378662 0.466954 0.000000
0.484408 0.461677 0.000000
0.580144 0.447845 0.000000
0.656232 0.440193 0.000000
0.734751 0.451540 0.000000
0.799506 0.460079 0.000000
0.846599 0.445778 0.000000
0.893068 0.424703 0.000000
0.936972 0.395130 0.000000
0.969211 0.356736 0.000000
1.000000 0.365964 0.058569
1.000000 0.390687 0.126272
1.000000 0.434495 0.176335
1.000000 0.484824 0.234957
1.000000 0.543023 0.298818
1.000000 0.610176 0.364863
1.000000 0.670740 0.436037
1.000000 0.722906 0.508986
1.000000 0.773104 0.582440
1.000000 0.822581 0.661273
0.000000 0.517945 0.000000
0.000000 0.520357 0.000000
0.000000 0.522533 0.000000
0.000000 0.524723 0.000000
0.000000 0.526832 0.000000
0.000000 0.528870 0.000000
0.000000 0.532932 0.000000
0.000000 0.539594 0.000000
0.000000 0.547980 0.000000
0.000000 0.555146 0.000000
0.000000 0.561960 0.000000
0.000000 0.568646 0.000000
0.039945 0.568989 0.000000
0.317008 0.568674 0.000000
0.440994 0.563992 0.000000
0.554634 0.550389 0.000000
0.650151 0.540621 0.000000
0.742904 0.532715 0.000000
0.808212 0.543066 0.000000
0.864816 0.546041 0.000000
0.904111 0.535412 0.000000
0.944207 0.506194 0.000000
0.973892 0.477160 0.000000
1.000000 0.447559 0.000000
1.000000 0.454020 0.124226
1.000000 0.479453 0.177829
1.000000 0.527131 0.242164
1.000000 0.574540 0.304894
1.000000 0.632210 0.370123
1.000000 0.686231 0.440354
1.000000 0.732908 0.512983
1.000000 0.780079 0.586706
1.000000 0.826503 0.663919
0.000000 0.608746 0.000000
0.000000 0.610390 0.000000
0.000000 0.611994 0.000000
0.000000 0.613550 0.000000
0.000000 0.615063 0.000000
0.000000 0.616579 0.000000
0.000000 0.618420 0.000000
0.000000 0.620851 0.000000
0.000000 0.623947 0.000000
0.000000 0.627892 0.000000
0.000000 0.637542 0.000000
0.000000 0.644764 0.000000
0.000000 0.651274 0.000000
0.231926 0.655270 0.000000
0.389698 0.655750 0.000000
0.508374 0.653412 0.000000
0.621409 0.642846 0.000000
0.729642 0.630572 0.000000
0.803782 0.623851 0.000000
0.862012 0.632621 0.000000
0.905886 0.642261 0.000000
0.945336 0.619579 0.000000
0.975563 0.601994 0.000000
1.000000 0.565068 0.000000
1.000000 0.538954 0.119500
1.000000 0.545612 0.180333
1.000000 0.577068 0.252028
1.000000 0.610744 0.312050
1.000000 0.657394 0.376628
1.000000 0.704375 0.446075
1.000000 0.745273 0.518217
1.000000 0.788773 0.592285
1.000000 0.831498 0.667359
0.000000 0.689628 0.000000
0.000000 0.690913 0.000000
0.000000 0.692168 0.000000
0.000000 0.693397 0.000000
0.000000 0.694600 0.000000
0.000000 0.695883 0.000000
0.000000 0.698630 0.000000
0.000000 0.700730 0.000000
0.000000 0.703086 0.000000
0.000000 0.706099 0.000000
0.000000 0.709733 0.000000
0.000000 0.714085 0.000000
0.000000 0.719346 0.000000
0.159296 0.724711 0.000000
0.337604 0.729370 0.000000
0.473835 0.730966 0.000000
0.597912 0.724657 0.000000
0.702687 0.722841 0.000000
0.789303 0.707124 0.000000
0.852192 0.702408 0.000000
0.899518 0.707183 0.000000
0.941779 0.710023 0.000000
0.970134 0.700259 0.000000
0.993925 0.678196 0.000000
1.000000 0.656533 0.114748
1.000000 0.621927 0.185622
1.000000 0.630484 0.260169
1.000000 0.654342 0.320990
1.000000 0.688047 0.385547
1.000000 0.725260 0.453341
1.000000 0.761176 0.526372
1.000000 0.799592 0.599577
1.000000 0.837772 0.671805
0.000000 0.759785 0.000000
0.000000 0.761248 0.000000
0.000000 0.762684 0.000000
0.000000 0.764087 0.000000
0.000000 0.765460 0.000000
0.000000 0.766804 0.000000
0.000000 0.768446 0.000000
0.000000 0.770576 0.000000
0.000000 0.772501 0.000000
0.000000 0.774186 0.000000
0.000000 0.776285 0.000000
0.000000 0.779469 0.000000
0.000000 0.782844 0.000000
0.000000 0.786586 0.000000
0.319399 0.789952 0.000000
0.453367 0.793287 0.000000
0.569435 0.793242 0.000000
0.684893 0.786546 0.000000
0.774201 0.779575 0.000000
0.836946 0.770897 0.000000
0.891576 0.767135 0.000000
0.934037 0.771634 0.000000
0.961534 0.775878 0.000000
0.985251 0.761128 0.000000
1.000000 0.744187 0.130029
1.000000 0.720744 0.202727
1.000000 0.691152 0.271361
1.000000 0.702070 0.334122
1.000000 0.719253 0.396615
1.000000 0.747633 0.462205
1.000000 0.780804 0.537450
1.000000 0.812762 0.609024
1.000000 0.845536 0.677520
0.000000 0.825384 0.000000
0.000000 0.825636 0.000000
0.000000 0.825967 0.000000
0.000000 0.826292 0.000000
0.000000 0.826609 0.000000
0.000000 0.826919 0.000000
0.000000 0.827296 0.000000
0.000000 0.827807 0.000000
0.000000 0.828453 0.000000
0.000000 0.829858 0.000000
0.000000 0.832166 0.000000
0.000000 0.835339 0.000000
0.000000 0.838947 0.000000
0.000000 0.840858 0.000000
0.315058 0.842822 0.000000
0.439306 0.844625 0.000000
0.564436 0.843750 0.000000
0.674352 0.840545 0.000000
0.752443 0.839443 0.000000
0.819735 0.833641 0.000000
0.878536 0.826199 0.000000
0.925660 0.822297 0.000000
0.952434 0.827087 0.000000
0.979047 0.824892 0.000000
0.999489 0.814259 0.168525
1.000000 0.800465 0.238959
1.000000 0.775135 0.300620
1.000000 0.757903 0.355578
1.000000 0.759945 0.413871
1.000000 0.778340 0.478909
1.000000 0.803258 0.553108
1.000000 0.826619 0.619301
1.000000 0.854945 0.684809
0.000000 0.870535 0.194464
0.000000 0.870594 0.192561
0.000000 0.870683 0.190880
0.000000 0.870842 0.189669
0.000000 0.870997 0.188469
0.000000 0.871149 0.187275
0.000000 0.871336 0.185796
0.000000 0.871589 0.183742
0.000000 0.871913 0.181056
0.000000 0.872320 0.177550
0.000000 0.872822 0.172483
0.000000 0.873580 0.165242
0.000000 0.874452 0.155245
0.201592 0.875881 0.141562
0.347494 0.877737 0.128588
0.461335 0.878981 0.112104
0.579936 0.879320 0.050321
0.673133 0.878452 0.000000
0.745308 0.879067 0.000000
0.811570 0.875033 0.000000
0.864788 0.870546 0.000000
0.913563 0.865141 0.000000
0.945635 0.864366 0.000000
0.971937 0.865067 0.000000
0.994249 0.865349 0.208770
1.000000 0.857703 0.284386
1.000000 0.842960 0.345941
1.000000 0.829234 0.399534
1.000000 0.809644 0.443663
1.000000 0.813889 0.503834
1.000000 0.828118 0.571987
1.000000 0.843107 0.631194
1.000000 0.865439 0.694348
0.000000 0.903517 0.307910
0.000000 0.903505 0.306677
0.000000 0.903532 0.305538
0.000000 0.903739 0.304755
0.000000 0.903943 0.303977
0.000000 0.904144 0.303207
0.000000 0.904392 0.302253
0.000000 0.904732 0.300932
0.000000 0.905171 0.299213
0.000000 0.905731 0.296984
0.000000 0.906381 0.294109
0.077113 0.906584 0.290339
0.227066 0.906861 0.285512
0.318523 0.907166 0.279382
0.403758 0.907475 0.271613
0.497027 0.907752 0.265105
0.594792 0.907703 0.255132
0.680845 0.907527 0.240274
0.743984 0.907752 0.230569
0.803698 0.905556 0.209999
0.856909 0.903451 0.170242
0.903805 0.901131 0.117789
0.937671 0.897227 0.000000
0.965414 0.894209 0.061528
0.987422 0.895322 0.228744
1.000000 0.895401 0.326691
1.000000 0.885935 0.386041
1.000000 0.876911 0.443928
1.000000 0.864135 0.486327
1.000000 0.849635 0.531851
1.000000 0.853791 0.591731
1.000000 0.861902 0.646939
1.000000 0.876528 0.706740
0.104524 0.928697 0.410539
0.129441 0.928722 0.409944
0.148690 0.928789 0.409191
0.164945 0.928855 0.408441
0.179210 0.928920 0.407696
0.192120 0.928986 0.406974
0.208138 0.929107 0.406407
0.228062 0.929273 0.405622
0.251586 0.929334 0.405133
0.278759 0.929376 0.404614
0.309900 0.929427 0.403942
0.345321 0.929570 0.402776
0.385109 0.930138 0.399920
0.430811 0.930633 0.396260
0.485483 0.930688 0.390895
0.552088 0.931113 0.382886
0.624151 0.930818 0.375425
0.687198 0.929786 0.365066
0.749192 0.929811 0.356972
0.803206 0.928559 0.345730
0.853268 0.928283 0.328369
0.893282 0.926785 0.303785
0.928565 0.923759 0.272489
0.958330 0.919980 0.226280
0.981024 0.918950 0.248397
0.999859 0.919843 0.347900
1.000000 0.917495 0.429150
1.000000 0.909543 0.483341
1.000000 0.903610 0.534092
1.000000 0.890640 0.572952
1.000000 0.882221 0.619012
1.000000 0.882595 0.667366
1.000000 0.889393 0.721961
0.406074 0.950526 0.511261
0.409989 0.950486 0.510666
0.413870 0.950451 0.510237
0.417708 0.950418 0.509902
0.421494 0.950385 0.509569
0.425228 0.950352 0.509237
0.429830 0.950311 0.508822
0.436162 0.950251 0.508244
0.444342 0.950172 0.507483
0.455181 0.950085 0.506673
0.469877 0.950022 0.506183
0.488198 0.949912 0.504187
0.511689 0.949740 0.501042
0.541998 0.949516 0.498514
0.576798 0.949367 0.494956
0.616728 0.949849 0.488128
0.658940 0.949992 0.484370
0.706519 0.949186 0.478727
0.756839 0.948531 0.469982
0.804320 0.948627 0.466880
0.850156 0.948620 0.452386
0.889591 0.948128 0.438556
0.922007 0.945730 0.417314
0.949247 0.943140 0.385263
0.974742 0.941212 0.350155
0.995511 0.939853 0.368077
1.000000 0.939351 0.457181
1.000000 0.937106 0.530655
1.000000 0.932655 0.579015
1.000000 0.924603 0.620568
1.000000 0.914029 0.660656
1.000000 0.906247 0.694596
1.000000 0.906651 0.739454
0.566000 0.968549 0.612818
0.568089 0.968508 0.612442
0.570159 0.968466 0.612066
0.572065 0.968427 0.611602
0.573807 0.968391 0.611048
0.575535 0.968355 0.610496
0.577679 0.968309 0.609808
0.580650 0.968246 0.608848
0.584526 0.968163 0.607582
0.589560 0.968054 0.605921
0.596055 0.967910 0.603741
0.605031 0.967764 0.601428
0.617013 0.967615 0.598953
0.632395 0.967426 0.596304
0.650729 0.967226 0.593910
0.672851 0.966996 0.591090
0.698966 0.966784 0.590214
0.729222 0.966582 0.588372
0.767986 0.966339 0.583465
0.811587 0.966172 0.578919
0.849434 0.966151 0.567246
0.884356 0.966402 0.562356
0.915878 0.966290 0.556821
0.941690 0.964239 0.530245
0.966196 0.961974 0.500675
0.989433 0.959390 0.463997
1.000000 0.957634 0.478888
