Assets/Lutify-Free-LUTs-Pack/Lutify Free LUTs Pack/Print Film Pro - Print Film 2/Lutify.me-PrintFilm2-SLog2-to-Rec709.cube
# Created with: fylm.ai - Colour Grading and Collaboration Software in Cloud 
# Website: https://fylm.ai 
# META
# Option: Gamut compress
# Block 1: IDT | Sony S-Log2 S-Gamut Daylight 10-bit
# Block 2: colourMatch | Blending Mode: Normal | {"ColorSpace":0,"CrossCovarianceLimit":50,"ReshapingIterations":1,"PercentSaturationShift":100,"PercentShadingShift":100,"ExtraShading":true,"PercentTint":100,"PercentModified":100}
# Block 3: HSL | Blending Mode: Normal | {"hue":{"Reds":0,"Yellows":0,"Greens":0,"Cyans":0,"Blues":0,"Magentas":0},"saturation":{"Reds":1,"Yellows":0.9,"Greens":0.95,"Cyans":1,"Blues":1,"Magentas":1},"luminance":{"Reds":0.8,"Yellows":0.95,"Greens":0.9,"Cyans":0.8,"Blues":0.8,"Magentas":0.8},"lum_sat":{"Blacks":1,"Shadows":1,"Midtones":1,"Highlights":1,"Whites":1},"sat_sat":{"10":1,"20":1,"30":1,"40":1,"50":1}}
# Block 4: LUT | Filmic Curve Response: Low Contrast 2 (100%)
# Block 5: ODT | Rec709
TITLE "Lutify.me-PrintFilm2-SLog2-to-Rec709" 
LUT_3D_SIZE 33
0.000000 0.000000 0.000000
0.000000 0.000000 0.000000
0.000000 0.000000 0.000000
0.000000 0.000000 0.000000
0.000000 0.000000 0.000000
0.000000 0.000000 0.000000
0.000000 0.000000 0.000000
0.039972 0.000000 0.000000
0.078190 0.000000 0.000000
0.119444 0.000000 0.000000
0.172135 0.000000 0.000000
0.235061 0.000000 0.000000
0.305525 0.000000 0.000000
0.374834 0.000000 0.000000
0.451935 0.000000 0.000000
0.527567 0.000000 0.026045
0.600260 0.000000 0.041266
0.675543 0.000000 0.064858
0.742195 0.000000 0.087363
0.805867 0.000000 0.111260
0.868651 0.000000 0.139025
0.919634 0.000000 0.170814
0.961626 0.110154 0.206952
0.998053 0.219758 0.254281
1.000000 0.305854 0.295400
1.000000 0.371862 0.339346
1.000000 0.434143 0.392220
1.000000 0.497820 0.442243
1.000000 0.565674 0.500695
1.000000 0.628662 0.557576
1.000000 0.680895 0.605495
1.000000 0.724293 0.652401
1.000000 0.763488 0.700344
0.000000 0.000000 0.000000
0.000000 0.000000 0.000000
0.000000 0.000000 0.000000
0.000000 0.000000 0.000000
0.000000 0.000000 0.000000
0.000000 0.000000 0.000000
0.015313 0.000000 0.000000
0.063240 0.000000 0.000000
0.102398 0.000000 0.000000
0.144141 0.000000 0.000000
0.197394 0.000000 0.000000
0.262587 0.000000 0.000000
0.322600 0.000000 0.000000
0.389091 0.000000 0.000000
0.459638 0.000000 0.000000
0.530676 0.000000 0.024915
0.605066 0.000000 0.039786
0.678368 0.000000 0.063894
0.743426 0.000000 0.086557
0.807377 0.000000 0.110797
0.869373 0.000000 0.138986
0.919991 0.000000 0.170901
0.962096 0.127349 0.206809
0.998174 0.228188 0.254177
1.000000 0.312014 0.295486
1.000000 0.376067 0.339420
1.000000 0.437448 0.392332
1.000000 0.500374 0.442277
1.000000 0.567552 0.500732
1.000000 0.630199 0.557638
1.000000 0.681977 0.605565
1.000000 0.725075 0.652469
1.000000 0.764015 0.700365
0.000000 0.000000 0.000000
0.000000 0.000000 0.000000
0.000000 0.000000 0.000000
0.000000 0.000000 0.000000
0.000000 0.000000 0.000000
0.000000 0.000000 0.000000
0.052882 0.000000 0.000000
0.088938 0.000000 0.000000
0.127047 0.000000 0.000000
0.167662 0.000000 0.000000
0.222974 0.000000 0.000000
0.284470 0.000000 0.000000
0.339307 0.000000 0.000000
0.400203 0.000000 0.000000
0.467803 0.000000 0.000000
0.537718 0.000000 0.022619
0.610421 0.000000 0.038132
0.679639 0.000000 0.062183
0.744449 0.000000 0.085296
0.809523 0.000000 0.109673
0.870827 0.000000 0.138042
0.920706 0.000000 0.170360
0.962541 0.142127 0.206639
0.998276 0.236360 0.254054
1.000000 0.318070 0.295561
1.000000 0.380228 0.339487
1.000000 0.440730 0.392438
1.000000 0.502914 0.442309
1.000000 0.569421 0.500766
1.000000 0.631731 0.557699
1.000000 0.683053 0.605634
1.000000 0.725852 0.652537
1.000000 0.764540 0.700385
0.000000 0.000000 0.000000
0.000000 0.000000 0.000000
0.000000 0.000000 0.000000
0.000000 0.000000 0.000000
0.000000 0.000000 0.000000
0.045466 0.000000 0.000000
0.078967 0.000000 0.000000
0.116370 0.000000 0.000000
0.152345 0.000000 0.000000
0.195000 0.000000 0.000000
0.245028 0.000000 0.000000
0.302908 0.000000 0.000000
0.352390 0.000000 0.000000
0.411184 0.000000 0.000000
0.477939 0.000000 0.000000
0.546851 0.000000 0.018234
0.617771 0.000000 0.036648
0.681049 0.000000 0.060328
0.746127 0.000000 0.083821
0.811612 0.000000 0.108470
0.872236 0.000000 0.137045
0.921547 0.000000 0.169536
0.962960 0.155365 0.206442
0.998361 0.244332 0.253911
1.000000 0.323981 0.295614
1.000000 0.384362 0.339548
1.000000 0.443999 0.392540
1.000000 0.505449 0.442338
1.000000 0.571289 0.500799
1.000000 0.633260 0.557759
1.000000 0.684128 0.605702
1.000000 0.726628 0.652606
1.000000 0.765065 0.700405
0.000000 0.000000 0.000000
0.000000 0.000000 0.000000
0.000000 0.000000 0.000000
0.000000 0.000000 0.000000
0.022088 0.010189 0.000000
0.071594 0.000000 0.000000
0.118218 0.000000 0.000000
0.154867 0.000000 0.000000
0.188753 0.000000 0.000000
0.225473 0.000000 0.000000
0.269975 0.000000 0.000000
0.318320 0.000000 0.000000
0.369908 0.000000 0.000000
0.423860 0.000000 0.000000
0.489695 0.000000 0.000000
0.557006 0.000000 0.000000
0.625549 0.000000 0.033655
0.685293 0.000000 0.058813
0.749320 0.000000 0.081986
0.813923 0.000000 0.107002
0.873785 0.000000 0.135847
0.922463 0.000000 0.168554
0.963408 0.169085 0.206186
0.998437 0.253172 0.253724
1.000000 0.328982 0.295129
1.000000 0.388990 0.339426
1.000000 0.447695 0.392651
1.000000 0.508318 0.442367
1.000000 0.573406 0.500833
1.000000 0.634992 0.557827
1.000000 0.685346 0.605779
1.000000 0.727509 0.652683
1.000000 0.765659 0.700427
0.000000 0.005619 0.000000
0.000000 0.008709 0.000000
0.000000 0.019258 0.000000
0.000000 0.030913 0.000000
0.000000 0.046956 0.000000
0.075635 0.048064 0.000000
0.129849 0.040268 0.000000
0.176866 0.012336 0.000000
0.221992 0.000000 0.000000
0.258450 0.000000 0.000000
0.300996 0.000000 0.000000
0.341677 0.000000 0.000000
0.387781 0.000000 0.000000
0.443927 0.000000 0.000000
0.503674 0.000000 0.000000
0.569244 0.000000 0.000000
0.634875 0.000000 0.027722
0.693060 0.000000 0.056255
0.755979 0.000000 0.080885
0.817766 0.000000 0.105624
0.875594 0.000000 0.134298
0.923552 0.081781 0.167349
0.963908 0.184352 0.205830
0.998206 0.262718 0.253000
1.000000 0.334955 0.294530
1.000000 0.394461 0.338779
1.000000 0.452090 0.392424
1.000000 0.511752 0.442398
1.000000 0.575964 0.500872
1.000000 0.637081 0.557907
1.000000 0.686816 0.605873
1.000000 0.728572 0.652776
1.000000 0.766378 0.700454
0.000000 0.043431 0.000000
0.000000 0.043646 0.000000
0.000000 0.048955 0.000000
0.000000 0.054227 0.000000
0.000000 0.068981 0.000000
0.070763 0.075642 0.000000
0.136084 0.074244 0.000000
0.197346 0.066709 0.000000
0.247303 0.049520 0.000000
0.289862 0.035288 0.000000
0.332503 0.000000 0.000000
0.378100 0.000000 0.000000
0.420617 0.000000 0.000000
0.468663 0.000000 0.000000
0.520366 0.000000 0.000000
0.583785 0.000000 0.000000
0.646560 0.000000 0.004982
0.703402 0.000000 0.051830
0.763327 0.000000 0.079221
0.824091 0.000000 0.104676
0.878662 0.000000 0.132930
0.925062 0.118277 0.166836
0.964456 0.201424 0.205333
0.997745 0.273529 0.251845
1.000000 0.342072 0.293786
1.000000 0.401016 0.337980
1.000000 0.457318 0.391782
1.000000 0.516046 0.442421
1.000000 0.579051 0.500915
1.000000 0.639597 0.558002
1.000000 0.688588 0.605984
1.000000 0.729855 0.652887
1.000000 0.767245 0.700487
0.000000 0.062348 0.000000
0.000000 0.062495 0.000000
0.000000 0.065869 0.000000
0.000000 0.075577 0.000000
0.000000 0.090380 0.000000
0.026400 0.106139 0.000000
0.127958 0.107929 0.000000
0.204172 0.103457 0.000000
0.263793 0.097039 0.000000
0.313184 0.087373 0.000000
0.355485 0.085234 0.000000
0.406240 0.079482 0.000000
0.450875 0.075727 0.000000
0.494863 0.073596 0.000000
0.547308 0.037294 0.000000
0.603749 0.000000 0.000000
0.658029 0.000000 0.000000
0.715180 0.000000 0.044552
0.772260 0.000000 0.076607
0.828829 0.000000 0.104710
0.883666 0.076793 0.132795
0.927814 0.152353 0.166998
0.965035 0.220638 0.204633
0.997152 0.286253 0.250392
1.000000 0.350535 0.292862
1.000000 0.408858 0.336993
1.000000 0.463595 0.390990
1.000000 0.521402 0.442431
1.000000 0.583271 0.500935
1.000000 0.642608 0.558102
1.000000 0.690722 0.606117
1.000000 0.731400 0.653022
1.000000 0.768291 0.700524
0.000000 0.084716 0.000000
0.000000 0.084855 0.000000
0.000000 0.087606 0.000000
0.000000 0.098036 0.000000
0.000000 0.112900 0.000000
0.000000 0.135139 0.000000
0.105226 0.142372 0.000000
0.197999 0.144243 0.000000
0.268188 0.135775 0.000000
0.331803 0.128560 0.000000
0.377746 0.128028 0.000000
0.431888 0.130730 0.000000
0.472634 0.142298 0.000000
0.521676 0.141901 0.000000
0.575699 0.142262 0.000000
0.628821 0.126743 0.000000
0.678153 0.103908 0.000000
0.726269 0.085244 0.028722
0.779945 0.077185 0.073891
0.834465 0.105900 0.104480
0.887608 0.139191 0.133696
0.931764 0.190931 0.168012
0.966393 0.245138 0.204673
0.996394 0.301104 0.248561
1.000000 0.360578 0.291707
1.000000 0.418223 0.335769
1.000000 0.471122 0.390013
1.000000 0.527841 0.442427
1.000000 0.588426 0.500946
1.000000 0.645647 0.557709
1.000000 0.693219 0.606205
1.000000 0.733260 0.653183
1.000000 0.769549 0.700569
0.000000 0.109764 0.000000
0.000000 0.109889 0.000000
0.000000 0.111817 0.000000
0.000000 0.124245 0.000000
0.000000 0.141380 0.000000
0.000000 0.166711 0.000000
0.000000 0.182342 0.000000
0.178616 0.184008 0.000000
0.263979 0.179707 0.000000
0.337346 0.170285 0.000000
0.400581 0.167995 0.000000
0.453705 0.176778 0.000000
0.498380 0.182802 0.000000
0.542637 0.199159 0.000000
0.594994 0.202108 0.000000
0.651367 0.199375 0.000000
0.701290 0.193372 0.000000
0.746198 0.176371 0.000000
0.790419 0.166938 0.067146
0.842313 0.169544 0.102955
0.892503 0.190944 0.134685
0.934554 0.229148 0.169098
0.967865 0.277072 0.205430
0.995499 0.320165 0.247136
1.000000 0.372760 0.290243
1.000000 0.429305 0.334342
1.000000 0.480133 0.388804
1.000000 0.535570 0.442402
1.000000 0.594626 0.500946
1.000000 0.649292 0.557228
1.000000 0.695964 0.606044
1.000000 0.735492 0.653376
1.000000 0.771062 0.700622
0.000000 0.138743 0.000000
0.000000 0.138878 0.000000
0.000000 0.139243 0.000000
0.000000 0.152988 0.000000
0.000000 0.172333 0.000000
0.000000 0.197925 0.000000
0.000000 0.219481 0.000000
0.137852 0.221971 0.000000
0.248086 0.225193 0.000000
0.333612 0.217764 0.000000
0.409093 0.208537 0.000000
0.478133 0.214783 0.000000
0.517844 0.231534 0.000000
0.570091 0.247973 0.000000
0.620941 0.266621 0.000000
0.671858 0.267267 0.000000
0.723396 0.268878 0.000000
0.768651 0.257660 0.000000
0.810951 0.252325 0.043877
0.853238 0.245225 0.096256
0.899056 0.245800 0.134307
0.937549 0.272498 0.169742
0.968914 0.313522 0.204523
0.995875 0.346738 0.248658
1.000000 0.388007 0.289855
1.000000 0.442348 0.332746
1.000000 0.492129 0.388310
1.000000 0.544839 0.442344
1.000000 0.600850 0.500376
1.000000 0.653652 0.556639
1.000000 0.699559 0.606172
1.000000 0.738165 0.653607
1.000000 0.772970 0.700681
0.000000 0.175707 0.000000
0.000000 0.175840 0.000000
0.000000 0.175972 0.000000
0.000000 0.186485 0.000000
0.000000 0.205407 0.000000
0.000000 0.233815 0.000000
0.000000 0.253686 0.000000
0.000000 0.269897 0.000000
0.211788 0.274963 0.000000
0.319766 0.271492 0.000000
0.399418 0.264585 0.000000
0.493807 0.255438 0.000000
0.546476 0.272968 0.000000
0.588475 0.294230 0.000000
0.637103 0.324726 0.000000
0.693912 0.339370 0.000000
0.744596 0.337915 0.000000
0.785580 0.340315 0.000000
0.829611 0.334744 0.000000
0.866898 0.332701 0.079182
0.906506 0.320337 0.129104
0.940559 0.326189 0.167485
0.970123 0.352933 0.203734
0.996138 0.377726 0.248960
1.000000 0.410358 0.292393
1.000000 0.458244 0.334244
1.000000 0.506883 0.387757
1.000000 0.555940 0.442235
1.000000 0.607701 0.499384
1.000000 0.658857 0.555917
1.000000 0.703848 0.606319
1.000000 0.741358 0.653882
1.000000 0.775457 0.700745
0.000000 0.209560 0.000000
0.000000 0.209654 0.000000
0.000000 0.209749 0.000000
0.000000 0.215525 0.000000
0.000000 0.237179 0.000000
0.000000 0.266364 0.000000
0.000000 0.290362 0.000000
0.000000 0.308178 0.000000
0.140111 0.312184 0.000000
0.283341 0.318389 0.000000
0.389690 0.312519 0.000000
0.485907 0.304886 0.000000
0.560224 0.307172 0.000000
0.606742 0.333962 0.000000
0.644554 0.367003 0.000000
0.703077 0.395054 0.000000
0.756298 0.404809 0.000000
0.800289 0.407031 0.000000
0.840477 0.402071 0.000000
0.876501 0.396219 0.045001
0.913805 0.392889 0.120466
0.944212 0.390743 0.164534
0.971361 0.397830 0.203554
0.996194 0.415011 0.251740
1.000000 0.440190 0.295801
1.000000 0.480209 0.337609
1.000000 0.525666 0.387885
1.000000 0.569135 0.441501
1.000000 0.615919 0.498156
1.000000 0.665050 0.555031
1.000000 0.708948 0.606487
1.000000 0.745162 0.654209
1.000000 0.778416 0.700818
0.000000 0.244426 0.000000
0.000000 0.244506 0.000000
0.000000 0.244586 0.000000
0.000000 0.245938 0.000000
0.000000 0.268523 0.000000
0.000000 0.292820 0.000000
0.000000 0.326416 0.000000
0.000000 0.346561 0.000000
0.000000 0.358549 0.000000
0.224535 0.361579 0.000000
0.354262 0.365916 0.000000
0.473859 0.359133 0.000000
0.556754 0.362081 0.000000
0.617917 0.371199 0.000000
0.657681 0.400364 0.000000
0.705840 0.441527 0.000000
0.766447 0.465372 0.000000
0.811380 0.463708 0.000000
0.849420 0.471197 0.000000
0.884727 0.463853 0.000000
0.919235 0.462296 0.104626
0.947938 0.457448 0.159006
0.972313 0.453862 0.202677
0.995723 0.459542 0.253421
1.000000 0.476719 0.300234
1.000000 0.509212 0.342211
1.000000 0.549379 0.391302
1.000000 0.587294 0.441594
1.000000 0.626564 0.497360
1.000000 0.672384 0.553945
1.000000 0.714991 0.606676
1.000000 0.749672 0.654597
1.000000 0.781925 0.700902
0.000000 0.282124 0.000000
0.000000 0.282189 0.000000
0.000000 0.282254 0.000000
0.000000 0.282319 0.000000
0.000000 0.293571 0.000000
0.000000 0.324404 0.000000
0.000000 0.355978 0.000000
0.000000 0.389175 0.000000
0.000000 0.406888 0.000000
0.000000 0.410154 0.000000
0.293549 0.419590 0.000000
0.436820 0.415986 0.000000
0.546622 0.415993 0.000000
0.616312 0.424160 0.000000
0.669665 0.436942 0.000000
0.714320 0.469434 0.000000
0.764977 0.509260 0.000000
0.817933 0.528391 0.000000
0.856541 0.529198 0.000000
0.890449 0.531258 0.000000
0.922445 0.531084 0.072249
0.949325 0.527668 0.150672
0.972638 0.520569 0.202151
0.994081 0.520294 0.254307
1.000000 0.525941 0.305454
1.000000 0.542733 0.348442
1.000000 0.575649 0.396664
1.000000 0.609551 0.444565
1.000000 0.640701 0.497651
1.000000 0.681523 0.553503
1.000000 0.722122 0.606891
1.000000 0.755000 0.655056
1.000000 0.786075 0.700998
0.000000 0.323815 0.000000
0.000000 0.323883 0.000000
0.000000 0.323950 0.000000
0.000000 0.324018 0.000000
0.000000 0.328548 0.000000
0.000000 0.361583 0.000000
0.000000 0.399202 0.000000
0.000000 0.431685 0.000000
0.000000 0.452657 0.000000
0.000000 0.467889 0.000000
0.173013 0.474198 0.000000
0.382636 0.475080 0.000000
0.518623 0.475326 0.000000
0.597877 0.484263 0.000000
0.664671 0.497068 0.000000
0.719776 0.510943 0.000000
0.768178 0.549019 0.000000
0.814041 0.581954 0.000000
0.859363 0.595914 0.000000
0.892553 0.600628 0.000000
0.923088 0.601840 0.000000
0.948798 0.599312 0.136472
0.970811 0.592298 0.204429
0.990250 0.591715 0.258537
1.000000 0.593002 0.311647
1.000000 0.590352 0.356146
1.000000 0.608195 0.401923
1.000000 0.636209 0.447032
1.000000 0.661648 0.501190
1.000000 0.691452 0.552090
1.000000 0.729558 0.606017
1.000000 0.761262 0.655601
1.000000 0.791001 0.701102
0.000000 0.369893 0.000000
0.000000 0.369948 0.000000
0.000000 0.370005 0.000000
0.000000 0.370061 0.000000
0.000000 0.370125 0.000000
0.000000 0.389717 0.000000
0.000000 0.436095 0.000000
0.000000 0.472240 0.000000
0.000000 0.496133 0.000000
0.000000 0.516097 0.000000
0.000000 0.532638 0.000000
0.287172 0.532519 0.000000
0.469083 0.531649 0.000000
0.568848 0.541514 0.000000
0.644055 0.551133 0.000000
0.712261 0.566061 0.000000
0.769866 0.579583 0.000000
0.807234 0.620098 0.000000
0.850186 0.644626 0.000000
0.889674 0.662918 0.000000
0.920691 0.662000 0.000000
0.946037 0.664737 0.104777
0.967130 0.658095 0.198216
0.984948 0.654490 0.259263
1.000000 0.657329 0.316546
1.000000 0.650344 0.364271
1.000000 0.648279 0.408381
1.000000 0.667830 0.451058
1.000000 0.685432 0.504324
1.000000 0.707663 0.555372
1.000000 0.737844 0.604413
1.000000 0.769410 0.656234
1.000000 0.796798 0.701218
0.000000 0.416099 0.000000
0.000000 0.416144 0.000000
0.000000 0.416189 0.000000
0.000000 0.416235 0.000000
0.000000 0.416286 0.000000
0.000000 0.421232 0.000000
0.000000 0.465506 0.000000
0.000000 0.510137 0.000000
0.000000 0.539010 0.000000
0.000000 0.559749 0.000000
0.000000 0.577151 0.000000
0.000000 0.582359 0.000000
0.392113 0.580550 0.000000
0.529060 0.588818 0.000000
0.615669 0.598944 0.000000
0.691723 0.609892 0.000000
0.758091 0.628663 0.000000
0.804144 0.648151 0.000000
0.843099 0.681883 0.000000
0.880343 0.702882 0.000000
0.915552 0.713344 0.000000
0.943810 0.710184 0.026729
0.963373 0.712406 0.178762
0.979680 0.707020 0.255832
0.994897 0.709654 0.319627
1.000000 0.705172 0.373228
1.000000 0.700324 0.417368
1.000000 0.701429 0.459877
1.000000 0.712968 0.511584
1.000000 0.728554 0.561875
1.000000 0.751814 0.608039
1.000000 0.779234 0.657506
1.000000 0.803611 0.701344
0.000000 0.461606 0.000000
0.000000 0.461646 0.000000
0.000000 0.461685 0.000000
0.000000 0.461725 0.000000
0.000000 0.461770 0.000000
0.000000 0.461824 0.000000
0.000000 0.482186 0.000000
0.000000 0.540751 0.000000
0.000000 0.577629 0.000000
0.000000 0.599983 0.000000
0.000000 0.615153 0.000000
0.000000 0.629389 0.000000
0.228483 0.629913 0.000000
0.469057 0.634763 0.000000
0.572217 0.647126 0.000000
0.662261 0.654712 0.000000
0.735943 0.676926 0.000000
0.787926 0.694304 0.000000
0.831715 0.714736 0.000000
0.869991 0.732954 0.000000
0.907365 0.749823 0.000000
0.937302 0.756423 0.000000
0.957862 0.758333 0.158352
0.974978 0.754757 0.249771
0.989868 0.750036 0.319347
1.000000 0.753545 0.387365
1.000000 0.747532 0.432494
1.000000 0.742048 0.474560
1.000000 0.744548 0.520319
1.000000 0.752903 0.570432
1.000000 0.769642 0.613684
1.000000 0.792710 0.662696
1.000000 0.812657 0.703548
0.000000 0.508607 0.000000
0.000000 0.508639 0.000000
0.000000 0.508673 0.000000
0.000000 0.508706 0.000000
0.000000 0.508744 0.000000
0.000000 0.508789 0.000000
0.000000 0.508845 0.000000
0.000000 0.556936 0.000000
0.000000 0.610678 0.000000
0.000000 0.638760 0.000000
0.000000 0.659312 0.000000
0.000000 0.666483 0.000000
0.000000 0.677993 0.000000
0.347657 0.679485 0.000000
0.516817 0.692343 0.000000
0.621906 0.699882 0.000000
0.706858 0.718931 0.000000
0.768436 0.735174 0.000000
0.815313 0.753622 0.000000
0.860848 0.763551 0.000000
0.897440 0.776545 0.000000
0.929301 0.788342 0.000000
0.952354 0.797287 0.125301
0.969279 0.795666 0.240165
0.984630 0.790891 0.318861
0.997861 0.790239 0.392186
1.000000 0.789808 0.447254
1.000000 0.784077 0.490346
1.000000 0.782385 0.535537
1.000000 0.784283 0.580842
1.000000 0.790264 0.620594
1.000000 0.807261 0.667460
1.000000 0.824421 0.708709
0.000000 0.561368 0.000000
0.000000 0.561397 0.000000
0.000000 0.561426 0.000000
0.000000 0.561455 0.000000
0.000000 0.561488 0.000000
0.000000 0.561528 0.000000
0.000000 0.561576 0.000000
0.000000 0.572762 0.000000
0.000000 0.637988 0.000000
0.000000 0.679344 0.000000
0.000000 0.703248 0.000000
0.000000 0.713720 0.000000
0.000000 0.725104 0.000000
0.000000 0.727503 0.000000
0.431735 0.736205 0.000000
0.561993 0.749799 0.000000
0.667857 0.758968 0.000000
0.743345 0.774711 0.000000
0.795509 0.791000 0.000000
0.844698 0.800297 0.000000
0.885857 0.807195 0.000000
0.921866 0.816778 0.000000
0.945652 0.826596 0.000000
0.965015 0.832644 0.223443
0.980234 0.829142 0.316605
0.993255 0.828288 0.398947
1.000000 0.827863 0.458429
1.000000 0.822568 0.503972
1.000000 0.819836 0.550134
1.000000 0.820792 0.595695
1.000000 0.817941 0.633685
1.000000 0.824541 0.673942
1.000000 0.837117 0.714961
0.000000 0.610708 0.000000
0.000000 0.610730 0.000000
0.000000 0.610751 0.000000
0.000000 0.610772 0.000000
0.000000 0.610796 0.000000
0.000000 0.610826 0.000000
0.000000 0.610861 0.000000
0.000000 0.610905 0.000000
0.000000 0.638907 0.000000
0.000000 0.710012 0.000000
0.000000 0.739375 0.000000
0.000000 0.756863 0.000000
0.000000 0.764151 0.000000
0.000000 0.770301 0.000000
0.295886 0.774267 0.000000
0.483827 0.786139 0.000000
0.613759 0.797802 0.000000
0.712484 0.807461 0.000000
0.774230 0.820573 0.000000
0.825812 0.830051 0.000000
0.872557 0.836442 0.000000
0.908304 0.842189 0.000000
0.936410 0.850224 0.000000
0.958504 0.856767 0.167309
0.977180 0.859951 0.303595
0.988713 0.859593 0.399440
0.999671 0.858774 0.466776
1.000000 0.853975 0.515704
1.000000 0.850953 0.563412
1.000000 0.850514 0.612697
1.000000 0.847431 0.651446
1.000000 0.845757 0.685554
1.000000 0.852016 0.722758
0.000000 0.655526 0.000000
0.000000 0.655544 0.000000
0.000000 0.655561 0.000000
0.000000 0.655578 0.000000
0.000000 0.655598 0.000000
0.000000 0.655622 0.000000
0.000000 0.655652 0.000000
0.000000 0.655687 0.000000
0.000000 0.655730 0.000000
0.000000 0.709988 0.000000
0.000000 0.760972 0.000000
0.000000 0.782988 0.000000
0.000000 0.795008 0.000000
0.000000 0.803991 0.000000
0.000000 0.805011 0.000000
0.391223 0.813971 0.000000
0.536783 0.825505 0.000000
0.671710 0.832856 0.000000
0.748407 0.844144 0.000000
0.804037 0.855797 0.000000
0.853399 0.859597 0.000000
0.896914 0.865537 0.000000
0.930053 0.866396 0.000000
0.949963 0.875388 0.000000
0.970534 0.878871 0.258580
0.986285 0.883416 0.384253
0.995928 0.883493 0.471002
1.000000 0.878932 0.524129
1.000000 0.876188 0.572176
1.000000 0.875299 0.628131
1.000000 0.872495 0.669593
1.000000 0.869665 0.702948
1.000000 0.870172 0.733032
0.000000 0.700158 0.000000
0.000000 0.700172 0.000000
0.000000 0.700186 0.000000
0.000000 0.700200 0.000000
0.000000 0.700216 0.000000
0.000000 0.700236 0.000000
0.000000 0.700260 0.000000
0.000000 0.700290 0.000000
0.000000 0.700325 0.000000
0.000000 0.700368 0.000000
0.000000 0.770536 0.000000
0.000000 0.804764 0.000000
0.000000 0.821358 0.000000
0.000000 0.831767 0.000000
0.000000 0.833967 0.000000
0.316073 0.836847 0.000000
0.467448 0.847640 0.000000
0.604333 0.856238 0.000000
0.716249 0.864982 0.000000
0.781927 0.875896 0.000000
0.833716 0.880534 0.000000
0.882148 0.885404 0.000000
0.917685 0.886802 0.000000
0.944669 0.890557 0.000000
0.965103 0.894388 0.174549
0.982367 0.898487 0.336670
0.993035 0.903468 0.462820
1.000000 0.900057 0.529891
1.000000 0.897085 0.581394
1.000000 0.896791 0.638321
1.000000 0.894148 0.684745
1.000000 0.890896 0.716789
1.000000 0.890395 0.745194
0.000000 0.741104 0.000000
0.000000 0.741115 0.000000
0.000000 0.741125 0.000000
0.000000 0.741136 0.000000
0.000000 0.741147 0.000000
0.000000 0.741162 0.000000
0.000000 0.741179 0.000000
0.000000 0.741200 0.000000
0.000000 0.741226 0.000000
0.000000 0.741257 0.000000
0.000000 0.752490 0.000000
0.000000 0.819572 0.000000
0.000000 0.842344 0.000000
0.000000 0.854190 0.000000
0.000000 0.859388 0.000000
0.142046 0.859088 0.000000
0.412445 0.866411 0.000000
0.529936 0.876948 0.000000
0.660642 0.883970 0.000000
0.747220 0.893479 0.000000
0.814062 0.898822 0.000000
0.867112 0.901931 0.000000
0.907227 0.903576 0.000000
0.935954 0.906679 0.000000
0.958080 0.908636 0.072870
0.976946 0.911876 0.275234
0.990355 0.916508 0.416851
1.000000 0.918622 0.526351
1.000000 0.915708 0.588072
1.000000 0.915271 0.644921
1.000000 0.913278 0.697423
1.000000 0.910215 0.729761
1.000000 0.908602 0.757624
0.000000 0.778370 0.000000
0.000000 0.778377 0.000000
0.000000 0.778385 0.000000
0.000000 0.778393 0.000000
0.000000 0.778402 0.000000
0.000000 0.778412 0.000000
0.000000 0.778425 0.000000
0.000000 0.778441 0.000000
0.000000 0.778460 0.000000
0.000000 0.778483 0.000000
0.000000 0.778511 0.000000
0.000000 0.801560 0.000000
0.000000 0.856451 0.000000
0.000000 0.873034 0.000000
0.000000 0.879821 0.000000
0.000000 0.882610 0.000000
0.364117 0.883057 0.000000
0.489562 0.892502 0.000000
0.593593 0.901280 0.000000
0.711154 0.908466 0.000000
0.783598 0.915384 0.000000
0.845835 0.916712 0.000000
0.894003 0.918856 0.000000
0.924159 0.920880 0.000000
0.951204 0.923467 0.112458
0.970636 0.924235 0.216604
0.985248 0.928726 0.359561
