Assets/Lutify-Free-LUTs-Pack/Lutify Free LUTs Pack/Print Film Pro - Print Film 2/Lutify.me-PrintFilm2-DragonColor2RLF-to-Rec709.cube
# Created with: fylm.ai - Colour Grading and Collaboration Software in Cloud 
# Website: https://fylm.ai 
# META
# Option: Gamut compress
# Block 1: IDT | RED DragonColor2 REDLogFilm
# Block 2: colourMatch | Blending Mode: Normal | {"ColorSpace":0,"CrossCovarianceLimit":50,"ReshapingIterations":1,"PercentSaturationShift":100,"PercentShadingShift":100,"ExtraShading":true,"PercentTint":100,"PercentModified":100}
# Block 3: HSL | Blending Mode: Normal | {"hue":{"Reds":0,"Yellows":0,"Greens":0,"Cyans":0,"Blues":0,"Magentas":0},"saturation":{"Reds":1,"Yellows":0.9,"Greens":0.95,"Cyans":1,"Blues":1,"Magentas":1},"luminance":{"Reds":0.8,"Yellows":0.95,"Greens":0.9,"Cyans":0.8,"Blues":0.8,"Magentas":0.8},"lum_sat":{"Blacks":1,"Shadows":1,"Midtones":1,"Highlights":1,"Whites":1},"sat_sat":{"10":1,"20":1,"30":1,"40":1,"50":1}}
# Block 4: LUT | Filmic Curve Response: Low Contrast 2 (100%)
# Block 5: ODT | Rec709
TITLE "Lutify.me-PrintFilm2-DragonColor2RLF-to-Rec709" 
LUT_3D_SIZE 9
0.000000 0.000000 0.000000
0.000000 0.000000 0.000000
0.000000 0.000000 0.000000
0.063896 0.000000 0.000000
0.212608 0.000000 0.000000
0.477607 0.000000 0.000000
0.800415 0.000000 0.000000
1.000000 0.312677 0.000000
1.000000 0.623563 0.161253
0.000000 0.000000 0.000000
0.000000 0.000000 0.000000
0.000000 0.000000 0.000000
0.088077 0.000000 0.000000
0.235026 0.000000 0.000000
0.488350 0.000000 0.000000
0.804778 0.000000 0.000000
1.000000 0.318840 0.000000
1.000000 0.625244 0.161556
0.000000 0.030311 0.000000
0.000000 0.040736 0.000000
0.057503 0.045951 0.000000
0.153520 0.028935 0.000000
0.293471 0.000000 0.000000
0.519645 0.000000 0.000000
0.815708 0.000000 0.000000
1.000000 0.333723 0.000000
1.000000 0.629708 0.162387
0.000000 0.146601 0.000000
0.000000 0.150787 0.000000
0.089415 0.152737 0.000000
0.227178 0.149820 0.000000
0.396996 0.134828 0.000000
0.603839 0.074195 0.000000
0.842704 0.083889 0.000000
1.000000 0.369998 0.000000
1.000000 0.641438 0.164747
0.000000 0.364087 0.000000
0.000000 0.365844 0.000000
0.024292 0.371459 0.000000
0.267023 0.373632 0.000000
0.495031 0.355813 0.000000
0.714230 0.366893 0.000000
0.894003 0.375835 0.000000
1.000000 0.447424 0.000000
1.000000 0.671059 0.171968
0.127657 0.660181 0.000000
0.175210 0.661099 0.000000
0.253973 0.663370 0.000000
0.358961 0.666976 0.000000
0.530097 0.662147 0.000000
0.764252 0.643632 0.000000
0.924212 0.667711 0.000000
1.000000 0.672785 0.000000
1.000000 0.729584 0.191686
0.587647 0.863322 0.172044
0.593199 0.863215 0.170711
0.607385 0.862935 0.167019
0.641347 0.862229 0.156970
0.701869 0.862714 0.129370
0.799111 0.860883 0.000000
0.918713 0.850688 0.000000
0.993368 0.858534 0.053857
1.000000 0.855976 0.303920
0.833556 0.948186 0.547076
0.834411 0.948193 0.546869
0.836661 0.948214 0.546318
0.842421 0.948271 0.544857
0.856429 0.948427 0.540897
0.883767 0.948469 0.527255
0.928025 0.946603 0.481746
0.984232 0.942998 0.363375
1.000000 0.944631 0.506322
0.932259 0.992473 0.810063
0.932393 0.992474 0.810021
0.932749 0.992478 0.809911
0.933686 0.992489 0.809616
0.936105 0.992517 0.808831
0.942023 0.992594 0.806744
0.956465 0.992399 0.801184
0.982410 0.991402 0.781465
1.000000 0.988780 0.718550
0.000000 0.000000 0.000000
0.000000 0.000000 0.000000
0.000000 0.000000 0.000000
0.067940 0.000000 0.000000
0.216158 0.000000 0.000000
0.474666 0.000000 0.000000
0.799341 0.000000 0.000000
1.000000 0.312429 0.000000
1.000000 0.624297 0.167801
0.000000 0.000000 0.000000
0.000000 0.000000 0.000000
0.000000 0.000000 0.000000
0.094559 0.000000 0.000000
0.236662 0.000000 0.000000
0.485157 0.000000 0.000000
0.803832 0.000000 0.000000
1.000000 0.318559 0.000000
1.000000 0.625994 0.168116
0.000000 0.035172 0.000000
0.000000 0.045031 0.000000
0.057065 0.049778 0.000000
0.154139 0.036334 0.000000
0.293429 0.000000 0.000000
0.519819 0.000000 0.000000
0.815361 0.000000 0.000000
1.000000 0.333392 0.000000
1.000000 0.630500 0.168965
0.000000 0.153577 0.000000
0.000000 0.158836 0.000000
0.067571 0.167639 0.000000
0.221391 0.165434 0.000000
0.390806 0.154568 0.000000
0.597271 0.101417 0.000000
0.839341 0.103961 0.000000
1.000000 0.369535 0.000000
1.000000 0.642331 0.171395
0.000000 0.375163 0.000000
0.000000 0.377837 0.000000
0.000000 0.382011 0.000000
0.246398 0.387509 0.000000
0.482024 0.372233 0.000000
0.709070 0.379464 0.000000
0.894138 0.376239 0.000000
1.000000 0.450498 0.000000
1.000000 0.671919 0.178765
0.092133 0.663021 0.000000
0.154676 0.663935 0.000000
0.241791 0.666199 0.000000
0.360598 0.670033 0.000000
0.532056 0.666484 0.000000
0.758899 0.658111 0.000000
0.922367 0.672111 0.000000
1.000000 0.673089 0.000000
1.000000 0.729833 0.199261
0.585612 0.863842 0.194500
0.591243 0.863735 0.193536
0.605504 0.863462 0.190965
0.639639 0.862775 0.183890
0.702777 0.863216 0.160268
0.798257 0.861671 0.000000
0.917976 0.851937 0.000000
0.993057 0.859254 0.099249
1.000000 0.855939 0.310578
0.833108 0.948276 0.552448
0.833965 0.948283 0.552241
0.836217 0.948304 0.551695
0.841987 0.948361 0.550243
0.856086 0.948517 0.546440
0.883755 0.948580 0.534789
0.927743 0.946760 0.489088
0.983962 0.943211 0.371672
1.000000 0.944682 0.510742
0.932243 0.992489 0.811258
0.932377 0.992491 0.811217
0.932733 0.992495 0.811107
0.933670 0.992505 0.810814
0.936088 0.992533 0.810035
0.942005 0.992610 0.807961
0.956430 0.992442 0.802470
0.982329 0.991429 0.782892
1.000000 0.988812 0.720543
0.000000 0.000000 0.000000
0.000000 0.000000 0.000000
0.000000 0.000000 0.000000
0.082535 0.000000 0.000000
0.230666 0.000000 0.010357
0.480498 0.000000 0.000000
0.797516 0.000000 0.000000
1.000000 0.310268 0.000000
1.000000 0.625129 0.185199
0.000000 0.000000 0.000000
0.000000 0.000000 0.000000
0.007698 0.000000 0.012893
0.106831 0.000000 0.020445
0.250005 0.000000 0.016379
0.490749 0.000000 0.000000
0.801638 0.000000 0.000000
1.000000 0.316425 0.000000
1.000000 0.626801 0.185558
0.000000 0.038626 0.071193
0.000000 0.049591 0.067250
0.056668 0.057048 0.062712
0.161814 0.047584 0.050902
0.297225 0.000000 0.025404
0.518899 0.000000 0.000000
0.812440 0.000000 0.000000
1.000000 0.331543 0.000000
1.000000 0.631238 0.186518
0.000000 0.165968 0.086733
0.000000 0.177586 0.083024
0.030260 0.189454 0.071893
0.212230 0.194975 0.047034
0.386111 0.174448 0.000000
0.598520 0.121048 0.000000
0.839695 0.108856 0.000000
1.000000 0.367920 0.000000
1.000000 0.642877 0.189231
0.000000 0.390425 0.000000
0.000000 0.392902 0.000000
0.000000 0.399109 0.000000
0.227104 0.409210 0.000000
0.470675 0.407688 0.000000
0.707058 0.394656 0.000000
0.892056 0.382168 0.000000
1.000000 0.456699 0.000000
1.000000 0.671992 0.197259
0.101344 0.670469 0.000000
0.154503 0.671338 0.000000
0.233724 0.673510 0.000000
0.344837 0.677129 0.000000
0.518193 0.679828 0.000000
0.757580 0.669037 0.000000
0.920776 0.675455 0.000000
1.000000 0.673794 0.000000
1.000000 0.731371 0.220750
0.585836 0.863991 0.242756
0.590533 0.864085 0.241831
0.602568 0.864333 0.239376
0.635279 0.864067 0.233430
0.699601 0.864587 0.219761
0.796622 0.863560 0.163709
0.916575 0.855263 0.000000
0.992692 0.862176 0.163828
1.000000 0.855836 0.327745
0.831963 0.948512 0.565569
0.832823 0.948519 0.565388
0.835082 0.948539 0.564907
0.840869 0.948594 0.563630
0.855001 0.948747 0.560287
0.882940 0.948817 0.550075
0.926996 0.947163 0.508186
0.983254 0.943745 0.393102
1.000000 0.944812 0.522339
0.932033 0.992530 0.813880
0.932170 0.992531 0.813850
0.932535 0.992535 0.813767
0.933495 0.992546 0.813548
0.935973 0.992575 0.812966
0.941958 0.992653 0.811153
0.956337 0.992553 0.805838
0.982116 0.991499 0.786619
1.000000 0.988897 0.725743
0.000000 0.000000 0.056779
0.000000 0.000000 0.061730
0.000000 0.000000 0.068855
0.086856 0.000000 0.068035
0.242505 0.000000 0.087546
0.507483 0.000000 0.088221
0.801416 0.000000 0.080615
1.000000 0.305839 0.105269
1.000000 0.622945 0.228459
0.000000 0.000000 0.088777
0.000000 0.000000 0.092861
0.026763 0.000000 0.093892
0.107248 0.000000 0.089673
0.261714 0.000000 0.098679
0.518939 0.000000 0.090755
0.805477 0.000000 0.080945
1.000000 0.311976 0.105164
1.000000 0.624626 0.228878
0.000000 0.039639 0.192330
0.000000 0.046291 0.186997
0.019518 0.055051 0.181037
0.159017 0.051873 0.161862
0.313248 0.000000 0.129251
0.542706 0.000000 0.096497
0.815898 0.000000 0.081666
1.000000 0.327506 0.104961
1.000000 0.629085 0.229997
0.000000 0.157063 0.246882
0.000000 0.166809 0.245309
0.000000 0.186833 0.235320
0.200381 0.208536 0.227947
0.388215 0.188806 0.179005
0.600788 0.129800 0.108730
0.836404 0.110373 0.084459
1.000000 0.364029 0.105130
1.000000 0.640808 0.233099
0.000000 0.403311 0.267354
0.000000 0.409281 0.265383
0.000000 0.425753 0.263941
0.192449 0.437648 0.245055
0.469102 0.440978 0.215218
0.698184 0.411163 0.120583
0.888696 0.386684 0.061003
1.000000 0.453793 0.105483
1.000000 0.670161 0.241980
0.097130 0.681836 0.247032
0.152360 0.683565 0.245739
0.232828 0.687796 0.242256
0.349734 0.691616 0.230142
0.514263 0.695016 0.196614
0.751460 0.690383 0.073340
0.916020 0.682520 0.000000
1.000000 0.677053 0.117456
1.000000 0.733137 0.269424
0.589697 0.865914 0.355183
0.595125 0.865964 0.354419
0.608672 0.866102 0.352360
0.637711 0.866511 0.346532
0.695353 0.867570 0.331189
0.795155 0.867453 0.299713
0.914170 0.861523 0.180579
0.991513 0.863409 0.260610
1.000000 0.857788 0.372082
0.829037 0.949097 0.598046
0.829906 0.949104 0.597872
0.832189 0.949122 0.597411
0.838036 0.949174 0.596189
0.852290 0.949320 0.592995
0.880465 0.949374 0.584044
0.925039 0.948049 0.551316
0.981429 0.945027 0.448459
1.000000 0.945084 0.549226
0.931380 0.992634 0.820236
0.931518 0.992636 0.820207
0.931883 0.992639 0.820129
0.932846 0.992650 0.819920
0.935329 0.992678 0.819366
0.941410 0.992756 0.817898
0.955735 0.992831 0.814122
0.981569 0.991680 0.796122
1.000000 0.989111 0.738802
0.000000 0.000000 0.294476
0.000000 0.000000 0.291780
0.000000 0.000000 0.282634
0.103161 0.000000 0.263031
0.280003 0.000000 0.240239
0.526981 0.000000 0.247875
0.835617 0.000000 0.234696
1.000000 0.306756 0.225012
1.000000 0.619053 0.313499
0.000000 0.000000 0.321261
0.000000 0.000000 0.318616
0.000000 0.022618 0.306342
0.109469 0.000000 0.287112
0.295240 0.000000 0.260649
0.538823 0.000000 0.256689
0.838478 0.000000 0.236863
1.000000 0.312313 0.225589
1.000000 0.620754 0.313949
0.000000 0.038714 0.367274
0.000000 0.041474 0.363070
0.000000 0.049854 0.355084
0.123258 0.050314 0.331156
0.324733 0.000000 0.305608
0.565157 0.000000 0.279967
0.845748 0.000000 0.242523
1.000000 0.326480 0.227146
1.000000 0.625269 0.315157
0.000000 0.145388 0.457858
0.000000 0.152705 0.457167
0.000000 0.166144 0.450156
0.147488 0.189878 0.442943
0.397659 0.191219 0.408810
0.628569 0.148331 0.338943
0.858534 0.146078 0.254756
1.000000 0.359255 0.231628
1.000000 0.637137 0.318401
0.000000 0.376934 0.517770
0.000000 0.384409 0.518024
0.000000 0.398614 0.516349
0.110394 0.426835 0.507993
0.444785 0.466093 0.500991
0.684596 0.435775 0.413488
0.886610 0.394594 0.284265
1.000000 0.449144 0.250283
1.000000 0.667012 0.327523
0.000000 0.690248 0.545378
0.000000 0.692743 0.545020
0.135699 0.698299 0.544892
0.311656 0.709963 0.546463
0.491774 0.721605 0.528015
0.744462 0.722838 0.497430
0.906048 0.696274 0.361898
1.000000 0.684189 0.300580
1.000000 0.731295 0.354525
0.576251 0.874491 0.559446
0.581284 0.874496 0.558782
0.594157 0.874514 0.557047
0.625043 0.874584 0.552642
0.689917 0.873960 0.544444
0.788280 0.876425 0.528353
0.907675 0.872504 0.447591
0.985321 0.866427 0.427884
1.000000 0.861429 0.452250
0.826691 0.950332 0.674120
0.827548 0.950338 0.673964
0.829798 0.950354 0.673550
0.835561 0.950401 0.672455
0.849629 0.950537 0.669605
0.876875 0.951080 0.663714
0.920692 0.949826 0.637632
0.978338 0.947586 0.565451
1.000000 0.945608 0.611281
0.929770 0.992897 0.835448
0.929908 0.992898 0.835421
0.930276 0.992902 0.835350
0.931245 0.992911 0.835160
0.933744 0.992937 0.834655
0.939863 0.993011 0.833328
0.954504 0.993071 0.830075
0.980267 0.992104 0.817692
1.000000 0.989645 0.769035
0.000000 0.055748 0.622408
0.000000 0.058590 0.619559
0.000000 0.062319 0.614770
0.000000 0.065962 0.597750
0.289830 0.000000 0.563373
0.583186 0.000000 0.524526
0.852392 0.000000 0.509783
1.000000 0.349475 0.474869
1.000000 0.613560 0.458523
0.000000 0.066505 0.630318
0.000000 0.069352 0.628721
0.000000 0.072395 0.624543
0.000000 0.076159 0.607324
0.294620 0.038681 0.573316
0.591360 0.000000 0.535133
0.855131 0.000000 0.514454
1.000000 0.354768 0.476101
1.000000 0.615091 0.458973
0.000000 0.090703 0.649322
0.000000 0.092786 0.648159
0.000000 0.095941 0.646049
0.000000 0.102076 0.629780
0.307587 0.087032 0.594727
0.607152 0.000000 0.556981
0.861921 0.000000 0.526025
1.000000 0.368610 0.479348
1.000000 0.619156 0.460171
0.000000 0.150754 0.686469
0.000000 0.152920 0.685454
0.000000 0.158889 0.682530
0.000000 0.175795 0.676880
0.340256 0.175327 0.643329
0.642477 0.126332 0.608542
0.876696 0.153758 0.550108
1.000000 0.403900 0.487782
1.000000 0.630184 0.463647
0.000000 0.347446 0.748787
0.000000 0.350654 0.747912
0.000000 0.362157 0.745466
0.000000 0.391739 0.741407
0.380185 0.427465 0.736223
0.692882 0.436387 0.704902
0.898280 0.422351 0.619389
1.000000 0.483917 0.506177
1.000000 0.660546 0.475143
0.000000 0.658207 0.776735
0.000000 0.661131 0.776360
0.000000 0.668585 0.775394
0.222083 0.680751 0.775300
0.440349 0.704081 0.775573
0.723853 0.740969 0.770600
0.885161 0.718671 0.697374
0.994888 0.682317 0.549214
1.000000 0.727810 0.505549
0.553846 0.876334 0.795692
0.559998 0.876679 0.795713
0.575704 0.877575 0.795774
0.612705 0.879797 0.796040
0.679403 0.884427 0.798105
0.774804 0.887606 0.787468
0.893145 0.888568 0.768774
0.975406 0.872183 0.661893
1.000000 0.860350 0.596390
0.822317 0.953448 0.809300
0.823192 0.953445 0.809196
0.825251 0.953447 0.808890
0.830451 0.953457 0.808078
0.843150 0.953515 0.806025
0.869356 0.953904 0.802537
0.914385 0.954501 0.791016
0.970925 0.951578 0.748302
1.000000 0.948450 0.728851
0.927957 0.993485 0.867341
0.928093 0.993486 0.867318
0.928455 0.993489 0.867259
0.929409 0.993497 0.867102
0.931868 0.993518 0.866685
0.937886 0.993582 0.865598
0.952414 0.993615 0.863022
0.979529 0.992842 0.855747
1.000000 0.990870 0.825811
0.000000 0.201243 0.867654
0.000000 0.202128 0.867503
0.000000 0.203606 0.866035
0.000000 0.206893 0.860068
0.276744 0.210806 0.848982
0.586730 0.185622 0.824037
0.876819 0.058602 0.793308
1.000000 0.364875 0.770324
1.000000 0.660717 0.731821
0.000000 0.205822 0.868650
0.000000 0.206723 0.868501
0.000000 0.208481 0.867378
0.000000 0.211884 0.861338
0.280080 0.216520 0.850495
0.588467 0.193002 0.825813
0.878393 0.088395 0.794961
1.000000 0.369577 0.771276
1.000000 0.662207 0.732202
0.000000 0.218019 0.871205
0.000000 0.218959 0.871051
0.000000 0.221385 0.870669
0.000000 0.225673 0.864897
0.288862 0.232089 0.854384
0.593327 0.211340 0.830358
0.882397 0.135397 0.799209
1.000000 0.381889 0.773760
1.000000 0.666276 0.733225
0.000000 0.252873 0.877351
0.000000 0.253917 0.877137
0.000000 0.258339 0.876874
0.068264 0.266962 0.875042
0.312533 0.273771 0.863975
0.609838 0.258631 0.841605
0.891241 0.230162 0.812811
1.000000 0.413335 0.780040
1.000000 0.676669 0.735923
0.000000 0.355456 0.889851
0.000000 0.356944 0.889530
0.000000 0.362219 0.889205
0.156452 0.375584 0.888477
0.362993 0.395595 0.884253
0.634851 0.404708 0.866586
0.901740 0.413731 0.844867
1.000000 0.499738 0.799989
1.000000 0.701828 0.742885
0.000000 0.620969 0.904617
0.000000 0.622357 0.904494
0.000000 0.626084 0.904162
0.238533 0.638413 0.903149
0.423411 0.660410 0.901247
0.665532 0.698021 0.898638
0.885348 0.716515 0.881973
0.989111 0.709872 0.837514
1.000000 0.757203 0.757156
0.498390 0.856931 0.909422
0.503825 0.857258 0.909381
0.517850 0.858108 0.909273
0.551281 0.860265 0.909002
0.619711 0.865404 0.908374
0.738393 0.876184 0.907458
0.882108 0.891682 0.909774
0.959751 0.881176 0.875137
1.000000 0.860109 0.786568
0.800991 0.952631 0.916407
0.801979 0.952697 0.916425
0.804575 0.952873 0.916471
0.811232 0.953334 0.916598
0.827392 0.954497 0.916945
0.860190 0.956559 0.918717
0.908163 0.960123 0.915386
0.964419 0.960274 0.907426
1.000000 0.950048 0.855828
0.926586 0.994960 0.924063
0.926725 0.994959 0.924042
0.927091 0.994958 0.923986
0.927993 0.994957 0.923877
0.930133 0.994968 0.923705
0.935396 0.995009 0.923267
0.948639 0.994961 0.922056
0.974925 0.994525 0.917903
1.000000 0.993651 0.899148
0.323951 0.425573 0.967050
0.328474 0.426121 0.966943
0.340236 0.427564 0.966660
0.368523 0.430328 0.965524
0.435999 0.437592 0.962432
0.599481 0.443945 0.955163
0.857457 0.443274 0.941204
1.000000 0.469001 0.924869
1.000000 0.670175 0.905378
0.324644 0.428193 0.967118
0.329161 0.428742 0.967012
0.340910 0.430190 0.966730
0.369438 0.433171 0.965681
0.437065 0.440459 0.962600
0.600106 0.446599 0.955301
0.857662 0.446165 0.941376
1.000000 0.472055 0.925087
1.000000 0.671632 0.905512
0.326462 0.435142 0.967294
0.330963 0.435695 0.967188
0.342679 0.437154 0.966908
0.371847 0.440715 0.966086
0.439885 0.448063 0.963034
0.601686 0.454242 0.955669
0.858188 0.453808 0.941826
1.000000 0.480125 0.925659
1.000000 0.675481 0.905867
0.331210 0.453300 0.967694
0.335565 0.453970 0.967610
0.347201 0.455455 0.967335
0.376494 0.459321 0.966616
0.447235 0.468072 0.964108
0.605786 0.474545 0.956581
0.859845 0.474420 0.943059
1.000000 0.500137 0.927149
1.000000 0.685479 0.906799
0.345989 0.500085 0.968220
0.350090 0.500921 0.968163
0.360804 0.503133 0.968011
0.388713 0.508200 0.967491
0.465557 0.519746 0.966066
0.618062 0.526406 0.958885
0.863698 0.528707 0.946537
1.000000 0.555703 0.931354
1.000000 0.710358 0.909193
0.398196 0.621780 0.969870
0.402756 0.622610 0.969778
0.414699 0.624812 0.969531
0.445097 0.628960 0.968977
0.516092 0.639720 0.967552
0.659397 0.662665 0.964422
0.859849 0.674764 0.954738
0.989199 0.706306 0.942010
1.000000 0.765787 0.915240
0.513120 0.833894 0.968398
0.516850 0.834148 0.968373
0.526735 0.834825 0.968305
0.552400 0.836632 0.968127
0.608304 0.841225 0.967706
0.708088 0.851075 0.966872
0.853338 0.870563 0.965131
0.956631 0.879578 0.958946
1.000000 0.875674 0.933021
0.784146 0.942637 0.970648
0.785027 0.942736 0.970648
0.787350 0.943002 0.970647
0.793338 0.943695 0.970646
0.807159 0.945149 0.970624
0.836087 0.946980 0.970595
0.887904 0.951904 0.970779
0.955960 0.963362 0.971434
1.000000 0.954384 0.951820
0.915348 0.993968 0.974762
0.915502 0.993980 0.974771
0.915912 0.994010 0.974793
0.916989 0.994091 0.974853
0.919758 0.994304 0.975009
0.926553 0.994838 0.975410
0.944047 0.996028 0.976260
0.972151 0.997380 0.975521
0.998444 0.997506 0.971993
0.625353 0.685983 1.000000
0.626678 0.686176 1.000000
0.630195 0.686686 1.000000
0.639383 0.688033 1.000000
0.661736 0.691581 1.000000
0.709949 0.696246 1.000000
0.824503 0.696713 1.000000
0.959565 0.713146 0.991950
1.000000 0.743540 0.982618
0.625680 0.686783 1.000000
0.627004 0.686975 1.000000
0.630516 0.687484 1.000000
0.639691 0.688828 1.000000
0.661982 0.692371 1.000000
0.710253 0.697094 1.000000
0.824501 0.697684 1.000000
0.959401 0.714059 0.991975
1.000000 0.744242 0.982646
0.626551 0.688903 1.000000
0.627873 0.689094 1.000000
0.631373 0.689600 1.000000
0.640513 0.690937 1.000000
0.662635 0.694468 1.000000
0.711065 0.699340 1.000000
0.824500 0.700254 1.000000
0.958966 0.716477 0.992039
1.000000 0.746099 0.982720
0.628880 0.694467 1.000000
0.630188 0.694655 1.000000
0.633652 0.695154 1.000000
0.642702 0.696473 1.000000
0.664379 0.699967 1.000000
0.713217 0.705232 1.000000
0.824560 0.707049 1.000000
0.957827 0.722794 0.992208
1.000000 0.750954 0.982917
0.635029 0.708676 1.000000
0.636319 0.708870 1.000000
0.639530 0.709363 1.000000
0.647883 0.710655 1.000000
0.669024 0.714017 1.000000
0.718885 0.720247 1.000000
0.824800 0.724303 1.000000
0.954926 0.738744 0.992637
1.000000 0.763264 0.983424
0.649157 0.742479 1.000000
0.650299 0.742655 1.000000
0.653325 0.743122 1.000000
0.661239 0.744359 1.000000
0.681306 0.747583 1.000000
0.733183 0.755592 1.000000
0.826316 0.764680 1.000000
0.948225 0.775965 0.993858
1.000000 0.794551 0.984898
0.681344 0.826540 1.000000
0.682438 0.826658 1.000000
0.685334 0.826975 1.000000
0.692903 0.827816 1.000000
0.712039 0.830034 1.000000
0.756468 0.835847 1.000000
0.843986 0.849615 1.000000
0.938261 0.856344 0.995865
1.000000 0.870375 0.989714
0.788827 0.926466 1.000000
0.789385 0.926522 1.000000
0.790867 0.926671 1.000000
0.794791 0.927071 1.000000
0.805055 0.928147 1.000000
0.828762 0.930848 1.000000
0.871866 0.936797 1.000000
0.938739 0.947863 1.000000
0.997115 0.952974 0.996624
0.902286 0.987438 1.000000
0.902436 0.987451 1.000000
0.902834 0.987487 1.000000
0.903884 0.987582 1.000000
0.906596 0.987832 1.000000
0.913559 0.988388 1.000000
0.930146 0.990030 1.000000
0.960011 0.993248 1.000000
0.994056 0.997478 1.000000
