Assets/Lutify-Free-LUTs-Pack/Lutify Free LUTs Pack/Print Film Pro - Print Film 2/Lutify.me-PrintFilm2-BMDFilmGen5-to-Rec709.cube
# Created with: fylm.ai - Colour Grading and Collaboration Software in Cloud 
# Website: https://fylm.ai 
# META
# Option: Gamut compress
# Block 1: IDT | BMD Wide Gamut BMDFilm Gen 5
# Block 2: colourMatch | Blending Mode: Normal | {"ColorSpace":0,"CrossCovarianceLimit":50,"ReshapingIterations":1,"PercentSaturationShift":100,"PercentShadingShift":100,"ExtraShading":true,"PercentTint":100,"PercentModified":100}
# Block 3: HSL | Blending Mode: Normal | {"hue":{"Reds":0,"Yellows":0,"Greens":0,"Cyans":0,"Blues":0,"Magentas":0},"saturation":{"Reds":1,"Yellows":0.9,"Greens":0.95,"Cyans":1,"Blues":1,"Magentas":1},"luminance":{"Reds":0.8,"Yellows":0.95,"Greens":0.9,"Cyans":0.8,"Blues":0.8,"Magentas":0.8},"lum_sat":{"Blacks":1,"Shadows":1,"Midtones":1,"Highlights":1,"Whites":1},"sat_sat":{"10":1,"20":1,"30":1,"40":1,"50":1}}
# Block 4: LUT | Filmic Curve Response: Low Contrast 2 (100%)
# Block 5: ODT | Rec709
TITLE "Lutify.me-PrintFilm2-BMDFilmGen5-to-Rec709" 
LUT_3D_SIZE 33
0.000000 0.000000 0.000000
0.000000 0.000000 0.000000
0.000000 0.000000 0.000000
0.000000 0.000000 0.000000
0.000000 0.000000 0.000000
0.000000 0.000000 0.000000
0.000000 0.000000 0.000000
0.000000 0.000000 0.000000
0.000000 0.000000 0.000000
0.018954 0.000000 0.000000
0.067804 0.000000 0.000000
0.115716 0.000000 0.000000
0.171209 0.000000 0.000000
0.261321 0.000000 0.000000
0.354265 0.000000 0.000000
0.457388 0.000000 0.000000
0.588283 0.000000 0.000000
0.701465 0.000000 0.000000
0.814382 0.000000 0.000000
0.913946 0.000000 0.044069
0.984802 0.240175 0.101217
1.000000 0.369389 0.158912
1.000000 0.477879 0.230534
1.000000 0.597241 0.318806
1.000000 0.693324 0.414574
1.000000 0.767383 0.515724
1.000000 0.830306 0.622237
1.000000 0.873670 0.714368
1.000000 0.907917 0.793855
1.000000 0.934899 0.848431
1.000000 0.959294 0.891632
1.000000 0.977049 0.924346
1.000000 0.991097 0.952987
0.000000 0.000000 0.000000
0.000000 0.000000 0.000000
0.000000 0.000000 0.000000
0.000000 0.000000 0.000000
0.000000 0.000000 0.000000
0.000000 0.000000 0.000000
0.000000 0.000000 0.000000
0.000000 0.000000 0.000000
0.000000 0.000000 0.000000
0.038615 0.000000 0.000000
0.078905 0.000000 0.000000
0.126053 0.000000 0.000000
0.184699 0.000000 0.000000
0.271398 0.000000 0.000000
0.362213 0.000000 0.000000
0.462289 0.000000 0.000000
0.592813 0.000000 0.000000
0.704256 0.000000 0.000000
0.815767 0.000000 0.000000
0.914625 0.000000 0.042726
0.985219 0.244829 0.101010
1.000000 0.371435 0.158832
1.000000 0.479621 0.230673
1.000000 0.598220 0.318927
1.000000 0.693824 0.414675
1.000000 0.767729 0.515882
1.000000 0.830467 0.622322
1.000000 0.873742 0.714431
1.000000 0.907962 0.793882
1.000000 0.934928 0.848455
1.000000 0.959309 0.891641
1.000000 0.977056 0.924351
1.000000 0.991101 0.952989
0.000000 0.000000 0.000000
0.000000 0.000000 0.000000
0.000000 0.000000 0.000000
0.000000 0.000000 0.000000
0.000000 0.000000 0.000000
0.000000 0.000000 0.000000
0.000000 0.000000 0.000000
0.000000 0.000000 0.000000
0.000000 0.000000 0.000000
0.053454 0.000000 0.000000
0.091359 0.000000 0.000000
0.137418 0.000000 0.000000
0.195572 0.000000 0.000000
0.280945 0.000000 0.000000
0.368898 0.000000 0.000000
0.467147 0.000000 0.000000
0.596698 0.000000 0.000000
0.707096 0.000000 0.000000
0.817142 0.000000 0.000000
0.915296 0.000000 0.041280
0.985630 0.249431 0.100791
1.000000 0.373472 0.158751
1.000000 0.481360 0.230811
1.000000 0.599198 0.319048
1.000000 0.694323 0.414775
1.000000 0.768073 0.516043
1.000000 0.830627 0.622407
1.000000 0.873815 0.714496
1.000000 0.908008 0.793911
1.000000 0.934957 0.848477
1.000000 0.959323 0.891652
1.000000 0.977063 0.924359
1.000000 0.991105 0.952994
0.000000 0.000000 0.000000
0.000000 0.000000 0.000000
0.000000 0.000000 0.000000
0.000000 0.000000 0.000000
0.000000 0.000000 0.000000
0.000000 0.000000 0.000000
0.000000 0.000000 0.000000
0.000000 0.000000 0.000000
0.027298 0.000000 0.000000
0.066562 0.000000 0.000000
0.105058 0.000000 0.000000
0.149449 0.000000 0.000000
0.208419 0.000000 0.000000
0.290061 0.000000 0.000000
0.374541 0.000000 0.000000
0.472006 0.000000 0.000000
0.600547 0.000000 0.000000
0.709937 0.000000 0.000000
0.818506 0.000000 0.000000
0.915960 0.043561 0.039718
0.986020 0.253488 0.100400
1.000000 0.375502 0.158668
1.000000 0.483095 0.230948
1.000000 0.600174 0.319169
1.000000 0.694820 0.414876
1.000000 0.768418 0.516201
1.000000 0.830787 0.622494
1.000000 0.873887 0.714560
1.000000 0.908054 0.793939
1.000000 0.934986 0.848501
1.000000 0.959338 0.891661
1.000000 0.977071 0.924364
1.000000 0.991110 0.952998
0.000000 0.000000 0.000000
0.000000 0.000000 0.000000
0.000000 0.000000 0.000000
0.000000 0.000000 0.000000
0.000000 0.000000 0.000000
0.000000 0.000000 0.000000
0.000000 0.000000 0.000000
0.019899 0.000000 0.000000
0.055852 0.000000 0.000000
0.084241 0.000000 0.000000
0.117700 0.000000 0.000000
0.159831 0.000000 0.000000
0.220986 0.000000 0.000000
0.297642 0.000000 0.000000
0.380341 0.000000 0.000000
0.476960 0.000000 0.000000
0.604122 0.000000 0.000000
0.712490 0.000000 0.000000
0.819852 0.000000 0.000000
0.916938 0.070782 0.038094
0.986405 0.257494 0.099990
1.000000 0.377523 0.158584
1.000000 0.484825 0.231087
1.000000 0.601150 0.319291
1.000000 0.695316 0.414976
1.000000 0.768760 0.516361
1.000000 0.830948 0.622580
1.000000 0.873959 0.714623
1.000000 0.908099 0.793968
1.000000 0.935015 0.848524
1.000000 0.959353 0.891671
1.000000 0.977078 0.924372
1.000000 0.991114 0.953000
0.000000 0.000000 0.000000
0.000000 0.000000 0.000000
0.000000 0.000000 0.000000
0.000000 0.000000 0.000000
0.000000 0.000000 0.000000
0.000000 0.000000 0.000000
0.005138 0.000000 0.000000
0.043421 0.000000 0.000000
0.067300 0.000000 0.000000
0.100968 0.000000 0.000000
0.135246 0.000000 0.000000
0.174389 0.000000 0.000000
0.232569 0.000000 0.000000
0.307793 0.000000 0.000000
0.386667 0.000000 0.000000
0.484148 0.000000 0.000000
0.607215 0.000000 0.000000
0.715465 0.000000 0.000000
0.821312 0.000000 0.000000
0.918082 0.088312 0.036526
0.986820 0.261861 0.099524
1.000000 0.379738 0.158490
1.000000 0.486726 0.231238
1.000000 0.602222 0.319424
1.000000 0.695862 0.415086
1.000000 0.769137 0.516536
1.000000 0.831124 0.622674
1.000000 0.874039 0.714694
1.000000 0.908149 0.793999
1.000000 0.935047 0.848549
1.000000 0.959369 0.891681
1.000000 0.977087 0.924379
1.000000 0.991119 0.953005
0.000000 0.000000 0.000000
0.000000 0.000000 0.000000
0.000000 0.000000 0.000000
0.000000 0.000000 0.000000
0.000000 0.010359 0.000000
0.000000 0.019376 0.000000
0.023185 0.023499 0.000000
0.052287 0.027532 0.000000
0.076153 0.028872 0.000000
0.112597 0.016678 0.000000
0.153989 0.000000 0.000000
0.197252 0.000000 0.000000
0.250213 0.000000 0.000000
0.320947 0.000000 0.000000
0.395667 0.000000 0.000000
0.494794 0.000000 0.000000
0.611341 0.000000 0.000000
0.719640 0.000000 0.000000
0.823353 0.000000 0.000000
0.919673 0.107446 0.034013
0.987394 0.267973 0.098839
1.000000 0.382856 0.158354
1.000000 0.489405 0.231452
1.000000 0.603734 0.319612
1.000000 0.696630 0.415243
1.000000 0.769668 0.516783
1.000000 0.831373 0.622808
1.000000 0.874153 0.714794
1.000000 0.908220 0.794043
1.000000 0.935092 0.848586
1.000000 0.959392 0.891697
1.000000 0.977098 0.924388
1.000000 0.991126 0.953010
0.000000 0.020629 0.000000
0.000000 0.023799 0.000000
0.000000 0.028847 0.000000
0.000000 0.034729 0.000000
0.000000 0.041127 0.000000
0.000000 0.045028 0.000000
0.032104 0.047132 0.000000
0.057799 0.048158 0.000000
0.087385 0.048063 0.000000
0.129613 0.041655 0.000000
0.173333 0.023111 0.000000
0.222086 0.000000 0.000000
0.274147 0.000000 0.000000
0.338894 0.000000 0.000000
0.409724 0.000000 0.000000
0.510260 0.000000 0.000000
0.617493 0.000000 0.000000
0.725560 0.000000 0.000000
0.827352 0.000000 0.000000
0.921900 0.129383 0.029553
0.988190 0.276614 0.097799
1.000000 0.387293 0.158153
1.000000 0.493227 0.231758
1.000000 0.605896 0.319883
1.000000 0.697728 0.415466
1.000000 0.770426 0.517138
1.000000 0.831728 0.622999
1.000000 0.874317 0.714936
1.000000 0.908321 0.794106
1.000000 0.935156 0.848639
1.000000 0.959426 0.891718
1.000000 0.977115 0.924403
1.000000 0.991135 0.953017
0.000000 0.048992 0.000000
0.000000 0.050226 0.000000
0.000000 0.052891 0.000000
0.000000 0.055798 0.000000
0.000000 0.061135 0.000000
0.000000 0.065229 0.000000
0.029164 0.069231 0.000000
0.061393 0.071238 0.000000
0.097865 0.071407 0.000000
0.145672 0.070605 0.000000
0.196845 0.064529 0.000000
0.246927 0.051875 0.000000
0.303643 0.018723 0.000000
0.371113 0.000000 0.000000
0.444521 0.000000 0.000000
0.526054 0.000000 0.000000
0.630482 0.000000 0.000000
0.733975 0.000000 0.000000
0.833377 0.000000 0.000000
0.924990 0.155415 0.019428
0.989278 0.288768 0.096187
1.000000 0.393589 0.157854
1.000000 0.498673 0.232195
1.000000 0.608980 0.320269
1.000000 0.699291 0.415787
1.000000 0.771506 0.517646
1.000000 0.832236 0.623273
1.000000 0.874551 0.715142
1.000000 0.908466 0.794196
1.000000 0.935249 0.848713
1.000000 0.959473 0.891749
1.000000 0.977138 0.924423
1.000000 0.991149 0.953029
0.000000 0.074170 0.000000
0.000000 0.077391 0.000000
0.000000 0.082480 0.000000
0.000000 0.086160 0.000000
0.000000 0.093370 0.000000
0.000000 0.097823 0.000000
0.000000 0.102413 0.000000
0.056174 0.106391 0.000000
0.105323 0.106194 0.000000
0.159908 0.107165 0.000000
0.219327 0.103749 0.000000
0.272442 0.100158 0.000000
0.332075 0.088415 0.000000
0.403930 0.069195 0.000000
0.475852 0.031849 0.000000
0.552427 0.000000 0.000000
0.649363 0.000000 0.000000
0.745999 0.000000 0.000000
0.841778 0.074048 0.000000
0.929225 0.187467 0.000000
0.990632 0.305706 0.093659
1.000000 0.402497 0.157403
1.000000 0.506411 0.232818
1.000000 0.613376 0.320825
1.000000 0.701514 0.416248
1.000000 0.773039 0.518374
1.000000 0.832960 0.623665
1.000000 0.874884 0.715433
1.000000 0.908673 0.794326
1.000000 0.935380 0.848819
1.000000 0.959540 0.891794
1.000000 0.977172 0.924455
1.000000 0.991169 0.953045
0.000000 0.111892 0.000000
0.000000 0.116248 0.000000
0.000000 0.123481 0.000000
0.000000 0.127498 0.000000
0.000000 0.133452 0.000000
0.000000 0.139981 0.000000
0.000000 0.143176 0.000000
0.000000 0.148256 0.000000
0.104528 0.150322 0.000000
0.172434 0.151345 0.000000
0.232681 0.149277 0.000000
0.296252 0.145514 0.000000
0.363037 0.143227 0.000000
0.438961 0.135173 0.000000
0.504788 0.136536 0.000000
0.590629 0.130068 0.000000
0.679373 0.110320 0.000000
0.760525 0.108700 0.000000
0.853489 0.150535 0.000000
0.934848 0.227741 0.000000
0.991766 0.326738 0.090008
1.000000 0.415495 0.156914
1.000000 0.516738 0.233796
1.000000 0.619627 0.321621
1.000000 0.704662 0.416908
1.000000 0.775208 0.519420
1.000000 0.833990 0.624227
1.000000 0.875360 0.715852
1.000000 0.908968 0.794509
1.000000 0.935569 0.848973
1.000000 0.959637 0.891858
1.000000 0.977221 0.924496
1.000000 0.991197 0.953069
0.000000 0.166688 0.000000
0.000000 0.172804 0.000000
0.000000 0.178853 0.000000
0.000000 0.185026 0.000000
0.000000 0.190089 0.000000
0.000000 0.194677 0.000000
0.000000 0.197606 0.000000
0.000000 0.203360 0.000000
0.093183 0.204426 0.000000
0.174196 0.204223 0.000000
0.241448 0.202875 0.000000
0.317066 0.198254 0.000000
0.391226 0.193316 0.000000
0.470652 0.195778 0.000000
0.544797 0.200199 0.000000
0.620425 0.207867 0.000000
0.706981 0.214317 0.000000
0.788624 0.215285 0.000000
0.865886 0.226529 0.000000
0.941444 0.278794 0.000000
0.993406 0.351782 0.085038
1.000000 0.435636 0.156319
1.000000 0.531207 0.234950
1.000000 0.628494 0.322766
1.000000 0.709101 0.417854
1.000000 0.778262 0.520917
1.000000 0.835453 0.625031
1.000000 0.876036 0.716450
1.000000 0.909391 0.794774
1.000000 0.935838 0.849192
1.000000 0.959775 0.891949
1.000000 0.977290 0.924557
1.000000 0.991237 0.953102
0.000000 0.245013 0.000000
0.000000 0.251170 0.000000
0.000000 0.254490 0.000000
0.000000 0.257506 0.000000
0.000000 0.260526 0.000000
0.000000 0.264020 0.000000
0.000000 0.268926 0.000000
0.000000 0.272862 0.000000
0.000000 0.273189 0.000000
0.152622 0.276565 0.000000
0.240350 0.274717 0.000000
0.321995 0.273683 0.000000
0.416562 0.266643 0.000000
0.511170 0.264946 0.000000
0.586152 0.274371 0.000000
0.664731 0.295016 0.000000
0.744051 0.313122 0.000000
0.815418 0.317125 0.000000
0.885819 0.326079 0.000000
0.946877 0.341822 0.000000
0.995041 0.389704 0.074511
1.000000 0.463978 0.154064
1.000000 0.551754 0.235628
1.000000 0.640983 0.324754
1.000000 0.715320 0.419217
1.000000 0.782527 0.523068
1.000000 0.837521 0.626182
1.000000 0.876995 0.717301
1.000000 0.909994 0.795158
1.000000 0.936221 0.849503
1.000000 0.959973 0.892081
1.000000 0.977389 0.924645
1.000000 0.991295 0.953150
0.000000 0.326136 0.000000
0.000000 0.328640 0.000000
0.000000 0.331274 0.000000
0.000000 0.333864 0.000000
0.000000 0.336416 0.000000
0.000000 0.339207 0.000000
0.000000 0.343135 0.000000
0.000000 0.347989 0.000000
0.000000 0.352200 0.000000
0.086893 0.356989 0.000000
0.222080 0.355268 0.000000
0.315846 0.353349 0.000000
0.426097 0.347749 0.000000
0.538198 0.341721 0.000000
0.622981 0.347972 0.000000
0.689734 0.374676 0.000000
0.776305 0.402791 0.000000
0.836605 0.418005 0.000000
0.901479 0.424334 0.000000
0.953351 0.435053 0.000000
0.996444 0.449909 0.045435
1.000000 0.506077 0.150187
1.000000 0.580345 0.236527
1.000000 0.657820 0.328374
1.000000 0.724366 0.421302
1.000000 0.788446 0.526154
1.000000 0.840428 0.627830
1.000000 0.878347 0.718513
1.000000 0.910854 0.795711
1.000000 0.936766 0.849949
1.000000 0.960254 0.892269
1.000000 0.977530 0.924769
1.000000 0.991377 0.953219
0.000000 0.426557 0.000000
0.000000 0.428630 0.000000
0.000000 0.430652 0.000000
0.000000 0.432633 0.000000
0.000000 0.434580 0.000000
0.000000 0.436759 0.000000
0.000000 0.439867 0.000000
0.000000 0.444340 0.000000
0.000000 0.449986 0.000000
0.000000 0.450650 0.000000
0.171076 0.449941 0.000000
0.296286 0.447748 0.000000
0.425544 0.443141 0.000000
0.538772 0.434788 0.000000
0.640711 0.429714 0.000000
0.724110 0.440619 0.000000
0.797128 0.477214 0.000000
0.858859 0.514456 0.000000
0.912664 0.525402 0.000000
0.958929 0.534299 0.000000
0.995826 0.541682 0.000000
1.000000 0.567472 0.144711
1.000000 0.615593 0.237566
1.000000 0.677620 0.331144
1.000000 0.737842 0.424685
1.000000 0.796626 0.530580
1.000000 0.844484 0.630189
1.000000 0.880241 0.720236
1.000000 0.912069 0.796503
1.000000 0.937538 0.850585
1.000000 0.960654 0.892536
1.000000 0.977731 0.924948
1.000000 0.991495 0.953316
0.000000 0.542596 0.000000
0.000000 0.544215 0.000000
0.000000 0.545807 0.000000
0.000000 0.547378 0.000000
0.000000 0.548868 0.000000
0.000000 0.549112 0.000000
0.000000 0.550497 0.000000
0.000000 0.553530 0.000000
0.000000 0.557506 0.000000
0.000000 0.561095 0.000000
0.000000 0.561110 0.000000
0.255493 0.561091 0.000000
0.399347 0.557005 0.000000
0.522499 0.556872 0.000000
0.629655 0.546524 0.000000
0.745551 0.537896 0.000000
0.816444 0.550373 0.000000
0.865897 0.602095 0.000000
0.918384 0.630955 0.000000
0.959829 0.635477 0.000000
0.990891 0.642667 0.000000
1.000000 0.656653 0.136835
1.000000 0.665376 0.239465
1.000000 0.706534 0.336382
1.000000 0.755916 0.429739
1.000000 0.807786 0.536955
1.000000 0.850103 0.633591
1.000000 0.882896 0.722675
1.000000 0.913781 0.797628
1.000000 0.938627 0.851489
1.000000 0.961222 0.892919
1.000000 0.978017 0.925202
1.000000 0.991662 0.953456
0.000000 0.647979 0.000000
0.000000 0.648987 0.000000
0.000000 0.649982 0.000000
0.000000 0.650967 0.000000
0.000000 0.651955 0.000000
0.000000 0.653032 0.000000
0.000000 0.654528 0.000000
0.000000 0.656588 0.000000
0.000000 0.659466 0.000000
0.000000 0.663469 0.000000
0.000000 0.665479 0.000000
0.206581 0.664780 0.000000
0.369447 0.666330 0.000000
0.488479 0.663725 0.000000
0.609058 0.659021 0.000000
0.727562 0.646804 0.000000
0.828622 0.631700 0.000000
0.876307 0.654956 0.000000
0.914395 0.700590 0.000000
0.956062 0.719828 0.000000
0.984474 0.728003 0.000000
1.000000 0.731005 0.131746
1.000000 0.736380 0.248115
1.000000 0.747798 0.346744
1.000000 0.781906 0.441028
1.000000 0.822833 0.546218
1.000000 0.857806 0.638538
1.000000 0.886803 0.725982
1.000000 0.916174 0.799227
1.000000 0.940153 0.852773
1.000000 0.962024 0.893466
1.000000 0.978422 0.925565
1.000000 0.991898 0.953655
0.000000 0.747171 0.000000
0.000000 0.747735 0.000000
0.000000 0.748292 0.000000
0.000000 0.748842 0.000000
0.000000 0.749386 0.000000
0.000000 0.749976 0.000000
0.000000 0.750800 0.000000
0.000000 0.751953 0.000000
0.000000 0.753528 0.000000
0.000000 0.755728 0.000000
0.000000 0.758941 0.000000
0.177354 0.762772 0.000000
0.347392 0.763398 0.000000
0.466753 0.759372 0.000000
0.577534 0.755306 0.000000
0.703424 0.752705 0.000000
0.796948 0.740754 0.000000
0.878097 0.725490 0.000000
0.916747 0.752102 0.000000
0.951188 0.782609 0.000000
0.977688 0.797871 0.000000
1.000000 0.799436 0.132384
1.000000 0.802082 0.262865
1.000000 0.806178 0.370781
1.000000 0.816379 0.458574
1.000000 0.840765 0.555911
1.000000 0.867923 0.645583
1.000000 0.892669 0.730320
1.000000 0.919332 0.801381
1.000000 0.942283 0.854588
1.000000 0.963149 0.894244
1.000000 0.978995 0.926083
1.000000 0.992231 0.953940
0.000000 0.830262 0.000000
0.000000 0.830485 0.000000
0.000000 0.830705 0.000000
0.000000 0.830922 0.000000
0.000000 0.831136 0.000000
0.000000 0.831369 0.000000
0.000000 0.831692 0.000000
0.000000 0.832143 0.000000
0.000000 0.832769 0.000000
0.000000 0.833701 0.000000
0.000000 0.834981 0.000000
0.247919 0.836662 0.000000
0.367410 0.837142 0.000000
0.475111 0.836005 0.000000
0.583141 0.835872 0.000000
0.694539 0.831298 0.000000
0.777059 0.824698 0.000000
0.849239 0.822228 0.000000
0.913252 0.811106 0.000000
0.946543 0.828251 0.000000
0.972810 0.844666 0.000000
0.996851 0.854495 0.134053
1.000000 0.855677 0.284966
1.000000 0.854940 0.398341
1.000000 0.858475 0.483664
1.000000 0.864442 0.571391
1.000000 0.881305 0.656066
1.000000 0.900671 0.736478
1.000000 0.923317 0.804151
1.000000 0.945236 0.857142
1.000000 0.964716 0.895351
1.000000 0.979825 0.926819
1.000000 0.992697 0.954349
0.000000 0.882689 0.000000
0.023922 0.882768 0.000000
0.091578 0.882846 0.000000
0.121307 0.882923 0.000000
0.143346 0.882999 0.000000
0.163186 0.883081 0.000000
0.186402 0.883198 0.000000
0.212423 0.883376 0.000000
0.243659 0.883626 0.000000
0.282535 0.883964 0.000000
0.333165 0.884402 0.000000
0.386846 0.885089 0.000000
0.450001 0.885969 0.000000
0.531460 0.885648 0.000000
0.621143 0.883943 0.000000
0.704068 0.881816 0.000000
0.776578 0.878880 0.000000
0.833883 0.876606 0.000000
0.897039 0.871484 0.000000
0.943930 0.864652 0.000000
0.969790 0.875116 0.000000
0.992267 0.886844 0.057181
1.000000 0.894128 0.299512
1.000000 0.891441 0.416223
1.000000 0.894009 0.512298
1.000000 0.892625 0.594601
1.000000 0.898263 0.671570
1.000000 0.911534 0.745355
1.000000 0.930202 0.809491
1.000000 0.949277 0.860716
1.000000 0.966873 0.896922
1.000000 0.981062 0.927870
1.000000 0.993343 0.954928
0.425501 0.917440 0.000000
0.429018 0.917455 0.000000
0.432498 0.917470 0.000000
0.435945 0.917484 0.000000
0.439360 0.917497 0.000000
0.443079 0.917513 0.000000
0.448276 0.917533 0.000000
0.455598 0.917561 0.000000
0.465855 0.917599 0.000000
0.480118 0.917649 0.000000
0.502515 0.917655 0.000000
0.532992 0.917665 0.000000
0.572416 0.917698 0.000000
0.620355 0.917792 0.000000
0.673010 0.917945 0.000000
0.727251 0.918201 0.000000
0.783117 0.916914 0.000000
0.838374 0.914115 0.000000
0.892557 0.911076 0.000000
0.930346 0.908826 0.000000
0.966571 0.904650 0.000000
0.989250 0.910994 0.000000
1.000000 0.919053 0.279262
1.000000 0.922507 0.432006
1.000000 0.922282 0.538371
1.000000 0.921527 0.623139
1.000000 0.922830 0.701560
1.000000 0.926520 0.760077
1.000000 0.939818 0.818528
1.000000 0.954376 0.865049
1.000000 0.969791 0.899150
1.000000 0.982760 0.929275
1.000000 0.994224 0.955750
0.604563 0.945266 0.167358
0.606326 0.945262 0.167005
0.608079 0.945257 0.166648
0.609821 0.945252 0.166289
0.611553 0.945248 0.165940
0.613447 0.945242 0.165551
0.616105 0.945235 0.165003
0.619870 0.945225 0.164220
0.625185 0.945211 0.163116
0.632635 0.945193 0.161541
0.642374 0.945187 0.159792
0.654920 0.945221 0.158901
0.672099 0.945292 0.159199
0.695382 0.945410 0.159881
0.729296 0.945519 0.162594
0.766632 0.944714 0.157790
0.806660 0.943639 0.149880
0.850603 0.943597 0.144752
0.888678 0.942736 0.124787
0.924326 0.940609 0.086123
0.958255 0.938323 0.000000
0.985203 0.934676 0.000000
1.000000 0.938380 0.225447
1.000000 0.944749 0.423802
1.000000 0.948255 0.566608
1.000000 0.947125 0.651744
1.000000 0.947616 0.731840
1.000000 0.948461 0.784073
1.000000 0.952493 0.831227
1.000000 0.961091 0.870486
1.000000 0.973324 0.902007
1.000000 0.985048 0.931090
1.000000 0.995488 0.956933
0.715150 0.966573 0.343048
0.715884 0.966573 0.342987
0.716614 0.966572 0.342929
0.717341 0.966572 0.342868
0.718066 0.966572 0.342808
0.718861 0.966572 0.342744
0.719978 0.966572 0.342650
0.721566 0.966572 0.342520
0.723819 0.966573 0.342333
0.726998 0.966575 0.342071
0.731442 0.966580 0.341704
0.738556 0.966567 0.341389
0.747871 0.966567 0.340845
0.759847 0.966596 0.339937
0.776308 0.966680 0.338885
0.800901 0.966112 0.336945
0.830820 0.966146 0.337175
0.863602 0.966337 0.337989
0.894791 0.965880 0.334172
0.924579 0.964412 0.321543
0.950533 0.964186 0.315612
0.977371 0.961439 0.299990
1.000000 0.959150 0.287318
1.000000 0.961794 0.393482
1.000000 0.966963 0.570112
1.000000 0.968441 0.686991
1.000000 0.968137 0.760386
1.000000 0.967556 0.807534
1.000000 0.968252 0.847382
1.000000 0.970252 0.878630
1.000000 0.977756 0.905944
1.000000 0.988289 0.933970
1.000000 0.997132 0.958616
0.789146 0.982740 0.483440
0.789527 0.982738 0.483415
0.789907 0.982737 0.483388
0.790286 0.982735 0.483361
0.790665 0.982734 0.483337
0.791086 0.982732 0.483311
0.791766 0.982728 0.483292
0.792736 0.982721 0.483269
0.794117 0.982712 0.483235
0.796079 0.982699 0.483150
0.798854 0.982681 0.483022
0.803070 0.982648 0.482931
0.809196 0.982598 0.482891
0.817646 0.982535 0.482867
0.829141 0.982461 0.482921
0.844732 0.982381 0.483206
0.862424 0.982385 0.483161
0.880782 0.982497 0.482462
0.901957 0.982651 0.482064
0.926599 0.981953 0.479352
0.950080 0.980577 0.468188
0.973241 0.979158 0.457266
0.996282 0.977649 0.449206
1.000000 0.975846 0.437539
1.000000 0.978187 0.533881
1.000000 0.981230 0.691967
1.000000 0.983160 0.782710
1.000000 0.982077 0.829492
1.000000 0.981555 0.863744
1.000000 0.982119 0.891496
1.000000 0.984461 0.912498
1.000000 0.992416 0.938223
1.000000 0.998950 0.961016
0.849721 0.995055 0.622043
0.849933 0.995054 0.622038
0.850145 0.995052 0.622029
0.850356 0.995051 0.622024
0.850567 0.995050 0.622015
0.850799 0.995048 0.622008
0.851127 0.995046 0.621997
0.851595 0.995044 0.621980
0.852264 0.995040 0.621960
0.853335 0.995030 0.621973
0.854878 0.995017 0.622001
0.856878 0.994983 0.621888
0.859325 0.994904 0.621425
0.862775 0.994793 0.620768
0.867963 0.994628 0.619993
0.875600 0.994386 0.619110
0.886135 0.994056 0.617968
0.898736 0.993956 0.617311
0.914592 0.994014 0.617857
0.933181 0.993757 0.617613
0.950874 0.993479 0.615691
0.970288 0.992466 0.606215
0.989074 0.992021 0.599890
1.000000 0.990960 0.594330
1.000000 0.989459 0.585103
1.000000 0.990838 0.677288
1.000000 0.993085 0.789949
1.000000 0.993875 0.850554
1.000000 0.993384 0.881679
1.000000 0.993374 0.907007
1.000000 0.995147 0.927558
1.000000 0.997683 0.945152
1.000000 1.000000 0.964472
0.891947 1.000000 0.731963
0.892062 1.000000 0.731971
0.892177 1.000000 0.731981
0.892293 1.000000 0.731990
0.892407 1.000000 0.732000
0.892533 1.000000 0.732011
0.892712 1.000000 0.732025
0.892967 1.000000 0.732046
0.893330 1.000000 0.732076
0.893850 1.000000 0.732120
0.894590 1.000000 0.732183
0.895507 1.000000 0.732142
0.896847 1.000000 0.732183
0.898772 1.000000 0.732247
0.901473 1.000000 0.732351
0.905239 1.000000 0.732519
0.910443 1.000000 0.732807
0.917583 1.000000 0.733332
0.927609 1.000000 0.734617
0.939658 1.000000 0.736641
0.953545 1.000000 0.739099
0.970864 1.000000 0.741453
0.985711 1.000000 0.738529
0.999230 1.000000 0.732544
1.000000 0.999846 0.726800
1.000000 0.998787 0.723761
1.000000 0.999783 0.789497
