Assets/Lutify-Free-LUTs-Pack/Lutify Free LUTs Pack/Commercial Pro - Claire/Lutify.me-Claire-BMDFilmGen5-to-Rec709.cube
# Created with: fylm.ai - Colour Grading and Collaboration Software in Cloud 
# Website: https://fylm.ai 
# META
# Option: Gamut compress
# Block 1: IDT | BMD Wide Gamut BMDFilm Gen 5
# Block 2: colourMatch | Blending Mode: Normal | {"ColorSpace":0,"CrossCovarianceLimit":50,"ReshapingIterations":1,"PercentSaturationShift":100,"PercentShadingShift":100,"ExtraShading":true,"PercentTint":100,"PercentModified":100}
# Block 3: HSL | Blending Mode: Normal | {"hue":{"Reds":0,"Yellows":0,"Greens":0,"Cyans":0,"Blues":0,"Magentas":0},"saturation":{"Reds":1,"Yellows":1,"Greens":1,"Cyans":1,"Blues":1,"Magentas":1},"luminance":{"Reds":0.9,"Yellows":0.9,"Greens":0.9,"Cyans":0.8,"Blues":0.8,"Magentas":0.9},"lum_sat":{"Blacks":1,"Shadows":1,"Midtones":1,"Highlights":1,"Whites":1},"sat_sat":{"10":1,"20":1,"30":1,"40":1,"50":1}}
# Block 4: subtractiveColour | Blending Mode: Normal | {"sliders":{"gainY":0.1,"C":0.05,"M":0.05,"Y":0.05}}
# Block 5: logPrimaries | Blending Mode: Normal | {"wheels":{"shadows":{"Y":"0","R":"1","G":"1","B":"1"},"midtones":{"Y":"0","R":"1","G":"1","B":"1"},"highlights":{"Y":"0","R":"1","G":"1","B":"1"},"offset":{"Y":"0","R":"1","G":"1","B":"1"}},"sliders":{"shadows":{"Y":0,"R":-0.05,"G":0,"B":0.1},"midtones":{"Y":0,"R":0,"G":0,"B":0},"highlights":{"Y":0,"R":0,"G":0,"B":0},"offset":{"Y":0,"R":0,"G":0,"B":0}}}
# Block 6: LUT | Filmic Curve Response: Standard Contrast 1 (100%)
# Block 7: LUT | Illuminant: D93 (100%)
# Block 8: LUT | Neutral Tint: Teal Tint 4 (100%)
# Block 9: ODT | Rec709
TITLE "Lutify.me-Claire-BMDFilmGen5-to-Rec709" 
LUT_3D_SIZE 33
0.000000 0.000000 0.000000
0.000000 0.000000 0.000000
0.098700 0.000000 0.000000
0.000000 0.000000 0.000000
0.013197 0.000000 0.000000
0.073992 0.000000 0.000000
0.136321 0.000000 0.000000
0.199630 0.000000 0.000000
0.262077 0.000000 0.000000
0.320582 0.000000 0.000000
0.372919 0.000000 0.000000
0.410995 0.000000 0.000000
0.457127 0.000000 0.000000
0.512340 0.000000 0.000000
0.568896 0.000000 0.000000
0.636267 0.000000 0.000000
0.722856 0.000000 0.000000
0.817150 0.000000 0.000000
0.908507 0.000000 0.000000
0.989997 0.000000 0.009376
1.000000 0.198022 0.083956
1.000000 0.318947 0.137447
1.000000 0.430314 0.196260
1.000000 0.553597 0.268457
1.000000 0.653903 0.347442
1.000000 0.743836 0.441894
1.000000 0.817613 0.536999
1.000000 0.864023 0.629703
1.000000 0.902261 0.723824
1.000000 0.932170 0.785613
1.000000 0.953507 0.837727
1.000000 0.970322 0.879143
1.000000 0.981974 0.915345
0.000000 0.000000 0.000000
0.000000 0.000000 0.000000
0.081773 0.000000 0.000000
0.000000 0.000000 0.008496
0.022135 0.000000 0.000000
0.075706 0.000000 0.000000
0.135045 0.000000 0.000000
0.194308 0.000000 0.000000
0.251719 0.000000 0.000000
0.306299 0.000000 0.000000
0.362150 0.000000 0.000000
0.398979 0.000000 0.000000
0.443609 0.000000 0.000000
0.504913 0.000000 0.000000
0.573056 0.000000 0.000000
0.636347 0.000000 0.000000
0.722877 0.000000 0.000000
0.817132 0.000000 0.000000
0.908431 0.000000 0.000000
0.989997 0.000000 0.009376
1.000000 0.198022 0.083956
1.000000 0.318947 0.137447
1.000000 0.434312 0.195691
1.000000 0.553597 0.268457
1.000000 0.653903 0.347442
1.000000 0.743836 0.441894
1.000000 0.817613 0.536999
1.000000 0.864023 0.629703
1.000000 0.902261 0.723824
1.000000 0.932170 0.785613
1.000000 0.953507 0.837727
1.000000 0.970322 0.879143
1.000000 0.981974 0.915345
0.000000 0.000000 0.000000
0.000000 0.000000 0.000000
0.000000 0.000000 0.000000
0.000000 0.000000 0.009967
0.025425 0.000000 0.000000
0.076082 0.000000 0.000000
0.129958 0.000000 0.000000
0.185892 0.000000 0.000000
0.239852 0.000000 0.000000
0.294988 0.000000 0.000000
0.349167 0.000000 0.000000
0.387454 0.000000 0.000000
0.437081 0.000000 0.000000
0.505031 0.000000 0.000000
0.573128 0.000000 0.000000
0.640650 0.000000 0.000000
0.727254 0.000000 0.000000
0.817076 0.000000 0.000000
0.908354 0.000000 0.000000
0.989841 0.000000 0.000000
1.000000 0.204419 0.082816
1.000000 0.318947 0.137447
1.000000 0.434312 0.195691
1.000000 0.553597 0.268457
1.000000 0.653903 0.347442
1.000000 0.743836 0.441894
1.000000 0.817613 0.536999
1.000000 0.864023 0.629703
1.000000 0.902261 0.723824
1.000000 0.932170 0.785613
1.000000 0.953507 0.837727
1.000000 0.970322 0.879143
1.000000 0.981974 0.915345
0.000000 0.000000 0.000000
0.000000 0.000000 0.000000
0.000000 0.000000 0.000000
0.000000 0.000000 0.000000
0.013596 0.000000 0.000000
0.065237 0.000000 0.000000
0.115902 0.000000 0.000000
0.169912 0.000000 0.000000
0.223624 0.000000 0.000000
0.282034 0.000000 0.000000
0.336116 0.000000 0.000000
0.384750 0.000000 0.000000
0.433915 0.000000 0.000000
0.508878 0.000000 0.000000
0.569122 0.000000 0.000000
0.640723 0.000000 0.000000
0.727265 0.000000 0.000000
0.821805 0.000000 0.000000
0.908275 0.000000 0.000000
0.989679 0.000000 0.007386
1.000000 0.204419 0.082816
1.000000 0.327990 0.135934
1.000000 0.434312 0.195691
1.000000 0.553597 0.268457
1.000000 0.653903 0.347442
1.000000 0.743836 0.441894
1.000000 0.817613 0.536999
1.000000 0.864023 0.629703
1.000000 0.903501 0.724007
1.000000 0.932170 0.785613
1.000000 0.953507 0.837727
1.000000 0.970322 0.879143
1.000000 0.981974 0.915345
0.000000 0.035931 0.000000
0.000000 0.035647 0.000000
0.000000 0.035413 0.000000
0.000000 0.033645 0.000000
0.000000 0.030922 0.000000
0.051749 0.021887 0.000000
0.097405 0.000000 0.000000
0.151140 0.000000 0.000000
0.204062 0.000000 0.000000
0.265006 0.000000 0.000000
0.323714 0.000000 0.000000
0.379244 0.000000 0.000000
0.430858 0.000000 0.000000
0.508993 0.000000 0.000000
0.569221 0.000000 0.000000
0.640803 0.000000 0.000000
0.727293 0.000000 0.000000
0.821764 0.000000 0.000000
0.908204 0.000000 0.000000
0.989517 0.000000 0.000000
1.000000 0.210667 0.084278
1.000000 0.327990 0.135934
1.000000 0.438305 0.195114
1.000000 0.553597 0.268457
1.000000 0.653903 0.347442
1.000000 0.743836 0.441894
1.000000 0.817613 0.536999
1.000000 0.864023 0.629703
1.000000 0.903501 0.724007
1.000000 0.932170 0.785613
1.000000 0.953507 0.837727
1.000000 0.970322 0.879143
1.000000 0.981974 0.915345
0.000000 0.057605 0.000000
0.000000 0.057504 0.000000
0.000000 0.057418 0.000000
0.000000 0.056042 0.000000
0.000000 0.053891 0.000000
0.044217 0.048386 0.000000
0.086086 0.039086 0.000000
0.143630 0.000000 0.000000
0.194065 0.000000 0.000000
0.256793 0.000000 0.000000
0.314244 0.000000 0.000000
0.373959 0.000000 0.000000
0.427838 0.000000 0.000000
0.509127 0.000000 0.000000
0.565270 0.000000 0.000000
0.640870 0.000000 0.000000
0.727311 0.000000 0.000000
0.821743 0.000000 0.000000
0.908130 0.000000 0.000000
0.989352 0.000000 0.000000
1.000000 0.210667 0.084278
1.000000 0.332472 0.135154
1.000000 0.439018 0.195817
1.000000 0.557352 0.268030
1.000000 0.653903 0.347442
1.000000 0.743836 0.441894
1.000000 0.817613 0.536999
1.000000 0.864023 0.629703
1.000000 0.903501 0.724007
1.000000 0.932170 0.785613
1.000000 0.953507 0.837727
1.000000 0.970322 0.879143
1.000000 0.981974 0.915345
0.000000 0.082058 0.000000
0.000000 0.081977 0.000000
0.000000 0.079875 0.000000
0.000000 0.078757 0.000000
0.000000 0.076673 0.000000
0.026617 0.070887 0.000000
0.082147 0.065563 0.000000
0.137964 0.049385 0.000000
0.189099 0.013402 0.000000
0.255048 0.000000 0.000000
0.307594 0.000000 0.000000
0.368982 0.000000 0.000000
0.424976 0.000000 0.000000
0.505628 0.000000 0.000000
0.569538 0.000000 0.000000
0.641045 0.000000 0.000000
0.731863 0.000000 0.000000
0.821701 0.000000 0.000000
0.908057 0.000000 0.000000
0.989183 0.000000 0.000000
1.000000 0.222156 0.081998
1.000000 0.332472 0.135154
1.000000 0.439018 0.195817
1.000000 0.557352 0.268030
1.000000 0.657324 0.347180
1.000000 0.743836 0.441894
1.000000 0.817613 0.536999
1.000000 0.865654 0.629879
1.000000 0.903501 0.724007
1.000000 0.932170 0.785613
1.000000 0.953507 0.837727
1.000000 0.970322 0.879143
1.000000 0.981974 0.915345
0.000000 0.108492 0.000000
0.000000 0.107146 0.000000
0.000000 0.104510 0.000000
0.000000 0.103173 0.000000
0.000000 0.099260 0.000000
0.000000 0.097386 0.000000
0.081045 0.091860 0.000000
0.138304 0.080955 0.000000
0.192936 0.063632 0.000000
0.257489 0.000000 0.000000
0.308128 0.000000 0.000000
0.366920 0.000000 0.000000
0.425662 0.000000 0.000000
0.509969 0.000000 0.000000
0.569858 0.000000 0.000000
0.645493 0.000000 0.000000
0.731894 0.000000 0.000000
0.821614 0.000000 0.000000
0.911786 0.000000 0.000000
0.988838 0.000000 0.000000
1.000000 0.227717 0.080797
1.000000 0.336930 0.134357
1.000000 0.442996 0.195235
1.000000 0.557352 0.268030
1.000000 0.657324 0.347180
1.000000 0.743836 0.441894
1.000000 0.817613 0.536999
1.000000 0.865654 0.629879
1.000000 0.903501 0.724007
1.000000 0.932170 0.785613
1.000000 0.953507 0.837727
1.000000 0.970322 0.879143
1.000000 0.981974 0.915345
0.000000 0.139947 0.000000
0.000000 0.139883 0.000000
0.000000 0.138323 0.000000
0.000000 0.135375 0.000000
0.000000 0.130794 0.000000
0.000000 0.128896 0.000000
0.074760 0.122730 0.000000
0.138891 0.116361 0.000000
0.192255 0.104367 0.000000
0.259487 0.083627 0.000000
0.313668 0.045588 0.000000
0.373648 0.000000 0.000000
0.426927 0.000000 0.000000
0.507387 0.000000 0.000000
0.566857 0.000000 0.000000
0.645862 0.000000 0.000000
0.727459 0.000000 0.000000
0.821503 0.000000 0.000000
0.911461 0.000000 0.000000
0.988289 0.004916 0.000000
1.000000 0.238593 0.078238
1.000000 0.341363 0.133543
1.000000 0.446967 0.197090
1.000000 0.561108 0.267599
1.000000 0.657324 0.347180
1.000000 0.746674 0.441816
1.000000 0.817613 0.536999
1.000000 0.865654 0.629879
1.000000 0.903501 0.724007
1.000000 0.932170 0.785613
1.000000 0.953507 0.837727
1.000000 0.970322 0.879143
1.000000 0.981974 0.915345
0.000000 0.176923 0.000000
0.000000 0.173139 0.000000
0.000000 0.173095 0.000000
0.000000 0.172964 0.000000
0.000000 0.165464 0.000000
0.000000 0.163294 0.000000
0.045613 0.158581 0.000000
0.133308 0.152726 0.000000
0.192189 0.145225 0.000000
0.262952 0.126562 0.000000
0.327035 0.105015 0.000000
0.378229 0.082227 0.000000
0.438752 0.039131 0.000000
0.516645 0.000000 0.000000
0.576173 0.000000 0.000000
0.650736 0.000000 0.000000
0.727652 0.000000 0.000000
0.825970 0.000000 0.000000
0.910929 0.000000 0.000000
0.987514 0.106618 0.000000
1.000000 0.249192 0.075446
1.000000 0.350166 0.134199
1.000000 0.450936 0.196502
1.000000 0.564864 0.267164
1.000000 0.660728 0.346921
1.000000 0.746674 0.441816
1.000000 0.819678 0.537084
1.000000 0.865654 0.629879
1.000000 0.903675 0.724699
1.000000 0.932170 0.785613
1.000000 0.954246 0.837875
1.000000 0.970322 0.879143
1.000000 0.981974 0.915345
0.000000 0.213547 0.000000
0.000000 0.213484 0.000000
0.000000 0.213375 0.000000
0.000000 0.211045 0.000000
0.000000 0.206504 0.000000
0.000000 0.201775 0.000000
0.000000 0.200915 0.000000
0.124628 0.192356 0.000000
0.198600 0.183679 0.000000
0.261632 0.172876 0.000000
0.334371 0.150460 0.000000
0.394282 0.128899 0.000000
0.457902 0.112075 0.000000
0.530597 0.083298 0.000000
0.590216 0.058273 0.000000
0.656182 0.000000 0.000000
0.732583 0.000000 0.000000
0.825729 0.000000 0.000000
0.910126 0.000000 0.000000
0.989463 0.151507 0.000000
1.000000 0.264740 0.071465
1.000000 0.359363 0.133135
1.000000 0.458860 0.195301
1.000000 0.568621 0.266726
1.000000 0.664837 0.350591
1.000000 0.749478 0.444556
1.000000 0.819678 0.537084
1.000000 0.865654 0.629879
1.000000 0.903675 0.724699
1.000000 0.932170 0.785613
1.000000 0.954246 0.837875
1.000000 0.970322 0.879143
1.000000 0.981974 0.915345
0.000000 0.251769 0.000000
0.000000 0.251616 0.000000
0.000000 0.251463 0.000000
0.000000 0.251203 0.000000
0.000000 0.248727 0.000000
0.000000 0.243974 0.000000
0.000000 0.240858 0.000000
0.087168 0.239186 0.000000
0.194971 0.229039 0.000000
0.261186 0.217855 0.000000
0.333800 0.205436 0.000000
0.410616 0.183812 0.000000
0.482049 0.167717 0.000000
0.553101 0.153098 0.000000
0.608643 0.142544 0.000000
0.666583 0.156949 0.000000
0.742574 0.140184 0.000000
0.829891 0.128208 0.000000
0.912529 0.151533 0.000000
0.987531 0.205227 0.000000
1.000000 0.289470 0.061940
1.000000 0.372299 0.130445
1.000000 0.470818 0.193419
1.000000 0.572377 0.266285
1.000000 0.668191 0.350344
1.000000 0.755028 0.444434
1.000000 0.822112 0.538218
1.000000 0.867267 0.630062
1.000000 0.903675 0.724699
1.000000 0.933123 0.785781
1.000000 0.954246 0.837875
1.000000 0.970322 0.879143
1.000000 0.981974 0.915345
0.000000 0.302211 0.000000
0.000000 0.302027 0.000000
0.000000 0.301781 0.000000
0.000000 0.301563 0.000000
0.000000 0.298775 0.000000
0.000000 0.295762 0.000000
0.000000 0.294989 0.000000
0.000000 0.291142 0.000000
0.179343 0.280829 0.000000
0.261298 0.274158 0.000000
0.332877 0.260960 0.000000
0.412450 0.246811 0.000000
0.499004 0.225501 0.000000
0.579289 0.200481 0.000000
0.635536 0.202187 0.000000
0.685035 0.217157 0.000000
0.757430 0.232897 0.000000
0.833513 0.238074 0.000000
0.913566 0.244113 0.000000
0.987467 0.262728 0.000000
1.000000 0.322292 0.041213
1.000000 0.393573 0.128113
1.000000 0.486820 0.193345
1.000000 0.579891 0.265390
1.000000 0.671527 0.350100
1.000000 0.757763 0.444383
1.000000 0.822112 0.538218
1.000000 0.867267 0.630062
1.000000 0.904904 0.724885
1.000000 0.933123 0.785781
1.000000 0.954246 0.837875
1.000000 0.970866 0.879257
1.000000 0.981974 0.915345
0.000000 0.356184 0.000000
0.000000 0.355985 0.000000
0.000000 0.355805 0.000000
0.000000 0.355597 0.000000
0.000000 0.355351 0.000000
0.000000 0.355024 0.000000
0.000000 0.354373 0.000000
0.000000 0.352981 0.000000
0.133252 0.348518 0.000000
0.227128 0.343114 0.000000
0.328585 0.326500 0.000000
0.405429 0.311313 0.000000
0.499536 0.292315 0.000000
0.601618 0.264782 0.000000
0.674069 0.254634 0.000000
0.719321 0.271141 0.000000
0.767078 0.295836 0.000000
0.840966 0.306332 0.000000
0.913574 0.319207 0.000000
0.982026 0.337280 0.000000
1.000000 0.366950 0.000000
1.000000 0.423283 0.123992
1.000000 0.511298 0.189939
1.000000 0.599374 0.266591
1.000000 0.684678 0.352102
1.000000 0.763148 0.447124
1.000000 0.824121 0.543938
1.000000 0.868862 0.630251
1.000000 0.904904 0.724885
1.000000 0.933123 0.785781
1.000000 0.954238 0.839441
1.000000 0.970860 0.880422
1.000000 0.981974 0.915345
0.000000 0.427431 0.000000
0.000000 0.427266 0.000000
0.000000 0.423692 0.000000
0.000000 0.423478 0.000000
0.000000 0.423242 0.000000
0.000000 0.422970 0.000000
0.000000 0.422500 0.000000
0.000000 0.415048 0.000000
0.000000 0.410605 0.000000
0.202229 0.408612 0.000000
0.293312 0.402515 0.000000
0.384101 0.391358 0.000000
0.492924 0.369789 0.000000
0.593967 0.345642 0.000000
0.691165 0.322126 0.000000
0.758508 0.318968 0.000000
0.802229 0.351404 0.000000
0.854653 0.385042 0.000000
0.921842 0.397762 0.000000
0.979293 0.422692 0.000000
1.000000 0.439465 0.000000
1.000000 0.473599 0.113052
1.000000 0.544028 0.188302
1.000000 0.618775 0.265205
1.000000 0.695018 0.351406
1.000000 0.771023 0.449891
1.000000 0.828128 0.544147
1.000000 0.870429 0.633254
1.000000 0.906123 0.725076
1.000000 0.934066 0.785954
1.000000 0.955701 0.839741
1.000000 0.970860 0.880422
1.000000 0.981974 0.915345
0.000000 0.507825 0.000000
0.000000 0.507684 0.000000
0.000000 0.507583 0.000000
0.000000 0.507375 0.000000
0.000000 0.507199 0.000000
0.000000 0.507019 0.000000
0.000000 0.503074 0.000000
0.000000 0.502710 0.000000
0.000000 0.501870 0.000000
0.000000 0.496942 0.000000
0.219414 0.495043 0.000000
0.348543 0.487805 0.000000
0.474004 0.474428 0.000000
0.570687 0.456570 0.000000
0.670024 0.428724 0.000000
0.787982 0.396086 0.000000
0.849992 0.408370 0.000000
0.876622 0.458230 0.000000
0.920306 0.483688 0.000000
0.980084 0.501655 0.000000
1.000000 0.523160 0.000000
1.000000 0.543710 0.087040
1.000000 0.587679 0.183099
1.000000 0.644789 0.267277
1.000000 0.708647 0.350547
1.000000 0.781568 0.450998
1.000000 0.832418 0.545414
1.000000 0.873531 0.633664
1.000000 0.907324 0.727635
1.000000 0.935000 0.786130
1.000000 0.955701 0.839741
1.000000 0.970860 0.880422
1.000000 0.982383 0.915431
0.000000 0.589561 0.000000
0.000000 0.589447 0.000000
0.000000 0.589329 0.000000
0.000000 0.589268 0.000000
0.000000 0.589077 0.000000
0.000000 0.588942 0.000000
0.000000 0.588728 0.000000
0.000000 0.588340 0.000000
0.000000 0.587815 0.000000
0.000000 0.583078 0.000000
0.000000 0.581754 0.000000
0.289530 0.575126 0.000000
0.420132 0.570991 0.000000
0.526685 0.565921 0.000000
0.646849 0.542540 0.000000
0.762726 0.512946 0.000000
0.868151 0.474656 0.000000
0.906125 0.504200 0.000000
0.929724 0.552504 0.000000
0.971377 0.575656 0.000000
1.000000 0.596778 0.000000
1.000000 0.624216 0.000000
1.000000 0.642521 0.177743
1.000000 0.681280 0.269454
1.000000 0.736012 0.355331
1.000000 0.793999 0.455122
1.000000 0.840083 0.548764
1.000000 0.876561 0.634104
1.000000 0.909721 0.728033
1.000000 0.936036 0.786845
1.000000 0.956423 0.839896
1.000000 0.971398 0.880535
1.000000 0.982383 0.915431
0.000000 0.680228 0.000000
0.000000 0.680151 0.000000
0.000000 0.680072 0.000000
0.000000 0.679824 0.000000
0.000000 0.679738 0.000000
0.000000 0.679654 0.000000
0.000000 0.687192 0.000000
0.000000 0.686926 0.000000
0.000000 0.686445 0.000000
0.000000 0.685685 0.000000
0.000000 0.676792 0.000000
0.195768 0.674956 0.000000
0.349238 0.668475 0.000000
0.473601 0.664588 0.000000
0.593734 0.655307 0.000000
0.713448 0.636193 0.000000
0.824408 0.607838 0.000000
0.915034 0.572847 0.000000
0.949885 0.599893 0.000000
0.972145 0.648431 0.000000
0.997039 0.673581 0.000000
1.000000 0.699536 0.000000
1.000000 0.710899 0.154296
1.000000 0.744147 0.271311
1.000000 0.771372 0.358560
1.000000 0.810486 0.456823
1.000000 0.848071 0.550477
1.000000 0.881173 0.638635
1.000000 0.912083 0.728452
1.000000 0.938740 0.789173
1.000000 0.957140 0.840055
1.000000 0.971931 0.880650
1.000000 0.982787 0.915518
0.000000 0.777673 0.000000
0.000000 0.777565 0.000000
0.000000 0.777456 0.000000
0.000000 0.777344 0.000000
0.000000 0.777231 0.000000
0.000000 0.780438 0.000000
0.000000 0.780320 0.000000
0.000000 0.780079 0.000000
0.000000 0.779576 0.000000
0.000000 0.778905 0.000000
0.000000 0.778037 0.000000
0.117754 0.773309 0.000000
0.307102 0.771298 0.000000
0.431681 0.765046 0.000000
0.538543 0.764919 0.000000
0.664560 0.755792 0.000000
0.778191 0.745729 0.000000
0.862304 0.717974 0.000000
0.950432 0.685313 0.000000
0.973009 0.712584 0.000000
0.989497 0.748666 0.000000
1.000000 0.765637 0.000000
1.000000 0.776490 0.137507
1.000000 0.798173 0.269735
1.000000 0.811684 0.364155
1.000000 0.830511 0.457667
1.000000 0.860886 0.551998
1.000000 0.889658 0.640238
1.000000 0.916826 0.732328
1.000000 0.941371 0.789765
1.000000 0.958540 0.843448
1.000000 0.972458 0.880768
1.000000 0.983189 0.915607
0.000000 0.843452 0.000000
0.000000 0.843314 0.000000
0.000000 0.843314 0.000000
0.000000 0.843173 0.000000
0.000000 0.843174 0.000000
0.000000 0.843031 0.000000
0.000000 0.842888 0.000000
0.000000 0.840164 0.000000
0.000000 0.839866 0.000000
0.000000 0.839398 0.000000
0.000000 0.841160 0.000000
0.166120 0.840290 0.000000
0.298332 0.841357 0.000000
0.431916 0.838641 0.000000
0.548622 0.835059 0.000000
0.648469 0.828471 0.000000
0.757724 0.820359 0.000000
0.833724 0.810609 0.000000
0.912107 0.794759 0.000000
0.966877 0.774310 0.000000
0.987527 0.794214 0.000000
1.000000 0.812568 0.000000
1.000000 0.825473 0.103730
1.000000 0.840956 0.276085
1.000000 0.851506 0.377927
1.000000 0.862286 0.467766
1.000000 0.877509 0.554967
1.000000 0.897824 0.642106
1.000000 0.921286 0.733292
1.000000 0.944778 0.792345
1.000000 0.959993 0.844124
1.000000 0.973061 0.881357
1.000000 0.983581 0.916658
0.000000 0.893407 0.000000
0.056853 0.893232 0.000000
0.056853 0.893232 0.000000
0.057659 0.893234 0.000000
0.122734 0.893057 0.000000
0.122734 0.893057 0.000000
0.158638 0.892880 0.000000
0.180023 0.894732 0.000000
0.203776 0.894552 0.000000
0.259327 0.893994 0.000000
0.316197 0.893228 0.000000
0.365431 0.890392 0.000000
0.425082 0.889132 0.000000
0.493700 0.887340 0.000000
0.573436 0.882731 0.000000
0.667670 0.878959 0.000000
0.743859 0.875329 0.000000
0.815225 0.873530 0.000000
0.892751 0.864725 0.000000
0.939344 0.853186 0.000000
0.980722 0.839647 0.000000
1.000000 0.850602 0.000000
1.000000 0.865172 0.000000
1.000000 0.875030 0.264632
1.000000 0.885867 0.385089
1.000000 0.891875 0.481733
1.000000 0.900810 0.570853
1.000000 0.909571 0.646430
1.000000 0.929984 0.739010
1.000000 0.948162 0.795456
1.000000 0.962031 0.844637
1.000000 0.974078 0.882727
1.000000 0.984388 0.917003
0.418970 0.926781 0.180409
0.418970 0.926781 0.180409
0.428479 0.926574 0.176093
0.428479 0.926574 0.176093
0.428479 0.926574 0.176093
0.437695 0.926361 0.176256
0.437778 0.926364 0.171677
0.446804 0.926149 0.171849
0.464429 0.925717 0.166928
0.481434 0.925278 0.161916
0.497896 0.924831 0.156804
0.523124 0.924102 0.151863
0.547331 0.923364 0.134631
0.592597 0.920347 0.105310
0.657474 0.917858 0.030461
0.706937 0.917223 0.000000
0.766764 0.915840 0.000000
0.825944 0.911196 0.000000
0.884555 0.906273 0.000000
0.927090 0.902144 0.000000
0.963422 0.893639 0.000000
0.995852 0.885478 0.000000
1.000000 0.891507 0.000000
1.000000 0.903548 0.243911
1.000000 0.912094 0.393925
1.000000 0.917929 0.494473
1.000000 0.924845 0.590415
1.000000 0.931568 0.666176
1.000000 0.941561 0.745714
1.000000 0.954466 0.799121
1.000000 0.964711 0.845701
1.000000 0.976092 0.883463
1.000000 0.985533 0.917292
0.615763 0.953508 0.330010
0.615763 0.953508 0.330010
0.615763 0.953508 0.330010
0.615763 0.953508 0.330010
0.615763 0.953508 0.330010
0.622010 0.953280 0.330151
0.622010 0.953280 0.330151
0.622010 0.953280 0.330151
0.628156 0.953051 0.330294
0.634290 0.952828 0.327200
0.640324 0.952606 0.324114
0.652020 0.952159 0.321198
0.668909 0.951497 0.315254
0.684747 0.951997 0.304861
0.705045 0.951152 0.292970
0.741100 0.950661 0.281255
0.785721 0.947394 0.263657
0.842375 0.944419 0.238397
0.882920 0.940990 0.214069
0.921788 0.938687 0.190379
0.955386 0.937778 0.170527
0.983700 0.930238 0.116366
1.000000 0.921543 0.000000
1.000000 0.927414 0.211343
1.000000 0.935187 0.385008
1.000000 0.939452 0.502234
1.000000 0.945455 0.607791
1.000000 0.949487 0.687141
1.000000 0.955055 0.752952
1.000000 0.961799 0.805901
1.000000 0.969680 0.850815
1.000000 0.978437 0.885250
1.000000 0.986638 0.918532
0.714522 0.971831 0.448006
0.718825 0.971642 0.448136
0.718825 0.971642 0.448136
0.718825 0.971642 0.448136
0.718825 0.971642 0.448136
0.718825 0.971642 0.448136
0.718778 0.972503 0.447077
0.723002 0.972317 0.447210
0.723002 0.972317 0.447210
0.727275 0.972137 0.444591
0.731408 0.971952 0.444730
0.735589 0.971773 0.442128
0.743634 0.971404 0.442421
0.755772 0.970009 0.435452
0.771161 0.969303 0.427498
0.800754 0.967856 0.420603
0.833836 0.966170 0.406450
0.865072 0.964488 0.393776
0.889750 0.962249 0.377463
0.917785 0.960640 0.357025
0.948422 0.959670 0.344081
0.975774 0.956281 0.316862
0.999929 0.950347 0.287328
1.000000 0.946734 0.264515
1.000000 0.949212 0.350828
1.000000 0.956755 0.499610
1.000000 0.960614 0.608510
1.000000 0.963671 0.701777
1.000000 0.966700 0.766551
1.000000 0.971417 0.817551
1.000000 0.974618 0.854741
1.000000 0.982403 0.887926
1.000000 0.988768 0.920250
0.811885 0.983879 0.571654
0.814959 0.983721 0.571795
0.814959 0.983721 0.571795
0.814959 0.983721 0.571795
0.815071 0.983729 0.569112
0.815071 0.983729 0.569112
0.815071 0.983729 0.569112
0.815071 0.983729 0.569112
0.818103 0.983572 0.569258
0.818103 0.983572 0.569258
0.821354 0.982789 0.565154
0.824311 0.982635 0.565306
0.827335 0.982489 0.562790
0.833252 0.982203 0.557805
0.841706 0.981777 0.553062
0.852109 0.981865 0.550275
0.862144 0.981348 0.543417
0.878281 0.981106 0.536762
0.901940 0.979807 0.522867
0.923577 0.977974 0.504031
0.947146 0.975956 0.489996
0.971924 0.974506 0.467442
0.990799 0.973390 0.451156
1.000000 0.969876 0.423305
1.000000 0.964980 0.395885
1.000000 0.968859 0.480350
1.000000 0.971710 0.604195
1.000000 0.975572 0.710259
1.000000 0.977654 0.778242
1.000000 0.980633 0.829827
1.000000 0.983429 0.864965
1.000000 0.986773 0.893171
1.000000 0.990741 0.921853
0.863201 0.993048 0.680057
0.865516 0.992936 0.677748
0.865516 0.992936 0.677748
0.865516 0.992936 0.677748
0.865516 0.992936 0.677748
