Assets/Lutify-Free-LUTs-Pack/Lutify Free LUTs Pack/Commercial Pro - Claire/Lutify.me-Claire-LogC3-to-Rec709.cube
# Created with: fylm.ai - Colour Grading and Collaboration Software in Cloud 
# Website: https://fylm.ai 
# META
# Option: Gamut compress
# Block 1: IDT | Arri Alexa - LogC3
# Block 2: colourMatch | Blending Mode: Normal | {"ColorSpace":0,"CrossCovarianceLimit":50,"ReshapingIterations":1,"PercentSaturationShift":100,"PercentShadingShift":100,"ExtraShading":true,"PercentTint":100,"PercentModified":100}
# Block 3: HSL | Blending Mode: Normal | {"hue":{"Reds":0,"Yellows":0,"Greens":0,"Cyans":0,"Blues":0,"Magentas":0},"saturation":{"Reds":1,"Yellows":1,"Greens":1,"Cyans":1,"Blues":1,"Magentas":1},"luminance":{"Reds":0.9,"Yellows":0.9,"Greens":0.9,"Cyans":0.8,"Blues":0.8,"Magentas":0.9},"lum_sat":{"Blacks":1,"Shadows":1,"Midtones":1,"Highlights":1,"Whites":1},"sat_sat":{"10":1,"20":1,"30":1,"40":1,"50":1}}
# Block 4: subtractiveColour | Blending Mode: Normal | {"sliders":{"gainY":0.1,"C":0.05,"M":0.05,"Y":0.05}}
# Block 5: logPrimaries | Blending Mode: Normal | {"wheels":{"shadows":{"Y":"0","R":"1","G":"1","B":"1"},"midtones":{"Y":"0","R":"1","G":"1","B":"1"},"highlights":{"Y":"0","R":"1","G":"1","B":"1"},"offset":{"Y":"0","R":"1","G":"1","B":"1"}},"sliders":{"shadows":{"Y":0,"R":-0.05,"G":0,"B":0.1},"midtones":{"Y":0,"R":0,"G":0,"B":0},"highlights":{"Y":0,"R":0,"G":0,"B":0},"offset":{"Y":0,"R":0,"G":0,"B":0}}}
# Block 6: LUT | Filmic Curve Response: Standard Contrast 1 (100%)
# Block 7: LUT | Illuminant: D93 (100%)
# Block 8: LUT | Neutral Tint: Teal Tint 4 (100%)
# Block 9: ODT | Rec709
TITLE "Lutify.me-Claire-LogC3-to-Rec709" 
LUT_3D_SIZE 33
0.000000 0.000000 0.000000
0.000000 0.000000 0.000000
0.000000 0.000000 0.000000
0.000000 0.000000 0.000000
0.064087 0.000000 0.000000
0.138797 0.000000 0.000000
0.210882 0.000000 0.000000
0.272852 0.000000 0.000000
0.325496 0.000000 0.000000
0.378416 0.000000 0.000000
0.417046 0.000000 0.000000
0.443123 0.000000 0.000000
0.471124 0.000000 0.000000
0.504680 0.000000 0.000000
0.540278 0.000000 0.000000
0.581535 0.000000 0.000000
0.644961 0.000000 0.000000
0.718537 0.000000 0.000000
0.793269 0.000000 0.000000
0.870851 0.000000 0.036102
0.944134 0.000000 0.073675
1.000000 0.120089 0.116210
1.000000 0.254449 0.157729
1.000000 0.349645 0.206153
1.000000 0.439556 0.261435
1.000000 0.542878 0.318389
1.000000 0.622696 0.386613
1.000000 0.703405 0.463348
1.000000 0.768663 0.537039
1.000000 0.824458 0.608152
1.000000 0.864574 0.688851
1.000000 0.896150 0.754609
1.000000 0.920501 0.805806
0.000000 0.000000 0.000000
0.000000 0.000000 0.000000
0.000000 0.000000 0.000000
0.000000 0.000000 0.007664
0.065566 0.000000 0.000000
0.134904 0.000000 0.000000
0.197786 0.000000 0.000000
0.257874 0.000000 0.000000
0.306269 0.000000 0.000000
0.354151 0.000000 0.000000
0.389968 0.000000 0.000000
0.417308 0.000000 0.000000
0.446928 0.000000 0.000000
0.489939 0.000000 0.000000
0.532422 0.000000 0.000000
0.577535 0.000000 0.000000
0.645052 0.000000 0.000000
0.718557 0.000000 0.000000
0.793214 0.000000 0.000000
0.870722 0.000000 0.032964
0.944006 0.000000 0.075107
1.000000 0.129890 0.115665
1.000000 0.259621 0.157219
1.000000 0.354029 0.205711
1.000000 0.443580 0.261062
1.000000 0.546728 0.318067
1.000000 0.622696 0.386613
1.000000 0.703405 0.463348
1.000000 0.768663 0.537039
1.000000 0.824458 0.608152
1.000000 0.864574 0.688851
1.000000 0.896150 0.754609
1.000000 0.920501 0.805806
0.000000 0.000000 0.000000
0.000000 0.000000 0.000000
0.000000 0.000000 0.000000
0.000000 0.000000 0.000000
0.066900 0.000000 0.000000
0.129814 0.000000 0.000000
0.187439 0.000000 0.000000
0.237895 0.000000 0.000000
0.284034 0.000000 0.000000
0.333260 0.000000 0.000000
0.373133 0.000000 0.000000
0.405217 0.000000 0.000000
0.437109 0.000000 0.000000
0.490135 0.000000 0.000000
0.532533 0.000000 0.000000
0.577682 0.000000 0.000000
0.649417 0.000000 0.000000
0.718574 0.000000 0.000000
0.793178 0.000000 0.000000
0.870601 0.000000 0.033343
0.943880 0.000000 0.074426
1.000000 0.147349 0.116733
1.000000 0.259621 0.157219
1.000000 0.354029 0.205711
1.000000 0.443580 0.261062
1.000000 0.547422 0.318738
1.000000 0.626382 0.386364
1.000000 0.703405 0.463348
1.000000 0.768663 0.537039
1.000000 0.824458 0.608152
1.000000 0.864574 0.688851
1.000000 0.896150 0.754609
1.000000 0.920501 0.805806
0.000000 0.008177 0.000000
0.000000 0.010143 0.000000
0.000000 0.010749 0.000000
0.000000 0.009604 0.000000
0.050806 0.000000 0.000000
0.107698 0.000000 0.000000
0.160754 0.000000 0.000000
0.213561 0.000000 0.000000
0.264538 0.000000 0.000000
0.311377 0.000000 0.000000
0.354754 0.000000 0.000000
0.399444 0.000000 0.000000
0.430793 0.000000 0.000000
0.494037 0.000000 0.000000
0.532725 0.000000 0.000000
0.581996 0.000000 0.000000
0.649536 0.000000 0.000000
0.722928 0.000000 0.000000
0.793125 0.000000 0.000000
0.870482 0.000000 0.029970
0.947116 0.000000 0.073180
1.000000 0.155305 0.116156
1.000000 0.264742 0.156697
1.000000 0.358395 0.205262
1.000000 0.447600 0.260685
1.000000 0.547422 0.318738
1.000000 0.626382 0.386364
1.000000 0.706762 0.463200
1.000000 0.768663 0.537039
1.000000 0.824458 0.608152
1.000000 0.864574 0.688851
1.000000 0.896150 0.754609
1.000000 0.920501 0.805806
0.000000 0.052410 0.000000
0.000000 0.052388 0.000000
0.000000 0.052419 0.000000
0.000000 0.051148 0.000000
0.036903 0.046130 0.000000
0.085838 0.034041 0.000000
0.144505 0.000000 0.000000
0.192349 0.000000 0.000000
0.242504 0.000000 0.000000
0.295695 0.000000 0.000000
0.344560 0.000000 0.000000
0.388102 0.000000 0.000000
0.424689 0.000000 0.000000
0.490559 0.000000 0.000000
0.528974 0.000000 0.000000
0.582169 0.000000 0.000000
0.649655 0.000000 0.000000
0.722942 0.000000 0.000000
0.793090 0.000000 0.000000
0.874667 0.000000 0.025672
0.946976 0.000000 0.074631
1.000000 0.162871 0.115563
1.000000 0.269803 0.156164
1.000000 0.362742 0.204806
1.000000 0.447600 0.260685
1.000000 0.551262 0.318416
1.000000 0.626382 0.386364
1.000000 0.707354 0.463945
1.000000 0.771251 0.537011
1.000000 0.826490 0.608219
1.000000 0.864574 0.688851
1.000000 0.896150 0.754609
1.000000 0.920501 0.805806
0.000000 0.077651 0.000000
0.000000 0.077620 0.000000
0.000000 0.075671 0.000000
0.000000 0.074581 0.000000
0.016230 0.067350 0.000000
0.083726 0.060226 0.000000
0.136746 0.045514 0.000000
0.185504 0.000000 0.000000
0.238734 0.000000 0.000000
0.287192 0.000000 0.000000
0.334551 0.000000 0.000000
0.382863 0.000000 0.000000
0.428222 0.000000 0.000000
0.487169 0.000000 0.000000
0.533232 0.000000 0.000000
0.582447 0.000000 0.000000
0.645540 0.000000 0.000000
0.722956 0.000000 0.000000
0.793055 0.000000 0.000000
0.874597 0.000000 0.028142
0.946839 0.000000 0.073884
1.000000 0.170112 0.117209
1.000000 0.274804 0.157821
1.000000 0.362739 0.207275
1.000000 0.451614 0.260303
1.000000 0.551262 0.318416
1.000000 0.626382 0.386364
1.000000 0.707354 0.463945
1.000000 0.771251 0.537011
1.000000 0.826490 0.608219
1.000000 0.864574 0.688851
1.000000 0.897464 0.754718
1.000000 0.920501 0.805806
0.000000 0.101893 0.000000
0.000000 0.100587 0.000000
0.000000 0.098098 0.000000
0.000000 0.094524 0.000000
0.000000 0.090398 0.000000
0.085904 0.081355 0.000000
0.138899 0.070079 0.000000
0.189682 0.052494 0.000000
0.242792 0.000000 0.000000
0.291913 0.000000 0.000000
0.335087 0.000000 0.000000
0.380558 0.000000 0.000000
0.425623 0.000000 0.000000
0.491435 0.000000 0.000000
0.529705 0.000000 0.000000
0.582792 0.000000 0.000000
0.645718 0.000000 0.000000
0.722991 0.000000 0.000000
0.793003 0.000000 0.000000
0.874398 0.000000 0.019832
0.946551 0.000000 0.074576
0.999716 0.183809 0.115972
1.000000 0.279752 0.157278
1.000000 0.367070 0.206821
1.000000 0.452221 0.260841
1.000000 0.551262 0.318416
1.000000 0.630067 0.386114
1.000000 0.707354 0.463945
1.000000 0.771251 0.537011
1.000000 0.826490 0.608219
1.000000 0.864574 0.688851
1.000000 0.897464 0.754718
1.000000 0.920501 0.805806
0.000000 0.128098 0.000000
0.000000 0.126512 0.000000
0.000000 0.123454 0.000000
0.000000 0.119066 0.000000
0.000000 0.112743 0.000000
0.081544 0.105485 0.000000
0.142929 0.097142 0.000000
0.192990 0.084240 0.000000
0.242519 0.068057 0.000000
0.292353 0.029237 0.000000
0.338384 0.000000 0.000000
0.387207 0.000000 0.000000
0.426593 0.000000 0.000000
0.485178 0.000000 0.000000
0.526896 0.000000 0.000000
0.583419 0.000000 0.000000
0.646004 0.000000 0.000000
0.723040 0.000000 0.000000
0.792938 0.000000 0.000000
0.874255 0.000000 0.019692
0.946258 0.000000 0.072956
0.999454 0.190336 0.115325
1.000000 0.284741 0.157088
1.000000 0.371814 0.206797
1.000000 0.456213 0.265509
1.000000 0.555101 0.318090
1.000000 0.630067 0.386114
1.000000 0.707345 0.467043
1.000000 0.771251 0.537011
1.000000 0.826490 0.608219
1.000000 0.864574 0.688851
1.000000 0.897464 0.754718
1.000000 0.920501 0.805806
0.000000 0.158794 0.000000
0.000000 0.155388 0.000000
0.000000 0.152069 0.000000
0.000000 0.148750 0.000000
0.000000 0.143510 0.000000
0.072481 0.137364 0.000000
0.138319 0.133068 0.000000
0.185682 0.124509 0.000000
0.247441 0.107243 0.000000
0.301972 0.085417 0.000000
0.347682 0.066164 0.000000
0.385740 0.022196 0.000000
0.431405 0.000000 0.000000
0.490301 0.000000 0.000000
0.532036 0.000000 0.000000
0.588354 0.000000 0.000000
0.650814 0.000000 0.000000
0.727472 0.000000 0.000000
0.802261 0.000000 0.000000
0.873887 0.000000 0.000000
0.945634 0.079981 0.071795
0.998629 0.208936 0.115639
1.000000 0.289590 0.158761
1.000000 0.376107 0.206329
1.000000 0.460210 0.265132
1.000000 0.558935 0.320675
1.000000 0.630764 0.386834
1.000000 0.710663 0.466901
1.000000 0.771740 0.537829
1.000000 0.826478 0.611325
1.000000 0.864574 0.688851
1.000000 0.897464 0.754718
1.000000 0.920501 0.805806
0.000000 0.190294 0.000000
0.000000 0.184325 0.000000
0.000000 0.182366 0.000000
0.000000 0.180259 0.000000
0.000000 0.172178 0.000000
0.048394 0.170872 0.000000
0.140685 0.161075 0.000000
0.194549 0.153904 0.000000
0.251107 0.143119 0.000000
0.306391 0.122874 0.000000
0.356955 0.108796 0.000000
0.393198 0.097763 0.000000
0.443058 0.081572 0.000000
0.502899 0.046132 0.000000
0.537803 0.058415 0.000000
0.593973 0.056181 0.000000
0.655780 0.000000 0.000000
0.727761 0.000000 0.000000
0.802128 0.000000 0.000000
0.873489 0.041597 0.000000
0.944787 0.133468 0.069294
0.997517 0.231153 0.112812
1.000000 0.299160 0.157629
1.000000 0.380382 0.208365
1.000000 0.468286 0.266921
1.000000 0.562772 0.320350
1.000000 0.634419 0.389760
1.000000 0.710663 0.466901
1.000000 0.774287 0.537808
1.000000 0.826478 0.611325
1.000000 0.866240 0.688962
1.000000 0.897464 0.754718
1.000000 0.920501 0.805806
0.000000 0.222229 0.000000
0.000000 0.217785 0.000000
0.000000 0.215448 0.000000
0.000000 0.215243 0.000000
0.000000 0.205940 0.000000
0.000000 0.202617 0.000000
0.127125 0.196082 0.000000
0.190664 0.188269 0.000000
0.249802 0.178446 0.000000
0.305170 0.166606 0.000000
0.365655 0.148409 0.000000
0.415865 0.132901 0.000000
0.458480 0.124363 0.000000
0.512422 0.115426 0.000000
0.551647 0.124956 0.000000
0.599822 0.132784 0.000000
0.657140 0.134842 0.000000
0.732671 0.126256 0.000000
0.811287 0.106932 0.000000
0.876989 0.131101 0.000000
0.947119 0.174831 0.065067
0.996344 0.251807 0.109691
1.000000 0.313230 0.155847
1.000000 0.393554 0.207374
1.000000 0.476368 0.268731
1.000000 0.566610 0.320024
1.000000 0.638064 0.389517
1.000000 0.713955 0.466763
1.000000 0.774287 0.537808
1.000000 0.828493 0.611395
1.000000 0.866240 0.688962
1.000000 0.897464 0.754718
1.000000 0.920634 0.806169
0.000000 0.251762 0.000000
0.000000 0.249514 0.000000
0.000000 0.249292 0.000000
0.000000 0.248866 0.000000
0.000000 0.241851 0.000000
0.000000 0.236621 0.000000
0.099815 0.234854 0.000000
0.186631 0.227455 0.000000
0.252939 0.216524 0.000000
0.302230 0.209366 0.000000
0.366028 0.196403 0.000000
0.420382 0.184554 0.000000
0.478779 0.174107 0.000000
0.530546 0.168922 0.000000
0.569650 0.169804 0.000000
0.606449 0.191245 0.000000
0.667018 0.188173 0.000000
0.733466 0.193282 0.000000
0.811006 0.191621 0.000000
0.875449 0.211857 0.000000
0.945381 0.221336 0.059086
0.997572 0.276306 0.108245
1.000000 0.336058 0.152641
1.000000 0.410380 0.205360
1.000000 0.484437 0.267942
1.000000 0.570441 0.322642
1.000000 0.641691 0.389275
1.000000 0.717222 0.466631
1.000000 0.776806 0.537793
1.000000 0.828493 0.611395
1.000000 0.866240 0.688962
1.000000 0.897464 0.754718
1.000000 0.921717 0.806258
0.000000 0.289915 0.000000
0.000000 0.289737 0.000000
0.000000 0.284615 0.000000
0.000000 0.284151 0.000000
0.000000 0.281153 0.000000
0.000000 0.277867 0.000000
0.038902 0.276498 0.000000
0.162674 0.274233 0.000000
0.238639 0.265910 0.000000
0.299704 0.256654 0.000000
0.357326 0.246084 0.000000
0.421059 0.235401 0.000000
0.487626 0.222013 0.000000
0.552349 0.212557 0.000000
0.587841 0.213982 0.000000
0.624880 0.241457 0.000000
0.681560 0.251079 0.000000
0.739102 0.261127 0.000000
0.815198 0.255752 0.000000
0.877631 0.274543 0.000000
0.945846 0.278646 0.045123
0.995103 0.309503 0.103963
1.000000 0.362901 0.149177
1.000000 0.427437 0.203695
1.000000 0.500530 0.268960
1.000000 0.578111 0.321988
1.000000 0.648881 0.391993
1.000000 0.720453 0.469613
1.000000 0.779285 0.540876
1.000000 0.830493 0.611471
1.000000 0.867887 0.689080
1.000000 0.898770 0.754832
1.000000 0.921717 0.806258
0.000000 0.334139 0.000000
0.000000 0.331062 0.000000
0.000000 0.330778 0.000000
0.000000 0.327541 0.000000
0.000000 0.327099 0.000000
0.000000 0.326408 0.000000
0.000000 0.325099 0.000000
0.138426 0.323370 0.000000
0.206812 0.321389 0.000000
0.288999 0.311777 0.000000
0.350557 0.301709 0.000000
0.410466 0.293222 0.000000
0.484611 0.281967 0.000000
0.561565 0.265031 0.000000
0.609619 0.263492 0.000000
0.646137 0.277691 0.000000
0.690937 0.302106 0.000000
0.744221 0.315401 0.000000
0.818940 0.314360 0.000000
0.875386 0.329545 0.000000
0.941607 0.341381 0.000000
0.993518 0.358600 0.100431
1.000000 0.397434 0.147923
1.000000 0.452189 0.205649
1.000000 0.520578 0.266864
1.000000 0.593436 0.323657
1.000000 0.656001 0.391531
1.000000 0.726854 0.469374
1.000000 0.784179 0.540876
1.000000 0.832477 0.611551
1.000000 0.867887 0.689080
1.000000 0.898759 0.757176
1.000000 0.921717 0.806258
0.000000 0.382617 0.000000
0.000000 0.382383 0.000000
0.000000 0.382122 0.000000
0.000000 0.381802 0.000000
0.000000 0.381408 0.000000
0.000000 0.380802 0.000000
0.000000 0.379806 0.000000
0.000000 0.378705 0.000000
0.163438 0.377159 0.000000
0.249382 0.371587 0.000000
0.331501 0.361718 0.000000
0.395186 0.354671 0.000000
0.478248 0.341520 0.000000
0.553178 0.330374 0.000000
0.625357 0.321204 0.000000
0.674653 0.328318 0.000000
0.702857 0.350442 0.000000
0.761505 0.373592 0.000000
0.830108 0.376392 0.000000
0.887568 0.385307 0.000000
0.939140 0.408761 0.000000
0.989381 0.422544 0.084085
1.000000 0.448044 0.145800
1.000000 0.493892 0.202771
1.000000 0.544988 0.267519
1.000000 0.609312 0.326050
1.000000 0.663036 0.394294
1.000000 0.733137 0.472278
1.000000 0.788998 0.540897
1.000000 0.834433 0.614744
1.000000 0.869502 0.692065
1.000000 0.900056 0.757290
1.000000 0.922790 0.806350
0.000000 0.444685 0.000000
0.000000 0.444457 0.000000
0.000000 0.444231 0.000000
0.000000 0.443919 0.000000
0.000000 0.443552 0.000000
0.000000 0.443218 0.000000
0.000000 0.439299 0.000000
0.000000 0.435143 0.000000
0.033293 0.434025 0.000000
0.204887 0.432288 0.000000
0.287772 0.430032 0.000000
0.366078 0.426805 0.000000
0.453718 0.418235 0.000000
0.532635 0.408669 0.000000
0.603031 0.402163 0.000000
0.679006 0.394041 0.000000
0.729822 0.395871 0.000000
0.773004 0.426158 0.000000
0.835065 0.446907 0.000000
0.893478 0.453253 0.000000
0.944919 0.470045 0.000000
0.991077 0.489296 0.050335
1.000000 0.515054 0.135253
1.000000 0.542925 0.203470
1.000000 0.572782 0.269943
1.000000 0.628375 0.330566
1.000000 0.680413 0.396462
1.000000 0.745823 0.472664
1.000000 0.793747 0.544033
1.000000 0.838320 0.614930
1.000000 0.872700 0.692321
1.000000 0.901345 0.757407
1.000000 0.922790 0.806350
0.000000 0.522960 0.000000
0.000000 0.522733 0.000000
0.000000 0.522556 0.000000
0.000000 0.522314 0.000000
0.000000 0.522101 0.000000
0.000000 0.521869 0.000000
0.000000 0.521554 0.000000
0.000000 0.521055 0.000000
0.000000 0.520380 0.000000
0.000000 0.519133 0.000000
0.180963 0.513968 0.000000
0.299108 0.511481 0.000000
0.418679 0.510765 0.000000
0.503373 0.502508 0.000000
0.573465 0.494027 0.000000
0.649794 0.484097 0.000000
0.730837 0.472676 0.000000
0.794585 0.486489 0.000000
0.838060 0.506616 0.000000
0.890235 0.522544 0.000000
0.942995 0.531714 0.000000
0.984757 0.547167 0.000000
1.000000 0.572592 0.127558
1.000000 0.595665 0.200777
1.000000 0.616554 0.274158
1.000000 0.654663 0.328339
1.000000 0.698953 0.399411
1.000000 0.760391 0.475489
1.000000 0.803429 0.548084
1.000000 0.842529 0.619013
1.000000 0.874269 0.692457
1.000000 0.902624 0.757529
1.000000 0.923846 0.808455
0.000000 0.590016 0.000000
0.000000 0.589825 0.000000
0.000000 0.589670 0.000000
0.000000 0.589505 0.000000
0.000000 0.589390 0.000000
0.000000 0.589142 0.000000
0.000000 0.588873 0.000000
0.000000 0.588501 0.000000
0.000000 0.591736 0.000000
0.000000 0.594588 0.000000
0.000000 0.593426 0.000000
0.221859 0.591512 0.000000
0.355933 0.588497 0.000000
0.441183 0.585486 0.000000
0.528584 0.585256 0.000000
0.619777 0.576003 0.000000
0.711639 0.561473 0.000000
0.798133 0.550209 0.000000
0.845316 0.566363 0.000000
0.888468 0.583315 0.000000
0.938061 0.600942 0.000000
0.976547 0.608324 0.000000
1.000000 0.625274 0.105556
1.000000 0.651546 0.193615
1.000000 0.666804 0.271267
1.000000 0.699609 0.328795
1.000000 0.723390 0.405510
1.000000 0.774844 0.483135
1.000000 0.812462 0.551405
1.000000 0.846427 0.622353
1.000000 0.877337 0.695580
1.000000 0.905146 0.760093
1.000000 0.924909 0.808551
0.000000 0.661864 0.000000
0.000000 0.661742 0.000000
0.000000 0.661614 0.000000
0.000000 0.661480 0.000000
0.000000 0.665121 0.000000
0.000000 0.664897 0.000000
0.000000 0.664740 0.000000
0.000000 0.668172 0.000000
0.000000 0.671680 0.000000
0.000000 0.670898 0.000000
0.000000 0.665850 0.000000
0.139944 0.664108 0.000000
0.297523 0.662033 0.000000
0.403474 0.659351 0.000000
0.492085 0.656187 0.000000
0.593661 0.655306 0.000000
0.691347 0.649567 0.000000
0.779945 0.639448 0.000000
0.842290 0.634816 0.000000
0.894367 0.635249 0.000000
0.932110 0.661456 0.000000
0.966843 0.669087 0.000000
0.993155 0.685878 0.051588
1.000000 0.706796 0.190533
1.000000 0.720368 0.270114
1.000000 0.747960 0.334306
1.000000 0.767296 0.412080
1.000000 0.797884 0.487312
1.000000 0.823369 0.554913
1.000000 0.855853 0.626155
1.000000 0.882172 0.700149
1.000000 0.907796 0.760878
1.000000 0.927007 0.808756
0.000000 0.743009 0.000000
0.000000 0.742853 0.000000
0.000000 0.742691 0.000000
0.000000 0.746322 0.000000
0.000000 0.746148 0.000000
0.000000 0.746058 0.000000
0.000000 0.745777 0.000000
0.000000 0.749248 0.000000
0.000000 0.748711 0.000000
0.000000 0.748123 0.000000
0.000000 0.747083 0.000000
0.000000 0.742130 0.000000
0.212533 0.740651 0.000000
0.352262 0.738361 0.000000
0.458293 0.735488 0.000000
0.555963 0.739313 0.000000
0.661502 0.738015 0.000000
0.754201 0.732675 0.000000
0.823554 0.720645 0.000000
0.880349 0.713058 0.000000
0.926621 0.729145 0.000000
0.959596 0.738589 0.000000
0.985823 0.752054 0.000000
1.000000 0.765370 0.175123
1.000000 0.775662 0.275695
1.000000 0.794309 0.346694
1.000000 0.804376 0.423672
1.000000 0.823671 0.495453
1.000000 0.838244 0.562736
1.000000 0.864782 0.630117
1.000000 0.889353 0.703758
1.000000 0.911445 0.763563
1.000000 0.929056 0.810956
0.000000 0.812894 0.000000
0.000000 0.812677 0.000000
0.000000 0.812567 0.000000
0.000000 0.812453 0.000000
0.000000 0.812223 0.000000
0.000000 0.812105 0.000000
0.000000 0.811741 0.000000
0.000000 0.811489 0.000000
0.000000 0.811099 0.000000
0.000000 0.810692 0.000000
0.000000 0.810124 0.000000
0.000000 0.809214 0.000000
0.148641 0.810873 0.000000
0.314204 0.809004 0.000000
0.441694 0.803222 0.000000
0.544338 0.802854 0.000000
0.638404 0.801865 0.000000
0.739387 0.796712 0.000000
0.812040 0.789462 0.000000
0.861523 0.786332 0.000000
0.917663 0.785782 0.000000
0.953791 0.783888 0.000000
0.976649 0.799812 0.000000
0.997522 0.807446 0.162911
1.000000 0.815409 0.279202
1.000000 0.826068 0.355997
1.000000 0.834594 0.435452
1.000000 0.851656 0.514427
1.000000 0.865465 0.574848
1.000000 0.876720 0.639254
1.000000 0.896443 0.708065
1.000000 0.916445 0.767399
1.000000 0.932062 0.813264
0.000000 0.858463 0.000000
0.000000 0.858328 0.000000
0.000000 0.858192 0.000000
0.000000 0.858055 0.000000
0.000000 0.857916 0.000000
0.000000 0.857774 0.000000
0.000000 0.857631 0.000000
0.000000 0.857340 0.000000
0.000000 0.857037 0.000000
0.000000 0.856726 0.000000
0.000000 0.855916 0.000000
0.009098 0.857679 0.000000
0.238565 0.856597 0.000000
0.363970 0.857130 0.000000
0.465243 0.854731 0.000000
0.564652 0.851538 0.000000
0.642414 0.848420 0.000000
0.730256 0.844218 0.000000
0.793820 0.845643 0.000000
0.855184 0.842000 0.000000
0.908233 0.833763 0.000000
0.945653 0.829051 0.000000
0.971476 0.835210 0.000000
0.991573 0.843952 0.139475
1.000000 0.850490 0.273700
1.000000 0.859286 0.367394
1.000000 0.863952 0.438378
1.000000 0.875830 0.525061
1.000000 0.886887 0.591992
1.000000 0.896040 0.652762
1.000000 0.905841 0.715517
1.000000 0.922219 0.773023
1.000000 0.937902 0.816296
0.000000 0.896041 0.147378
0.000000 0.896041 0.147378
0.000000 0.895874 0.147502
0.000000 0.895705 0.147627
0.000000 0.895708 0.141983
0.000000 0.895538 0.142118
0.000000 0.895365 0.142252
0.000000 0.897194 0.137473
0.082329 0.897018 0.137618
0.166951 0.896664 0.131034
0.251772 0.895930 0.124473
0.320493 0.896944 0.119027
0.367168 0.896147 0.093615
0.436098 0.894671 0.056327
0.503631 0.892864 0.000000
0.583137 0.888300 0.000000
0.663261 0.885105 0.000000
0.728802 0.884024 0.000000
0.785970 0.884919 0.000000
0.850257 0.881270 0.000000
0.906019 0.875950 0.000000
0.938258 0.870042 0.000000
0.966446 0.870425 0.000000
0.988936 0.871304 0.103310
1.000000 0.879943 0.272151
1.000000 0.886476 0.373648
1.000000 0.889826 0.449527
1.000000 0.896390 0.530676
1.000000 0.905823 0.599928
1.000000 0.913490 0.664755
1.000000 0.920691 0.727457
1.000000 0.931903 0.779308
1.000000 0.943294 0.819073
0.308258 0.924133 0.275964
0.321321 0.923939 0.276050
0.321525 0.923944 0.272183
0.333987 0.923748 0.272270
0.333987 0.923748 0.272270
0.345941 0.923550 0.272359
0.357618 0.923355 0.268583
0.368719 0.923154 0.268676
0.379622 0.922955 0.264902
0.400183 0.922543 0.265097
0.418873 0.923673 0.258718
0.446818 0.923040 0.251301
0.489696 0.921937 0.248012
0.523321 0.920985 0.236867
0.577718 0.919236 0.226210
0.638608 0.916979 0.216084
0.691321 0.914766 0.206257
0.749199 0.915088 0.197007
0.794458 0.912774 0.184642
0.849254 0.909736 0.169787
0.893082 0.908650 0.155583
0.928329 0.906484 0.158679
0.954920 0.903341 0.157014
0.980155 0.900364 0.166834
0.999024 0.902426 0.250177
1.000000 0.909082 0.373029
1.000000 0.911689 0.461332
1.000000 0.918325 0.543037
1.000000 0.922502 0.611802
1.000000 0.929975 0.677547
1.000000 0.936871 0.742486
1.000000 0.945091 0.790830
1.000000 0.950128 0.824427
0.507412 0.948569 0.375118
0.507412 0.948569 0.375118
0.507412 0.948569 0.375118
0.515684 0.948334 0.375206
0.515684 0.948334 0.375206
0.523788 0.948100 0.375296
0.523788 0.948100 0.375296
0.531733 0.947864 0.375388
0.539665 0.947636 0.372036
0.547311 0.947400 0.372132
0.554946 0.947170 0.368792
0.569548 0.946698 0.368996
0.590631 0.945996 0.365889
0.623607 0.944838 0.356232
0.653876 0.943687 0.350102
0.686569 0.943584 0.345645
0.720955 0.943317 0.334990
0.760040 0.941491 0.326998
0.810408 0.938939 0.317500
0.853924 0.936573 0.303034
0.892044 0.934356 0.300265
0.922859 0.933722 0.295421
0.952821 0.933066 0.300897
0.974515 0.929322 0.301325
0.993722 0.928245 0.302463
1.000000 0.931078 0.369209
1.000000 0.933966 0.472085
1.000000 0.939071 0.550409
1.000000 0.941046 0.631471
1.000000 0.944109 0.692154
1.000000 0.949785 0.751324
1.000000 0.956014 0.801409
1.000000 0.958813 0.834473
0.639000 0.963807 0.473085
0.644698 0.963591 0.473173
0.644698 0.963591 0.473173
0.644571 0.964564 0.474436
0.644571 0.964564 0.474436
