Assets/Lutify-Free-LUTs-Pack/Lutify Free LUTs Pack/Commercial Pro - Claire/Lutify.me-Claire-DWG-to-DWG.cube
# Created with: fylm.ai - Colour Grading and Collaboration Software in Cloud 
# Website: https://fylm.ai 
# META
# Option: Gamut compress
# Block 2: colourMatch | Blending Mode: Normal | {"ColorSpace":0,"CrossCovarianceLimit":50,"ReshapingIterations":1,"PercentSaturationShift":100,"PercentShadingShift":100,"ExtraShading":true,"PercentTint":100,"PercentModified":100}
# Block 3: HSL | Blending Mode: Normal | {"hue":{"Reds":0,"Yellows":0,"Greens":0,"Cyans":0,"Blues":0,"Magentas":0},"saturation":{"Reds":1,"Yellows":1,"Greens":1,"Cyans":1,"Blues":1,"Magentas":1},"luminance":{"Reds":0.9,"Yellows":0.9,"Greens":0.9,"Cyans":0.8,"Blues":0.8,"Magentas":0.9},"lum_sat":{"Blacks":1,"Shadows":1,"Midtones":1,"Highlights":1,"Whites":1},"sat_sat":{"10":1,"20":1,"30":1,"40":1,"50":1}}
# Block 4: subtractiveColour | Blending Mode: Normal | {"sliders":{"gainY":0.1,"C":0.05,"M":0.05,"Y":0.05}}
# Block 5: logPrimaries | Blending Mode: Normal | {"wheels":{"shadows":{"Y":"0","R":"1","G":"1","B":"1"},"midtones":{"Y":"0","R":"1","G":"1","B":"1"},"highlights":{"Y":"0","R":"1","G":"1","B":"1"},"offset":{"Y":"0","R":"1","G":"1","B":"1"}},"sliders":{"shadows":{"Y":0,"R":-0.05,"G":0,"B":0.1},"midtones":{"Y":0,"R":0,"G":0,"B":0},"highlights":{"Y":0,"R":0,"G":0,"B":0},"offset":{"Y":0,"R":0,"G":0,"B":0}}}
# Block 6: LUT | Filmic Curve Response: Standard Contrast 1 (100%)
# Block 7: LUT | Illuminant: D93 (100%)
# Block 8: LUT | Neutral Tint: Teal Tint 4 (100%)
TITLE "dwg" 
LUT_3D_SIZE 5
-0.019141 0.003031 0.023733
0.289852 0.029118 0.041966
0.468007 0.202237 0.207287
0.677315 0.412855 0.415388
0.875161 0.626095 0.616795
0.025079 0.219181 0.052637
0.276937 0.199228 0.069388
0.475432 0.229438 0.214508
0.678830 0.415767 0.416644
0.875162 0.627018 0.616897
0.229378 0.393024 0.179421
0.303882 0.384408 0.182397
0.545990 0.368116 0.293207
0.687933 0.443434 0.425508
0.875166 0.630071 0.617122
0.483900 0.573064 0.364832
0.508217 0.565793 0.365137
0.582992 0.557490 0.386747
0.795568 0.564820 0.531587
0.880566 0.662389 0.622957
0.768864 0.752126 0.576776
0.768864 0.752126 0.576776
0.777153 0.751175 0.580132
0.828654 0.748836 0.605475
0.978830 0.759853 0.716496
-0.000694 0.063673 0.164619
0.257962 0.037714 0.121509
0.451981 0.204235 0.220202
0.675825 0.413677 0.416935
0.875165 0.627088 0.617231
0.059508 0.225620 0.271076
0.238077 0.255658 0.284026
0.453549 0.241394 0.227272
0.677341 0.417388 0.418340
0.875165 0.627088 0.617231
0.207620 0.421187 0.309745
0.260244 0.423686 0.287138
0.487901 0.395927 0.263584
0.683419 0.446140 0.424569
0.875168 0.630122 0.617387
0.427793 0.619617 0.405928
0.436164 0.619626 0.405380
0.530079 0.589319 0.388475
0.795568 0.564820 0.531587
0.880572 0.663634 0.623542
0.705318 0.787305 0.580126
0.715309 0.780567 0.577172
0.777153 0.751175 0.580132
0.828654 0.748836 0.605475
0.978830 0.759853 0.716496
0.047395 0.075229 0.201403
0.217963 0.046336 0.155565
0.491897 0.160443 0.247518
0.676095 0.423778 0.445767
0.875201 0.631888 0.621148
0.093251 0.201274 0.311087
0.163925 0.206564 0.316125
0.431094 0.178400 0.281544
0.676105 0.427625 0.446533
0.875203 0.632942 0.621286
0.200521 0.392259 0.440222
0.250007 0.423400 0.471416
0.465623 0.480027 0.505309
0.677709 0.460436 0.454090
0.875207 0.636079 0.621574
0.425616 0.647087 0.537931
0.436553 0.651483 0.538460
0.488815 0.660903 0.524635
0.705394 0.634349 0.491295
0.879542 0.669813 0.627155
0.664466 0.836574 0.629411
0.664452 0.836568 0.629215
0.672904 0.835388 0.627768
0.734244 0.817709 0.611280
0.977945 0.759638 0.715732
0.242929 0.111537 0.240073
0.275623 0.110594 0.236343
0.418181 0.139528 0.250254
0.696966 0.346358 0.431062
0.877656 0.643402 0.654034
0.240593 0.111287 0.239913
0.274361 0.110390 0.236200
0.418181 0.139528 0.250254
0.696966 0.346358 0.431062
0.877656 0.643402 0.654034
0.274453 0.395379 0.499423
0.288186 0.400861 0.504004
0.381753 0.426184 0.537438
0.635834 0.399639 0.504250
0.877678 0.649564 0.655626
0.363403 0.556045 0.609819
0.402485 0.592072 0.646055
0.477680 0.642259 0.700896
0.708745 0.724034 0.745543
0.882077 0.689712 0.665733
0.663605 0.863021 0.774187
0.664658 0.863026 0.774212
0.675083 0.866392 0.774378
0.734124 0.877263 0.762479
0.897626 0.846660 0.694294
0.439077 0.188994 0.312735
0.443385 0.189691 0.312666
0.476836 0.201922 0.320433
0.626125 0.294081 0.391825
0.870385 0.515535 0.598571
0.439077 0.188994 0.312735
0.443385 0.189691 0.312666
0.476836 0.201922 0.320433
0.626125 0.294081 0.391825
0.870385 0.515535 0.598571
0.439077 0.188994 0.312735
0.441938 0.189259 0.312338
0.475373 0.201275 0.319994
0.624554 0.292854 0.390800
0.870385 0.515535 0.598571
0.500744 0.614845 0.729811
0.501446 0.614853 0.729817
0.516507 0.623040 0.738942
0.609772 0.658690 0.776887
0.845597 0.629965 0.743838
0.543435 0.729817 0.791465
0.555176 0.744435 0.802882
0.614083 0.801059 0.858204
0.684784 0.853512 0.906056
0.917682 0.931638 0.952582
