Assets/Lutify-Free-LUTs-Pack/Lutify Free LUTs Pack/Commercial Pro - Claire/Lutify.me-Claire-ACEScct-to-ACEScct.cube
# Created with: fylm.ai - Colour Grading and Collaboration Software in Cloud 
# Website: https://fylm.ai 
# META
# Option: Gamut compress
# Block 1: HSL | Blending Mode: Normal | {"hue":{"Reds":0,"Yellows":0,"Greens":0,"Cyans":0,"Blues":0,"Magentas":0},"saturation":{"Reds":1,"Yellows":1,"Greens":1,"Cyans":1,"Blues":1,"Magentas":1},"luminance":{"Reds":0.9,"Yellows":0.9,"Greens":0.9,"Cyans":0.8,"Blues":0.8,"Magentas":0.9},"lum_sat":{"Blacks":1,"Shadows":1,"Midtones":1,"Highlights":1,"Whites":1},"sat_sat":{"10":1,"20":1,"30":1,"40":1,"50":1}}
# Block 2: subtractiveColour | Blending Mode: Normal | {"sliders":{"gainY":0.1,"C":0.05,"M":0.05,"Y":0.05}}
# Block 3: logPrimaries | Blending Mode: Normal | {"wheels":{"shadows":{"Y":"0","R":"1","G":"1","B":"1"},"midtones":{"Y":"0","R":"1","G":"1","B":"1"},"highlights":{"Y":"0","R":"1","G":"1","B":"1"},"offset":{"Y":"0","R":"1","G":"1","B":"1"}},"sliders":{"shadows":{"Y":0,"R":-0.05,"G":0,"B":0.1},"midtones":{"Y":0,"R":0,"G":0,"B":0},"highlights":{"Y":0,"R":0,"G":0,"B":0},"offset":{"Y":0,"R":0,"G":0,"B":0}}}
# Block 4: LUT | Filmic Curve Response: Standard Contrast 1 (100%)
# Block 5: LUT | Illuminant: D93 (100%)
# Block 6: LUT | Neutral Tint: Teal Tint 4 (100%)
TITLE "Lutify.me-Claire-ACEScct-to-ACEScct" 
LUT_3D_SIZE 9
0.012114 0.046790 0.072308
0.135695 0.052943 0.032532
0.309851 0.044840 0.019654
0.402984 0.071708 0.021849
0.474563 0.224750 0.105868
0.579212 0.362385 0.267363
0.692810 0.473668 0.400361
0.797494 0.590732 0.513060
0.886464 0.711278 0.626478
0.047509 0.111228 0.070635
0.107348 0.104327 0.036957
0.280374 0.079740 0.021379
0.390262 0.108270 0.024362
0.473487 0.236233 0.109621
0.579212 0.364636 0.268797
0.692810 0.473668 0.402613
0.797494 0.590732 0.513060
0.886464 0.711278 0.626478
0.047509 0.233363 0.064931
0.095537 0.230493 0.039943
0.256856 0.211832 0.026064
0.382761 0.197479 0.028447
0.473487 0.259191 0.115727
0.579212 0.368013 0.270231
0.692810 0.474745 0.402613
0.798440 0.590732 0.513060
0.886464 0.711278 0.626478
0.067221 0.344382 0.115727
0.120082 0.344382 0.076645
0.239638 0.342134 0.053523
0.379384 0.330572 0.034234
0.474563 0.337638 0.136488
0.579212 0.386026 0.281703
0.692810 0.479050 0.403738
0.798440 0.590732 0.513060
0.886464 0.712461 0.627700
0.205188 0.442491 0.318327
0.233896 0.445682 0.308081
0.264989 0.447835 0.293986
0.362498 0.448911 0.238672
0.479945 0.443551 0.170298
0.584097 0.448911 0.305519
0.692810 0.491968 0.409367
0.798440 0.594396 0.514137
0.886464 0.712461 0.627700
0.352366 0.552013 0.446617
0.356869 0.553179 0.445557
0.364749 0.555512 0.443436
0.392382 0.559012 0.434955
0.474563 0.560198 0.398110
0.593868 0.556679 0.340102
0.699902 0.561419 0.432835
0.800333 0.609060 0.519521
0.886464 0.716010 0.628922
0.464875 0.666812 0.556751
0.465952 0.668042 0.556751
0.469181 0.669272 0.556751
0.477792 0.672963 0.556751
0.505661 0.679115 0.550918
0.595090 0.682806 0.514137
0.711733 0.676654 0.461458
0.806951 0.682806 0.546248
0.887214 0.732575 0.636256
0.586540 0.780525 0.680504
0.586540 0.780525 0.680504
0.586540 0.781616 0.680504
0.587761 0.781616 0.680504
0.597533 0.784890 0.679273
0.630638 0.791439 0.675583
0.717649 0.796896 0.641145
0.817350 0.791439 0.582489
0.892462 0.793622 0.664510
0.708184 0.875543 0.799435
0.708184 0.875543 0.799435
0.708184 0.875543 0.799435
0.708184 0.875543 0.799435
0.709367 0.875543 0.799435
0.717649 0.878058 0.799435
0.752054 0.885602 0.797252
0.823968 0.888117 0.765500
0.902206 0.883925 0.711077
0.044592 0.067293 0.137709
0.113715 0.055702 0.112064
0.290630 0.049630 0.043520
0.390262 0.075809 0.043520
0.473487 0.227621 0.130382
0.577990 0.362385 0.273099
0.692810 0.473668 0.403738
0.797494 0.590732 0.513060
0.886464 0.711278 0.626478
0.042404 0.110242 0.163650
0.092438 0.108579 0.142654
0.261143 0.088587 0.058514
0.381636 0.119114 0.053523
0.472410 0.240540 0.135267
0.577990 0.364636 0.274533
0.692810 0.474745 0.403738
0.797494 0.590732 0.513060
0.886464 0.711278 0.626478
0.043619 0.213268 0.196340
0.085562 0.230493 0.161985
0.239638 0.224751 0.077915
0.372630 0.208961 0.066357
0.471334 0.263494 0.140330
0.577990 0.368013 0.275967
0.692810 0.474745 0.403738
0.798440 0.590732 0.513060
0.886464 0.711278 0.626478
0.061111 0.329291 0.240107
0.112806 0.344382 0.210057
0.226719 0.348878 0.148666
0.371504 0.341010 0.085534
0.473487 0.339886 0.170298
0.579212 0.386026 0.286005
0.692810 0.479051 0.404864
0.798440 0.590732 0.513060
0.886464 0.712461 0.627700
0.198013 0.439310 0.342664
0.229590 0.445682 0.338821
0.264989 0.449988 0.326013
0.361372 0.451064 0.278835
0.478869 0.445682 0.201825
0.584097 0.448911 0.310642
0.692810 0.491968 0.410492
0.798441 0.594396 0.515214
0.886464 0.712461 0.627700
0.350115 0.550846 0.449797
0.355743 0.552013 0.448737
0.363624 0.554346 0.447677
0.392382 0.559012 0.438135
0.474563 0.561419 0.403738
0.593868 0.556679 0.345225
0.699902 0.562640 0.433895
0.800333 0.609060 0.519521
0.886464 0.716010 0.628922
0.464875 0.666812 0.557918
0.465952 0.668042 0.557918
0.469181 0.668042 0.557918
0.477792 0.671733 0.557918
0.505661 0.680345 0.552085
0.595090 0.682806 0.515214
0.711733 0.676654 0.462518
0.806951 0.682806 0.546248
0.887214 0.732575 0.636256
0.585319 0.780525 0.680504
0.586540 0.780525 0.680504
0.586540 0.780525 0.680504
0.587761 0.781616 0.680504
0.596311 0.784890 0.680504
0.630638 0.791439 0.675583
0.717649 0.796896 0.642367
0.817350 0.791439 0.583711
0.892462 0.793622 0.665740
0.707000 0.875543 0.799435
0.708184 0.875543 0.799435
0.708184 0.875543 0.799435
0.708184 0.875543 0.799435
0.709367 0.875543 0.799435
0.717649 0.878058 0.799435
0.752054 0.885602 0.797252
0.823968 0.888117 0.765500
0.902206 0.883925 0.711077
0.036253 0.073916 0.228624
0.081028 0.070052 0.200453
0.261143 0.056806 0.166979
0.379384 0.084655 0.132824
0.472410 0.229056 0.171669
0.577990 0.363510 0.284571
0.692810 0.473668 0.404864
0.797494 0.590732 0.513060
0.886464 0.711278 0.627700
0.036253 0.118128 0.242978
0.068749 0.113199 0.230059
0.235332 0.100384 0.212801
0.371504 0.126159 0.158656
0.470257 0.243411 0.177151
0.577990 0.365762 0.284571
0.692810 0.474745 0.404864
0.797494 0.590732 0.513060
0.886464 0.711278 0.627700
0.038271 0.226186 0.288858
0.067731 0.226186 0.292704
0.222413 0.239105 0.284571
0.362498 0.223316 0.197711
0.470257 0.266362 0.185375
0.577990 0.369139 0.286005
0.692810 0.474745 0.405990
0.798440 0.590732 0.513060
0.886464 0.711278 0.627700
0.052965 0.324168 0.333698
0.095537 0.331853 0.331136
0.215236 0.352253 0.313204
0.362498 0.354505 0.241543
0.472410 0.344382 0.214173
0.579212 0.386026 0.295268
0.692810 0.480127 0.407115
0.798440 0.590732 0.514137
0.886464 0.712461 0.627700
0.188047 0.431889 0.372218
0.219542 0.440370 0.367715
0.261143 0.447835 0.363212
0.359121 0.453217 0.322170
0.477792 0.451064 0.250155
0.584097 0.449988 0.320889
0.692810 0.493044 0.412691
0.798441 0.594396 0.515214
0.886464 0.712461 0.627700
0.347867 0.549679 0.456158
0.353492 0.550846 0.455098
0.362498 0.553179 0.454038
0.391322 0.559012 0.446617
0.474563 0.561419 0.412691
0.592647 0.557845 0.355331
0.699902 0.562640 0.434955
0.800333 0.609060 0.520598
0.886464 0.716010 0.628922
0.463799 0.666812 0.559084
0.464875 0.666812 0.559084
0.468105 0.668042 0.559084
0.476716 0.671733 0.559084
0.505661 0.680345 0.554418
0.595090 0.682806 0.517368
0.711733 0.676654 0.464638
0.806951 0.682806 0.547416
0.887214 0.732575 0.636256
0.585319 0.780525 0.680504
0.586540 0.780525 0.680504
0.586540 0.780525 0.680504
0.587761 0.781616 0.680504
0.596311 0.784890 0.680504
0.630638 0.791439 0.676813
0.717649 0.796896 0.642367
0.817350 0.791439 0.583711
0.892462 0.793622 0.665740
0.707000 0.875543 0.799435
0.708184 0.875543 0.799435
0.708184 0.875543 0.799435
0.708184 0.875543 0.799435
0.709367 0.875543 0.799435
0.717649 0.878058 0.799435
0.750962 0.885602 0.797253
0.823968 0.888117 0.765500
0.902206 0.883925 0.711077
0.041917 0.120100 0.301676
0.079214 0.121086 0.292704
0.208059 0.117143 0.292704
0.362498 0.098416 0.261627
0.468105 0.240540 0.292704
0.576769 0.365762 0.319608
0.691628 0.474745 0.412691
0.797494 0.590732 0.515214
0.886464 0.711278 0.627700
0.042404 0.159761 0.315766
0.074350 0.162440 0.313204
0.192295 0.159761 0.317047
0.354618 0.142310 0.296550
0.468105 0.256323 0.297832
0.576769 0.368013 0.320889
0.692810 0.474745 0.412691
0.797494 0.590732 0.515214
0.886464 0.711278 0.627700
0.043619 0.234799 0.346506
0.073332 0.237670 0.349068
0.181414 0.239105 0.358709
0.350115 0.237670 0.345225
0.464875 0.279319 0.305519
0.576769 0.372517 0.322170
0.692810 0.476898 0.412691
0.797494 0.590732 0.515214
0.886464 0.711278 0.627700
0.046050 0.334266 0.390230
0.077401 0.338762 0.396984
0.180092 0.346630 0.405990
0.353241 0.369180 0.402930
0.468105 0.353379 0.338821
0.577990 0.389403 0.329855
0.692810 0.480127 0.413751
0.798441 0.591954 0.515214
0.886464 0.712461 0.627700
0.166873 0.428708 0.442376
0.193711 0.431889 0.439196
0.232461 0.437190 0.439196
0.351240 0.460752 0.427534
0.474563 0.463981 0.381224
0.585319 0.452141 0.357583
0.692810 0.494121 0.419052
0.798441 0.594396 0.516291
0.886464 0.712461 0.627700
0.339998 0.542671 0.479686
0.344494 0.543839 0.478610
0.352366 0.546175 0.478610
0.387081 0.556679 0.473228
0.474563 0.568747 0.443436
0.592647 0.562640 0.387978
0.699902 0.566305 0.443436
0.800333 0.609060 0.522889
0.886464 0.716010 0.630145
0.461646 0.665582 0.567250
0.463799 0.666812 0.567250
0.465952 0.666812 0.567250
0.474563 0.669272 0.566083
0.505661 0.680345 0.560251
0.595090 0.684036 0.526392
0.711733 0.677885 0.474304
0.806951 0.684036 0.548584
0.887214 0.732575 0.637478
0.585319 0.780525 0.682964
0.585319 0.780525 0.682964
0.585319 0.780525 0.682964
0.587761 0.781616 0.682964
0.596311 0.783799 0.682964
0.630638 0.791439 0.678043
0.717649 0.796896 0.643591
0.817350 0.791439 0.584932
0.892462 0.793622 0.665740
0.707000 0.875543 0.799435
0.707000 0.875543 0.799435
0.707000 0.875543 0.799435
0.708184 0.875543 0.799435
0.709367 0.875543 0.799435
0.717649 0.878058 0.799435
0.750962 0.885602 0.797253
0.823968 0.888117 0.766683
0.902206 0.883926 0.712260
0.130727 0.269063 0.404864
0.161585 0.267781 0.407115
0.196579 0.270345 0.411618
0.329882 0.275473 0.417992
0.454111 0.256324 0.400361
0.575547 0.377020 0.413751
0.691628 0.480127 0.439196
0.798440 0.591954 0.522889
0.886464 0.711278 0.628922
0.130727 0.278037 0.410492
0.160263 0.278037 0.411618
0.195145 0.281883 0.413751
0.326502 0.284447 0.424353
0.454111 0.270345 0.407115
0.576769 0.379271 0.414812
0.691628 0.480127 0.439196
0.798440 0.591954 0.522889
0.886464 0.712461 0.628922
0.129486 0.293421 0.416932
0.157619 0.293421 0.417992
0.195145 0.294703 0.423293
0.321379 0.302393 0.431774
0.453035 0.292139 0.416932
0.576769 0.383774 0.416932
0.691628 0.481203 0.439196
0.798440 0.591954 0.522889
0.886464 0.712461 0.628922
0.133211 0.352253 0.445557
0.157619 0.351128 0.447677
0.193711 0.354505 0.451917
0.320098 0.362385 0.462518
0.457341 0.369139 0.455098
0.577990 0.401144 0.425413
0.691628 0.483356 0.440256
0.798440 0.593175 0.522889
0.886464 0.712461 0.628922
0.139420 0.430829 0.491527
0.166873 0.435069 0.494756
0.203753 0.439310 0.496909
0.318817 0.449988 0.506599
0.469679 0.480385 0.511976
0.584097 0.465058 0.452978
0.692810 0.498426 0.446617
0.799387 0.595618 0.525224
0.886464 0.712461 0.628922
0.320098 0.534496 0.545080
0.326502 0.535664 0.545080
0.333254 0.538000 0.545080
0.363624 0.543839 0.540408
0.463799 0.572412 0.535736
0.593868 0.578519 0.491527
0.698720 0.569969 0.469999
0.801278 0.610282 0.529896
0.887214 0.717194 0.631367
0.453035 0.658200 0.589818
0.454111 0.658200 0.589818
0.456264 0.659430 0.589818
0.465952 0.663121 0.588596
0.498654 0.676654 0.586153
0.596311 0.688810 0.559084
0.712916 0.684036 0.506599
0.806951 0.684036 0.555585
0.887214 0.732575 0.638700
0.582876 0.779433 0.687886
0.582876 0.779433 0.687886
0.584097 0.779433 0.687886
0.585319 0.780525 0.687886
0.593868 0.782708 0.687886
0.628176 0.792530 0.686655
0.717649 0.799079 0.652207
0.817350 0.793622 0.593482
0.892462 0.794713 0.666970
0.707000 0.874704 0.800526
0.707000 0.874704 0.800526
0.707000 0.874704 0.800526
0.707000 0.874704 0.800526
0.709367 0.875543 0.800526
0.717649 0.877219 0.800526
0.750962 0.885602 0.799435
0.823968 0.888955 0.767784
0.902206 0.883925 0.713444
0.282938 0.384900 0.508753
0.289348 0.386026 0.509830
0.298322 0.387151 0.510907
0.334378 0.389403 0.515214
0.434789 0.396903 0.527560
0.562112 0.388277 0.509830
0.691628 0.490891 0.525224
0.799387 0.596839 0.548583
0.886464 0.712461 0.636256
0.282938 0.387151 0.509830
0.289348 0.387151 0.510907
0.298322 0.388277 0.511983
0.333254 0.390529 0.516291
0.434789 0.397963 0.528728
0.562112 0.390529 0.510907
0.691628 0.491968 0.526392
0.799387 0.596839 0.548583
0.886464 0.712461 0.636256
0.282938 0.389403 0.511983
0.290630 0.390529 0.513060
0.298322 0.392662 0.514137
0.334378 0.394783 0.518444
0.433729 0.401144 0.529896
0.562112 0.395843 0.513060
0.691628 0.491968 0.526392
0.799387 0.596839 0.548583
0.886464 0.712461 0.636256
0.284220 0.401144 0.519521
0.291912 0.402204 0.520598
0.299604 0.403264 0.522889
0.336626 0.406445 0.527560
0.432669 0.413866 0.536904
0.564555 0.411746 0.522889
0.691628 0.495197 0.527560
0.800333 0.598061 0.549751
0.886464 0.712461 0.636256
0.284220 0.451064 0.550918
0.290630 0.452141 0.552085
0.298322 0.453217 0.553252
0.333254 0.458599 0.559084
0.432669 0.470440 0.573083
0.575547 0.480127 0.566083
0.692810 0.512305 0.533400
0.800333 0.600504 0.550918
0.886464 0.713644 0.637478
0.290630 0.535664 0.599589
0.295758 0.535664 0.600811
0.303447 0.536832 0.602033
0.338874 0.543839 0.606922
0.435849 0.561419 0.619144
0.590719 0.601839 0.628642
0.699902 0.584626 0.566084
0.800333 0.617616 0.556751
0.886464 0.717194 0.639923
0.435849 0.650818 0.658358
0.436910 0.650818 0.658358
0.439041 0.652048 0.658358
0.447653 0.654509 0.658358
0.475639 0.661891 0.658358
0.587761 0.694719 0.658358
0.714099 0.700629 0.609366
0.806951 0.689992 0.584932
0.887964 0.734941 0.647284
0.574326 0.771793 0.709894
0.574326 0.771793 0.709894
0.575547 0.771793 0.709894
0.576769 0.772885 0.709894
0.586540 0.776159 0.709894
0.618328 0.788165 0.709894
0.718832 0.802242 0.685425
0.819241 0.797988 0.625256
0.892462 0.797988 0.675583
0.703451 0.873028 0.804888
0.703451 0.873028 0.804888
0.703451 0.873028 0.804888
0.704634 0.873028 0.804888
0.707000 0.873866 0.804888
0.715283 0.876381 0.805978
0.749871 0.885602 0.804888
0.823023 0.889794 0.776515
0.902206 0.885602 0.721726
0.405104 0.487662 0.625256
0.406165 0.487662 0.625256
0.408285 0.488739 0.625256
0.415706 0.489815 0.627700
0.446576 0.494121 0.632589
0.547708 0.506465 0.644822
0.683355 0.505297 0.627700
0.800333 0.610282 0.641145
0.886464 0.718377 0.668201
0.405104 0.487662 0.625256
0.406165 0.488739 0.625256
0.408285 0.488739 0.625256
0.415706 0.489815 0.627700
0.446576 0.494121 0.635034
0.547708 0.507633 0.644822
0.683355 0.505297 0.627700
0.800333 0.610282 0.641145
0.886464 0.718377 0.668201
0.405105 0.488739 0.625256
0.406165 0.488739 0.625256
0.408285 0.488739 0.626478
0.415706 0.490892 0.627700
0.446576 0.495197 0.635034
0.547708 0.507633 0.646053
0.683355 0.506465 0.628923
0.800333 0.610282 0.641145
0.886464 0.718377 0.668201
0.405105 0.490892 0.627700
0.406165 0.491968 0.627700
0.407225 0.491968 0.627700
0.415706 0.493044 0.628922
0.446576 0.498426 0.636256
0.547708 0.511137 0.647284
0.684537 0.509969 0.630145
0.800333 0.611504 0.642367
0.886464 0.718377 0.668201
0.406165 0.504129 0.635034
0.406165 0.504129 0.635034
0.408285 0.504129 0.635034
0.415706 0.505297 0.637478
0.445500 0.509969 0.642367
0.546540 0.522816 0.654667
0.685719 0.526320 0.642367
0.801278 0.616393 0.644822
0.886464 0.718377 0.668201
0.406165 0.557845 0.668201
0.407225 0.557845 0.668201
0.408285 0.557845 0.668201
0.415706 0.559012 0.669431
0.446576 0.566305 0.674352
0.548876 0.585847 0.692807
0.696356 0.599282 0.686655
0.802224 0.632354 0.652207
0.886464 0.721926 0.670661
0.410405 0.644664 0.718176
0.411466 0.644664 0.718176
0.413586 0.645894 0.718176
0.421007 0.647125 0.719359
0.450882 0.653279 0.722909
0.548876 0.679115 0.738290
0.712866 0.723119 0.750202
0.809787 0.705362 0.687886
0.888713 0.739674 0.678043
0.550043 0.764153 0.775424
0.551210 0.764153 0.775424
0.551210 0.764153 0.775424
0.552377 0.764153 0.775424
0.560891 0.766336 0.775424
0.592647 0.772885 0.773241
0.710550 0.806969 0.778698
0.821132 0.812642 0.735924
0.893211 0.803188 0.708711
0.691628 0.866321 0.824262
0.691628 0.866321 0.824262
0.691628 0.866321 0.824262
0.692810 0.866321 0.824262
0.693992 0.867160 0.824262
0.703451 0.870513 0.824262
0.741138 0.878896 0.826153
0.823968 0.893857 0.807069
0.903704 0.888955 0.756037
0.516173 0.600504 0.745389
0.516173 0.600504 0.745389
0.516173 0.600504 0.745389
0.518509 0.600504 0.745389
0.525516 0.601726 0.747755
0.558448 0.607837 0.754853
0.667557 0.623737 0.766683
0.792436 0.623737 0.748938
0.888713 0.733758 0.760768
0.516173 0.600504 0.745389
0.516173 0.600504 0.745389
0.516173 0.600504 0.745389
0.518509 0.600504 0.745389
0.525516 0.601726 0.747755
0.558448 0.607837 0.754853
0.667557 0.623737 0.766683
0.792436 0.623737 0.748938
0.888713 0.733758 0.760768
0.516173 0.600504 0.745389
0.516173 0.600504 0.745389
0.516173 0.600504 0.745389
0.518509 0.600504 0.745389
0.525516 0.601726 0.747755
0.558448 0.607837 0.754853
0.667557 0.623737 0.766683
0.792436 0.623737 0.748938
0.888713 0.733758 0.760768
0.516173 0.600504 0.745389
0.516173 0.600504 0.745389
0.516173 0.600504 0.745389
0.518509 0.601726 0.746572
0.525516 0.602948 0.747755
0.558448 0.607837 0.754853
0.667557 0.623737 0.767784
0.793528 0.624968 0.750121
0.888713 0.733758 0.760768
0.516173 0.604171 0.746572
0.516173 0.604171 0.747755
0.516173 0.604171 0.747755
0.518509 0.604171 0.747755
0.525516 0.605393 0.748938
0.556005 0.611504 0.756036
0.667557 0.627430 0.768875
0.793528 0.628661 0.751304
0.888713 0.734941 0.760768
0.516173 0.617616 0.754853
0.517341 0.617615 0.754853
0.517341 0.617615 0.754853
0.519677 0.617615 0.754853
0.526684 0.618838 0.757219
0.554784 0.623737 0.761951
0.665097 0.640971 0.775424
0.794619 0.645895 0.761951
0.888713 0.738490 0.763134
0.516173 0.671733 0.784155
0.516173 0.671733 0.785247
0.517341 0.671733 0.785247
0.518509 0.671733 0.785247
0.525516 0.674194 0.786338
0.556005 0.680345 0.789612
0.670018 0.704179 0.807069
0.806005 0.724293 0.805978
0.890962 0.755422 0.773241
0.520845 0.755422 0.826153
0.520845 0.756513 0.826152
0.520845 0.756513 0.826152
0.523181 0.756513 0.826153
0.530188 0.757605 0.827098
0.558448 0.764153 0.829934
0.672478 0.790348 0.844115
0.822071 0.831550 0.858314
0.896954 0.817370 0.803799
0.672478 0.860453 0.872327
0.672478 0.860453 0.872327
0.672478 0.860453 0.872327
0.672478 0.860453 0.872327
0.674939 0.861292 0.872327
0.684537 0.862130 0.874004
0.715283 0.867160 0.874003
0.816405 0.896106 0.879033
0.907448 0.902102 0.846952
0.634331 0.716010 0.850734
0.634331 0.716010 0.850734
0.634331 0.716010 0.850734
0.635562 0.716010 0.850734
0.636793 0.716010 0.850734
0.644178 0.717193 0.852627
0.677400 0.723109 0.859251
0.779339 0.740857 0.869661
0.882312 0.747782 0.857358
0.634331 0.716010 0.850734
0.634331 0.716010 0.850734
0.634331 0.716010 0.850734
0.635562 0.716010 0.850734
0.636793 0.716010 0.850734
0.644178 0.717193 0.852627
0.677400 0.723109 0.859251
0.779339 0.740857 0.869661
0.882312 0.747782 0.857358
0.634331 0.716010 0.850734
0.634331 0.716010 0.850734
0.634331 0.716010 0.850734
0.635562 0.716010 0.850734
0.636793 0.716010 0.850734
0.644178 0.717193 0.852627
0.677400 0.723109 0.859251
0.779339 0.740857 0.869661
0.882312 0.747782 0.857358
0.634331 0.716010 0.850734
0.634331 0.716010 0.850734
0.634331 0.716010 0.850734
0.635562 0.716010 0.850734
0.636793 0.716010 0.850734
0.644178 0.717193 0.852627
0.677400 0.724292 0.859251
0.779339 0.740857 0.869661
0.882312 0.747782 0.857358
0.634331 0.716010 0.850734
0.634331 0.716010 0.850734
0.634331 0.716010 0.850734
0.635562 0.716010 0.850734
0.636793 0.717193 0.851680
0.644178 0.718377 0.852627
0.677400 0.724292 0.859251
0.779339 0.742040 0.869661
0.882312 0.748873 0.858305
0.634331 0.718377 0.852627
0.634331 0.718377 0.852627
0.634331 0.718377 0.852627
0.634331 0.718377 0.852627
0.636793 0.719560 0.852627
0.644178 0.720743 0.854519
0.677400 0.726659 0.861144
0.779339 0.745589 0.870607
0.883151 0.752148 0.860197
0.630638 0.729025 0.859251
0.630638 0.729025 0.859251
0.630638 0.729025 0.859251
0.631869 0.729025 0.859251
0.633100 0.729025 0.860197
0.641716 0.732575 0.861144
0.676169 0.738490 0.866822
0.777156 0.759788 0.877357
0.886464 0.767428 0.867768
0.631869 0.778342 0.880710
0.631869 0.778342 0.880710
0.631869 0.778342 0.880710
0.633100 0.778342 0.880710
0.634331 0.779433 0.880710
0.642947 0.780525 0.882386
0.676169 0.789256 0.886578
0.782613 0.811696 0.901666
0.894711 0.831550 0.900828
0.636793 0.849513 0.912553
0.638024 0.849513 0.912552
0.638024 0.849513 0.912552
0.638024 0.849513 0.912552
0.639255 0.849513 0.912552
0.646640 0.852909 0.914188
0.677400 0.859615 0.917183
0.782614 0.881411 0.929916
0.909695 0.919328 0.943398
