Assets/Lutify-Free-LUTs-Pack/Lutify Free LUTs Pack/Commercial Pro - Claire/Lutify.me-Claire-ACEScct-to-ACEScct.cube
# Created with: fylm.ai - Colour Grading and Collaboration Software in Cloud 
# Website: https://fylm.ai 
# META
# Option: Gamut compress
# Block 1: HSL | Blending Mode: Normal | {"hue":{"Reds":0,"Yellows":0,"Greens":0,"Cyans":0,"Blues":0,"Magentas":0},"saturation":{"Reds":1,"Yellows":1,"Greens":1,"Cyans":1,"Blues":1,"Magentas":1},"luminance":{"Reds":0.9,"Yellows":0.9,"Greens":0.9,"Cyans":0.8,"Blues":0.8,"Magentas":0.9},"lum_sat":{"Blacks":1,"Shadows":1,"Midtones":1,"Highlights":1,"Whites":1},"sat_sat":{"10":1,"20":1,"30":1,"40":1,"50":1}}
# Block 2: subtractiveColour | Blending Mode: Normal | {"sliders":{"gainY":0.1,"C":0.05,"M":0.05,"Y":0.05}}
# Block 3: logPrimaries | Blending Mode: Normal | {"wheels":{"shadows":{"Y":"0","R":"1","G":"1","B":"1"},"midtones":{"Y":"0","R":"1","G":"1","B":"1"},"highlights":{"Y":"0","R":"1","G":"1","B":"1"},"offset":{"Y":"0","R":"1","G":"1","B":"1"}},"sliders":{"shadows":{"Y":0,"R":-0.05,"G":0,"B":0.1},"midtones":{"Y":0,"R":0,"G":0,"B":0},"highlights":{"Y":0,"R":0,"G":0,"B":0},"offset":{"Y":0,"R":0,"G":0,"B":0}}}
# Block 4: LUT | Filmic Curve Response: Standard Contrast 1 (100%)
# Block 5: LUT | Illuminant: D93 (100%)
# Block 6: LUT | Neutral Tint: Teal Tint 4 (100%)
TITLE "Lutify.me-Claire-ACEScct-to-ACEScct" 
LUT_3D_SIZE 5
0.012114 0.046790 0.072308
0.309851 0.044840 0.019654
0.474563 0.224750 0.105868
0.692810 0.473668 0.400361
0.886464 0.711278 0.626478
0.047509 0.233363 0.064931
0.256856 0.211832 0.026064
0.473487 0.259191 0.115727
0.692810 0.474745 0.402613
0.886464 0.711278 0.626478
0.205188 0.442491 0.318327
0.264989 0.447835 0.293986
0.479945 0.443551 0.170298
0.692810 0.491968 0.409367
0.886464 0.712461 0.627700
0.464875 0.666812 0.556751
0.469181 0.669272 0.556751
0.505661 0.679115 0.550918
0.711733 0.676654 0.461458
0.887214 0.732575 0.636256
0.708184 0.875543 0.799435
0.708184 0.875543 0.799435
0.709367 0.875543 0.799435
0.752054 0.885602 0.797252
0.902206 0.883925 0.711077
0.036253 0.073916 0.228624
0.261143 0.056806 0.166979
0.472410 0.229056 0.171669
0.692810 0.473668 0.404864
0.886464 0.711278 0.627700
0.038271 0.226186 0.288858
0.222413 0.239105 0.284571
0.470257 0.266362 0.185375
0.692810 0.474745 0.405990
0.886464 0.711278 0.627700
0.188047 0.431889 0.372218
0.261143 0.447835 0.363212
0.477792 0.451064 0.250155
0.692810 0.493044 0.412691
0.886464 0.712461 0.627700
0.463799 0.666812 0.559084
0.468105 0.668042 0.559084
0.505661 0.680345 0.554418
0.711733 0.676654 0.464638
0.887214 0.732575 0.636256
0.707000 0.875543 0.799435
0.708184 0.875543 0.799435
0.709367 0.875543 0.799435
0.750962 0.885602 0.797253
0.902206 0.883925 0.711077
0.130727 0.269063 0.404864
0.196579 0.270345 0.411618
0.454111 0.256324 0.400361
0.691628 0.480127 0.439196
0.886464 0.711278 0.628922
0.129486 0.293421 0.416932
0.195145 0.294703 0.423293
0.453035 0.292139 0.416932
0.691628 0.481203 0.439196
0.886464 0.712461 0.628922
0.139420 0.430829 0.491527
0.203753 0.439310 0.496909
0.469679 0.480385 0.511976
0.692810 0.498426 0.446617
0.886464 0.712461 0.628922
0.453035 0.658200 0.589818
0.456264 0.659430 0.589818
0.498654 0.676654 0.586153
0.712916 0.684036 0.506599
0.887214 0.732575 0.638700
0.707000 0.874704 0.800526
0.707000 0.874704 0.800526
0.709367 0.875543 0.800526
0.750962 0.885602 0.799435
0.902206 0.883925 0.713444
0.405104 0.487662 0.625256
0.408285 0.488739 0.625256
0.446576 0.494121 0.632589
0.683355 0.505297 0.627700
0.886464 0.718377 0.668201
0.405105 0.488739 0.625256
0.408285 0.488739 0.626478
0.446576 0.495197 0.635034
0.683355 0.506465 0.628923
0.886464 0.718377 0.668201
0.406165 0.504129 0.635034
0.408285 0.504129 0.635034
0.445500 0.509969 0.642367
0.685719 0.526320 0.642367
0.886464 0.718377 0.668201
0.410405 0.644664 0.718176
0.413586 0.645894 0.718176
0.450882 0.653279 0.722909
0.712866 0.723119 0.750202
0.888713 0.739674 0.678043
0.691628 0.866321 0.824262
0.691628 0.866321 0.824262
0.693992 0.867160 0.824262
0.741138 0.878896 0.826153
0.903704 0.888955 0.756037
0.634331 0.716010 0.850734
0.634331 0.716010 0.850734
0.636793 0.716010 0.850734
0.677400 0.723109 0.859251
0.882312 0.747782 0.857358
0.634331 0.716010 0.850734
0.634331 0.716010 0.850734
0.636793 0.716010 0.850734
0.677400 0.723109 0.859251
0.882312 0.747782 0.857358
0.634331 0.716010 0.850734
0.634331 0.716010 0.850734
0.636793 0.717193 0.851680
0.677400 0.724292 0.859251
0.882312 0.748873 0.858305
0.630638 0.729025 0.859251
0.630638 0.729025 0.859251
0.633100 0.729025 0.860197
0.676169 0.738490 0.866822
0.886464 0.767428 0.867768
0.636793 0.849513 0.912553
0.638024 0.849513 0.912552
0.639255 0.849513 0.912552
0.677400 0.859615 0.917183
0.909695 0.919328 0.943398
