Assets/Lutify-Free-LUTs-Pack/Lutify Free LUTs Pack/Commercial Pro - Claire/Lutify.me-Claire-CanonLog1-to-Rec709.cube
# Created with: fylm.ai - Colour Grading and Collaboration Software in Cloud 
# Website: https://fylm.ai 
# META
# Option: Gamut compress
# Block 1: IDT | CanonLog Cinema Gamut Daylight
# Block 2: colourMatch | Blending Mode: Normal | {"ColorSpace":0,"CrossCovarianceLimit":50,"ReshapingIterations":1,"PercentSaturationShift":100,"PercentShadingShift":100,"ExtraShading":true,"PercentTint":100,"PercentModified":100}
# Block 3: HSL | Blending Mode: Normal | {"hue":{"Reds":0,"Yellows":0,"Greens":0,"Cyans":0,"Blues":0,"Magentas":0},"saturation":{"Reds":1,"Yellows":1,"Greens":1,"Cyans":1,"Blues":1,"Magentas":1},"luminance":{"Reds":0.9,"Yellows":0.9,"Greens":0.9,"Cyans":0.8,"Blues":0.8,"Magentas":0.9},"lum_sat":{"Blacks":1,"Shadows":1,"Midtones":1,"Highlights":1,"Whites":1},"sat_sat":{"10":1,"20":1,"30":1,"40":1,"50":1}}
# Block 4: subtractiveColour | Blending Mode: Normal | {"sliders":{"gainY":0.1,"C":0.05,"M":0.05,"Y":0.05}}
# Block 5: logPrimaries | Blending Mode: Normal | {"wheels":{"shadows":{"Y":"0","R":"1","G":"1","B":"1"},"midtones":{"Y":"0","R":"1","G":"1","B":"1"},"highlights":{"Y":"0","R":"1","G":"1","B":"1"},"offset":{"Y":"0","R":"1","G":"1","B":"1"}},"sliders":{"shadows":{"Y":0,"R":-0.05,"G":0,"B":0.1},"midtones":{"Y":0,"R":0,"G":0,"B":0},"highlights":{"Y":0,"R":0,"G":0,"B":0},"offset":{"Y":0,"R":0,"G":0,"B":0}}}
# Block 6: LUT | Filmic Curve Response: Standard Contrast 1 (100%)
# Block 7: LUT | Illuminant: D93 (100%)
# Block 8: LUT | Neutral Tint: Teal Tint 4 (100%)
# Block 9: ODT | Rec709
TITLE "Lutify.me-Claire-CanonLog1-to-Rec709" 
LUT_3D_SIZE 33
0.000000 0.000000 0.000000
0.000000 0.000000 0.000000
0.000000 0.000000 0.000000
0.000000 0.000000 0.000000
0.281561 0.000000 0.000000
0.467111 0.000000 0.000000
0.600990 0.000000 0.000000
0.717519 0.000000 0.000000
0.817423 0.000000 0.000000
0.886589 0.000000 0.000000
0.946932 0.000000 0.000000
1.000000 0.000000 0.016165
1.000000 0.000000 0.046963
1.000000 0.000000 0.062996
1.000000 0.000000 0.070657
1.000000 0.000000 0.058262
1.000000 0.000000 0.046627
1.000000 0.000000 0.000000
0.935517 0.000000 0.000000
0.903481 0.000000 0.000000
0.907497 0.000000 0.000000
0.931075 0.000000 0.000000
0.959920 0.000000 0.000000
0.989394 0.000000 0.000000
1.000000 0.000000 0.040970
1.000000 0.000000 0.072190
1.000000 0.000000 0.099263
1.000000 0.000000 0.126082
1.000000 0.084299 0.156188
1.000000 0.227460 0.187213
1.000000 0.303638 0.215869
1.000000 0.367212 0.249147
1.000000 0.416916 0.286739
0.000000 0.000000 0.000000
0.000000 0.000000 0.000000
0.000000 0.000000 0.000000
0.000000 0.000000 0.000000
0.214394 0.000000 0.000000
0.467111 0.000000 0.000000
0.600990 0.000000 0.000000
0.717519 0.000000 0.000000
0.817423 0.000000 0.000000
0.886589 0.000000 0.000000
0.923975 0.000000 0.000000
0.935659 0.000000 0.000000
0.943216 0.000000 0.000000
0.943211 0.000000 0.000000
0.935640 0.000000 0.000000
0.943170 0.000000 0.000000
0.965018 0.000000 0.000000
0.998259 0.000000 0.000000
0.939191 0.000000 0.000000
0.907506 0.000000 0.000000
0.907289 0.000000 0.000000
0.930708 0.000000 0.000000
0.955774 0.000000 0.000000
0.988831 0.000000 0.000000
1.000000 0.000000 0.034297
1.000000 0.000000 0.069300
1.000000 0.000000 0.095470
1.000000 0.000000 0.124546
1.000000 0.135261 0.157093
1.000000 0.248989 0.185734
1.000000 0.312399 0.215181
1.000000 0.375110 0.248511
1.000000 0.424390 0.286176
0.000000 0.000000 0.000000
0.000000 0.000000 0.000000
0.000000 0.000000 0.000000
0.000000 0.000000 0.000000
0.153406 0.000000 0.000000
0.343500 0.000000 0.000000
0.467134 0.000000 0.000000
0.555371 0.000000 0.000000
0.617930 0.000000 0.000000
0.665150 0.000000 0.000000
0.708790 0.000000 0.000000
0.750135 0.000000 0.000000
0.778976 0.000000 0.000000
0.822304 0.000000 0.000000
0.850706 0.000000 0.000000
0.895141 0.000000 0.000000
0.935477 0.000000 0.000000
0.978742 0.000000 0.000000
0.957399 0.000000 0.000000
0.923490 0.000000 0.000000
0.911183 0.000000 0.000000
0.937933 0.000000 0.000000
0.959020 0.000000 0.000000
0.994538 0.000000 0.000000
1.000000 0.000000 0.013308
1.000000 0.000000 0.064230
1.000000 0.000000 0.093463
1.000000 0.000000 0.124750
1.000000 0.161150 0.155917
1.000000 0.259076 0.184969
1.000000 0.321055 0.214471
1.000000 0.379046 0.248187
1.000000 0.428124 0.285889
0.000000 0.028911 0.000000
0.000000 0.012746 0.000000
0.000000 0.000000 0.000000
0.000000 0.000000 0.000000
0.110323 0.000000 0.000000
0.247688 0.000000 0.000000
0.343606 0.000000 0.000000
0.417101 0.000000 0.000000
0.481848 0.000000 0.000000
0.543439 0.000000 0.000000
0.597095 0.000000 0.000000
0.665394 0.000000 0.000000
0.717788 0.000000 0.000000
0.769504 0.000000 0.000000
0.822366 0.000000 0.000000
0.873370 0.000000 0.000000
0.931557 0.000000 0.000000
0.975233 0.000000 0.000000
0.985133 0.000000 0.000000
0.938750 0.000000 0.000000
0.914981 0.000000 0.000000
0.933892 0.000000 0.000000
0.958570 0.000000 0.000000
0.994118 0.000000 0.000000
1.000000 0.000000 0.000000
1.000000 0.000000 0.061089
1.000000 0.000000 0.091803
1.000000 0.016530 0.120968
1.000000 0.183367 0.154652
1.000000 0.264022 0.184576
1.000000 0.325346 0.214107
1.000000 0.386894 0.247524
1.000000 0.435587 0.285305
0.000000 0.104160 0.000000
0.000000 0.100377 0.000000
0.000000 0.097926 0.000000
0.000000 0.087679 0.000000
0.035769 0.069613 0.000000
0.178282 0.000000 0.000000
0.269818 0.000000 0.000000
0.347300 0.000000 0.000000
0.414776 0.000000 0.000000
0.489820 0.000000 0.000000
0.560200 0.000000 0.000000
0.631268 0.000000 0.000000
0.691688 0.000000 0.000000
0.750411 0.000000 0.000000
0.803178 0.000000 0.000000
0.864390 0.000000 0.000000
0.923686 0.000000 0.000000
0.964609 0.000000 0.000000
1.000000 0.000000 0.000000
0.949678 0.000000 0.000000
0.926662 0.000000 0.000000
0.933691 0.000000 0.000000
0.961812 0.000000 0.000000
0.993751 0.000000 0.000000
1.000000 0.000000 0.000000
1.000000 0.000000 0.055067
1.000000 0.000000 0.089990
1.000000 0.100332 0.120011
1.000000 0.196902 0.153755
1.000000 0.273741 0.183771
1.000000 0.329615 0.213738
1.000000 0.390806 0.247186
1.000000 0.443043 0.284708
0.000000 0.147278 0.000000
0.000000 0.144155 0.000000
0.000000 0.142621 0.000000
0.000000 0.132246 0.000000
0.000000 0.115718 0.000000
0.172047 0.086473 0.000000
0.261919 0.042504 0.000000
0.335290 0.000000 0.000000
0.403718 0.000000 0.000000
0.465439 0.000000 0.000000
0.532561 0.000000 0.000000
0.610417 0.000000 0.000000
0.674482 0.000000 0.000000
0.736160 0.000000 0.000000
0.803196 0.000000 0.000000
0.864365 0.000000 0.000000
0.919643 0.000000 0.000000
0.960877 0.000000 0.000000
1.000000 0.000000 0.000000
0.963997 0.000000 0.000000
0.934134 0.000000 0.000000
0.940860 0.000000 0.000000
0.961528 0.000000 0.000000
0.993249 0.000000 0.000000
1.000000 0.000000 0.000000
1.000000 0.000000 0.050460
1.000000 0.000000 0.086002
1.000000 0.124175 0.118914
1.000000 0.209707 0.152813
1.000000 0.278522 0.183357
1.000000 0.338091 0.212982
1.000000 0.394712 0.246843
1.000000 0.446769 0.284404
0.000000 0.190256 0.000000
0.000000 0.188263 0.000000
0.000000 0.186288 0.000000
0.000000 0.174727 0.000000
0.000000 0.158402 0.000000
0.155456 0.139756 0.000000
0.260171 0.109717 0.000000
0.336950 0.069408 0.000000
0.393864 0.000000 0.000000
0.460120 0.000000 0.000000
0.525858 0.000000 0.000000
0.594532 0.000000 0.000000
0.666255 0.000000 0.000000
0.726983 0.000000 0.000000
0.784058 0.000000 0.000000
0.855221 0.000000 0.000000
0.919488 0.000000 0.000000
0.960672 0.000000 0.000000
1.000000 0.000000 0.000000
0.984309 0.000000 0.000000
0.937716 0.000000 0.000000
0.944250 0.000000 0.000000
0.961225 0.000000 0.000000
0.995863 0.000000 0.000000
1.000000 0.000000 0.000000
1.000000 0.000000 0.042978
1.000000 0.000000 0.082937
1.000000 0.152227 0.117152
1.000000 0.233135 0.148900
1.000000 0.287944 0.182509
1.000000 0.346493 0.212204
1.000000 0.398611 0.246496
1.000000 0.450494 0.284096
0.000000 0.227956 0.000000
0.000000 0.226061 0.000000
0.000000 0.224182 0.000000
0.000000 0.206776 0.000000
0.000000 0.196027 0.000000
0.138324 0.178078 0.000000
0.252707 0.158031 0.000000
0.337786 0.123384 0.000000
0.396024 0.093696 0.000000
0.462261 0.000000 0.000000
0.527728 0.000000 0.000000
0.595560 0.000000 0.000000
0.666841 0.000000 0.000000
0.727273 0.000000 0.000000
0.784122 0.000000 0.000000
0.845908 0.000000 0.000000
0.907179 0.000000 0.000000
0.956796 0.000000 0.000000
1.000000 0.000000 0.000000
1.000000 0.000000 0.000000
0.962867 0.000000 0.000000
0.947491 0.000000 0.000000
0.967465 0.000000 0.000000
0.995336 0.000000 0.000000
1.000000 0.000000 0.000000
1.000000 0.000000 0.029773
1.000000 0.092027 0.076857
1.000000 0.175646 0.113137
1.000000 0.249182 0.145350
1.000000 0.301775 0.179093
1.000000 0.354829 0.211401
1.000000 0.406393 0.245788
1.000000 0.454218 0.283785
0.000000 0.258273 0.000000
0.000000 0.258273 0.000000
0.000000 0.254007 0.000000
0.000000 0.237506 0.000000
0.000000 0.229145 0.000000
0.100881 0.213205 0.000000
0.242858 0.191796 0.000000
0.335958 0.168137 0.000000
0.397707 0.143140 0.000000
0.464924 0.112263 0.000000
0.529581 0.000000 0.000000
0.596892 0.000000 0.000000
0.667619 0.000000 0.000000
0.727606 0.000000 0.000000
0.784155 0.000000 0.000000
0.845683 0.000000 0.000000
0.906748 0.000000 0.000000
0.952755 0.000000 0.000000
0.999695 0.000000 0.000000
1.000000 0.000000 0.000000
0.983047 0.000000 0.000000
0.957779 0.000000 0.000000
0.970374 0.000000 0.000000
0.994643 0.000000 0.000000
1.000000 0.000000 0.000000
1.000000 0.000000 0.000000
1.000000 0.138039 0.069901
1.000000 0.202958 0.108040
1.000000 0.264534 0.139194
1.000000 0.310822 0.176057
1.000000 0.363104 0.210574
1.000000 0.410275 0.245427
1.000000 0.457940 0.283471
0.000000 0.287766 0.000000
0.000000 0.285376 0.000000
0.000000 0.280645 0.000000
0.000000 0.266826 0.000000
0.000000 0.257554 0.000000
0.000000 0.246268 0.000000
0.234195 0.226326 0.000000
0.329679 0.210293 0.000000
0.400884 0.188252 0.000000
0.467505 0.162763 0.000000
0.532335 0.128835 0.000000
0.598510 0.054448 0.000000
0.668436 0.000000 0.000000
0.727991 0.000000 0.000000
0.784180 0.000000 0.000000
0.845343 0.000000 0.000000
0.906072 0.000000 0.000000
0.951960 0.000000 0.000000
0.998991 0.000000 0.000000
1.000000 0.000000 0.000000
1.000000 0.000000 0.000000
0.974760 0.000000 0.000000
0.976489 0.000000 0.000000
0.996600 0.000000 0.000000
1.000000 0.000000 0.000000
1.000000 0.076408 0.000000
1.000000 0.178316 0.059683
1.000000 0.232535 0.103887
1.000000 0.280069 0.137919
1.000000 0.328559 0.171916
1.000000 0.371332 0.207445
1.000000 0.418026 0.244690
1.000000 0.469103 0.282507
0.000000 0.318158 0.000000
0.000000 0.318158 0.000000
0.000000 0.312831 0.000000
0.000000 0.297328 0.000000
0.000000 0.289368 0.000000
0.000000 0.280225 0.000000
0.214308 0.267269 0.000000
0.318971 0.250102 0.000000
0.407970 0.227313 0.000000
0.476268 0.203006 0.000000
0.539159 0.183768 0.000000
0.609136 0.152736 0.000000
0.669824 0.098250 0.000000
0.728602 0.000000 0.000000
0.784270 0.000000 0.000000
0.849477 0.000000 0.000000
0.909195 0.000000 0.000000
0.950740 0.000000 0.000000
0.997733 0.000000 0.000000
1.000000 0.000000 0.000000
1.000000 0.000000 0.000000
0.996164 0.000000 0.000000
0.984950 0.000000 0.000000
0.998505 0.000000 0.000000
1.000000 0.042951 0.000000
1.000000 0.138055 0.000000
1.000000 0.205202 0.043110
1.000000 0.249319 0.099444
1.000000 0.299037 0.132854
1.000000 0.346714 0.168221
1.000000 0.380437 0.207226
1.000000 0.425765 0.241438
1.000000 0.477580 0.282634
0.000000 0.351282 0.000000
0.000000 0.351282 0.000000
0.000000 0.337373 0.000000
0.000000 0.323277 0.000000
0.000000 0.319893 0.000000
0.000000 0.310269 0.000000
0.184167 0.300647 0.000000
0.320341 0.285070 0.000000
0.402160 0.263764 0.000000
0.475999 0.240154 0.000000
0.541115 0.223495 0.000000
0.619269 0.199791 0.000000
0.675592 0.171810 0.000000
0.733842 0.131886 0.000000
0.789119 0.066247 0.000000
0.849003 0.000000 0.000000
0.916007 0.000000 0.000000
0.956439 0.000000 0.000000
0.995859 0.000000 0.000000
1.000000 0.000000 0.000000
1.000000 0.000000 0.000000
1.000000 0.000000 0.000000
0.993187 0.000000 0.000000
0.997104 0.063636 0.000000
1.000000 0.149854 0.000000
1.000000 0.191449 0.000000
1.000000 0.239846 0.000000
1.000000 0.274798 0.086049
1.000000 0.312856 0.128191
1.000000 0.359488 0.164261
1.000000 0.392586 0.203545
1.000000 0.442157 0.240589
1.000000 0.488790 0.281614
0.000000 0.380353 0.000000
0.000000 0.380353 0.000000
0.000000 0.368356 0.000000
0.000000 0.356568 0.000000
0.000000 0.352985 0.000000
0.000000 0.343187 0.000000
0.142172 0.331622 0.000000
0.310281 0.316020 0.000000
0.395823 0.303328 0.000000
0.476418 0.282935 0.000000
0.541613 0.261949 0.000000
0.621038 0.241632 0.000000
0.677052 0.218709 0.000000
0.734718 0.194225 0.000000
0.793944 0.161625 0.000000
0.857179 0.099705 0.000000
0.914847 0.000000 0.000000
0.955100 0.000000 0.000000
0.994238 0.000000 0.000000
1.000000 0.000000 0.000000
1.000000 0.000000 0.000000
1.000000 0.000000 0.000000
1.000000 0.000000 0.000000
1.000000 0.151093 0.000000
1.000000 0.199187 0.000000
1.000000 0.238546 0.000000
1.000000 0.266003 0.000000
1.000000 0.298892 0.075701
1.000000 0.335283 0.123956
1.000000 0.376304 0.159460
1.000000 0.409519 0.199963
1.000000 0.453653 0.239344
1.000000 0.497302 0.281720
0.000000 0.415209 0.000000
0.000000 0.415192 0.000000
0.000000 0.395693 0.000000
0.000000 0.382891 0.000000
0.000000 0.376036 0.000000
0.000000 0.368633 0.000000
0.076243 0.366285 0.000000
0.287864 0.348874 0.000000
0.383331 0.340009 0.000000
0.473696 0.323163 0.000000
0.543806 0.299393 0.000000
0.621938 0.277955 0.000000
0.678316 0.260820 0.000000
0.735537 0.240865 0.000000
0.794125 0.216692 0.000000
0.860647 0.188630 0.000000
0.913212 0.145983 0.000000
0.953382 0.049927 0.000000
0.992455 0.000000 0.000000
1.000000 0.000000 0.000000
1.000000 0.000000 0.000000
1.000000 0.000000 0.000000
1.000000 0.000000 0.000000
1.000000 0.209792 0.000000
1.000000 0.248755 0.000000
1.000000 0.274717 0.000000
1.000000 0.300192 0.000000
1.000000 0.331039 0.046478
1.000000 0.357701 0.114631
1.000000 0.392918 0.152057
1.000000 0.424627 0.194763
1.000000 0.466043 0.236290
1.000000 0.512301 0.280280
0.000000 0.452477 0.000000
0.000000 0.435141 0.000000
0.000000 0.424909 0.000000
0.000000 0.421089 0.000000
0.000000 0.407110 0.000000
0.000000 0.405769 0.000000
0.000000 0.400614 0.000000
0.250679 0.387287 0.000000
0.372893 0.375248 0.000000
0.463710 0.362178 0.000000
0.551170 0.343725 0.000000
0.625330 0.321114 0.000000
0.683055 0.302257 0.000000
0.736233 0.289526 0.000000
0.794247 0.270337 0.000000
0.859773 0.241791 0.000000
0.911514 0.217086 0.000000
0.950978 0.187340 0.000000
0.992965 0.143581 0.000000
1.000000 0.112605 0.000000
1.000000 0.074217 0.000000
1.000000 0.000000 0.000000
1.000000 0.000000 0.016797
1.000000 0.245307 0.000000
1.000000 0.302225 0.000000
1.000000 0.312979 0.000000
1.000000 0.337197 0.000000
1.000000 0.357990 0.000000
1.000000 0.387508 0.097114
1.000000 0.417542 0.144799
1.000000 0.448413 0.188846
1.000000 0.481366 0.231909
1.000000 0.528220 0.274657
0.000000 0.494966 0.000000
0.000000 0.477056 0.000000
0.000000 0.459221 0.000000
0.000000 0.451665 0.000000
0.000000 0.444014 0.000000
0.000000 0.442908 0.000000
0.000000 0.437748 0.000000
0.225482 0.424803 0.000000
0.354218 0.420253 0.000000
0.452678 0.407573 0.000000
0.540998 0.393429 0.000000
0.633747 0.373047 0.000000
0.690574 0.347582 0.000000
0.745132 0.332340 0.000000
0.794093 0.316758 0.000000
0.858447 0.296942 0.000000
0.909060 0.282690 0.000000
0.951041 0.265364 0.000000
0.991916 0.243596 0.000000
1.000000 0.218113 0.000000
1.000000 0.198987 0.000000
1.000000 0.182790 0.000000
1.000000 0.180503 0.000000
1.000000 0.244270 0.000000
1.000000 0.338350 0.000000
1.000000 0.366780 0.000000
1.000000 0.376942 0.000000
1.000000 0.388085 0.000000
1.000000 0.417204 0.070003
1.000000 0.442480 0.132383
1.000000 0.468851 0.181484
1.000000 0.500660 0.226852
1.000000 0.543189 0.270582
0.000000 0.513096 0.000000
0.000000 0.498445 0.000000
0.000000 0.494466 0.000000
0.000000 0.483106 0.000000
0.000000 0.478673 0.000000
0.000000 0.477618 0.000000
0.000000 0.476242 0.000000
0.198167 0.466885 0.000000
0.328093 0.452765 0.000000
0.447366 0.443333 0.000000
0.534172 0.433653 0.000000
0.627558 0.414254 0.000000
0.691186 0.399954 0.000000
0.748522 0.377807 0.000000
0.810771 0.361589 0.000000
0.860561 0.350351 0.000000
0.909954 0.334694 0.000000
0.947980 0.316213 0.000000
0.990694 0.306808 0.000000
1.000000 0.290663 0.000000
1.000000 0.276531 0.000000
1.000000 0.265271 0.000000
1.000000 0.263739 0.000000
1.000000 0.265716 0.000000
1.000000 0.366759 0.000000
1.000000 0.422218 0.000000
1.000000 0.441006 0.000000
1.000000 0.435267 0.000000
1.000000 0.455009 0.000000
1.000000 0.475889 0.116426
1.000000 0.496654 0.168598
1.000000 0.527622 0.223071
1.000000 0.558172 0.263933
0.000000 0.546532 0.000000
0.000000 0.527656 0.000000
0.000000 0.527052 0.000000
0.000000 0.511523 0.000000
0.000000 0.510587 0.000000
0.000000 0.509457 0.000000
0.000000 0.508154 0.000000
0.179453 0.502695 0.000000
0.311226 0.488923 0.000000
0.432550 0.483874 0.000000
0.525947 0.470891 0.000000
0.618413 0.456149 0.000000
0.685031 0.446093 0.000000
0.745426 0.428208 0.000000
0.813710 0.400711 0.000000
0.862814 0.386601 0.000000
0.914225 0.376164 0.000000
0.953894 0.363405 0.000000
0.986622 0.356394 0.000000
1.000000 0.346267 0.000000
1.000000 0.337979 0.000000
1.000000 0.322982 0.000000
1.000000 0.316140 0.000000
1.000000 0.316629 0.000000
1.000000 0.328473 0.000000
1.000000 0.452170 0.000000
1.000000 0.483077 0.000000
1.000000 0.497858 0.000000
1.000000 0.497214 0.000000
1.000000 0.517103 0.087002
1.000000 0.529437 0.152500
1.000000 0.551400 0.209733
1.000000 0.576907 0.256332
0.000000 0.565237 0.000000
0.000000 0.560988 0.000000
0.000000 0.552741 0.000000
0.000000 0.544410 0.000000
0.000000 0.543521 0.000000
0.000000 0.542357 0.000000
0.000000 0.541113 0.000000
0.165108 0.539597 0.000000
0.303140 0.525819 0.000000
0.409362 0.514577 0.000000
0.522304 0.504795 0.000000
0.618560 0.490233 0.000000
0.682937 0.480801 0.000000
0.745217 0.470882 0.000000
0.811031 0.448303 0.000000
0.864094 0.430677 0.000000
0.914453 0.417359 0.000000
0.952711 0.409883 0.000000
0.985647 0.395169 0.000000
1.000000 0.390098 0.000000
1.000000 0.386491 0.000000
1.000000 0.376636 0.000000
1.000000 0.368990 0.000000
1.000000 0.364042 0.000000
1.000000 0.364254 0.000000
1.000000 0.430978 0.000000
1.000000 0.516097 0.000000
1.000000 0.538946 0.000000
1.000000 0.549671 0.000000
1.000000 0.553383 0.000000
1.000000 0.558563 0.136514
1.000000 0.578870 0.197786
1.000000 0.603844 0.248141
0.000000 0.595298 0.000000
0.000000 0.586964 0.000000
0.000000 0.578549 0.000000
0.000000 0.577700 0.000000
0.000000 0.576727 0.000000
0.000000 0.571797 0.000000
0.000000 0.570560 0.000000
0.193992 0.569020 0.000000
0.307675 0.563044 0.000000
0.401553 0.552473 0.000000
0.501869 0.547850 0.000000
0.614314 0.533085 0.000000
0.677949 0.520334 0.000000
0.743442 0.510632 0.000000
0.811086 0.492188 0.000000
0.860712 0.475293 0.000000
0.910858 0.458505 0.000000
0.948860 0.447393 0.000000
0.980540 0.441596 0.000000
1.000000 0.436861 0.000000
1.000000 0.429420 0.000000
1.000000 0.428289 0.000000
1.000000 0.421087 0.000000
1.000000 0.419193 0.000000
1.000000 0.415492 0.000000
1.000000 0.413296 0.073681
1.000000 0.519631 0.000000
1.000000 0.579446 0.000000
1.000000 0.589977 0.000000
1.000000 0.600764 0.000000
1.000000 0.597912 0.109382
1.000000 0.610593 0.179574
1.000000 0.630652 0.242552
0.000000 0.632956 0.000000
0.000000 0.616772 0.000000
0.000000 0.615835 0.000000
0.000000 0.614897 0.000000
0.000000 0.613931 0.000000
0.000000 0.613012 0.000000
0.000000 0.611772 0.000000
0.190771 0.610420 0.000000
0.319816 0.600481 0.000000
0.397995 0.590530 0.000000
0.488273 0.582994 0.000000
0.598522 0.573012 0.000000
0.670734 0.560165 0.000000
0.744863 0.550235 0.000000
0.808972 0.536589 0.000000
0.858700 0.528159 0.000000
0.908408 0.512007 0.000000
0.945955 0.497355 0.000000
0.977419 0.487751 0.000000
1.000000 0.479042 0.000000
1.000000 0.471528 0.000000
1.000000 0.470333 0.000000
1.000000 0.466731 0.000000
1.000000 0.464092 0.000000
1.000000 0.468105 0.000000
1.000000 0.464871 0.047017
1.000000 0.461235 0.112008
1.000000 0.592804 0.000000
1.000000 0.625790 0.000000
1.000000 0.640275 0.000000
1.000000 0.644125 0.000000
1.000000 0.640885 0.156724
1.000000 0.657413 0.226254
0.000000 0.655199 0.000000
0.000000 0.654123 0.000000
0.000000 0.653191 0.000000
0.000000 0.652341 0.000000
0.000000 0.651454 0.000000
0.000000 0.650517 0.000000
0.000000 0.645380 0.000000
0.243458 0.643747 0.000000
0.328918 0.634438 0.000000
0.407252 0.628363 0.000000
0.486140 0.625356 0.000000
0.581889 0.620657 0.000000
0.652696 0.608558 0.000000
0.731179 0.599015 0.000000
0.808072 0.584875 0.000000
0.862272 0.576432 0.000000
0.904973 0.561153 0.000000
0.942128 0.546861 0.000000
0.973546 0.533443 0.000000
1.000000 0.529127 0.000000
1.000000 0.521595 0.000000
1.000000 0.520009 0.000000
1.000000 0.515781 0.000000
1.000000 0.516373 0.000000
1.000000 0.515164 0.000000
1.000000 0.518205 0.000000
1.000000 0.512459 0.088255
1.000000 0.524521 0.087124
1.000000 0.658073 0.000000
1.000000 0.687178 0.000000
1.000000 0.689845 0.000000
1.000000 0.685643 0.118028
1.000000 0.693263 0.208353
0.000000 0.692505 0.000000
0.000000 0.687665 0.000000
0.000000 0.686738 0.000000
0.000000 0.685943 0.000000
0.000000 0.684881 0.000000
0.000000 0.684064 0.000000
0.148982 0.682692 0.000000
0.278018 0.673517 0.000000
0.347107 0.668249 0.000000
0.427195 0.662116 0.000000
0.507316 0.659084 0.000000
0.582934 0.651653 0.000000
0.651881 0.647763 0.000000
0.718531 0.635545 0.000000
0.797515 0.625736 0.000000
0.857698 0.617107 0.000000
0.900413 0.606043 0.000000
0.936470 0.600064 0.000000
0.968182 0.582781 0.000000
0.997670 0.574518 0.000000
1.000000 0.563042 0.000000
1.000000 0.561157 0.000000
1.000000 0.560615 0.000000
1.000000 0.556714 0.000000
1.000000 0.558106 0.000000
1.000000 0.560196 0.000000
1.000000 0.561444 0.055945
1.000000 0.562548 0.117603
1.000000 0.610996 0.000000
1.000000 0.706551 0.000000
1.000000 0.733251 0.000000
1.000000 0.735361 0.000000
1.000000 0.738125 0.176643
0.000000 0.719456 0.000000
0.000000 0.718504 0.000000
0.000000 0.717436 0.000000
0.000000 0.716556 0.000000
0.000000 0.715577 0.000000
0.054248 0.714656 0.000000
0.228959 0.713480 0.000000
0.299759 0.712375 0.000000
0.378201 0.706661 0.000000
0.450936 0.700489 0.000000
0.531125 0.689281 0.000000
0.586993 0.686718 0.000000
0.651726 0.683291 0.000000
0.713843 0.675323 0.000000
0.784619 0.666411 0.000000
0.848495 0.653837 0.000000
0.892679 0.642791 0.000000
0.929612 0.636720 0.000000
0.960083 0.627609 0.000000
0.990052 0.615290 0.000000
1.000000 0.604042 0.000000
1.000000 0.601860 0.000000
1.000000 0.600974 0.000000
1.000000 0.596686 0.000000
1.000000 0.598049 0.000000
1.000000 0.599614 0.000000
1.000000 0.599231 0.000000
1.000000 0.600325 0.110657
1.000000 0.603207 0.158277
1.000000 0.692174 0.000000
1.000000 0.753185 0.000000
1.000000 0.766991 0.000000
1.000000 0.774466 0.124433
0.000000 0.748940 0.000000
0.000000 0.747897 0.000000
0.000000 0.746839 0.000000
0.000000 0.745962 0.000000
0.098879 0.745010 0.000000
0.199589 0.744332 0.000000
0.294841 0.743041 0.000000
0.355281 0.741841 0.000000
0.418928 0.736506 0.000000
0.489048 0.730499 0.000000
0.545735 0.724497 0.000000
0.598636 0.718269 0.000000
0.660094 0.715114 0.000000
0.714630 0.711958 0.000000
0.780426 0.703777 0.000000
0.841150 0.691521 0.000000
0.885271 0.684436 0.000000
0.924302 0.673861 0.000000
0.954163 0.668488 0.000000
0.980012 0.663939 0.000000
1.000000 0.648441 0.000000
1.000000 0.638128 0.000000
1.000000 0.633017 0.000000
1.000000 0.632762 0.000000
1.000000 0.633245 0.000000
1.000000 0.634285 0.000000
1.000000 0.633880 0.000000
1.000000 0.637013 0.096096
1.000000 0.642184 0.150293
1.000000 0.645530 0.193605
1.000000 0.748268 0.000000
1.000000 0.786977 0.000000
1.000000 0.801253 0.000000
0.000000 0.779379 0.000000
0.000000 0.778264 0.000000
0.000000 0.777345 0.000000
0.127821 0.776518 0.000000
0.248745 0.775444 0.000000
