Assets/Lutify-Free-LUTs-Pack/Lutify Free LUTs Pack/Commercial Pro - Claire/Lutify.me-Claire-DragonColor2RLF-to-Rec709.cube
# Created with: fylm.ai - Colour Grading and Collaboration Software in Cloud 
# Website: https://fylm.ai 
# META
# Option: Gamut compress
# Block 1: IDT | RED DragonColor2 REDLogFilm
# Block 2: colourMatch | Blending Mode: Normal | {"ColorSpace":0,"CrossCovarianceLimit":50,"ReshapingIterations":1,"PercentSaturationShift":100,"PercentShadingShift":100,"ExtraShading":true,"PercentTint":100,"PercentModified":100}
# Block 3: HSL | Blending Mode: Normal | {"hue":{"Reds":0,"Yellows":0,"Greens":0,"Cyans":0,"Blues":0,"Magentas":0},"saturation":{"Reds":1,"Yellows":1,"Greens":1,"Cyans":1,"Blues":1,"Magentas":1},"luminance":{"Reds":0.9,"Yellows":0.9,"Greens":0.9,"Cyans":0.8,"Blues":0.8,"Magentas":0.9},"lum_sat":{"Blacks":1,"Shadows":1,"Midtones":1,"Highlights":1,"Whites":1},"sat_sat":{"10":1,"20":1,"30":1,"40":1,"50":1}}
# Block 4: subtractiveColour | Blending Mode: Normal | {"sliders":{"gainY":0.1,"C":0.05,"M":0.05,"Y":0.05}}
# Block 5: logPrimaries | Blending Mode: Normal | {"wheels":{"shadows":{"Y":"0","R":"1","G":"1","B":"1"},"midtones":{"Y":"0","R":"1","G":"1","B":"1"},"highlights":{"Y":"0","R":"1","G":"1","B":"1"},"offset":{"Y":"0","R":"1","G":"1","B":"1"}},"sliders":{"shadows":{"Y":0,"R":-0.05,"G":0,"B":0.1},"midtones":{"Y":0,"R":0,"G":0,"B":0},"highlights":{"Y":0,"R":0,"G":0,"B":0},"offset":{"Y":0,"R":0,"G":0,"B":0}}}
# Block 6: LUT | Filmic Curve Response: Standard Contrast 1 (100%)
# Block 7: LUT | Illuminant: D93 (100%)
# Block 8: LUT | Neutral Tint: Teal Tint 4 (100%)
# Block 9: ODT | Rec709
TITLE "Lutify.me-Claire-DragonColor2RLF-to-Rec709" 
LUT_3D_SIZE 5
0.000000 0.000000 0.000000
0.155329 0.000000 0.000000
0.471479 0.000000 0.000000
0.913326 0.000000 0.000000
1.000000 0.553262 0.135834
0.000000 0.098932 0.000000
0.133019 0.077081 0.000000
0.458663 0.000000 0.000000
0.912677 0.000000 0.000000
1.000000 0.556920 0.134625
0.000000 0.365222 0.000000
0.152204 0.363133 0.000000
0.523505 0.299091 0.000000
0.923936 0.259775 0.000000
1.000000 0.591552 0.138174
0.453988 0.819638 0.194927
0.478227 0.818944 0.182054
0.616046 0.813943 0.114256
0.922595 0.770251 0.000000
1.000000 0.795086 0.178305
0.920148 0.979010 0.772485
0.921828 0.978909 0.772587
0.925235 0.979355 0.766140
0.948598 0.978736 0.738631
1.000000 0.969697 0.556484
0.000000 0.000000 0.094876
0.098959 0.000000 0.064200
0.403201 0.000000 0.000000
0.900932 0.000000 0.000000
1.000000 0.553252 0.155341
0.000000 0.095388 0.166082
0.073503 0.103729 0.153282
0.394783 0.000000 0.029116
0.900326 0.000000 0.000000
1.000000 0.556911 0.154351
0.000000 0.390378 0.129458
0.000000 0.388850 0.092964
0.462624 0.356609 0.000000
0.911528 0.289135 0.000000
1.000000 0.595193 0.159364
0.449511 0.822321 0.268080
0.471545 0.824341 0.264266
0.604582 0.819696 0.209811
0.919297 0.779688 0.000000
1.000000 0.797369 0.204797
0.921302 0.979498 0.777827
0.921302 0.979498 0.777827
0.924726 0.979310 0.775671
0.948249 0.978704 0.745758
1.000000 0.969667 0.566356
0.000000 0.074845 0.271864
0.000000 0.073920 0.281086
0.372623 0.000000 0.261323
0.874860 0.000000 0.224557
1.000000 0.571459 0.261564
0.000000 0.118104 0.329024
0.000000 0.119934 0.334571
0.371258 0.015541 0.332355
0.873547 0.000000 0.230722
1.000000 0.578795 0.263419
0.000000 0.382622 0.558928
0.000000 0.391351 0.562255
0.357491 0.443502 0.548653
0.891123 0.352793 0.272044
1.000000 0.608951 0.266086
0.403747 0.844956 0.593260
0.432390 0.844308 0.585595
0.577411 0.842404 0.540018
0.897983 0.813811 0.360474
1.000000 0.807111 0.334246
0.919424 0.979960 0.807218
0.919424 0.979960 0.807218
0.924591 0.979685 0.803140
0.947313 0.979038 0.785279
1.000000 0.971461 0.624185
0.000000 0.300126 0.704596
0.000000 0.302224 0.708270
0.203450 0.303593 0.729810
0.871691 0.193658 0.711517
1.000000 0.636748 0.650192
0.000000 0.311060 0.715562
0.000000 0.313245 0.719150
0.200429 0.318200 0.740083
0.868632 0.231805 0.721977
1.000000 0.640402 0.650033
0.000000 0.419067 0.788859
0.000000 0.422010 0.791967
0.124672 0.437840 0.809527
0.866737 0.433948 0.804388
1.000000 0.672851 0.659734
0.000000 0.837268 0.910707
0.000000 0.839266 0.910484
0.371897 0.845546 0.911022
0.847997 0.873675 0.912108
1.000000 0.845058 0.739662
0.905522 0.986625 0.932110
0.905522 0.986625 0.932110
0.910765 0.986350 0.928897
0.937106 0.983895 0.917489
0.999129 0.977619 0.849674
0.295096 0.732112 0.965564
0.307271 0.731894 0.965542
0.386230 0.733953 0.967074
0.724078 0.745526 0.971494
1.000000 0.751462 0.965377
0.295004 0.732144 0.966547
0.301519 0.735736 0.966288
0.382144 0.737736 0.966840
0.722325 0.749145 0.972161
1.000000 0.754649 0.966092
0.304616 0.757294 0.968650
0.316762 0.757076 0.968628
0.405557 0.758597 0.969127
0.731495 0.762266 0.973824
1.000000 0.772952 0.967671
0.403300 0.849734 0.978603
0.410661 0.851991 0.978408
0.481400 0.852552 0.978804
0.759790 0.861813 0.982585
1.000000 0.881094 0.979670
0.856203 0.984128 0.997142
0.856203 0.984128 0.997142
0.864666 0.984213 0.997064
0.903492 0.985151 0.997255
0.985252 0.989891 0.997606
