Assets/Lutify-Free-LUTs-Pack/Lutify Free LUTs Pack/Commercial Pro - Claire/Lutify.me-Claire-LogC4-to-Rec709.cube
# Created with: fylm.ai - Colour Grading and Collaboration Software in Cloud 
# Website: https://fylm.ai 
# META
# Option: Gamut compress
# Block 1: IDT | Arri Alexa 35 - LogC4
# Block 2: colourMatch | Blending Mode: Normal | {"ColorSpace":0,"CrossCovarianceLimit":50,"ReshapingIterations":1,"PercentSaturationShift":100,"PercentShadingShift":100,"ExtraShading":true,"PercentTint":100,"PercentModified":100}
# Block 3: HSL | Blending Mode: Normal | {"hue":{"Reds":0,"Yellows":0,"Greens":0,"Cyans":0,"Blues":0,"Magentas":0},"saturation":{"Reds":1,"Yellows":1,"Greens":1,"Cyans":1,"Blues":1,"Magentas":1},"luminance":{"Reds":0.9,"Yellows":0.9,"Greens":0.9,"Cyans":0.8,"Blues":0.8,"Magentas":0.9},"lum_sat":{"Blacks":1,"Shadows":1,"Midtones":1,"Highlights":1,"Whites":1},"sat_sat":{"10":1,"20":1,"30":1,"40":1,"50":1}}
# Block 4: subtractiveColour | Blending Mode: Normal | {"sliders":{"gainY":0.1,"C":0.05,"M":0.05,"Y":0.05}}
# Block 5: logPrimaries | Blending Mode: Normal | {"wheels":{"shadows":{"Y":"0","R":"1","G":"1","B":"1"},"midtones":{"Y":"0","R":"1","G":"1","B":"1"},"highlights":{"Y":"0","R":"1","G":"1","B":"1"},"offset":{"Y":"0","R":"1","G":"1","B":"1"}},"sliders":{"shadows":{"Y":0,"R":-0.05,"G":0,"B":0.1},"midtones":{"Y":0,"R":0,"G":0,"B":0},"highlights":{"Y":0,"R":0,"G":0,"B":0},"offset":{"Y":0,"R":0,"G":0,"B":0}}}
# Block 6: LUT | Filmic Curve Response: Standard Contrast 1 (100%)
# Block 7: LUT | Illuminant: D93 (100%)
# Block 8: LUT | Neutral Tint: Teal Tint 4 (100%)
# Block 9: ODT | Rec709
TITLE "Lutify.me-Claire-LogC4-to-Rec709" 
LUT_3D_SIZE 33
0.000000 0.000000 0.000000
0.000000 0.000000 0.000000
0.000000 0.000000 0.000000
0.000000 0.000000 0.000000
0.188591 0.000000 0.000000
0.325471 0.000000 0.000000
0.426499 0.000000 0.000000
0.492771 0.000000 0.000000
0.531155 0.000000 0.000000
0.572047 0.000000 0.000000
0.593098 0.000000 0.000000
0.644319 0.000000 0.000000
0.718290 0.000000 0.000000
0.793841 0.000000 0.000000
0.877184 0.000000 0.035300
0.958421 0.000000 0.069761
1.000000 0.000000 0.115886
1.000000 0.000000 0.161199
1.000000 0.235769 0.214181
1.000000 0.362241 0.273499
1.000000 0.464648 0.342391
1.000000 0.578366 0.428924
1.000000 0.664877 0.505107
1.000000 0.747956 0.585658
1.000000 0.815040 0.678891
1.000000 0.860522 0.751554
1.000000 0.897323 0.803190
1.000000 0.924823 0.849135
1.000000 0.947071 0.889837
1.000000 0.963914 0.918958
1.000000 0.976300 0.942925
1.000000 0.986826 0.969295
1.000000 0.995034 0.985776
0.000000 0.000000 0.000000
0.000000 0.000000 0.000000
0.000000 0.000000 0.000000
0.000000 0.000000 0.000000
0.177054 0.000000 0.000000
0.303923 0.000000 0.000000
0.398646 0.000000 0.000000
0.474401 0.000000 0.000000
0.511619 0.000000 0.000000
0.555685 0.000000 0.000000
0.580705 0.000000 0.000000
0.640096 0.000000 0.000000
0.718311 0.000000 0.000000
0.793826 0.000000 0.000000
0.877100 0.000000 0.035682
0.958280 0.000000 0.070638
1.000000 0.000000 0.115628
1.000000 0.000000 0.160935
1.000000 0.235769 0.214181
1.000000 0.366272 0.273227
1.000000 0.464636 0.345169
1.000000 0.578366 0.428924
1.000000 0.667916 0.504959
1.000000 0.747956 0.585658
1.000000 0.815040 0.678891
1.000000 0.860522 0.751554
1.000000 0.897323 0.803190
1.000000 0.924823 0.849135
1.000000 0.947071 0.889837
1.000000 0.963914 0.918958
1.000000 0.976300 0.942925
1.000000 0.986826 0.969295
1.000000 0.995034 0.985776
0.000000 0.000000 0.000000
0.000000 0.000000 0.000000
0.000000 0.000000 0.000000
0.000000 0.000000 0.000000
0.160617 0.000000 0.000000
0.277329 0.000000 0.000000
0.370123 0.000000 0.000000
0.433093 0.000000 0.000000
0.481885 0.000000 0.000000
0.531514 0.000000 0.000000
0.572560 0.000000 0.000000
0.631635 0.000000 0.000000
0.713963 0.000000 0.000000
0.793803 0.000000 0.000000
0.872637 0.000000 0.036100
0.958130 0.000000 0.069849
1.000000 0.000000 0.115364
1.000000 0.000000 0.160665
1.000000 0.241130 0.216124
1.000000 0.366272 0.273227
1.000000 0.468224 0.344944
1.000000 0.578366 0.428924
1.000000 0.667916 0.504959
1.000000 0.747956 0.585658
1.000000 0.815040 0.678891
1.000000 0.860522 0.751554
1.000000 0.897323 0.803190
1.000000 0.924823 0.849135
1.000000 0.947071 0.889837
1.000000 0.963914 0.918958
1.000000 0.976300 0.942925
1.000000 0.986826 0.969295
1.000000 0.995034 0.985776
0.000000 0.009706 0.000000
0.000000 0.005113 0.000000
0.000000 0.000000 0.000000
0.000000 0.000000 0.000000
0.132278 0.000000 0.000000
0.245744 0.000000 0.000000
0.333239 0.000000 0.000000
0.398907 0.000000 0.000000
0.450180 0.000000 0.000000
0.512173 0.000000 0.000000
0.564521 0.000000 0.000000
0.627487 0.000000 0.000000
0.709632 0.000000 0.000000
0.793756 0.000000 0.000000
0.872510 0.000000 0.035666
0.957897 0.000000 0.070273
1.000000 0.000000 0.116598
1.000000 0.000000 0.162249
1.000000 0.247394 0.216296
1.000000 0.370282 0.275299
1.000000 0.468224 0.344944
1.000000 0.578366 0.428924
1.000000 0.667916 0.504959
1.000000 0.747956 0.585658
1.000000 0.815040 0.678891
1.000000 0.860522 0.751554
1.000000 0.897323 0.803190
1.000000 0.924823 0.849135
1.000000 0.947071 0.889837
1.000000 0.963914 0.918958
1.000000 0.976300 0.942925
1.000000 0.986826 0.969295
1.000000 0.995034 0.985776
0.000000 0.076738 0.000000
0.000000 0.075785 0.000000
0.000000 0.073810 0.000000
0.000000 0.068325 0.000000
0.078936 0.050722 0.000000
0.192042 0.000000 0.000000
0.284687 0.000000 0.000000
0.365469 0.000000 0.000000
0.424187 0.000000 0.000000
0.493790 0.000000 0.000000
0.552567 0.000000 0.000000
0.614940 0.000000 0.000000
0.696625 0.000000 0.000000
0.788923 0.000000 0.000000
0.872337 0.000000 0.036521
0.957649 0.000000 0.072372
1.000000 0.000000 0.117879
1.000000 0.000000 0.161971
1.000000 0.252574 0.215992
1.000000 0.370282 0.275299
1.000000 0.471814 0.344718
1.000000 0.581808 0.428727
1.000000 0.667916 0.504959
1.000000 0.747956 0.585658
1.000000 0.816969 0.678892
1.000000 0.860522 0.751554
1.000000 0.897323 0.803190
1.000000 0.924823 0.849135
1.000000 0.947071 0.889837
1.000000 0.963914 0.918958
1.000000 0.976300 0.942925
1.000000 0.986826 0.969295
1.000000 0.995034 0.985776
0.000000 0.128288 0.000000
0.000000 0.125204 0.000000
0.000000 0.123643 0.000000
0.000000 0.117705 0.000000
0.037800 0.102849 0.000000
0.179835 0.073959 0.000000
0.274672 0.000000 0.000000
0.345560 0.000000 0.000000
0.409609 0.000000 0.000000
0.486989 0.000000 0.000000
0.548916 0.000000 0.000000
0.615238 0.000000 0.000000
0.692383 0.000000 0.000000
0.784050 0.000000 0.000000
0.872063 0.000000 0.035484
0.957291 0.000000 0.072262
1.000000 0.000000 0.116675
1.000000 0.000000 0.162988
1.000000 0.257669 0.217952
1.000000 0.378271 0.279507
1.000000 0.475405 0.344489
1.000000 0.585255 0.428529
1.000000 0.670943 0.504813
1.000000 0.750525 0.585588
1.000000 0.816969 0.678892
1.000000 0.863618 0.751596
1.000000 0.897569 0.803618
1.000000 0.924823 0.849135
1.000000 0.947064 0.891096
1.000000 0.963914 0.918958
1.000000 0.976300 0.942925
1.000000 0.986826 0.969295
1.000000 0.995034 0.985776
0.000000 0.180778 0.000000
0.000000 0.178840 0.000000
0.000000 0.176868 0.000000
0.000000 0.165787 0.000000
0.000000 0.156537 0.000000
0.157217 0.141275 0.000000
0.266809 0.109889 0.000000
0.342428 0.075354 0.000000
0.406005 0.000000 0.000000
0.478245 0.000000 0.000000
0.546092 0.000000 0.000000
0.603322 0.000000 0.000000
0.696892 0.000000 0.000000
0.783895 0.000000 0.000000
0.876049 0.000000 0.035098
0.960132 0.000000 0.072431
1.000000 0.000000 0.116522
1.000000 0.092336 0.165679
1.000000 0.272593 0.219309
1.000000 0.382262 0.279231
1.000000 0.478985 0.347071
1.000000 0.585255 0.428529
1.000000 0.670943 0.504813
1.000000 0.750525 0.585588
1.000000 0.816969 0.678892
1.000000 0.863618 0.751596
1.000000 0.898768 0.803649
1.000000 0.924823 0.849135
1.000000 0.947064 0.891096
1.000000 0.963914 0.918958
1.000000 0.976300 0.942925
1.000000 0.986826 0.969295
1.000000 0.995034 0.985776
0.000000 0.228383 0.000000
0.000000 0.228279 0.000000
0.000000 0.226282 0.000000
0.000000 0.220238 0.000000
0.000000 0.215405 0.000000
0.093282 0.199326 0.000000
0.245216 0.176965 0.000000
0.343011 0.146459 0.000000
0.409283 0.124358 0.000000
0.482112 0.097115 0.000000
0.545396 0.035750 0.000000
0.605136 0.000000 0.000000
0.697171 0.000000 0.000000
0.783692 0.000000 0.000000
0.875316 0.000000 0.019938
0.959309 0.000000 0.075868
1.000000 0.000000 0.116153
1.000000 0.147371 0.165944
1.000000 0.287028 0.220666
1.000000 0.394175 0.280807
1.000000 0.482566 0.349678
1.000000 0.592146 0.431046
1.000000 0.675008 0.508533
1.000000 0.753075 0.585522
1.000000 0.820795 0.678904
1.000000 0.863618 0.751596
1.000000 0.898768 0.803649
1.000000 0.924823 0.849135
1.000000 0.947064 0.891096
1.000000 0.963914 0.918958
1.000000 0.976300 0.942925
1.000000 0.986822 0.969884
1.000000 0.995034 0.985776
0.000000 0.272228 0.000000
0.000000 0.272108 0.000000
0.000000 0.269721 0.000000
0.000000 0.267188 0.000000
0.000000 0.264555 0.000000
0.000000 0.258364 0.000000
0.194825 0.243768 0.000000
0.310882 0.223546 0.000000
0.406835 0.201172 0.000000
0.486113 0.177748 0.000000
0.550160 0.175821 0.000000
0.608627 0.158695 0.000000
0.698252 0.098859 0.000000
0.783436 0.000000 0.000000
0.874471 0.000000 0.015649
0.958098 0.000000 0.075910
1.000000 0.042575 0.117743
1.000000 0.199197 0.167301
1.000000 0.305657 0.226462
1.000000 0.406021 0.282392
1.000000 0.493379 0.351851
1.000000 0.595604 0.430846
1.000000 0.677993 0.508392
1.000000 0.755605 0.585460
1.000000 0.822677 0.681808
1.000000 0.865132 0.753983
1.000000 0.898768 0.803649
1.000000 0.924823 0.849135
1.000000 0.947823 0.891115
1.000000 0.963914 0.918958
1.000000 0.976300 0.942925
1.000000 0.986822 0.969884
1.000000 0.995034 0.985776
0.000000 0.326911 0.000000
0.000000 0.335228 0.000000
0.000000 0.335203 0.000000
0.000000 0.332343 0.000000
0.000000 0.329195 0.000000
0.000000 0.325588 0.000000
0.000000 0.319903 0.000000
0.251317 0.311357 0.000000
0.365591 0.292210 0.000000
0.494386 0.263138 0.000000
0.561609 0.256226 0.000000
0.620892 0.249769 0.000000
0.704949 0.235436 0.000000
0.787939 0.186648 0.000000
0.876963 0.131128 0.000000
0.955961 0.082515 0.076370
1.000000 0.173851 0.124957
1.000000 0.250734 0.169789
1.000000 0.332650 0.226836
1.000000 0.422682 0.284310
1.000000 0.508007 0.350894
1.000000 0.602517 0.433375
1.000000 0.683912 0.511103
1.000000 0.758102 0.588413
1.000000 0.824564 0.681819
1.000000 0.865132 0.753983
1.000000 0.899949 0.805691
1.000000 0.925774 0.850782
1.000000 0.947823 0.891115
1.000000 0.963914 0.918958
1.000000 0.976300 0.942925
1.000000 0.986822 0.969884
1.000000 0.995034 0.985776
0.000000 0.377865 0.000000
0.000000 0.386975 0.000000
0.000000 0.393164 0.000000
0.000000 0.399415 0.000000
0.000000 0.396085 0.000000
0.000000 0.395699 0.000000
0.000000 0.397691 0.000000
0.000000 0.391514 0.000000
0.290028 0.383245 0.000000
0.437372 0.364868 0.000000
0.552233 0.340780 0.000000
0.629116 0.335470 0.000000
0.706540 0.328492 0.000000
0.787862 0.315831 0.000000
0.873049 0.288153 0.000000
0.957734 0.243462 0.066014
1.000000 0.260090 0.128009
1.000000 0.295717 0.174348
1.000000 0.367945 0.231886
1.000000 0.446039 0.287519
1.000000 0.529982 0.352324
1.000000 0.616394 0.435512
1.000000 0.692700 0.513703
1.000000 0.763715 0.595183
1.000000 0.826918 0.685492
1.000000 0.866646 0.754009
1.000000 0.899949 0.805691
1.000000 0.925774 0.850782
1.000000 0.947823 0.891115
1.000000 0.964521 0.918977
1.000000 0.976300 0.942925
1.000000 0.986840 0.969916
1.000000 0.995034 0.985776
0.000000 0.435681 0.041166
0.000000 0.452940 0.000000
0.000000 0.470427 0.000000
0.000000 0.473901 0.000000
0.000000 0.480877 0.000000
0.000000 0.477086 0.000000
0.000000 0.480045 0.000000
0.000000 0.478480 0.000000
0.125881 0.471925 0.000000
0.351401 0.470176 0.000000
0.498808 0.455121 0.000000
0.617005 0.427243 0.000000
0.719871 0.412921 0.000000
0.807835 0.406732 0.000000
0.871711 0.395339 0.000000
0.948325 0.374706 0.024106
1.000000 0.349315 0.121799
1.000000 0.364581 0.174473
1.000000 0.407428 0.237650
1.000000 0.477100 0.292751
1.000000 0.552911 0.357510
1.000000 0.634709 0.441225
1.000000 0.704226 0.516213
1.000000 0.770951 0.595053
1.000000 0.830599 0.688382
1.000000 0.868132 0.756382
1.000000 0.901135 0.805724
1.000000 0.926727 0.850813
1.000000 0.948579 0.891135
1.000000 0.964509 0.921027
1.000000 0.976300 0.942925
1.000000 0.986840 0.969916
1.000000 0.995034 0.985776
0.000000 0.524459 0.149783
0.000000 0.535576 0.139641
0.000000 0.550486 0.119465
0.000000 0.557922 0.094294
0.000000 0.565336 0.034017
0.000000 0.572648 0.000000
0.000000 0.568403 0.000000
0.000000 0.575070 0.000000
0.000000 0.569435 0.000000
0.185943 0.569515 0.000000
0.413522 0.563791 0.000000
0.569673 0.544379 0.000000
0.703073 0.518845 0.000000
0.803073 0.517831 0.000000
0.878120 0.503308 0.000000
0.946813 0.498867 0.000000
1.000000 0.472632 0.118704
1.000000 0.458104 0.173418
1.000000 0.469177 0.248093
1.000000 0.525368 0.298030
1.000000 0.582259 0.364525
1.000000 0.651735 0.446231
1.000000 0.719351 0.518631
1.000000 0.780839 0.601823
1.000000 0.834231 0.691268
1.000000 0.871088 0.756447
1.000000 0.902304 0.807756
1.000000 0.927674 0.850846
1.000000 0.948579 0.891135
1.000000 0.964509 0.921027
1.000000 0.976750 0.943739
1.000000 0.987549 0.969920
1.000000 0.995032 0.986162
0.000000 0.603269 0.226976
0.000000 0.610855 0.219351
0.000000 0.622256 0.207595
0.000000 0.637472 0.200935
0.000000 0.648821 0.184422
0.000000 0.652380 0.159788
0.000000 0.655809 0.117855
0.000000 0.658993 0.025836
0.000000 0.653948 0.000000
0.000000 0.651443 0.000000
0.293675 0.650690 0.000000
0.489426 0.640911 0.000000
0.659690 0.632000 0.000000
0.784530 0.607292 0.000000
0.868624 0.596820 0.000000
0.936012 0.593022 0.000000
0.987405 0.584082 0.091383
1.000000 0.581757 0.182047
1.000000 0.558517 0.256849
1.000000 0.580153 0.313725
1.000000 0.619042 0.374283
1.000000 0.681388 0.456750
1.000000 0.736948 0.530194
1.000000 0.792571 0.605628
1.000000 0.839591 0.694178
1.000000 0.873972 0.758843
1.000000 0.904862 0.808245
1.000000 0.928606 0.852480
1.000000 0.949322 0.892406
1.000000 0.965111 0.921045
1.000000 0.976750 0.943739
1.000000 0.987549 0.969920
1.000000 0.995032 0.986162
0.000000 0.690965 0.306568
0.000000 0.698581 0.301963
0.000000 0.706622 0.297284
0.000000 0.714681 0.288943
0.000000 0.726513 0.280021
0.000000 0.730214 0.268607
0.000000 0.741503 0.244867
0.000000 0.744793 0.218387
0.000000 0.740161 0.189129
0.000000 0.738327 0.141237
0.000000 0.738396 0.000000
0.394089 0.737255 0.000000
0.604118 0.729635 0.000000
0.758622 0.709416 0.000000
0.843618 0.695740 0.000000
0.917228 0.687145 0.000000
0.969485 0.673336 0.083016
1.000000 0.678402 0.186031
1.000000 0.665294 0.264650
1.000000 0.653316 0.326259
1.000000 0.670001 0.390643
1.000000 0.711843 0.468408
1.000000 0.762961 0.537415
1.000000 0.806041 0.612584
1.000000 0.846549 0.699935
1.000000 0.878178 0.763556
1.000000 0.907156 0.810300
1.000000 0.929699 0.854418
1.000000 0.950808 0.892453
1.000000 0.965708 0.921064
1.000000 0.977201 0.943752
1.000000 0.987549 0.969920
1.000000 0.995266 0.986160
0.000000 0.782017 0.395450
0.000000 0.785382 0.395240
0.000000 0.788694 0.391289
0.000000 0.791905 0.391126
0.000000 0.798277 0.387038
0.000000 0.804419 0.375479
0.000000 0.813388 0.360038
0.000000 0.821753 0.344444
0.000000 0.821011 0.324563
0.000000 0.825400 0.284742
0.000000 0.822608 0.249838
0.233108 0.812783 0.194461
0.506532 0.812590 0.126407
0.696112 0.804631 0.000000
0.815378 0.789137 0.000000
0.903899 0.774426 0.000000
0.953803 0.765541 0.000000
0.987367 0.768164 0.188357
1.000000 0.759818 0.287389
1.000000 0.756657 0.341739
1.000000 0.739265 0.407315
1.000000 0.758329 0.483288
1.000000 0.786370 0.551217
1.000000 0.824600 0.622135
1.000000 0.859025 0.706553
1.000000 0.883637 0.766016
1.000000 0.910749 0.812794
1.000000 0.932460 0.854531
1.000000 0.952267 0.893742
1.000000 0.966362 0.922226
1.000000 0.977647 0.943767
1.000000 0.987897 0.969924
1.000000 0.995266 0.986160
0.000000 0.841827 0.480341
0.000000 0.844384 0.480339
0.000000 0.846883 0.480353
0.000000 0.849290 0.480391
0.000000 0.854177 0.476651
0.000000 0.861304 0.473018
0.000000 0.865752 0.469432
0.000000 0.867743 0.450708
0.000000 0.871795 0.432256
0.000000 0.877401 0.417987
0.000000 0.875365 0.388499
0.000000 0.870045 0.351594
0.439406 0.866843 0.297572
0.638409 0.860185 0.260558
0.782897 0.855460 0.214369
0.875578 0.845349 0.168994
0.936854 0.826954 0.117473
0.971531 0.830193 0.219663
1.000000 0.824772 0.311582
1.000000 0.823303 0.378579
1.000000 0.818336 0.444952
1.000000 0.812575 0.504931
1.000000 0.818128 0.567154
1.000000 0.842305 0.635922
1.000000 0.870352 0.715230
1.000000 0.893127 0.771356
1.000000 0.915334 0.817242
1.000000 0.935136 0.857763
1.000000 0.953713 0.893799
1.000000 0.967527 0.922268
1.000000 0.978085 0.944576
1.000000 0.988238 0.970507
1.000000 0.995496 0.986541
0.000000 0.893511 0.569735
0.000000 0.893469 0.569741
0.000000 0.895509 0.569881
0.000000 0.895388 0.566048
0.000000 0.897342 0.566208
0.000000 0.899152 0.566392
0.000000 0.902809 0.562935
0.000000 0.907938 0.559776
0.000000 0.914340 0.545638
0.000000 0.916781 0.524007
0.000000 0.914825 0.513139
0.000000 0.914326 0.480663
0.344862 0.911980 0.441764
0.581677 0.902547 0.402701
0.735605 0.899560 0.367808
0.849077 0.891837 0.325507
0.914722 0.889634 0.299749
0.961048 0.876238 0.255212
0.990778 0.871011 0.334629
1.000000 0.872563 0.412162
1.000000 0.867546 0.471501
1.000000 0.868884 0.542742
1.000000 0.860657 0.592534
1.000000 0.867644 0.653226
1.000000 0.883680 0.724132
1.000000 0.902182 0.778764
1.000000 0.921700 0.821375
1.000000 0.939469 0.858007
1.000000 0.956530 0.896369
1.000000 0.968666 0.923313
1.000000 0.978955 0.945395
1.000000 0.988579 0.970511
1.000000 0.995724 0.986540
0.000000 0.927416 0.668353
0.000000 0.927351 0.668356
0.000000 0.928743 0.664880
0.000000 0.930168 0.665094
0.000000 0.931436 0.665321
0.000000 0.934201 0.662109
0.000000 0.936725 0.658941
0.000000 0.940405 0.656108
0.000000 0.941169 0.652748
0.000000 0.944182 0.650079
0.000000 0.944245 0.635708
0.000000 0.946136 0.622311
0.325993 0.942552 0.589729
0.540647 0.937860 0.554236
0.704566 0.933177 0.521357
0.822364 0.926169 0.479665
0.891455 0.923674 0.446080
0.941304 0.918038 0.417770
0.978836 0.907455 0.391928
1.000000 0.906303 0.438706
1.000000 0.903170 0.505141
1.000000 0.904925 0.573612
1.000000 0.903230 0.628090
1.000000 0.896671 0.680252
1.000000 0.901704 0.739844
1.000000 0.913256 0.791296
1.000000 0.929895 0.827848
1.000000 0.944430 0.861377
1.000000 0.959335 0.899083
1.000000 0.970897 0.924527
1.000000 0.980274 0.945529
1.000000 0.989261 0.971123
1.000000 0.995949 0.987301
0.000000 0.959890 0.753360
0.000000 0.959800 0.753359
0.000000 0.960930 0.750409
0.000000 0.960838 0.750408
0.000000 0.961841 0.750603
0.000000 0.961551 0.750600
0.000000 0.962219 0.750797
0.000000 0.963875 0.751213
0.000000 0.965441 0.748538
0.000000 0.966796 0.739669
0.000000 0.967578 0.731318
0.000000 0.967673 0.719842
0.388599 0.967479 0.708697
0.531976 0.964166 0.693007
0.667908 0.959724 0.653795
0.786337 0.955591 0.618621
0.869129 0.952355 0.579551
0.923739 0.948269 0.552540
0.964460 0.943828 0.531777
0.990963 0.939256 0.498755
1.000000 0.936088 0.547933
1.000000 0.936776 0.615961
1.000000 0.932702 0.665572
1.000000 0.930111 0.714881
1.000000 0.927015 0.761877
1.000000 0.928661 0.803540
1.000000 0.940926 0.841246
1.000000 0.950813 0.869407
1.000000 0.962624 0.901644
1.000000 0.972995 0.925737
1.000000 0.981544 0.947216
1.000000 0.989912 0.971698
1.000000 0.996387 0.987667
0.000000 0.977572 0.813183
0.000000 0.977470 0.810789
0.000000 0.977470 0.810789
0.000000 0.978274 0.810928
0.000000 0.978156 0.810923
0.000000 0.978825 0.811062
0.000000 0.978592 0.808652
0.000000 0.978989 0.806376
0.000000 0.980097 0.804270
0.000000 0.981676 0.804794
0.103633 0.982469 0.802937
0.350395 0.983623 0.798974
0.474474 0.982005 0.791889
0.565336 0.980371 0.782201
0.669093 0.977634 0.766930
0.763273 0.973776 0.737534
0.850814 0.970300 0.708994
0.908546 0.967240 0.674126
0.950241 0.965653 0.650822
0.980515 0.962393 0.619194
1.000000 0.957216 0.591118
1.000000 0.957239 0.654818
1.000000 0.954459 0.702253
1.000000 0.955365 0.745831
1.000000 0.954082 0.793611
1.000000 0.949866 0.819208
1.000000 0.951760 0.849563
1.000000 0.958164 0.875605
1.000000 0.967049 0.904441
1.000000 0.975433 0.927805
1.000000 0.983540 0.948850
1.000000 0.991181 0.972860
1.000000 0.996813 0.988030
0.000000 0.992630 0.860127
0.000000 0.992490 0.860118
0.000000 0.992349 0.860110
0.000000 0.992349 0.860110
0.000000 0.992762 0.860206
0.000000 0.992617 0.860198
0.000000 0.992863 0.860288
0.088685 0.992252 0.860252
0.244320 0.992811 0.860449
0.334404 0.993104 0.860644
0.409474 0.993143 0.860837
0.478674 0.993555 0.861178
0.547778 0.994202 0.858143
0.624691 0.992961 0.852972
0.694349 0.990949 0.847567
0.763842 0.987479 0.829787
0.835766 0.984677 0.807380
0.894995 0.981551 0.788644
0.934067 0.979983 0.767945
0.968230 0.977481 0.744252
0.992898 0.974326 0.723139
1.000000 0.972539 0.695354
1.000000 0.970636 0.735490
1.000000 0.971047 0.773693
1.000000 0.970447 0.811862
1.000000 0.968865 0.845076
1.000000 0.966210 0.860594
1.000000 0.966919 0.882287
1.000000 0.973228 0.909821
1.000000 0.978671 0.930956
1.000000 0.986215 0.952116
1.000000 0.992291 0.973431
1.000000 0.997430 0.988390
0.414892 1.000000 0.897644
0.422898 1.000000 0.897633
0.422898 1.000000 0.897633
0.430721 1.000000 0.897622
0.430721 1.000000 0.897622
0.443425 1.000000 0.897776
0.464926 1.000000 0.897744
0.480745 1.000000 0.897809
0.500440 1.000000 0.897778
0.522215 1.000000 0.897833
0.556188 1.000000 0.897965
0.597518 1.000000 0.898089
0.644222 1.000000 0.896935
0.681006 1.000000 0.895961
0.726672 0.999830 0.891833
0.780642 0.998300 0.887831
0.830858 0.995928 0.874556
0.879847 0.993867 0.857858
0.922521 0.991525 0.843443
0.956359 0.989607 0.827327
0.980961 0.987809 0.807573
0.997018 0.986947 0.791568
1.000000 0.984098 0.770898
1.000000 0.983678 0.798952
1.000000 0.982542 0.834177
1.000000 0.982504 0.863111
1.000000 0.980784 0.880607
1.000000 0.977796 0.894582
1.000000 0.979949 0.916235
1.000000 0.983303 0.934982
1.000000 0.989016 0.954544
1.000000 0.993853 0.975066
1.000000 0.998208 0.989099
0.590214 1.000000 0.926632
0.590214 1.000000 0.926632
0.590214 1.000000 0.926632
0.595149 1.000000 0.926621
0.596716 1.000000 0.926680
0.601538 1.000000 0.926669
0.610999 1.000000 0.926648
0.622931 1.000000 0.926751
0.633126 1.000000 0.925681
0.642852 1.000000 0.925731
0.656198 1.000000 0.925774
0.673807 1.000000 0.925886
0.701336 1.000000 0.924875
0.740300 1.000000 0.925049
0.781358 1.000000 0.921908
0.816377 1.000000 0.918668
0.844088 1.000000 0.914266
0.878593 1.000000 0.905919
0.914479 0.999555 0.895199
0.947790 0.997658 0.884112
0.971896 0.996563 0.872446
0.989596 0.995291 0.857590
1.000000 0.993646 0.845618
1.000000 0.992379 0.830703
1.000000 0.991705 0.855985
1.000000 0.991506 0.877864
1.000000 0.991098 0.895906
1.000000 0.990069 0.911409
1.000000 0.988391 0.926322
1.000000 0.988906 0.941004
1.000000 0.992086 0.958287
1.000000 0.995765 0.976694
1.000000 0.999125 0.989806
0.695176 1.000000 0.951461
0.695176 1.000000 0.951461
0.698539 1.000000 0.951451
0.700573 1.000000 0.951520
0.700573 1.000000 0.951520
0.703863 1.000000 0.951510
0.710373 1.000000 0.951491
0.714581 1.000000 0.950683
0.720905 1.000000 0.950664
0.727987 1.000000 0.950685
0.740856 1.000000 0.950690
0.753191 1.000000 0.950698
0.774288 1.000000 0.949053
0.796830 1.000000 0.949145
0.816918 1.000000 0.949259
0.839202 1.000000 0.948553
0.859765 1.000000 0.946198
0.888541 1.000000 0.942905
0.913248 1.000000 0.937735
0.940376 1.000000 0.928461
0.966275 1.000000 0.920014
0.984095 1.000000 0.910314
0.996807 1.000000 0.898609
1.000000 0.999128 0.888400
1.000000 0.997523 0.875259
1.000000 0.997489 0.891889
1.000000 0.997028 0.908284
1.000000 0.996433 0.922030
1.000000 0.995882 0.936894
1.000000 0.994679 0.947756
1.000000 0.995378 0.962075
1.000000 0.997869 0.978306
1.000000 1.000000 0.990813
0.791564 1.000000 0.966937
0.791564 1.000000 0.966937
0.791564 1.000000 0.966937
0.791564 1.000000 0.966937
0.791564 1.000000 0.966937
