Assets/Lutify-Free-LUTs-Pack/Lutify Free LUTs Pack/Commercial Pro - Claire/Lutify.me-Claire-ZLog2-to-Rec709.cube
# Created with: fylm.ai - Colour Grading and Collaboration Software in Cloud 
# Website: https://fylm.ai 
# META
# Option: Gamut compress
# Block 1: IDT | Z-Cam Z-Log2 - BETA
# Block 2: colourMatch | Blending Mode: Normal | {"ColorSpace":0,"CrossCovarianceLimit":50,"ReshapingIterations":1,"PercentSaturationShift":100,"PercentShadingShift":100,"ExtraShading":true,"PercentTint":100,"PercentModified":100}
# Block 3: HSL | Blending Mode: Normal | {"hue":{"Reds":0,"Yellows":0,"Greens":0,"Cyans":0,"Blues":0,"Magentas":0},"saturation":{"Reds":1,"Yellows":1,"Greens":1,"Cyans":1,"Blues":1,"Magentas":1},"luminance":{"Reds":0.9,"Yellows":0.9,"Greens":0.9,"Cyans":0.8,"Blues":0.8,"Magentas":0.9},"lum_sat":{"Blacks":1,"Shadows":1,"Midtones":1,"Highlights":1,"Whites":1},"sat_sat":{"10":1,"20":1,"30":1,"40":1,"50":1}}
# Block 4: subtractiveColour | Blending Mode: Normal | {"sliders":{"gainY":0.1,"C":0.05,"M":0.05,"Y":0.05}}
# Block 5: logPrimaries | Blending Mode: Normal | {"wheels":{"shadows":{"Y":"0","R":"1","G":"1","B":"1"},"midtones":{"Y":"0","R":"1","G":"1","B":"1"},"highlights":{"Y":"0","R":"1","G":"1","B":"1"},"offset":{"Y":"0","R":"1","G":"1","B":"1"}},"sliders":{"shadows":{"Y":0,"R":-0.05,"G":0,"B":0.1},"midtones":{"Y":0,"R":0,"G":0,"B":0},"highlights":{"Y":0,"R":0,"G":0,"B":0},"offset":{"Y":0,"R":0,"G":0,"B":0}}}
# Block 6: LUT | Filmic Curve Response: Standard Contrast 1 (100%)
# Block 7: LUT | Illuminant: D93 (100%)
# Block 8: LUT | Neutral Tint: Teal Tint 4 (100%)
# Block 9: ODT | Rec709
TITLE "Lutify.me-Claire-ZLog2-to-Rec709" 
LUT_3D_SIZE 9
0.000000 0.000000 0.014579
0.053120 0.000000 0.000000
0.138019 0.000000 0.000000
0.222074 0.000000 0.000000
0.309132 0.000000 0.000000
0.382350 0.000000 0.000000
0.490654 0.000000 0.005944
0.611364 0.000000 0.052316
0.775171 0.000000 0.093878
0.000000 0.043797 0.000000
0.028123 0.035414 0.000000
0.114585 0.000000 0.000000
0.195441 0.000000 0.000000
0.289135 0.000000 0.000000
0.371351 0.000000 0.000000
0.483390 0.000000 0.014495
0.615588 0.000000 0.053501
0.770254 0.000000 0.093259
0.000000 0.093250 0.000000
0.000000 0.087906 0.000000
0.101501 0.076324 0.000000
0.188698 0.047329 0.000000
0.276765 0.000000 0.000000
0.363635 0.000000 0.000000
0.476269 0.000000 0.008624
0.611380 0.000000 0.052202
0.765280 0.000000 0.093603
0.000000 0.153990 0.000000
0.000000 0.150224 0.000000
0.096514 0.141456 0.000000
0.203438 0.121114 0.000000
0.290297 0.096465 0.000000
0.365989 0.046636 0.000000
0.477247 0.000000 0.000000
0.611525 0.000000 0.047264
0.764923 0.000000 0.094467
0.000000 0.215010 0.000000
0.000000 0.209724 0.000000
0.119983 0.200379 0.000000
0.235205 0.184234 0.000000
0.330577 0.164612 0.000000
0.407133 0.151348 0.000000
0.497432 0.134582 0.000000
0.621064 0.000000 0.000000
0.773767 0.000000 0.091246
0.000000 0.270621 0.000000
0.087432 0.269120 0.000000
0.210277 0.258252 0.000000
0.304942 0.242085 0.000000
0.405757 0.215503 0.000000
0.498404 0.203891 0.000000
0.560176 0.214216 0.000000
0.647140 0.228017 0.000000
0.782341 0.170681 0.065121
0.153472 0.350817 0.000000
0.210047 0.346444 0.000000
0.282005 0.337709 0.000000
0.358438 0.329992 0.000000
0.459814 0.309187 0.000000
0.581588 0.271324 0.000000
0.718587 0.229944 0.000000
0.715616 0.311615 0.000000
0.809176 0.347738 0.000000
0.305725 0.446571 0.000000
0.333154 0.445540 0.000000
0.376235 0.443648 0.000000
0.445558 0.436306 0.000000
0.527885 0.423282 0.000000
0.656453 0.400077 0.000000
0.766765 0.363822 0.000000
0.903473 0.322865 0.000000
0.862200 0.455506 0.000000
0.494108 0.552078 0.000000
0.511197 0.551170 0.000000
0.541086 0.545633 0.000000
0.596997 0.538184 0.000000
0.650465 0.530371 0.000000
0.727365 0.516057 0.000000
0.827082 0.498694 0.000000
0.929702 0.457007 0.000000
1.000000 0.436923 0.000000
0.000000 0.000000 0.053061
0.018888 0.000000 0.047886
0.120619 0.000000 0.021372
0.200892 0.000000 0.000000
0.296237 0.000000 0.000000
0.377116 0.000000 0.000000
0.487160 0.000000 0.032090
0.611536 0.000000 0.061966
0.770485 0.000000 0.099381
0.000000 0.034304 0.060558
0.000000 0.031503 0.053454
0.108502 0.000000 0.024142
0.185352 0.000000 0.000000
0.279153 0.000000 0.000000
0.363517 0.000000 0.013253
0.479891 0.000000 0.034456
0.611555 0.000000 0.064357
0.770394 0.000000 0.101734
0.000000 0.089458 0.035312
0.000000 0.089246 0.000000
0.086054 0.080106 0.000000
0.173757 0.056430 0.000000
0.264160 0.000000 0.000000
0.355656 0.000000 0.000000
0.472737 0.000000 0.037022
0.611505 0.000000 0.063309
0.765369 0.000000 0.102162
0.000000 0.156534 0.000000
0.000000 0.152623 0.000000
0.068447 0.144247 0.000000
0.181014 0.130345 0.000000
0.272240 0.110047 0.000000
0.357738 0.070804 0.000000
0.473384 0.000000 0.024574
0.603163 0.000000 0.060140
0.764963 0.000000 0.101884
0.000000 0.221882 0.000000
0.000000 0.221075 0.000000
0.000000 0.214752 0.000000
0.197771 0.204531 0.000000
0.297672 0.181164 0.000000
0.383249 0.169844 0.000000
0.493216 0.139357 0.000000
0.620832 0.000000 0.042275
0.769034 0.000000 0.099540
0.000000 0.275849 0.000000
0.000000 0.274663 0.000000
0.157070 0.272055 0.000000
0.265125 0.259400 0.000000
0.353927 0.246479 0.000000
0.457689 0.232428 0.000000
0.537717 0.239544 0.000000
0.642609 0.229103 0.000000
0.782108 0.170818 0.080973
0.147265 0.350946 0.000000
0.208049 0.343697 0.000000
0.277669 0.337935 0.000000
0.356800 0.324397 0.000000
0.459814 0.309187 0.000000
0.581588 0.271324 0.000000
0.690404 0.254781 0.000000
0.690915 0.333859 0.000000
0.800001 0.353060 0.000000
0.300155 0.446765 0.000000
0.333154 0.445540 0.000000
0.376235 0.443648 0.000000
0.445558 0.436306 0.000000
0.527885 0.423282 0.000000
0.656453 0.400077 0.000000
0.766856 0.359935 0.000000
0.903473 0.322865 0.000000
0.854204 0.460646 0.000000
0.494108 0.552078 0.000000
0.511197 0.551170 0.000000
0.535544 0.545960 0.000000
0.591672 0.538549 0.000000
0.650465 0.530371 0.000000
0.727365 0.516057 0.000000
0.827082 0.498694 0.000000
0.929702 0.457007 0.000000
1.000000 0.436923 0.000000
0.000000 0.000000 0.086125
0.000000 0.000000 0.074707
0.083671 0.000000 0.063513
0.182936 0.000000 0.051617
0.277152 0.000000 0.042904
0.369679 0.000000 0.045447
0.480440 0.000000 0.055657
0.603548 0.000000 0.077073
0.770746 0.000000 0.110972
0.000000 0.021915 0.092569
0.000000 0.013848 0.087290
0.077796 0.000000 0.077031
0.170957 0.000000 0.061891
0.262336 0.000000 0.053755
0.356508 0.000000 0.054819
0.476840 0.000000 0.059452
0.603561 0.000000 0.080089
0.765804 0.000000 0.110520
0.000000 0.076845 0.126199
0.000000 0.078777 0.129202
0.052819 0.080896 0.120057
0.149325 0.060845 0.089913
0.244825 0.000000 0.071486
0.345436 0.000000 0.062491
0.469517 0.000000 0.062055
0.603495 0.000000 0.083832
0.765585 0.000000 0.115747
0.000000 0.136254 0.115590
0.000000 0.149390 0.100232
0.000000 0.150800 0.080500
0.144674 0.144457 0.067034
0.249663 0.125785 0.059296
0.336666 0.081718 0.059201
0.465950 0.000000 0.062580
0.599112 0.000000 0.083203
0.760355 0.000000 0.115927
0.000000 0.230290 0.000000
0.000000 0.229912 0.000000
0.000000 0.226787 0.000000
0.138953 0.221137 0.000000
0.256720 0.207098 0.000000
0.361400 0.189028 0.000000
0.481228 0.149502 0.028099
0.616206 0.000000 0.073086
0.769004 0.000000 0.114318
0.000000 0.299197 0.000000
0.000000 0.298567 0.000000
0.000000 0.297230 0.000000
0.174892 0.291123 0.000000
0.289815 0.282630 0.000000
0.403230 0.264298 0.000000
0.510302 0.259029 0.000000
0.637942 0.236851 0.000000
0.777096 0.168334 0.102158
0.139164 0.348289 0.000000
0.193459 0.344164 0.000000
0.258218 0.341706 0.000000
0.333585 0.340389 0.000000
0.408249 0.329111 0.000000
0.516091 0.321762 0.000000
0.608823 0.320124 0.000000
0.677454 0.357909 0.000000
0.799169 0.357197 0.000000
0.294550 0.446954 0.000000
0.327713 0.445755 0.000000
0.370881 0.443902 0.000000
0.440482 0.436618 0.000000
0.518079 0.424061 0.000000
0.652002 0.400560 0.000000
0.766856 0.359935 0.000000
0.896117 0.324035 0.000000
0.836974 0.478573 0.000000
0.488363 0.552373 0.000000
0.505524 0.551476 0.000000
0.535544 0.545960 0.000000
0.591672 0.538549 0.000000
0.650465 0.530371 0.000000
0.727365 0.516057 0.000000
0.827082 0.498694 0.000000
0.929702 0.457007 0.000000
1.000000 0.436923 0.000000
0.000000 0.000000 0.116195
0.000000 0.000000 0.103153
0.059661 0.000000 0.091155
0.161881 0.000000 0.074781
0.271147 0.000000 0.067772
0.356295 0.000000 0.067882
0.467160 0.000000 0.080608
0.596387 0.000000 0.103289
0.766554 0.000000 0.131323
0.000000 0.010284 0.120459
0.000000 0.000000 0.110898
0.056853 0.000000 0.106731
0.149289 0.000000 0.090606
0.255106 0.000000 0.081968
0.348636 0.000000 0.081322
0.460323 0.000000 0.090236
0.596368 0.000000 0.107043
0.766416 0.000000 0.132737
0.000000 0.065692 0.161734
0.000000 0.064900 0.161756
0.000000 0.062796 0.165074
0.128054 0.044826 0.156258
0.237106 0.000000 0.123383
0.330644 0.000000 0.106306
0.457152 0.000000 0.103028
0.600458 0.000000 0.113527
0.766137 0.000000 0.137283
0.000000 0.129219 0.207242
0.000000 0.131724 0.213408
0.000000 0.138084 0.215082
0.102231 0.143193 0.206575
0.231412 0.118341 0.163519
0.324269 0.083098 0.136332
0.453331 0.000000 0.119743
0.591592 0.000000 0.118384
0.756092 0.000000 0.145121
0.000000 0.200324 0.213612
0.000000 0.212851 0.205981
0.000000 0.230727 0.191410
0.000000 0.231582 0.165733
0.224835 0.224470 0.144432
0.334063 0.206588 0.126833
0.466232 0.162647 0.118780
0.602883 0.000000 0.122051
0.764386 0.000000 0.144702
0.000000 0.323559 0.044453
0.000000 0.320573 0.000000
0.000000 0.319889 0.000000
0.000000 0.317944 0.000000
0.198885 0.319777 0.000000
0.349686 0.299962 0.000000
0.492164 0.279215 0.000000
0.631203 0.238523 0.096599
0.771692 0.166053 0.138808
0.000000 0.410798 0.000000
0.000000 0.410253 0.000000
0.000000 0.409326 0.000000
0.000000 0.408014 0.000000
0.232657 0.405064 0.000000
0.380838 0.402438 0.000000
0.529190 0.391796 0.000000
0.654154 0.379179 0.000000
0.788637 0.362747 0.089793
0.291884 0.443556 0.000000
0.319390 0.442577 0.000000
0.367662 0.440534 0.000000
0.437054 0.433274 0.000000
0.513156 0.424444 0.000000
0.619064 0.411403 0.000000
0.675086 0.424371 0.000000
0.747377 0.455327 0.000000
0.825460 0.507789 0.000000
0.484733 0.548744 0.000000
0.501869 0.547850 0.000000
0.529983 0.546284 0.000000
0.580967 0.539269 0.000000
0.645361 0.530766 0.000000
0.722220 0.516517 0.000000
0.822906 0.499091 0.000000
0.926618 0.457239 0.000000
1.000000 0.436923 0.000000
0.000000 0.000000 0.147201
0.000000 0.000000 0.133938
0.000000 0.000000 0.117559
0.132214 0.000000 0.101005
0.255864 0.000000 0.088172
0.361652 0.000000 0.080065
0.466880 0.000000 0.098363
0.584557 0.000000 0.133756
0.754087 0.000000 0.169283
0.000000 0.000000 0.155966
0.000000 0.000000 0.145507
0.000000 0.000000 0.133995
0.124884 0.000000 0.119608
0.243621 0.000000 0.105598
0.349338 0.000000 0.096380
0.446656 0.000000 0.113908
0.584759 0.000000 0.143682
0.753915 0.000000 0.170976
0.000000 0.047132 0.178496
0.000000 0.047388 0.171061
0.000000 0.045673 0.171108
0.109933 0.024115 0.170736
0.228288 0.000000 0.149310
0.327582 0.000000 0.138224
0.437958 0.000000 0.139517
0.585065 0.000000 0.156766
0.758360 0.000000 0.176293
0.000000 0.114438 0.243059
0.000000 0.114343 0.245435
0.000000 0.116530 0.255089
0.000000 0.116750 0.268113
0.200428 0.103848 0.254065
0.322735 0.000000 0.213469
0.439671 0.000000 0.176989
0.589405 0.000000 0.172207
0.767144 0.000000 0.187295
0.000000 0.191434 0.296848
0.000000 0.197336 0.301809
0.000000 0.205083 0.314875
0.000000 0.218666 0.317009
0.175497 0.227952 0.310391
0.306055 0.207625 0.275387
0.449895 0.157318 0.219527
0.592002 0.000000 0.193782
0.755448 0.000000 0.191625
0.000000 0.284084 0.322036
0.000000 0.291584 0.318770
0.000000 0.299195 0.307123
0.000000 0.325296 0.294389
0.112463 0.331342 0.271752
0.287041 0.328079 0.260404
0.469141 0.294041 0.217065
0.608568 0.249801 0.197652
0.761285 0.165798 0.195905
0.000000 0.438323 0.168705
0.000000 0.438062 0.160878
0.000000 0.437596 0.145141
0.000000 0.443490 0.121568
0.000000 0.441600 0.101331
0.298469 0.436970 0.089388
0.480801 0.423954 0.081380
0.640559 0.399153 0.129454
0.776312 0.368585 0.174158
0.000000 0.548192 0.000000
0.000000 0.547968 0.000000
0.000000 0.547529 0.000000
0.000000 0.550293 0.000000
0.000000 0.548379 0.000000
0.325062 0.555491 0.000000
0.497565 0.548561 0.000000
0.667597 0.525699 0.000000
0.814066 0.520914 0.000000
0.473181 0.549322 0.000000
0.490469 0.548450 0.000000
0.518799 0.546922 0.000000
0.575585 0.539624 0.000000
0.641546 0.527162 0.000000
0.717051 0.516976 0.000000
0.823846 0.490949 0.000000
0.842605 0.533628 0.000000
0.859678 0.609367 0.000000
0.000000 0.000000 0.178953
0.000000 0.000000 0.164432
0.000000 0.000000 0.145530
0.089221 0.000000 0.136573
0.225489 0.000000 0.116219
0.346915 0.000000 0.098692
0.488256 0.000000 0.091165
0.576903 0.000000 0.156999
0.744794 0.000000 0.213075
0.000000 0.009656 0.188553
0.000000 0.010178 0.177045
0.000000 0.009649 0.167980
0.079187 0.000000 0.158919
0.210573 0.000000 0.137419
0.330804 0.000000 0.117004
0.467224 0.000000 0.112335
0.573715 0.000000 0.172778
0.740177 0.000000 0.221848
0.000000 0.043055 0.208049
0.000000 0.044534 0.206025
0.000000 0.044270 0.200187
0.047369 0.037030 0.199969
0.193482 0.000000 0.188570
0.315807 0.000000 0.163692
0.437059 0.000000 0.154504
0.571482 0.000000 0.197914
0.740119 0.000000 0.228559
0.000000 0.084208 0.256056
0.000000 0.084208 0.256056
0.000000 0.083938 0.260466
0.000000 0.082889 0.271554
0.169757 0.063097 0.275482
0.299375 0.000000 0.248696
0.433401 0.000000 0.224989
0.566386 0.000000 0.230667
0.744637 0.000000 0.244980
0.000000 0.176629 0.332698
0.000000 0.176383 0.341437
0.000000 0.181777 0.350208
0.000000 0.186474 0.371853
0.082622 0.190998 0.378031
0.287124 0.183263 0.371008
0.442425 0.124755 0.319430
0.586945 0.000000 0.274798
0.753048 0.000000 0.269836
0.000000 0.270698 0.402089
0.000000 0.275384 0.412108
0.000000 0.279982 0.429141
0.000000 0.294499 0.432092
0.000000 0.308333 0.435013
0.258603 0.322477 0.429281
0.433784 0.297310 0.387846
0.584549 0.253304 0.324665
0.754103 0.157370 0.292666
0.000000 0.397460 0.441311
0.000000 0.403977 0.437466
0.000000 0.413691 0.440526
0.000000 0.426571 0.432836
0.000000 0.456035 0.420704
0.183814 0.467213 0.397170
0.408500 0.462373 0.383202
0.620732 0.419854 0.319026
0.767537 0.377913 0.306189
0.000000 0.590293 0.289213
0.000000 0.590149 0.286025
0.000000 0.593586 0.279203
0.000000 0.589097 0.264111
0.000000 0.587578 0.242891
0.173542 0.591885 0.214916
0.434071 0.581718 0.207747
0.629996 0.571187 0.203237
0.799353 0.538229 0.224473
0.000000 0.698981 0.000000
0.000000 0.698812 0.000000
0.000000 0.698360 0.000000
0.000000 0.693400 0.000000
0.000000 0.691563 0.000000
0.286866 0.688752 0.000000
0.455276 0.696510 0.000000
0.660297 0.691335 0.000000
0.809727 0.673317 0.000000
0.000000 0.000000 0.208423
0.000000 0.000000 0.194589
0.000000 0.000000 0.179021
0.059221 0.000000 0.171299
0.168527 0.000000 0.154751
0.316415 0.000000 0.132032
0.477688 0.000000 0.108197
0.633963 0.000000 0.107585
0.727717 0.000000 0.233475
0.000000 0.018314 0.220664
0.000000 0.016897 0.212364
0.000000 0.021538 0.202405
0.037858 0.000000 0.192376
0.159071 0.000000 0.181719
0.306134 0.000000 0.155512
0.451097 0.000000 0.128245
0.596326 0.000000 0.129101
0.728436 0.000000 0.247949
0.000000 0.043647 0.247252
0.000000 0.045347 0.242547
0.000000 0.044521 0.235730
0.000000 0.041622 0.231161
0.132730 0.000000 0.234869
0.285562 0.000000 0.208315
0.422634 0.000000 0.175708
0.566636 0.000000 0.180200
0.725406 0.000000 0.268565
0.000000 0.075248 0.288310
0.000000 0.077469 0.285843
0.000000 0.078527 0.285855
0.000000 0.077050 0.295635
0.101908 0.065760 0.300360
0.268491 0.000000 0.291291
0.416561 0.000000 0.265172
0.558184 0.000000 0.252454
0.730915 0.000000 0.295578
0.000000 0.135466 0.345737
0.000000 0.136910 0.348685
0.000000 0.138005 0.357732
0.000000 0.137058 0.373403
0.000000 0.139904 0.389618
0.245912 0.120588 0.395850
0.421324 0.000000 0.355786
0.575511 0.000000 0.331167
0.732203 0.000000 0.336631
0.000000 0.249267 0.458233
0.000000 0.251448 0.461708
0.000000 0.255891 0.465118
0.000000 0.262404 0.482797
0.000000 0.275132 0.507703
0.160779 0.277578 0.514620
0.404884 0.267530 0.506687
0.601110 0.201571 0.446568
0.747173 0.111682 0.389621
0.000000 0.368420 0.544555
0.000000 0.374558 0.544288
0.000000 0.383797 0.555109
0.000000 0.392952 0.565977
0.000000 0.415099 0.576385
0.000000 0.436153 0.571433
0.371915 0.459906 0.573855
0.588704 0.425375 0.531959
0.754099 0.378681 0.455716
0.000000 0.541131 0.577637
0.000000 0.541064 0.573790
0.000000 0.548347 0.573395
0.000000 0.555256 0.573025
0.000000 0.569304 0.564538
0.000000 0.592734 0.563143
0.332871 0.622093 0.555288
0.562995 0.607522 0.522249
0.760786 0.569285 0.464661
0.000000 0.731658 0.422186
0.000000 0.735418 0.421909
0.000000 0.738849 0.417971
0.000000 0.738212 0.414369
0.000000 0.736858 0.396067
0.000000 0.730343 0.367388
0.353380 0.733960 0.356395
0.589435 0.726065 0.327239
0.778651 0.711538 0.330878
0.000000 0.000000 0.240553
0.000000 0.000000 0.229327
0.000000 0.000000 0.220731
0.020057 0.000000 0.210186
0.133746 0.000000 0.201193
0.263837 0.000000 0.173832
0.424720 0.000000 0.148178
0.633895 0.000000 0.114380
0.796672 0.000000 0.125152
0.000000 0.024617 0.257044
0.000000 0.028495 0.247398
0.000000 0.026189 0.245095
0.000000 0.016531 0.231328
0.113586 0.000000 0.232897
0.249871 0.000000 0.206984
0.411325 0.000000 0.174030
0.596498 0.000000 0.137053
0.767766 0.000000 0.154428
0.000000 0.048825 0.283957
0.000000 0.049173 0.279230
0.000000 0.048324 0.279272
0.000000 0.045747 0.279224
0.078942 0.030172 0.276587
0.225241 0.000000 0.272777
0.396663 0.000000 0.234957
0.563760 0.000000 0.187868
0.730942 0.000000 0.204633
0.000000 0.080813 0.329896
0.000000 0.078595 0.329949
0.000000 0.083011 0.329883
0.000000 0.080910 0.335537
0.000000 0.074236 0.338324
0.195416 0.037527 0.349147
0.384827 0.000000 0.326752
0.548724 0.000000 0.283011
0.711783 0.000000 0.285514
0.000000 0.125281 0.386708
0.000000 0.125202 0.390137
0.000000 0.130734 0.396745
0.000000 0.127363 0.400124
0.000000 0.132924 0.420124
0.155846 0.120948 0.430089
0.369362 0.046400 0.432411
0.548810 0.000000 0.387939
0.716406 0.000000 0.374362
0.000000 0.204420 0.466867
0.000000 0.206581 0.466804
0.000000 0.213032 0.477308
0.000000 0.210353 0.491796
0.000000 0.215415 0.513431
0.000000 0.214897 0.535195
0.355964 0.200331 0.541625
0.548417 0.130396 0.511621
0.732952 0.000000 0.464896
0.000000 0.350045 0.594627
0.000000 0.352922 0.598355
0.000000 0.352790 0.606067
0.000000 0.358457 0.617405
0.000000 0.373024 0.632221
0.000000 0.386581 0.650814
0.260740 0.406439 0.660937
0.544315 0.392977 0.652395
0.757968 0.327933 0.588220
0.000000 0.500282 0.680518
0.000000 0.503826 0.684219
0.000000 0.511051 0.687733
0.000000 0.514356 0.702877
0.000000 0.528330 0.705880
0.000000 0.552526 0.711916
0.095367 0.581754 0.713614
0.529931 0.605726 0.717264
0.738854 0.573710 0.666577
0.000000 0.672880 0.716334
0.000000 0.676583 0.716110
0.000000 0.680234 0.715885
0.000000 0.687523 0.715435
0.000000 0.697954 0.711125
0.000000 0.716265 0.702605
0.000000 0.746705 0.696911
0.504298 0.760673 0.685488
0.726480 0.747954 0.660969
0.000000 0.019093 0.277135
0.000000 0.022102 0.272562
0.000000 0.015674 0.265810
0.000000 0.000000 0.261317
0.101878 0.000000 0.256460
0.217657 0.000000 0.238222
0.362705 0.000000 0.202391
0.561199 0.000000 0.160291
0.834244 0.000000 0.112264
0.000000 0.036205 0.296241
0.000000 0.036584 0.293792
0.000000 0.036877 0.288881
0.000000 0.030777 0.279320
0.078499 0.000000 0.281330
0.197844 0.000000 0.275473
0.349892 0.000000 0.233461
0.541063 0.000000 0.189806
0.791703 0.000000 0.137860
0.000000 0.054408 0.330320
0.000000 0.054478 0.330343
0.000000 0.055806 0.330321
0.000000 0.053671 0.330301
0.000000 0.045425 0.330155
0.172895 0.000000 0.329341
0.321488 0.000000 0.298123
0.527599 0.000000 0.250237
0.739495 0.000000 0.182670
0.000000 0.085162 0.384294
0.000000 0.087617 0.384266
0.000000 0.088434 0.387534
0.000000 0.087768 0.390929
0.000000 0.084184 0.394314
0.125658 0.070934 0.397281
0.306755 0.000000 0.399410
0.517943 0.000000 0.355555
0.696299 0.000000 0.285458
0.000000 0.126744 0.437500
0.000000 0.129556 0.440904
0.000000 0.132266 0.447806
0.000000 0.133471 0.451274
0.000000 0.132016 0.465339
0.000000 0.129401 0.472216
0.277160 0.102562 0.485601
0.507399 0.000000 0.466348
0.702032 0.000000 0.407590
0.000000 0.190727 0.510566
0.000000 0.190693 0.510571
0.000000 0.194695 0.517773
0.000000 0.194374 0.525132
0.000000 0.202130 0.539643
0.000000 0.203950 0.561751
0.236093 0.195522 0.576112
0.503591 0.140189 0.582190
0.717316 0.000000 0.533179
0.000000 0.283093 0.601128
0.000000 0.288158 0.604788
0.000000 0.290595 0.612400
0.000000 0.290264 0.623981
0.000000 0.294913 0.635368
0.000000 0.301376 0.646595
0.200617 0.311018 0.672605
0.481978 0.284042 0.683233
0.723933 0.214236 0.644008
0.000000 0.460687 0.727766
0.000000 0.460621 0.731377
0.000000 0.460512 0.734960
0.000000 0.470989 0.737993
0.000000 0.481276 0.747934
0.000000 0.494385 0.768234
0.000000 0.516107 0.780410
0.392088 0.537299 0.791330
0.712447 0.533039 0.786277
0.000000 0.631189 0.803354
0.000000 0.634973 0.803126
0.000000 0.638678 0.805864
0.000000 0.642232 0.808547
0.000000 0.653067 0.819088
0.000000 0.674400 0.822935
0.000000 0.694474 0.826523
0.345918 0.730932 0.830942
0.693656 0.754313 0.832470
