Assets/Lutify-Free-LUTs-Pack/Lutify Free LUTs Pack/Commercial Pro - Claire/Lutify.me-Claire-SLog3Cine-to-Rec709.cube
# Created with: fylm.ai - Colour Grading and Collaboration Software in Cloud 
# Website: https://fylm.ai 
# META
# Option: Gamut compress
# Block 1: IDT | Sony S-Log3 S-Gamut3.Cine
# Block 2: colourMatch | Blending Mode: Normal | {"ColorSpace":0,"CrossCovarianceLimit":50,"ReshapingIterations":1,"PercentSaturationShift":100,"PercentShadingShift":100,"ExtraShading":true,"PercentTint":100,"PercentModified":100}
# Block 3: HSL | Blending Mode: Normal | {"hue":{"Reds":0,"Yellows":0,"Greens":0,"Cyans":0,"Blues":0,"Magentas":0},"saturation":{"Reds":1,"Yellows":1,"Greens":1,"Cyans":1,"Blues":1,"Magentas":1},"luminance":{"Reds":0.9,"Yellows":0.9,"Greens":0.9,"Cyans":0.8,"Blues":0.8,"Magentas":0.9},"lum_sat":{"Blacks":1,"Shadows":1,"Midtones":1,"Highlights":1,"Whites":1},"sat_sat":{"10":1,"20":1,"30":1,"40":1,"50":1}}
# Block 4: subtractiveColour | Blending Mode: Normal | {"sliders":{"gainY":0.1,"C":0.05,"M":0.05,"Y":0.05}}
# Block 5: logPrimaries | Blending Mode: Normal | {"wheels":{"shadows":{"Y":"0","R":"1","G":"1","B":"1"},"midtones":{"Y":"0","R":"1","G":"1","B":"1"},"highlights":{"Y":"0","R":"1","G":"1","B":"1"},"offset":{"Y":"0","R":"1","G":"1","B":"1"}},"sliders":{"shadows":{"Y":0,"R":-0.05,"G":0,"B":0.1},"midtones":{"Y":0,"R":0,"G":0,"B":0},"highlights":{"Y":0,"R":0,"G":0,"B":0},"offset":{"Y":0,"R":0,"G":0,"B":0}}}
# Block 6: LUT | Filmic Curve Response: Standard Contrast 1 (100%)
# Block 7: LUT | Illuminant: D93 (100%)
# Block 8: LUT | Neutral Tint: Teal Tint 4 (100%)
# Block 9: ODT | Rec709
TITLE "Lutify.me-Claire-SLog3Cine-to-Rec709" 
LUT_3D_SIZE 9
0.000000 0.000000 0.000000
0.038451 0.000000 0.000000
0.294866 0.000000 0.000000
0.507806 0.000000 0.000000
0.648434 0.000000 0.000000
0.881484 0.000000 0.000000
1.000000 0.000000 0.118229
1.000000 0.518475 0.313351
1.000000 0.805046 0.591443
0.000000 0.050254 0.000000
0.009661 0.037985 0.000000
0.219796 0.000000 0.000000
0.420746 0.000000 0.000000
0.631623 0.000000 0.000000
0.881178 0.000000 0.000000
1.000000 0.000000 0.118688
1.000000 0.521948 0.315547
1.000000 0.805046 0.591443
0.000000 0.149187 0.000000
0.000000 0.133386 0.000000
0.201769 0.101324 0.000000
0.395601 0.000000 0.000000
0.615267 0.000000 0.000000
0.880716 0.000000 0.000000
1.000000 0.114332 0.120071
1.000000 0.528921 0.314970
1.000000 0.807031 0.591468
0.000000 0.278320 0.000000
0.000000 0.274850 0.000000
0.179738 0.259883 0.000000
0.426740 0.204842 0.000000
0.637443 0.149521 0.000000
0.891448 0.000000 0.000000
1.000000 0.233153 0.118177
1.000000 0.551048 0.319258
1.000000 0.810975 0.591530
0.000000 0.508618 0.000000
0.000000 0.511687 0.000000
0.000000 0.506628 0.000000
0.307593 0.489590 0.000000
0.675897 0.420871 0.000000
0.903996 0.411823 0.000000
1.000000 0.379988 0.113742
1.000000 0.601262 0.326538
1.000000 0.821159 0.598358
0.000000 0.794841 0.122154
0.000000 0.794245 0.100018
0.000000 0.793349 0.030561
0.000000 0.787310 0.000000
0.559537 0.780662 0.000000
0.884401 0.731587 0.000000
1.000000 0.721669 0.000000
1.000000 0.716380 0.349309
1.000000 0.844303 0.610880
0.415592 0.938750 0.492326
0.425500 0.938550 0.488857
0.462440 0.937711 0.482029
0.514940 0.936357 0.468401
0.673508 0.929496 0.435052
0.864322 0.918774 0.337963
0.980032 0.900352 0.185592
1.000000 0.898006 0.437731
1.000000 0.894315 0.646920
0.817309 0.988568 0.795976
0.817309 0.988568 0.795976
0.820251 0.988435 0.793790
0.828421 0.989101 0.792597
0.846359 0.988206 0.786202
0.891391 0.985911 0.760124
0.958687 0.982261 0.707796
1.000000 0.974014 0.592136
1.000000 0.970842 0.747994
0.940153 1.000000 0.932058
0.940153 1.000000 0.932058
0.941323 1.000000 0.931142
0.941323 1.000000 0.931142
0.944707 1.000000 0.929306
0.953944 1.000000 0.926587
0.971373 1.000000 0.916376
0.996620 1.000000 0.893274
1.000000 0.999641 0.838476
0.000000 0.000000 0.050149
0.000000 0.000000 0.032720
0.242133 0.000000 0.000000
0.443183 0.000000 0.000000
0.610345 0.000000 0.000000
0.877219 0.000000 0.000000
1.000000 0.000000 0.129525
1.000000 0.518459 0.318331
1.000000 0.805046 0.591443
0.000000 0.029977 0.057220
0.000000 0.020598 0.043298
0.185477 0.000000 0.000000
0.365505 0.000000 0.000000
0.581439 0.000000 0.000000
0.876883 0.000000 0.000000
1.000000 0.000000 0.132119
1.000000 0.521940 0.318050
1.000000 0.805046 0.591443
0.000000 0.121918 0.065538
0.000000 0.139314 0.000000
0.152818 0.119496 0.000000
0.341217 0.000000 0.000000
0.582052 0.000000 0.000000
0.876365 0.000000 0.000000
1.000000 0.112942 0.131409
1.000000 0.528906 0.320011
1.000000 0.807031 0.591468
0.000000 0.288212 0.000000
0.000000 0.290200 0.000000
0.000000 0.287440 0.000000
0.353553 0.254741 0.000000
0.593501 0.189654 0.000000
0.883034 0.000000 0.000000
1.000000 0.233133 0.131483
1.000000 0.551041 0.321826
1.000000 0.810963 0.594276
0.000000 0.519832 0.000000
0.000000 0.523010 0.000000
0.000000 0.521864 0.000000
0.234607 0.513205 0.000000
0.626131 0.467477 0.000000
0.899883 0.416362 0.000000
1.000000 0.384256 0.128741
1.000000 0.601250 0.331953
1.000000 0.821159 0.598358
0.000000 0.798112 0.208094
0.000000 0.797532 0.195884
0.000000 0.799851 0.178300
0.000000 0.793810 0.116574
0.549982 0.784198 0.000000
0.879715 0.735514 0.000000
1.000000 0.721575 0.042754
1.000000 0.716375 0.352253
1.000000 0.844292 0.613609
0.414084 0.938700 0.509941
0.424055 0.938500 0.506450
0.460920 0.937653 0.503090
0.513092 0.937664 0.490013
0.672090 0.930844 0.456381
0.860161 0.920348 0.362566
0.979868 0.900337 0.207118
1.000000 0.897990 0.446164
1.000000 0.894304 0.649657
0.817166 0.988557 0.798184
0.817166 0.988557 0.798184
0.819964 0.988413 0.798215
0.828139 0.989080 0.797002
0.846084 0.988184 0.790658
0.891267 0.985901 0.762373
0.958469 0.982240 0.712596
1.000000 0.974001 0.596123
1.000000 0.970842 0.747994
0.940153 1.000000 0.932058
0.940153 1.000000 0.932058
0.940153 1.000000 0.932058
0.941323 1.000000 0.931142
0.944645 1.000000 0.930247
0.953944 1.000000 0.926587
0.971373 1.000000 0.916376
0.996559 1.000000 0.894299
1.000000 0.999641 0.838476
0.000000 0.000000 0.157504
0.000000 0.000000 0.086105
0.184914 0.000000 0.045082
0.403106 0.000000 0.000000
0.589857 0.000000 0.000000
0.872957 0.000000 0.053360
1.000000 0.000000 0.147178
1.000000 0.518434 0.325944
1.000000 0.805034 0.594193
0.000000 0.000000 0.129347
0.000000 0.000000 0.097291
0.149383 0.000000 0.071333
0.340652 0.000000 0.049912
0.569520 0.000000 0.033068
0.868201 0.000000 0.054129
1.000000 0.000000 0.147794
1.000000 0.523169 0.326640
1.000000 0.805034 0.594193
0.000000 0.116884 0.190061
0.000000 0.118118 0.193856
0.092535 0.127881 0.182988
0.305397 0.053805 0.090591
0.561701 0.000000 0.045086
0.872082 0.000000 0.057952
1.000000 0.112791 0.149592
1.000000 0.530113 0.326097
1.000000 0.807020 0.594217
0.000000 0.251136 0.252463
0.000000 0.278891 0.225750
0.000000 0.304945 0.176730
0.304052 0.284751 0.092814
0.580115 0.205488 0.000000
0.878440 0.000000 0.055664
1.000000 0.233095 0.150471
1.000000 0.551018 0.329644
1.000000 0.810952 0.597033
0.000000 0.527281 0.212060
0.000000 0.534252 0.188971
0.000000 0.540676 0.145617
0.168483 0.528875 0.000000
0.610556 0.487683 0.000000
0.883887 0.430215 0.000000
1.000000 0.388920 0.148343
1.000000 0.601229 0.340222
1.000000 0.821148 0.601108
0.000000 0.801383 0.294424
0.000000 0.803883 0.282580
0.000000 0.803149 0.267156
0.000000 0.796789 0.225301
0.537561 0.790876 0.077689
0.867673 0.750410 0.000000
1.000000 0.728732 0.120248
1.000000 0.716359 0.361141
1.000000 0.844292 0.613609
0.411143 0.939981 0.535330
0.440055 0.939359 0.531889
0.458110 0.938928 0.531963
0.511276 0.937584 0.518085
0.664702 0.932389 0.484604
0.858815 0.921713 0.394238
0.978966 0.901853 0.243398
1.000000 0.897980 0.451545
1.000000 0.895637 0.652687
0.816683 0.989599 0.805555
0.816683 0.989599 0.805555
0.819608 0.989467 0.803431
0.827859 0.989058 0.801361
0.845709 0.988693 0.795535
0.890898 0.985870 0.769023
0.956636 0.982829 0.720434
1.000000 0.973974 0.604240
1.000000 0.970826 0.751674
0.940092 1.000000 0.932977
0.940092 1.000000 0.932977
0.940092 1.000000 0.932977
0.941261 1.000000 0.932069
0.944583 1.000000 0.931180
0.953881 1.000000 0.927545
0.971309 1.000000 0.917389
0.996398 1.000000 0.895662
1.000000 0.999636 0.839463
0.000000 0.000000 0.249833
0.000000 0.000000 0.132278
0.125800 0.000000 0.076648
0.406645 0.000000 0.050771
0.591246 0.000000 0.068744
0.869330 0.000000 0.120623
1.000000 0.000000 0.191696
1.000000 0.518347 0.349873
1.000000 0.804999 0.602500
0.000000 0.000000 0.204455
0.000000 0.000000 0.155997
0.092613 0.000000 0.130238
0.333165 0.000000 0.086689
0.547299 0.000000 0.113112
0.864468 0.000000 0.127657
1.000000 0.000000 0.192791
1.000000 0.523084 0.350557
1.000000 0.806985 0.602521
0.000000 0.076438 0.241908
0.000000 0.076980 0.230522
0.000000 0.071419 0.239584
0.290214 0.000000 0.195977
0.532604 0.000000 0.161868
0.859326 0.000000 0.136512
1.000000 0.122408 0.193579
1.000000 0.530021 0.352846
1.000000 0.806985 0.602521
0.000000 0.235273 0.363462
0.000000 0.250086 0.382669
0.000000 0.270053 0.402231
0.230927 0.298633 0.389929
0.544874 0.219131 0.250440
0.865200 0.000000 0.158408
1.000000 0.232291 0.200178
1.000000 0.550940 0.354190
1.000000 0.811494 0.606438
0.000000 0.483372 0.479716
0.000000 0.490284 0.468441
0.000000 0.511252 0.456396
0.000000 0.563329 0.413713
0.552530 0.537278 0.299105
0.882840 0.446774 0.180484
1.000000 0.388893 0.215062
1.000000 0.601169 0.363063
1.000000 0.823020 0.606688
0.000000 0.810735 0.473968
0.000000 0.813281 0.462543
0.000000 0.815530 0.447408
0.000000 0.809497 0.414101
0.509187 0.803556 0.328587
0.858937 0.770795 0.172817
1.000000 0.732214 0.238809
1.000000 0.715231 0.392678
1.000000 0.845956 0.627492
0.401395 0.942373 0.615903
0.431244 0.941757 0.612322
0.451041 0.940028 0.604621
0.512952 0.939780 0.594377
0.647768 0.936690 0.559746
0.855281 0.924323 0.478270
0.975956 0.906286 0.342172
1.000000 0.899327 0.481601
1.000000 0.895595 0.663583
0.812730 0.989658 0.822291
0.812730 0.989658 0.822291
0.815698 0.989524 0.820265
0.826703 0.989500 0.818666
0.844760 0.988618 0.810554
0.889552 0.986308 0.789988
0.955533 0.982728 0.743592
1.000000 0.974518 0.624633
1.000000 0.971399 0.757835
0.939976 1.000000 0.934929
0.939976 1.000000 0.934929
0.939976 1.000000 0.934929
0.941082 1.000000 0.934940
0.943384 1.000000 0.933011
0.953695 1.000000 0.930377
0.971054 1.000000 0.921383
0.996208 1.000000 0.898840
1.000000 0.999615 0.843421
0.000000 0.000000 0.257077
0.000000 0.000000 0.166061
0.097471 0.000000 0.119710
0.335586 0.000000 0.082479
0.697496 0.000000 0.061608
0.835240 0.000000 0.222880
1.000000 0.000000 0.292761
1.000000 0.525020 0.416872
1.000000 0.807473 0.628966
0.000000 0.000000 0.254727
0.000000 0.000000 0.206404
0.037088 0.000000 0.188455
0.276416 0.000000 0.144561
0.642315 0.000000 0.080102
0.830712 0.000000 0.251122
1.000000 0.000000 0.294944
1.000000 0.528515 0.416681
1.000000 0.809439 0.628982
0.000000 0.062871 0.295926
0.000000 0.064475 0.283713
0.000000 0.063287 0.286112
0.228351 0.000000 0.284530
0.520564 0.000000 0.182091
0.835464 0.000000 0.283561
1.000000 0.056526 0.299535
1.000000 0.539006 0.419195
1.000000 0.809439 0.628982
0.000000 0.190449 0.418488
0.000000 0.196362 0.435529
0.000000 0.204372 0.456278
0.103457 0.205055 0.484417
0.525265 0.094025 0.430936
0.842264 0.000000 0.354681
1.000000 0.214674 0.318912
1.000000 0.556557 0.424302
1.000000 0.813329 0.631923
0.000000 0.440500 0.633011
0.000000 0.454342 0.636231
0.000000 0.468041 0.651085
0.000000 0.494046 0.665197
0.477095 0.555018 0.668911
0.844180 0.462756 0.488074
1.000000 0.396590 0.354163
1.000000 0.599970 0.431530
1.000000 0.825288 0.636019
0.000000 0.757759 0.735745
0.000000 0.768304 0.731708
0.000000 0.774835 0.724415
0.000000 0.795493 0.726556
0.408478 0.829157 0.689250
0.830446 0.801112 0.565902
1.000000 0.742661 0.428596
1.000000 0.721617 0.466600
1.000000 0.847161 0.652303
0.305892 0.945569 0.758814
0.333344 0.945191 0.755732
0.369872 0.944602 0.752619
0.460351 0.944013 0.746489
0.635635 0.941317 0.712782
0.832324 0.932560 0.647658
0.965296 0.918871 0.521001
1.000000 0.903438 0.559129
1.000000 0.898147 0.691008
0.810265 0.991019 0.858873
0.810388 0.991028 0.857149
0.813199 0.990886 0.857160
0.818949 0.990624 0.853687
0.837579 0.989736 0.844777
0.886967 0.987169 0.828299
0.952705 0.983576 0.790343
1.000000 0.976647 0.691339
1.000000 0.971910 0.776226
0.940568 1.000000 0.942789
0.940568 1.000000 0.942789
0.940617 1.000000 0.941848
0.941713 1.000000 0.941856
0.943984 1.000000 0.940196
0.953193 1.000000 0.937720
0.970562 1.000000 0.928292
0.995546 1.000000 0.908456
1.000000 0.999948 0.856520
0.000000 0.000000 0.214391
0.000000 0.000000 0.190357
0.121865 0.000000 0.170674
0.286858 0.000000 0.122365
0.587264 0.000000 0.101220
0.976195 0.000000 0.090262
1.000000 0.000000 0.467575
1.000000 0.499305 0.537633
1.000000 0.807180 0.687615
0.000000 0.000000 0.272606
0.000000 0.000000 0.252269
0.042657 0.000000 0.242581
0.223545 0.000000 0.209528
0.535129 0.000000 0.127550
0.976195 0.000000 0.090262
1.000000 0.000000 0.477560
1.000000 0.502790 0.540794
1.000000 0.809133 0.690481
0.000000 0.063872 0.359356
0.000000 0.065736 0.359353
0.000000 0.062764 0.368608
0.139130 0.031114 0.352707
0.460780 0.000000 0.271410
0.976195 0.000000 0.090262
1.000000 0.000000 0.494681
1.000000 0.509841 0.543821
1.000000 0.809133 0.690481
0.000000 0.165142 0.500387
0.000000 0.170679 0.503871
0.000000 0.170152 0.514827
0.000000 0.170632 0.544098
0.411610 0.112446 0.560931
0.795258 0.000000 0.427816
1.000000 0.000000 0.532642
1.000000 0.535768 0.553253
1.000000 0.813025 0.693322
0.000000 0.370145 0.686579
0.000000 0.376260 0.694062
0.000000 0.382280 0.709130
0.000000 0.387513 0.731036
0.299181 0.413662 0.767287
0.840292 0.303816 0.709948
1.000000 0.356416 0.620735
1.000000 0.598181 0.578461
1.000000 0.826846 0.699697
0.000000 0.712558 0.851082
0.000000 0.716446 0.855490
0.000000 0.720137 0.859782
0.000000 0.742037 0.866971
0.000000 0.781449 0.873759
0.768649 0.818682 0.872613
0.979742 0.755422 0.753365
1.000000 0.722065 0.617014
1.000000 0.848603 0.714448
0.000000 0.927459 0.901794
0.000000 0.928671 0.901680
0.000000 0.928209 0.901644
0.000000 0.929724 0.899802
0.461100 0.938788 0.895394
0.802531 0.943034 0.886174
0.946450 0.930644 0.829823
1.000000 0.908465 0.718797
1.000000 0.900518 0.750009
0.794572 0.992738 0.917324
0.797524 0.992593 0.917320
0.800437 0.992449 0.917315
0.806309 0.992654 0.916147
0.830155 0.991942 0.913723
0.877538 0.989492 0.902162
0.945882 0.985269 0.872736
1.000000 0.979979 0.805619
1.000000 0.974553 0.823334
0.939627 1.000000 0.956897
0.939627 1.000000 0.956897
0.939627 1.000000 0.956897
0.940718 1.000000 0.956900
0.943978 1.000000 0.956183
0.952105 1.000000 0.953338
0.969323 1.000000 0.945783
0.993857 1.000000 0.926326
1.000000 1.000000 0.885146
0.129030 0.000000 0.234862
0.170143 0.000000 0.225337
0.216932 0.000000 0.203418
0.319725 0.000000 0.165199
0.509568 0.000000 0.147181
0.901513 0.000000 0.136293
1.000000 0.000000 0.147501
1.000000 0.371029 0.738270
1.000000 0.797799 0.798861
0.000000 0.000000 0.316751
0.078036 0.000000 0.313887
0.138681 0.000000 0.305604
0.254715 0.000000 0.274605
0.468663 0.000000 0.180554
0.901513 0.000000 0.136293
1.000000 0.000000 0.147501
1.000000 0.382050 0.741244
1.000000 0.797799 0.798861
0.000000 0.067352 0.462922
0.000000 0.062095 0.459399
0.000000 0.057595 0.445351
0.136855 0.000000 0.441477
0.389433 0.000000 0.365695
0.901513 0.000000 0.136293
1.000000 0.000000 0.147501
1.000000 0.394601 0.744340
1.000000 0.800464 0.799071
0.000000 0.177321 0.616095
0.000000 0.175028 0.616139
0.000000 0.176474 0.619910
0.000000 0.178020 0.635088
0.265807 0.143636 0.638223
0.724820 0.000000 0.570386
1.000000 0.000000 0.147501
1.000000 0.423567 0.756144
1.000000 0.804439 0.801251
0.000000 0.324450 0.755022
0.000000 0.324268 0.758452
0.000000 0.329864 0.768753
0.000000 0.340462 0.782319
0.000000 0.340109 0.804683
0.703311 0.282023 0.825185
1.000000 0.000000 0.709975
1.000000 0.507787 0.791542
1.000000 0.816168 0.805404
0.000000 0.627158 0.889001
0.000000 0.627055 0.891044
0.000000 0.630722 0.892822
0.000000 0.633841 0.896474
0.000000 0.654116 0.909452
0.606151 0.685999 0.925020
1.000000 0.619388 0.901325
1.000000 0.696516 0.845151
1.000000 0.847611 0.818008
0.000000 0.907896 0.951718
0.000000 0.907744 0.951704
0.000000 0.909360 0.952567
0.000000 0.913698 0.954070
0.000000 0.920635 0.958504
0.638612 0.925849 0.960363
0.926587 0.939860 0.959502
1.000000 0.917111 0.914623
1.000000 0.900222 0.842879
0.666515 0.988470 0.972738
0.675202 0.988132 0.972711
0.679478 0.987962 0.972697
0.692306 0.988055 0.972622
0.727881 0.987750 0.972438
0.828796 0.987947 0.971176
0.933752 0.990075 0.968643
0.991558 0.985493 0.944110
1.000000 0.976368 0.900397
0.931409 1.000000 0.980788
0.932549 1.000000 0.980786
0.932549 1.000000 0.980786
0.933679 1.000000 0.980783
0.937064 1.000000 0.980336
0.945546 1.000000 0.979437
0.966404 1.000000 0.974412
0.990702 1.000000 0.961475
1.000000 1.000000 0.933832
0.331220 0.000000 0.257335
0.349565 0.000000 0.250120
0.376964 0.000000 0.237532
0.443005 0.000000 0.207096
0.554175 0.000000 0.197790
0.791848 0.000000 0.188867
1.000000 0.000000 0.199944
1.000000 0.000000 0.246851
1.000000 0.715128 0.907914
0.260161 0.000000 0.396615
0.272107 0.000000 0.389784
0.299361 0.000000 0.376125
0.372624 0.000000 0.329621
0.532270 0.000000 0.235418
0.791848 0.000000 0.188867
1.000000 0.000000 0.199944
1.000000 0.000000 0.246851
1.000000 0.715128 0.907914
0.112170 0.039562 0.552978
0.140792 0.022921 0.552877
0.180199 0.000000 0.552680
0.255774 0.000000 0.541078
0.433292 0.000000 0.460020
0.791848 0.000000 0.188867
1.000000 0.000000 0.199944
1.000000 0.000000 0.246851
1.000000 0.718651 0.909277
0.000000 0.193890 0.741453
0.000000 0.193307 0.745002
0.000000 0.192194 0.744914
0.000000 0.181770 0.741249
0.268095 0.148247 0.737218
0.618612 0.000000 0.697078
1.000000 0.000000 0.200398
1.000000 0.000000 0.246851
1.000000 0.728163 0.911692
0.000000 0.342502 0.853460
0.000000 0.345253 0.855842
0.000000 0.344869 0.858302
0.000000 0.346585 0.860505
0.000000 0.351465 0.873988
0.514562 0.314569 0.876904
0.991022 0.000000 0.850573
1.000000 0.000000 0.246851
1.000000 0.751439 0.916179
0.000000 0.565391 0.923381
0.000000 0.565246 0.924951
0.000000 0.565059 0.924927
0.000000 0.568345 0.929328
0.000000 0.577467 0.937358
0.409424 0.593641 0.945785
0.948227 0.564848 0.953212
1.000000 0.440540 0.906703
1.000000 0.802285 0.928044
0.000000 0.857815 0.970557
0.000000 0.857743 0.970549
0.000000 0.859918 0.971208
0.000000 0.861756 0.971821
0.000000 0.867038 0.973571
0.213024 0.877854 0.978471
0.861096 0.883792 0.983287
1.000000 0.862892 0.974736
1.000000 0.893276 0.949237
0.225013 0.984227 0.993533
0.225977 0.984218 0.993930
0.244316 0.984052 0.993915
0.307042 0.984134 0.993788
0.435208 0.984259 0.994184
0.666038 0.983189 0.994985
0.872947 0.983759 0.995778
0.983106 0.988060 0.996403
1.000000 0.980092 0.979806
0.883890 1.000000 1.000000
0.883890 1.000000 1.000000
0.883890 1.000000 1.000000
0.887125 1.000000 1.000000
0.891975 1.000000 1.000000
0.909680 1.000000 0.999686
0.943321 1.000000 0.999449
0.987488 1.000000 0.999141
1.000000 1.000000 0.990916
0.597392 0.000000 0.295450
0.603472 0.000000 0.290304
0.612201 0.000000 0.280285
0.657308 0.000000 0.256780
0.721343 0.000000 0.247815
0.858809 0.000000 0.249071
1.000000 0.000000 0.245675
1.000000 0.000000 0.282484
1.000000 0.386689 0.409792
0.528055 0.000000 0.448791
0.536885 0.000000 0.441807
0.550220 0.000000 0.428005
0.596405 0.000000 0.387690
0.692828 0.000000 0.280379
0.858809 0.000000 0.249071
1.000000 0.000000 0.245949
1.000000 0.000000 0.282484
1.000000 0.386689 0.409792
0.421389 0.000000 0.676445
0.430545 0.000000 0.672501
0.444608 0.000000 0.664649
0.490988 0.000000 0.641054
0.610147 0.000000 0.537859
0.858809 0.000000 0.249071
1.000000 0.000000 0.245949
1.000000 0.000000 0.282484
1.000000 0.386689 0.409792
0.286110 0.186820 0.838146
0.296720 0.183134 0.838127
0.306645 0.181944 0.838056
0.351249 0.173053 0.837758
0.456084 0.132051 0.834239
0.675588 0.000000 0.792749
1.000000 0.000000 0.245949
1.000000 0.000000 0.282484
1.000000 0.386689 0.409792
0.000000 0.376291 0.926763
0.000000 0.376102 0.926742
0.112654 0.375550 0.928317
0.195618 0.370851 0.928303
0.326628 0.356112 0.926560
0.536287 0.328887 0.923761
0.921360 0.125279 0.915971
1.000000 0.000000 0.283394
1.000000 0.386689 0.409792
0.000000 0.597064 0.965652
0.000000 0.596832 0.965624
0.000000 0.596590 0.965595
0.000000 0.599703 0.966395
0.000000 0.597372 0.970395
0.435828 0.593861 0.975345
0.807814 0.562176 0.976260
1.000000 0.453276 0.965927
1.000000 0.386689 0.409792
0.000000 0.816575 0.988448
0.000000 0.816458 0.988436
0.000000 0.816219 0.988411
0.000000 0.821390 0.988639
0.000000 0.822552 0.989596
0.237745 0.828409 0.991509
0.728234 0.828698 0.995016
1.000000 0.828809 0.997446
1.000000 0.762051 0.980279
0.000000 0.963773 1.000000
0.000000 0.963773 1.000000
0.000000 0.963609 1.000000
0.014531 0.963108 1.000000
0.284236 0.962729 1.000000
0.485767 0.963054 1.000000
0.747152 0.961279 1.000000
0.954184 0.963500 1.000000
1.000000 0.958161 1.000000
0.764513 1.000000 1.000000
0.764513 1.000000 1.000000
0.767289 1.000000 1.000000
0.772874 1.000000 1.000000
0.781774 1.000000 1.000000
0.814595 1.000000 1.000000
0.885331 1.000000 1.000000
0.964166 1.000000 1.000000
1.000000 1.000000 1.000000
