Assets/Lutify-Free-LUTs-Pack/Lutify Free LUTs Pack/Commercial Pro - Claire/Lutify.me-Claire-CanonLog3-to-Rec709.cube
# Created with: fylm.ai - Colour Grading and Collaboration Software in Cloud 
# Website: https://fylm.ai 
# META
# Option: Gamut compress
# Block 1: IDT | CanonLog3 Cinema Gamut Daylight
# Block 2: colourMatch | Blending Mode: Normal | {"ColorSpace":0,"CrossCovarianceLimit":50,"ReshapingIterations":1,"PercentSaturationShift":100,"PercentShadingShift":100,"ExtraShading":true,"PercentTint":100,"PercentModified":100}
# Block 3: HSL | Blending Mode: Normal | {"hue":{"Reds":0,"Yellows":0,"Greens":0,"Cyans":0,"Blues":0,"Magentas":0},"saturation":{"Reds":1,"Yellows":1,"Greens":1,"Cyans":1,"Blues":1,"Magentas":1},"luminance":{"Reds":0.9,"Yellows":0.9,"Greens":0.9,"Cyans":0.8,"Blues":0.8,"Magentas":0.9},"lum_sat":{"Blacks":1,"Shadows":1,"Midtones":1,"Highlights":1,"Whites":1},"sat_sat":{"10":1,"20":1,"30":1,"40":1,"50":1}}
# Block 4: subtractiveColour | Blending Mode: Normal | {"sliders":{"gainY":0.1,"C":0.05,"M":0.05,"Y":0.05}}
# Block 5: logPrimaries | Blending Mode: Normal | {"wheels":{"shadows":{"Y":"0","R":"1","G":"1","B":"1"},"midtones":{"Y":"0","R":"1","G":"1","B":"1"},"highlights":{"Y":"0","R":"1","G":"1","B":"1"},"offset":{"Y":"0","R":"1","G":"1","B":"1"}},"sliders":{"shadows":{"Y":0,"R":-0.05,"G":0,"B":0.1},"midtones":{"Y":0,"R":0,"G":0,"B":0},"highlights":{"Y":0,"R":0,"G":0,"B":0},"offset":{"Y":0,"R":0,"G":0,"B":0}}}
# Block 6: LUT | Filmic Curve Response: Standard Contrast 1 (100%)
# Block 7: LUT | Illuminant: D93 (100%)
# Block 8: LUT | Neutral Tint: Teal Tint 4 (100%)
# Block 9: ODT | Rec709
TITLE "Lutify.me-Claire-CanonLog3-to-Rec709" 
LUT_3D_SIZE 9
0.000000 0.000000 0.000000
0.268038 0.000000 0.000000
0.788533 0.000000 0.000000
1.000000 0.000000 0.048654
0.979019 0.000000 0.000000
0.945705 0.000000 0.000000
1.000000 0.000000 0.112497
1.000000 0.385347 0.261699
1.000000 0.638281 0.453007
0.000000 0.100377 0.000000
0.031208 0.067075 0.000000
0.405525 0.000000 0.000000
0.696042 0.000000 0.000000
0.953752 0.000000 0.000000
0.944253 0.000000 0.000000
1.000000 0.000000 0.104709
1.000000 0.404715 0.260132
1.000000 0.644745 0.452646
0.000000 0.251912 0.000000
0.000000 0.221591 0.000000
0.388610 0.138007 0.000000
0.671677 0.000000 0.000000
0.942007 0.000000 0.000000
0.953450 0.000000 0.000000
1.000000 0.156514 0.091401
1.000000 0.425035 0.259189
1.000000 0.654358 0.452114
0.000000 0.383395 0.000000
0.000000 0.355824 0.000000
0.374747 0.308175 0.000000
0.685424 0.223701 0.000000
0.947829 0.000000 0.000000
1.000000 0.000000 0.000000
1.000000 0.287135 0.031956
1.000000 0.467886 0.253284
1.000000 0.671106 0.452212
0.000000 0.535314 0.000000
0.000000 0.503424 0.000000
0.286484 0.482518 0.000000
0.691373 0.434027 0.000000
0.941869 0.356118 0.000000
1.000000 0.302916 0.000000
1.000000 0.479824 0.000000
1.000000 0.548986 0.230934
1.000000 0.704750 0.447659
0.000000 0.673736 0.000000
0.000000 0.666378 0.000000
0.322973 0.653602 0.000000
0.658978 0.631671 0.000000
0.931437 0.579991 0.000000
1.000000 0.542153 0.000000
1.000000 0.542128 0.095051
1.000000 0.712190 0.130654
1.000000 0.770559 0.443157
0.000000 0.811375 0.000000
0.385641 0.807537 0.000000
0.508141 0.804076 0.000000
0.708278 0.783161 0.000000
0.906994 0.757916 0.000000
1.000000 0.735390 0.000000
1.000000 0.713856 0.000000
1.000000 0.729671 0.296651
1.000000 0.863917 0.395416
0.691276 0.898895 0.000000
0.729069 0.895347 0.000000
0.767313 0.891612 0.000000
0.829574 0.882594 0.000000
0.906743 0.875972 0.000000
0.989751 0.863342 0.000000
1.000000 0.852384 0.000000
1.000000 0.844480 0.312943
1.000000 0.875282 0.390801
0.902539 0.942334 0.000000
0.909235 0.941927 0.000000
0.917849 0.941398 0.000000
0.930110 0.940636 0.000000
0.954066 0.939121 0.000000
0.990589 0.932245 0.000000
1.000000 0.926064 0.202200
1.000000 0.921903 0.375187
1.000000 0.918197 0.533021
0.000000 0.000000 0.431900
0.000000 0.000000 0.053762
0.467463 0.000000 0.000000
0.754990 0.000000 0.000000
0.855492 0.000000 0.000000
0.934898 0.000000 0.067584
1.000000 0.000000 0.157546
1.000000 0.385237 0.288168
1.000000 0.638219 0.467462
0.000000 0.018415 0.033715
0.000000 0.000000 0.014133
0.333498 0.000000 0.000000
0.505076 0.000000 0.000000
0.714119 0.000000 0.000000
0.925490 0.000000 0.062051
1.000000 0.000000 0.156693
1.000000 0.405773 0.287506
1.000000 0.644686 0.467113
0.000000 0.226948 0.000000
0.000000 0.218068 0.000000
0.322979 0.154895 0.000000
0.518417 0.072252 0.000000
0.714405 0.000000 0.000000
0.931042 0.000000 0.041004
1.000000 0.155886 0.151879
1.000000 0.424938 0.288545
1.000000 0.654301 0.466598
0.000000 0.374345 0.000000
0.000000 0.347918 0.000000
0.358210 0.301021 0.000000
0.676710 0.208129 0.000000
0.780480 0.241863 0.000000
0.931841 0.230013 0.000000
1.000000 0.286429 0.136316
1.000000 0.470660 0.284836
1.000000 0.670070 0.468703
0.000000 0.531611 0.000000
0.000000 0.496791 0.000000
0.251093 0.479897 0.000000
0.683502 0.427255 0.000000
0.938894 0.352188 0.000000
0.978219 0.437826 0.000000
1.000000 0.491793 0.000000
1.000000 0.557301 0.265929
1.000000 0.707869 0.464908
0.000000 0.670199 0.000000
0.000000 0.666824 0.000000
0.296281 0.654181 0.000000
0.644122 0.628691 0.000000
0.931437 0.579991 0.000000
1.000000 0.537783 0.000000
1.000000 0.655735 0.000000
1.000000 0.722226 0.203658
1.000000 0.769570 0.461190
0.000000 0.811711 0.000000
0.360415 0.805150 0.000000
0.503198 0.801288 0.000000
0.696630 0.783786 0.000000
0.900920 0.758290 0.000000
1.000000 0.735390 0.000000
1.000000 0.713856 0.000000
1.000000 0.822830 0.000000
1.000000 0.863874 0.419331
0.685670 0.899149 0.000000
0.724048 0.895592 0.000000
0.762919 0.891841 0.000000
0.822024 0.883030 0.000000
0.906743 0.875972 0.000000
0.988311 0.863394 0.000000
1.000000 0.852384 0.000000
1.000000 0.844480 0.312943
1.000000 0.915825 0.299136
0.902539 0.942334 0.000000
0.909235 0.941927 0.000000
0.917849 0.941398 0.000000
0.930110 0.940636 0.000000
0.954066 0.939121 0.000000
0.989386 0.932316 0.000000
1.000000 0.926064 0.202200
1.000000 0.921903 0.375187
1.000000 0.918197 0.533021
0.000000 0.000000 0.599262
0.000000 0.000000 0.126171
0.361030 0.000000 0.044008
0.666005 0.000000 0.000000
0.903847 0.000000 0.000000
0.927773 0.000000 0.112015
1.000000 0.000000 0.195304
1.000000 0.382515 0.306402
1.000000 0.638167 0.479216
0.000000 0.000000 0.227192
0.000000 0.000000 0.145446
0.281877 0.000000 0.075196
0.477634 0.000000 0.080541
0.698066 0.000000 0.101264
0.918222 0.000000 0.127052
1.000000 0.000000 0.196874
1.000000 0.406862 0.308187
1.000000 0.644634 0.478876
0.000000 0.176571 0.275281
0.000000 0.176491 0.277672
0.173684 0.218080 0.292804
0.442570 0.143363 0.177738
0.688013 0.000000 0.118054
0.919752 0.000000 0.133139
1.000000 0.146710 0.198608
1.000000 0.425956 0.309524
1.000000 0.654239 0.481342
0.000000 0.295141 0.283124
0.000000 0.327126 0.291294
0.000000 0.419642 0.182880
0.446119 0.391396 0.065379
0.703313 0.332907 0.052360
0.920129 0.233355 0.116811
1.000000 0.290902 0.190742
1.000000 0.471532 0.306229
1.000000 0.670024 0.480538
0.000000 0.398746 0.222294
0.000000 0.587986 0.000000
0.000000 0.590063 0.000000
0.362736 0.580718 0.000000
0.735646 0.527851 0.000000
0.920812 0.524625 0.000000
1.000000 0.503815 0.136515
1.000000 0.565578 0.300459
1.000000 0.707819 0.479682
0.000000 0.670574 0.000000
0.000000 0.663467 0.000000
0.266993 0.654736 0.000000
0.632962 0.629377 0.000000
0.929217 0.576034 0.000000
1.000000 0.537783 0.000000
1.000000 0.713585 0.000000
1.000000 0.728983 0.262228
1.000000 0.770469 0.477786
0.000000 0.809037 0.000000
0.339941 0.805561 0.000000
0.488290 0.801776 0.000000
0.684680 0.784413 0.000000
0.897812 0.758484 0.000000
1.000000 0.731812 0.000000
1.000000 0.713856 0.000000
1.000000 0.847226 0.000000
1.000000 0.865627 0.447472
0.685670 0.899149 0.000000
0.718947 0.895839 0.000000
0.758448 0.892073 0.000000
0.822024 0.883030 0.000000
0.904087 0.876138 0.000000
0.988311 0.863394 0.000000
1.000000 0.852384 0.000000
1.000000 0.844480 0.312943
1.000000 0.924325 0.300336
0.902539 0.942334 0.000000
0.909235 0.941927 0.000000
0.917849 0.941398 0.000000
0.928112 0.940761 0.000000
0.954066 0.939121 0.000000
0.989386 0.932316 0.000000
1.000000 0.926065 0.198116
1.000000 0.921903 0.375187
1.000000 0.918197 0.533021
0.000000 0.000000 0.695641
0.000000 0.000000 0.176954
0.277861 0.000000 0.074427
0.586602 0.000000 0.054701
0.895662 0.000000 0.000000
0.913723 0.000000 0.173930
1.000000 0.000000 0.263642
1.000000 0.375744 0.356438
1.000000 0.636921 0.499389
0.000000 0.000000 0.322396
0.000000 0.000000 0.202457
0.225471 0.000000 0.114843
0.533970 0.000000 0.074063
0.669265 0.000000 0.160587
0.908806 0.000000 0.234819
1.000000 0.000000 0.271200
1.000000 0.402754 0.358096
1.000000 0.643415 0.502103
0.000000 0.123981 0.343133
0.000000 0.121619 0.323326
0.000000 0.131383 0.357719
0.417412 0.000000 0.315118
0.662095 0.000000 0.282527
0.917729 0.000000 0.268887
1.000000 0.136648 0.276617
1.000000 0.421906 0.357122
1.000000 0.654144 0.502411
0.000000 0.295293 0.452913
0.000000 0.303168 0.459678
0.000000 0.364760 0.537314
0.333259 0.426990 0.528894
0.657813 0.350318 0.398881
0.907254 0.231197 0.291351
1.000000 0.295604 0.289627
1.000000 0.468512 0.358206
1.000000 0.666789 0.504840
0.000000 0.431242 0.482416
0.000000 0.512268 0.548577
0.000000 0.563916 0.526938
0.000000 0.640954 0.462612
0.655972 0.615935 0.356863
0.898339 0.558976 0.265001
1.000000 0.507875 0.281039
1.000000 0.564751 0.355711
1.000000 0.706965 0.503011
0.000000 0.702496 0.431293
0.000000 0.781690 0.380592
0.000000 0.809776 0.341021
0.000000 0.808524 0.247090
0.574076 0.795588 0.075122
0.873016 0.763544 0.000000
0.990080 0.752150 0.168205
1.000000 0.728933 0.339920
1.000000 0.770390 0.504675
0.000000 0.853962 0.000000
0.000000 0.851595 0.000000
0.000000 0.846440 0.000000
0.442819 0.835841 0.000000
0.800230 0.815201 0.000000
0.993204 0.754838 0.000000
1.000000 0.710446 0.000000
1.000000 0.865421 0.191006
1.000000 0.867307 0.494609
0.675135 0.897859 0.000000
0.713764 0.896087 0.000000
0.749276 0.892544 0.000000
0.814286 0.883472 0.000000
0.901386 0.876308 0.000000
0.986851 0.863448 0.000000
1.000000 0.850314 0.000000
1.000000 0.842535 0.312630
1.000000 0.933357 0.353648
0.900262 0.942472 0.000000
0.907026 0.942061 0.000000
0.915729 0.941529 0.000000
0.928112 0.940761 0.000000
0.952354 0.939230 0.000000
0.989386 0.932316 0.000000
1.000000 0.926065 0.198116
1.000000 0.921903 0.375187
1.000000 0.918197 0.533021
0.000000 0.000000 0.790430
0.000000 0.000000 0.202392
0.220678 0.000000 0.104382
0.502809 0.000000 0.086569
0.837837 0.000000 0.068119
1.000000 0.000000 0.063534
1.000000 0.000000 0.365911
1.000000 0.360360 0.448687
1.000000 0.636627 0.552358
0.000000 0.000000 0.435401
0.000000 0.000000 0.235962
0.174599 0.000000 0.147675
0.480837 0.000000 0.096969
0.837817 0.000000 0.067051
0.872301 0.000000 0.279419
1.000000 0.000000 0.400900
1.000000 0.383911 0.457460
1.000000 0.643125 0.555246
0.000000 0.095502 0.410790
0.000000 0.099544 0.377516
0.000000 0.110161 0.393892
0.350455 0.000000 0.402286
0.634049 0.000000 0.308817
0.878637 0.000000 0.391764
1.000000 0.000000 0.429281
1.000000 0.408383 0.463512
1.000000 0.652816 0.554795
0.000000 0.246223 0.519711
0.000000 0.255307 0.519389
0.000000 0.293621 0.577730
0.202802 0.311966 0.630140
0.641113 0.246279 0.583187
0.885115 0.151980 0.495469
1.000000 0.272147 0.464211
1.000000 0.462100 0.467905
1.000000 0.669659 0.557933
0.000000 0.433819 0.613936
0.000000 0.444131 0.625050
0.000000 0.514928 0.706623
0.000000 0.586113 0.748992
0.567758 0.638690 0.744380
0.866034 0.577394 0.618337
1.000000 0.494222 0.495517
1.000000 0.559101 0.473791
1.000000 0.706712 0.562771
0.000000 0.636288 0.700027
0.000000 0.709410 0.749240
0.000000 0.736635 0.758128
0.000000 0.784881 0.730719
0.444729 0.835770 0.699909
0.831764 0.811606 0.596440
0.976659 0.768200 0.492561
1.000000 0.728739 0.481329
1.000000 0.770655 0.567667
0.000000 0.882569 0.650485
0.000000 0.896872 0.635568
0.000000 0.909275 0.628856
0.000000 0.921604 0.608127
0.416834 0.916649 0.523901
0.798450 0.902651 0.428984
0.955856 0.887056 0.335280
1.000000 0.879710 0.446440
1.000000 0.872310 0.575238
0.000000 0.961745 0.000000
0.000000 0.960699 0.000000
0.162606 0.958232 0.000000
0.379967 0.958029 0.000000
0.595238 0.952379 0.000000
0.819172 0.942488 0.000000
0.961253 0.930476 0.000000
1.000000 0.904982 0.116143
1.000000 0.939371 0.492577
0.895643 0.942750 0.000000
0.903075 0.941175 0.000000
0.909772 0.940767 0.000000
0.924611 0.939852 0.000000
0.947625 0.938403 0.000000
0.988166 0.932389 0.000000
1.000000 0.926068 0.193981
1.000000 0.920720 0.373960
1.000000 0.915989 0.531907
0.000000 0.000000 0.851468
0.000000 0.000000 0.208302
0.201656 0.000000 0.140670
0.397114 0.000000 0.114459
0.743621 0.000000 0.103612
1.000000 0.000000 0.100511
1.000000 0.000000 0.268862
1.000000 0.282616 0.586236
1.000000 0.629344 0.645474
0.000000 0.000000 0.630001
0.000000 0.000000 0.235922
0.190605 0.000000 0.149347
0.397114 0.000000 0.114459
0.743621 0.000000 0.103612
1.000000 0.000000 0.100514
1.000000 0.000000 0.436122
1.000000 0.331380 0.599877
1.000000 0.639170 0.648470
0.000000 0.086207 0.487619
0.000000 0.094770 0.427800
0.000000 0.099664 0.444969
0.216465 0.052844 0.451155
0.582636 0.000000 0.374511
0.914299 0.000000 0.177854
1.000000 0.000000 0.521515
1.000000 0.368148 0.609816
1.000000 0.648897 0.651476
0.000000 0.193742 0.569746
0.000000 0.209579 0.550565
0.000000 0.233713 0.591348
0.000000 0.241810 0.640742
0.545273 0.188705 0.661493
0.860118 0.000000 0.569501
1.000000 0.064452 0.603998
1.000000 0.433602 0.626634
1.000000 0.664885 0.654222
0.000000 0.370305 0.682680
0.000000 0.389380 0.681849
0.000000 0.457141 0.742206
0.000000 0.487417 0.789070
0.400363 0.525182 0.829790
0.853302 0.481782 0.796715
1.000000 0.425182 0.707561
1.000000 0.541096 0.660108
1.000000 0.702948 0.660012
0.000000 0.567256 0.764595
0.000000 0.586232 0.767056
0.000000 0.662480 0.832014
0.000000 0.724175 0.861779
0.000000 0.787384 0.877289
0.778530 0.823222 0.876419
0.955605 0.777157 0.803479
1.000000 0.727330 0.703138
1.000000 0.769662 0.679919
0.000000 0.848920 0.868562
0.000000 0.863197 0.875614
0.000000 0.872256 0.876924
0.000000 0.888490 0.879486
0.000000 0.907469 0.875459
0.736232 0.925256 0.857369
0.926452 0.912484 0.802345
1.000000 0.888913 0.711754
1.000000 0.872037 0.696090
0.000000 0.963786 0.823671
0.000000 0.968049 0.821593
0.000000 0.970188 0.819453
0.000000 0.974507 0.815420
0.467246 0.976218 0.802398
0.739476 0.969761 0.759475
0.911189 0.960393 0.680198
0.994069 0.951435 0.596935
1.000000 0.946520 0.683793
0.615503 0.996255 0.490829
0.636533 0.995533 0.486387
0.651590 0.994999 0.481944
0.679708 0.993944 0.475576
0.736834 0.991026 0.459069
0.822365 0.988162 0.437946
0.920790 0.982747 0.411371
0.993307 0.976519 0.398612
1.000000 0.968318 0.425301
0.000000 0.000000 0.897129
0.000000 0.000000 0.218409
0.210875 0.000000 0.175125
0.377818 0.000000 0.152128
0.617328 0.000000 0.138682
0.958939 0.000000 0.132008
1.000000 0.000000 0.141140
1.000000 0.000000 0.558199
1.000000 0.566319 0.769287
0.000000 0.000000 0.897129
0.000000 0.000000 0.220539
0.208422 0.000000 0.176969
0.377520 0.000000 0.150529
0.617328 0.000000 0.138682
0.958939 0.000000 0.132008
1.000000 0.000000 0.139819
1.000000 0.000000 0.618732
1.000000 0.583056 0.774726
0.000000 0.057785 0.553724
0.000000 0.073736 0.455856
0.000000 0.067827 0.455836
0.208833 0.000000 0.447933
0.494671 0.000000 0.340359
0.941074 0.000000 0.146065
1.000000 0.000000 0.139819
1.000000 0.000000 0.658129
1.000000 0.597722 0.780316
0.000000 0.176937 0.646981
0.000000 0.210398 0.618999
0.000000 0.226003 0.649398
0.000000 0.228493 0.687682
0.358072 0.199977 0.713230
0.791282 0.000000 0.668362
1.000000 0.000000 0.507018
1.000000 0.254776 0.722049
1.000000 0.632589 0.790534
0.000000 0.294547 0.716470
0.000000 0.339931 0.725862
0.000000 0.372402 0.767046
0.000000 0.386874 0.797135
0.171515 0.412569 0.833523
0.774199 0.364530 0.850735
1.000000 0.216345 0.786855
1.000000 0.438761 0.793588
1.000000 0.686304 0.801957
0.000000 0.514485 0.812902
0.000000 0.555657 0.822189
0.000000 0.616391 0.861800
0.000000 0.654067 0.889442
0.000000 0.696382 0.908504
0.644993 0.723510 0.923854
0.954266 0.723138 0.905976
1.000000 0.675288 0.857897
1.000000 0.766991 0.825645
0.000000 0.717477 0.862402
0.000000 0.725467 0.866309
0.000000 0.807153 0.903569
0.000000 0.845841 0.923755
0.000000 0.878637 0.935533
0.537031 0.902071 0.945213
0.900899 0.919740 0.944327
0.984449 0.899402 0.905294
1.000000 0.872771 0.851871
0.000000 0.948021 0.942680
0.000000 0.951271 0.944503
0.000000 0.954247 0.945210
0.000000 0.956422 0.947922
0.000000 0.964710 0.947629
0.571549 0.964708 0.942947
0.884906 0.970976 0.940222
0.972920 0.964550 0.908053
1.000000 0.953770 0.863204
0.355244 0.998583 0.913631
0.404851 0.998303 0.913606
0.432033 0.998340 0.913607
0.517049 0.998010 0.913597
0.639093 0.998880 0.913856
0.765362 0.997477 0.910427
0.881980 0.993061 0.885217
0.967028 0.988338 0.847281
1.000000 0.984143 0.801429
0.000000 0.000000 0.449204
0.109732 0.000000 0.244305
0.246910 0.000000 0.213128
0.385257 0.000000 0.189710
0.574364 0.000000 0.172642
0.853466 0.000000 0.167430
1.000000 0.000000 0.175348
1.000000 0.000000 0.204495
1.000000 0.299966 0.786280
0.000000 0.000000 0.470298
0.105283 0.000000 0.246706
0.244628 0.000000 0.213175
0.385257 0.000000 0.189710
0.574364 0.000000 0.172642
0.853466 0.000000 0.167430
1.000000 0.000000 0.175348
1.000000 0.000000 0.203123
1.000000 0.344738 0.803215
0.000000 0.000000 0.484598
0.000000 0.000000 0.336185
0.160028 0.000000 0.321284
0.343280 0.000000 0.254924
0.574364 0.000000 0.172642
0.853466 0.000000 0.167430
1.000000 0.000000 0.175348
1.000000 0.000000 0.203123
1.000000 0.383195 0.823943
0.000000 0.169638 0.681969
0.000000 0.201875 0.681100
0.000000 0.209779 0.700158
0.000000 0.209950 0.726379
0.290367 0.180124 0.729149
0.666582 0.000000 0.715272
0.984660 0.000000 0.467734
1.000000 0.000000 0.203123
1.000000 0.448229 0.844451
0.000000 0.285506 0.784706
0.000000 0.344890 0.795874
0.000000 0.356422 0.814411
0.000000 0.373744 0.839182
0.000000 0.380885 0.863362
0.557197 0.351421 0.875192
0.981281 0.219621 0.860749
1.000000 0.000000 0.757020
1.000000 0.546289 0.871906
0.000000 0.418399 0.842673
0.000000 0.503276 0.858611
0.000000 0.525419 0.882489
0.000000 0.558606 0.899016
0.000000 0.574644 0.917617
0.442286 0.599891 0.934133
0.943081 0.577378 0.940087
1.000000 0.501084 0.907873
1.000000 0.685226 0.908729
0.000000 0.662664 0.900799
0.000000 0.721573 0.907726
0.000000 0.781033 0.928448
0.000000 0.806653 0.942601
0.000000 0.833390 0.955327
0.000000 0.854875 0.964108
0.832209 0.868218 0.970611
0.989620 0.867302 0.963618
1.000000 0.844071 0.932876
0.000000 0.841589 0.925632
0.000000 0.841589 0.925632
0.000000 0.900404 0.947656
0.000000 0.928708 0.962274
0.000000 0.945409 0.971410
0.000000 0.955468 0.978557
0.796176 0.958851 0.982287
0.960682 0.968956 0.981449
1.000000 0.958502 0.962098
0.000000 0.993644 0.980615
0.000000 0.993587 0.981626
0.000000 0.994278 0.981439
0.000000 0.994934 0.982227
0.222515 0.995198 0.982650
0.541173 0.993810 0.981855
0.804876 0.991614 0.979488
0.951230 0.993998 0.978577
0.993840 0.990447 0.962160
0.115985 0.000000 0.290657
0.238418 0.000000 0.270118
0.308899 0.000000 0.250818
0.429733 0.000000 0.229565
0.579589 0.000000 0.212581
0.806411 0.000000 0.203117
1.000000 0.000000 0.206033
1.000000 0.000000 0.229437
1.000000 0.000000 0.277049
0.111057 0.000000 0.293157
0.238418 0.000000 0.270118
0.308899 0.000000 0.250818
0.429733 0.000000 0.229565
0.579589 0.000000 0.212581
0.806411 0.000000 0.203117
1.000000 0.000000 0.206033
1.000000 0.000000 0.229437
1.000000 0.000000 0.277049
0.104289 0.000000 0.293214
0.236090 0.000000 0.270154
0.308899 0.000000 0.250818
0.426715 0.000000 0.229617
0.579589 0.000000 0.212581
0.806373 0.000000 0.201052
1.000000 0.000000 0.206033
1.000000 0.000000 0.229437
1.000000 0.000000 0.277049
0.000000 0.130083 0.667362
0.000000 0.133630 0.678806
0.000000 0.125527 0.682638
0.061286 0.108191 0.670650
0.365752 0.000000 0.657599
0.690566 0.000000 0.451681
1.000000 0.000000 0.206033
1.000000 0.000000 0.229437
1.000000 0.000000 0.277049
0.000000 0.318045 0.836353
0.000000 0.338391 0.848788
0.000000 0.346731 0.858539
0.000000 0.348276 0.870386
0.000000 0.355178 0.889489
0.468036 0.326016 0.892216
0.875923 0.213501 0.896829
1.000000 0.000000 0.790317
1.000000 0.000000 0.277049
0.000000 0.481690 0.893143
0.000000 0.510725 0.907564
0.000000 0.521696 0.912497
0.000000 0.532211 0.923719
0.000000 0.556257 0.937347
0.313333 0.573767 0.949999
0.792326 0.538068 0.956441
1.000000 0.500401 0.951026
1.000000 0.394369 0.899398
0.000000 0.639834 0.922621
0.000000 0.682098 0.934980
0.000000 0.693543 0.942500
0.000000 0.713272 0.953746
0.000000 0.742871 0.962659
0.000000 0.772693 0.971227
0.691643 0.777501 0.978888
0.987500 0.784671 0.981491
1.000000 0.741093 0.965065
0.000000 0.804322 0.944148
0.000000 0.861758 0.957950
0.000000 0.887518 0.966405
0.000000 0.899705 0.973811
0.000000 0.916764 0.983083
0.000000 0.928886 0.988918
0.606239 0.933805 0.991450
0.919237 0.941188 0.993567
1.000000 0.940650 0.990451
0.000000 0.923017 0.962860
0.000000 0.923017 0.962860
0.000000 0.950211 0.973170
0.000000 0.973977 0.985577
0.000000 0.983510 0.991294
0.000000 0.989415 0.995566
0.626166 0.987928 0.997242
0.905647 0.988383 0.998364
0.987814 0.991566 0.999098
