Assets/Lutify-Free-LUTs-Pack/Lutify Free LUTs Pack/Commercial Pro - Claire/Lutify.me-Claire-ZLog2-to-Rec709.cube
# Created with: fylm.ai - Colour Grading and Collaboration Software in Cloud 
# Website: https://fylm.ai 
# META
# Option: Gamut compress
# Block 1: IDT | Z-Cam Z-Log2 - BETA
# Block 2: colourMatch | Blending Mode: Normal | {"ColorSpace":0,"CrossCovarianceLimit":50,"ReshapingIterations":1,"PercentSaturationShift":100,"PercentShadingShift":100,"ExtraShading":true,"PercentTint":100,"PercentModified":100}
# Block 3: HSL | Blending Mode: Normal | {"hue":{"Reds":0,"Yellows":0,"Greens":0,"Cyans":0,"Blues":0,"Magentas":0},"saturation":{"Reds":1,"Yellows":1,"Greens":1,"Cyans":1,"Blues":1,"Magentas":1},"luminance":{"Reds":0.9,"Yellows":0.9,"Greens":0.9,"Cyans":0.8,"Blues":0.8,"Magentas":0.9},"lum_sat":{"Blacks":1,"Shadows":1,"Midtones":1,"Highlights":1,"Whites":1},"sat_sat":{"10":1,"20":1,"30":1,"40":1,"50":1}}
# Block 4: subtractiveColour | Blending Mode: Normal | {"sliders":{"gainY":0.1,"C":0.05,"M":0.05,"Y":0.05}}
# Block 5: logPrimaries | Blending Mode: Normal | {"wheels":{"shadows":{"Y":"0","R":"1","G":"1","B":"1"},"midtones":{"Y":"0","R":"1","G":"1","B":"1"},"highlights":{"Y":"0","R":"1","G":"1","B":"1"},"offset":{"Y":"0","R":"1","G":"1","B":"1"}},"sliders":{"shadows":{"Y":0,"R":-0.05,"G":0,"B":0.1},"midtones":{"Y":0,"R":0,"G":0,"B":0},"highlights":{"Y":0,"R":0,"G":0,"B":0},"offset":{"Y":0,"R":0,"G":0,"B":0}}}
# Block 6: LUT | Filmic Curve Response: Standard Contrast 1 (100%)
# Block 7: LUT | Illuminant: D93 (100%)
# Block 8: LUT | Neutral Tint: Teal Tint 4 (100%)
# Block 9: ODT | Rec709
TITLE "Lutify.me-Claire-ZLog2-to-Rec709" 
LUT_3D_SIZE 5
0.000000 0.000000 0.014579
0.138019 0.000000 0.000000
0.309132 0.000000 0.000000
0.490654 0.000000 0.005944
0.775171 0.000000 0.093878
0.000000 0.093250 0.000000
0.101501 0.076324 0.000000
0.276765 0.000000 0.000000
0.476269 0.000000 0.008624
0.765280 0.000000 0.093603
0.000000 0.215010 0.000000
0.119983 0.200379 0.000000
0.330577 0.164612 0.000000
0.497432 0.134582 0.000000
0.773767 0.000000 0.091246
0.153472 0.350817 0.000000
0.282005 0.337709 0.000000
0.459814 0.309187 0.000000
0.718587 0.229944 0.000000
0.809176 0.347738 0.000000
0.494108 0.552078 0.000000
0.541086 0.545633 0.000000
0.650465 0.530371 0.000000
0.827082 0.498694 0.000000
1.000000 0.436923 0.000000
0.000000 0.000000 0.086125
0.083671 0.000000 0.063513
0.277152 0.000000 0.042904
0.480440 0.000000 0.055657
0.770746 0.000000 0.110972
0.000000 0.076845 0.126199
0.052819 0.080896 0.120057
0.244825 0.000000 0.071486
0.469517 0.000000 0.062055
0.765585 0.000000 0.115747
0.000000 0.230290 0.000000
0.000000 0.226787 0.000000
0.256720 0.207098 0.000000
0.481228 0.149502 0.028099
0.769004 0.000000 0.114318
0.139164 0.348289 0.000000
0.258218 0.341706 0.000000
0.408249 0.329111 0.000000
0.608823 0.320124 0.000000
0.799169 0.357197 0.000000
0.488363 0.552373 0.000000
0.535544 0.545960 0.000000
0.650465 0.530371 0.000000
0.827082 0.498694 0.000000
1.000000 0.436923 0.000000
0.000000 0.000000 0.147201
0.000000 0.000000 0.117559
0.255864 0.000000 0.088172
0.466880 0.000000 0.098363
0.754087 0.000000 0.169283
0.000000 0.047132 0.178496
0.000000 0.045673 0.171108
0.228288 0.000000 0.149310
0.437958 0.000000 0.139517
0.758360 0.000000 0.176293
0.000000 0.191434 0.296848
0.000000 0.205083 0.314875
0.175497 0.227952 0.310391
0.449895 0.157318 0.219527
0.755448 0.000000 0.191625
0.000000 0.438323 0.168705
0.000000 0.437596 0.145141
0.000000 0.441600 0.101331
0.480801 0.423954 0.081380
0.776312 0.368585 0.174158
0.473181 0.549322 0.000000
0.518799 0.546922 0.000000
0.641546 0.527162 0.000000
0.823846 0.490949 0.000000
0.859678 0.609367 0.000000
0.000000 0.000000 0.208423
0.000000 0.000000 0.179021
0.168527 0.000000 0.154751
0.477688 0.000000 0.108197
0.727717 0.000000 0.233475
0.000000 0.043647 0.247252
0.000000 0.044521 0.235730
0.132730 0.000000 0.234869
0.422634 0.000000 0.175708
0.725406 0.000000 0.268565
0.000000 0.135466 0.345737
0.000000 0.138005 0.357732
0.000000 0.139904 0.389618
0.421324 0.000000 0.355786
0.732203 0.000000 0.336631
0.000000 0.368420 0.544555
0.000000 0.383797 0.555109
0.000000 0.415099 0.576385
0.371915 0.459906 0.573855
0.754099 0.378681 0.455716
0.000000 0.731658 0.422186
0.000000 0.738849 0.417971
0.000000 0.736858 0.396067
0.353380 0.733960 0.356395
0.778651 0.711538 0.330878
0.000000 0.019093 0.277135
0.000000 0.015674 0.265810
0.101878 0.000000 0.256460
0.362705 0.000000 0.202391
0.834244 0.000000 0.112264
0.000000 0.054408 0.330320
0.000000 0.055806 0.330321
0.000000 0.045425 0.330155
0.321488 0.000000 0.298123
0.739495 0.000000 0.182670
0.000000 0.126744 0.437500
0.000000 0.132266 0.447806
0.000000 0.132016 0.465339
0.277160 0.102562 0.485601
0.702032 0.000000 0.407590
0.000000 0.283093 0.601128
0.000000 0.290595 0.612400
0.000000 0.294913 0.635368
0.200617 0.311018 0.672605
0.723933 0.214236 0.644008
0.000000 0.631189 0.803354
0.000000 0.638678 0.805864
0.000000 0.653067 0.819088
0.000000 0.694474 0.826523
0.693656 0.754313 0.832470
