Assets/Lutify-Free-LUTs-Pack/Lutify Free LUTs Pack/Commercial Pro - Claire/Lutify.me-Claire-ACEScct-to-ACEScct.cube
# Created with: fylm.ai - Colour Grading and Collaboration Software in Cloud 
# Website: https://fylm.ai 
# META
# Option: Gamut compress
# Block 1: HSL | Blending Mode: Normal | {"hue":{"Reds":0,"Yellows":0,"Greens":0,"Cyans":0,"Blues":0,"Magentas":0},"saturation":{"Reds":1,"Yellows":1,"Greens":1,"Cyans":1,"Blues":1,"Magentas":1},"luminance":{"Reds":0.9,"Yellows":0.9,"Greens":0.9,"Cyans":0.8,"Blues":0.8,"Magentas":0.9},"lum_sat":{"Blacks":1,"Shadows":1,"Midtones":1,"Highlights":1,"Whites":1},"sat_sat":{"10":1,"20":1,"30":1,"40":1,"50":1}}
# Block 2: subtractiveColour | Blending Mode: Normal | {"sliders":{"gainY":0.1,"C":0.05,"M":0.05,"Y":0.05}}
# Block 3: logPrimaries | Blending Mode: Normal | {"wheels":{"shadows":{"Y":"0","R":"1","G":"1","B":"1"},"midtones":{"Y":"0","R":"1","G":"1","B":"1"},"highlights":{"Y":"0","R":"1","G":"1","B":"1"},"offset":{"Y":"0","R":"1","G":"1","B":"1"}},"sliders":{"shadows":{"Y":0,"R":-0.05,"G":0,"B":0.1},"midtones":{"Y":0,"R":0,"G":0,"B":0},"highlights":{"Y":0,"R":0,"G":0,"B":0},"offset":{"Y":0,"R":0,"G":0,"B":0}}}
# Block 4: LUT | Filmic Curve Response: Standard Contrast 1 (100%)
# Block 5: LUT | Illuminant: D93 (100%)
# Block 6: LUT | Neutral Tint: Teal Tint 4 (100%)
TITLE "Lutify.me-Claire-ACEScct-to-ACEScct" 
LUT_3D_SIZE 33
0.012114 0.046790 0.072308
0.206624 0.027339 0.018399
0.048560 0.055154 0.067206
0.082504 0.060606 0.058673
0.135695 0.052943 0.032532
0.182736 0.049076 0.025723
0.229590 0.046421 0.021849
0.276527 0.044840 0.020438
0.309851 0.044840 0.019654
0.339998 0.046158 0.019340
0.367001 0.049076 0.019027
0.388141 0.057910 0.020124
0.402984 0.071708 0.021849
0.417827 0.100384 0.029128
0.435850 0.135580 0.040658
0.451958 0.183870 0.068496
0.474563 0.224750 0.105868
0.497487 0.264927 0.143664
0.523181 0.301112 0.192229
0.551210 0.333133 0.228624
0.579212 0.362385 0.267363
0.604864 0.392662 0.306800
0.633100 0.419167 0.342664
0.663866 0.446758 0.372218
0.692810 0.473668 0.400361
0.720015 0.501793 0.430714
0.749871 0.530992 0.456158
0.774974 0.560197 0.485068
0.797494 0.590732 0.513060
0.822077 0.618837 0.536904
0.843757 0.649587 0.563751
0.863032 0.681575 0.598367
0.886464 0.711278 0.626478
0.031714 0.069077 0.020951
0.056533 0.049537 0.023510
0.045655 0.057536 0.069315
0.080739 0.062365 0.060286
0.133211 0.055702 0.033213
0.178770 0.052391 0.026404
0.225284 0.049630 0.022006
0.271399 0.047415 0.020595
0.306009 0.047415 0.019811
0.334378 0.050183 0.019654
0.362498 0.054047 0.019497
0.382761 0.063981 0.020438
0.399804 0.078757 0.022319
0.414646 0.108270 0.029808
0.434789 0.143655 0.041374
0.450882 0.187888 0.068496
0.474563 0.227621 0.107142
0.497487 0.266361 0.143665
0.523181 0.302393 0.193599
0.551210 0.334265 0.230059
0.579212 0.362385 0.267363
0.604864 0.392662 0.306800
0.633100 0.420227 0.342664
0.663866 0.446758 0.372218
0.692810 0.473668 0.402613
0.720015 0.501793 0.430714
0.749871 0.530992 0.456158
0.774974 0.560197 0.485068
0.797494 0.590732 0.513060
0.822077 0.618837 0.536904
0.843757 0.649587 0.563751
0.863032 0.681575 0.598367
0.886464 0.711278 0.626478
0.025508 0.069979 0.085917
0.025614 0.069670 0.083857
0.036765 0.067290 0.074125
0.076398 0.065319 0.061937
0.129237 0.059645 0.034088
0.173482 0.057358 0.027425
0.219542 0.054599 0.022659
0.264989 0.053495 0.020752
0.299604 0.052943 0.020124
0.329882 0.057358 0.019967
0.356869 0.061222 0.019967
0.378258 0.070604 0.020752
0.396623 0.087604 0.022659
0.413586 0.117142 0.030149
0.434789 0.150384 0.042089
0.450882 0.193246 0.069209
0.474563 0.230492 0.107142
0.497487 0.269062 0.145332
0.523180 0.303674 0.193599
0.551210 0.335389 0.230059
0.579212 0.363510 0.267363
0.604864 0.393722 0.306800
0.633100 0.420227 0.342664
0.663866 0.446758 0.372218
0.692810 0.473668 0.402613
0.720015 0.501793 0.430714
0.749871 0.530992 0.456158
0.774974 0.560197 0.485068
0.797494 0.590732 0.513060
0.822077 0.618837 0.536904
0.843757 0.649587 0.563751
0.863032 0.681575 0.598367
0.886464 0.711278 0.626478
0.038912 0.085496 0.086022
0.040170 0.085678 0.085960
0.041989 0.085164 0.086523
0.059862 0.081399 0.072349
0.116618 0.072494 0.035832
0.162907 0.068397 0.028787
0.206624 0.066189 0.024021
0.253988 0.062877 0.021536
0.293194 0.061773 0.020438
0.323941 0.065085 0.020281
0.352366 0.069500 0.020438
0.374881 0.076792 0.021379
0.393442 0.098416 0.023681
0.412526 0.124043 0.031170
0.433729 0.158421 0.043520
0.450882 0.196044 0.069209
0.473487 0.233363 0.108400
0.497487 0.271626 0.145332
0.523181 0.304954 0.193599
0.551210 0.336513 0.230059
0.579212 0.363510 0.267363
0.604864 0.393722 0.306800
0.633100 0.420227 0.343945
0.663866 0.446758 0.372218
0.692810 0.473668 0.402613
0.720015 0.501793 0.430714
0.749871 0.530992 0.456158
0.774974 0.560197 0.485068
0.797494 0.590732 0.513060
0.822077 0.618837 0.536904
0.843757 0.649587 0.563751
0.863032 0.681575 0.598367
0.886464 0.711278 0.626478
0.047509 0.111228 0.070635
0.049909 0.111228 0.067070
0.055510 0.109256 0.062079
0.072313 0.107284 0.050671
0.107348 0.104327 0.036957
0.145715 0.096451 0.030489
0.190879 0.089570 0.026064
0.238203 0.084655 0.023000
0.280374 0.079740 0.021379
0.316256 0.075020 0.020752
0.347866 0.080723 0.020595
0.372630 0.089570 0.021536
0.390262 0.108270 0.024362
0.411466 0.132888 0.031851
0.432669 0.167797 0.044235
0.450882 0.200348 0.069922
0.473487 0.236233 0.109621
0.497487 0.272908 0.146999
0.523181 0.306235 0.194970
0.551210 0.336513 0.230059
0.579212 0.364636 0.268797
0.604864 0.393722 0.306800
0.633100 0.420227 0.343945
0.663866 0.446758 0.372218
0.692810 0.473668 0.402613
0.720015 0.501793 0.430714
0.749871 0.532160 0.456158
0.774973 0.561419 0.485068
0.797494 0.590732 0.513060
0.822077 0.618837 0.536904
0.843757 0.649587 0.563751
0.863032 0.681575 0.598367
0.886464 0.711278 0.626478
0.046780 0.138273 0.067070
0.048968 0.138273 0.062792
0.055001 0.136927 0.057801
0.069258 0.134235 0.047811
0.101891 0.130197 0.037298
0.138179 0.125029 0.031851
0.181414 0.119114 0.027766
0.228155 0.111228 0.024362
0.271399 0.107284 0.021849
0.306009 0.102355 0.021536
0.343370 0.100384 0.020908
0.368127 0.103341 0.021849
0.389201 0.119114 0.025042
0.410405 0.143656 0.032532
0.432669 0.174494 0.045665
0.450882 0.204654 0.069922
0.473487 0.239104 0.110843
0.497487 0.276754 0.146999
0.523181 0.307516 0.194970
0.551210 0.337637 0.231495
0.579212 0.364636 0.268797
0.604864 0.394782 0.308081
0.633100 0.420227 0.343945
0.663866 0.447834 0.372218
0.692810 0.474745 0.402613
0.720015 0.501793 0.430714
0.749871 0.532160 0.456158
0.774973 0.561419 0.485068
0.797494 0.590732 0.513060
0.822077 0.618837 0.536904
0.843757 0.649587 0.563751
0.863032 0.681575 0.598367
0.886464 0.711278 0.626478
0.046780 0.169137 0.064931
0.049398 0.169137 0.060653
0.055510 0.169137 0.055662
0.067731 0.166458 0.046381
0.099164 0.162440 0.037298
0.134453 0.158422 0.033553
0.178770 0.153064 0.029128
0.222413 0.143656 0.025723
0.264989 0.136927 0.023340
0.299604 0.130197 0.022319
0.336626 0.127505 0.021692
0.364749 0.122072 0.022659
0.387081 0.131543 0.025723
0.409345 0.154403 0.033553
0.431609 0.182531 0.046381
0.450882 0.210396 0.070635
0.472410 0.241975 0.112064
0.497487 0.279318 0.148666
0.523181 0.308797 0.194970
0.551210 0.338761 0.231495
0.579212 0.365762 0.268797
0.604864 0.394782 0.308081
0.633100 0.421287 0.343945
0.663866 0.447834 0.372218
0.692810 0.474745 0.402613
0.720015 0.501793 0.430714
0.749871 0.532160 0.456158
0.774973 0.561419 0.485068
0.798440 0.590732 0.513060
0.822077 0.618837 0.536904
0.843757 0.649587 0.563751
0.863032 0.681575 0.598367
0.886464 0.711278 0.626478
0.046780 0.201784 0.064218
0.049909 0.201784 0.059940
0.058056 0.201784 0.055662
0.068240 0.198914 0.047811
0.096444 0.194610 0.038319
0.130727 0.194610 0.034234
0.172161 0.187889 0.030830
0.218107 0.182531 0.027766
0.259724 0.173156 0.024702
0.294476 0.170477 0.023681
0.332130 0.163780 0.022659
0.361372 0.161101 0.024021
0.384960 0.159761 0.027085
0.407225 0.170476 0.034234
0.430549 0.194609 0.047096
0.450882 0.217573 0.071348
0.472410 0.249152 0.113285
0.497487 0.283164 0.150333
0.523181 0.311359 0.196340
0.551210 0.339885 0.231495
0.579212 0.366888 0.270231
0.604864 0.395843 0.308081
0.633100 0.421287 0.343945
0.663866 0.447834 0.372218
0.692810 0.474745 0.402613
0.720015 0.502961 0.430714
0.749871 0.532160 0.456158
0.774973 0.561419 0.485068
0.798440 0.590732 0.513060
0.822077 0.618837 0.536904
0.843757 0.649587 0.563751
0.863032 0.681575 0.598367
0.886464 0.711278 0.626478
0.047509 0.233363 0.064931
0.052455 0.233364 0.060653
0.059075 0.233363 0.055662
0.070276 0.231928 0.048527
0.095537 0.230493 0.039943
0.128244 0.226186 0.035596
0.168195 0.224751 0.032532
0.215236 0.216138 0.028787
0.256856 0.211832 0.026064
0.293194 0.206091 0.024362
0.331006 0.200349 0.024021
0.355743 0.198914 0.025723
0.382761 0.197479 0.028447
0.405104 0.197479 0.034915
0.429488 0.210396 0.049242
0.450882 0.230492 0.073487
0.473487 0.259191 0.115727
0.497487 0.287011 0.151998
0.523181 0.315202 0.197711
0.551210 0.342133 0.232930
0.579212 0.368013 0.270231
0.604864 0.395843 0.308081
0.633100 0.422347 0.343945
0.663866 0.448911 0.372218
0.692810 0.474745 0.402613
0.720015 0.502961 0.430714
0.749871 0.532160 0.456158
0.774973 0.561419 0.485068
0.798440 0.590732 0.513060
0.822077 0.618837 0.536904
0.843757 0.649587 0.563751
0.863032 0.681575 0.598367
0.886464 0.711278 0.626478
0.048968 0.262060 0.068496
0.055510 0.262060 0.062792
0.063657 0.260626 0.057088
0.073332 0.260626 0.052810
0.094630 0.260626 0.044950
0.124518 0.259192 0.037638
0.164229 0.254890 0.034234
0.210930 0.253456 0.031170
0.255422 0.250588 0.028787
0.293194 0.240541 0.025723
0.327634 0.237670 0.025383
0.355743 0.231928 0.027085
0.382761 0.231928 0.029808
0.404044 0.233364 0.036276
0.429488 0.236234 0.052810
0.448729 0.249153 0.075626
0.473487 0.271626 0.118170
0.497487 0.294703 0.156992
0.523181 0.320325 0.199082
0.551210 0.344382 0.235801
0.579212 0.371391 0.271665
0.604864 0.396903 0.309361
0.634331 0.422347 0.343945
0.663866 0.448911 0.372218
0.692810 0.476898 0.402613
0.720015 0.502961 0.431774
0.749871 0.532160 0.456158
0.774973 0.561419 0.485068
0.798440 0.590732 0.513060
0.822077 0.618837 0.536904
0.843757 0.649587 0.563751
0.863032 0.681575 0.598367
0.886464 0.711278 0.626478
0.053474 0.292139 0.072061
0.060093 0.292139 0.069209
0.068240 0.290857 0.062792
0.081028 0.290857 0.056375
0.099164 0.292139 0.050671
0.122035 0.290857 0.043520
0.160263 0.290857 0.037979
0.205188 0.288293 0.034574
0.252554 0.284447 0.031851
0.291912 0.281883 0.029468
0.327634 0.272909 0.026064
0.355743 0.272909 0.028106
0.379384 0.271627 0.031170
0.404044 0.270345 0.037979
0.427368 0.271627 0.056375
0.448729 0.275473 0.079185
0.473487 0.287011 0.121833
0.497487 0.304955 0.161985
0.523181 0.329291 0.200453
0.551210 0.348878 0.237237
0.579212 0.374768 0.274533
0.604864 0.399023 0.309361
0.634331 0.423407 0.345225
0.663867 0.449987 0.373343
0.692810 0.476898 0.402613
0.720015 0.502961 0.431774
0.749871 0.532160 0.456158
0.774974 0.561419 0.486145
0.798440 0.590732 0.513060
0.822077 0.620060 0.536904
0.843757 0.649587 0.563751
0.863032 0.681575 0.598367
0.886464 0.711278 0.626478
0.059075 0.320325 0.089343
0.066712 0.320325 0.081724
0.075587 0.319044 0.072061
0.092817 0.319044 0.067070
0.108258 0.317764 0.059940
0.127002 0.317764 0.054949
0.157619 0.317764 0.049242
0.199447 0.316483 0.042089
0.245380 0.315202 0.037298
0.288066 0.313921 0.034574
0.325222 0.307517 0.031510
0.355743 0.302393 0.028447
0.379384 0.303674 0.032532
0.404044 0.304955 0.039943
0.427368 0.304955 0.059940
0.448729 0.308798 0.090613
0.473487 0.308798 0.126718
0.498654 0.316483 0.165315
0.524348 0.337638 0.203197
0.551210 0.354505 0.240107
0.579212 0.379271 0.277401
0.604864 0.401144 0.310642
0.634331 0.425528 0.346506
0.665097 0.451064 0.373343
0.692810 0.477974 0.403738
0.720015 0.504129 0.431774
0.749871 0.533328 0.457218
0.774974 0.561419 0.486145
0.798440 0.590732 0.513060
0.822077 0.620060 0.536904
0.843757 0.649587 0.563751
0.863032 0.681575 0.598367
0.886464 0.711278 0.626478
0.067221 0.344382 0.115727
0.077401 0.344382 0.105868
0.091910 0.344382 0.094423
0.105529 0.344382 0.086804
0.120082 0.344382 0.076645
0.139420 0.343258 0.071348
0.161585 0.343258 0.067783
0.196579 0.342134 0.059940
0.239638 0.342134 0.053523
0.280374 0.341010 0.046381
0.320098 0.341010 0.040658
0.352366 0.337638 0.036276
0.379384 0.330572 0.034234
0.405105 0.333134 0.042089
0.427368 0.334266 0.063505
0.448729 0.336514 0.094423
0.474563 0.337638 0.136488
0.498654 0.338762 0.171669
0.524348 0.348878 0.210057
0.551210 0.362385 0.244414
0.579212 0.386026 0.281703
0.604864 0.405385 0.313204
0.635562 0.427648 0.346506
0.665097 0.453217 0.374469
0.692810 0.479050 0.403738
0.720015 0.505297 0.431774
0.749871 0.533328 0.457218
0.774974 0.562640 0.486145
0.798440 0.590732 0.513060
0.822077 0.620060 0.536904
0.843757 0.650818 0.563751
0.863032 0.681575 0.598367
0.886464 0.712461 0.627700
0.084655 0.365762 0.160321
0.099164 0.369139 0.146999
0.112806 0.371391 0.135267
0.127002 0.369139 0.126718
0.140662 0.369139 0.119391
0.154975 0.369139 0.114506
0.172161 0.369139 0.107142
0.202317 0.368014 0.095693
0.236767 0.368014 0.082994
0.272681 0.366888 0.072061
0.316256 0.366888 0.063505
0.347866 0.365762 0.057088
0.379384 0.362385 0.053523
0.405105 0.359008 0.045665
0.430549 0.362385 0.067783
0.448729 0.362385 0.100774
0.474563 0.365762 0.141997
0.498654 0.365762 0.184005
0.524348 0.366888 0.218508
0.552377 0.375894 0.250155
0.580433 0.394783 0.284571
0.607309 0.409625 0.315766
0.635562 0.431889 0.349068
0.665097 0.457522 0.375595
0.692810 0.481203 0.404864
0.720015 0.506465 0.432834
0.749871 0.534496 0.457218
0.774974 0.562640 0.486145
0.798440 0.591954 0.513060
0.822077 0.620060 0.536904
0.843757 0.650818 0.563751
0.863032 0.681575 0.598367
0.886464 0.712461 0.627700
0.116444 0.394783 0.214173
0.130727 0.394783 0.201825
0.143146 0.395843 0.196340
0.156297 0.395843 0.189487
0.168195 0.396903 0.184005
0.181414 0.397963 0.175781
0.193711 0.397963 0.170298
0.212365 0.397963 0.161985
0.236767 0.396903 0.146999
0.266271 0.395843 0.134045
0.307290 0.399024 0.115727
0.342246 0.397963 0.103321
0.372630 0.397963 0.090613
0.402984 0.394783 0.077915
0.430549 0.390529 0.070635
0.450882 0.392662 0.110843
0.474563 0.395843 0.151998
0.499821 0.395843 0.190858
0.525516 0.396903 0.228624
0.552377 0.396903 0.257325
0.580433 0.405385 0.286005
0.607309 0.419167 0.318327
0.636793 0.437190 0.351632
0.666327 0.461828 0.376721
0.692810 0.483356 0.405990
0.720015 0.507633 0.432835
0.749871 0.535663 0.458278
0.774974 0.563861 0.486145
0.798441 0.591954 0.514137
0.822077 0.620060 0.536904
0.843757 0.650818 0.563751
0.863032 0.681575 0.599589
0.886464 0.712461 0.627700
0.157619 0.418107 0.267363
0.169517 0.418107 0.263061
0.181414 0.419167 0.257325
0.192295 0.419167 0.254457
0.203753 0.419167 0.250155
0.210930 0.420227 0.245849
0.220978 0.421287 0.241543
0.233896 0.422347 0.232930
0.249686 0.421287 0.225753
0.272681 0.421287 0.215569
0.302166 0.423408 0.199082
0.336626 0.423408 0.179893
0.365875 0.422347 0.163650
0.397683 0.422347 0.145332
0.427368 0.420227 0.129161
0.454111 0.418107 0.115727
0.476716 0.419167 0.163650
0.502157 0.420227 0.199082
0.525516 0.421287 0.237237
0.553562 0.421287 0.267363
0.580433 0.422347 0.295268
0.609753 0.430829 0.320889
0.638024 0.445682 0.355331
0.667557 0.467210 0.378972
0.692810 0.486586 0.407115
0.720015 0.511137 0.433895
0.750962 0.537999 0.458278
0.774974 0.566304 0.487221
0.798440 0.593175 0.514137
0.822077 0.621282 0.536904
0.843757 0.652048 0.563750
0.863032 0.682806 0.599589
0.886464 0.712461 0.627700
0.205188 0.442491 0.318327
0.212365 0.443551 0.315766
0.220978 0.443551 0.313204
0.226719 0.444611 0.310642
0.233896 0.445682 0.308081
0.239638 0.446758 0.306800
0.245380 0.447835 0.304238
0.253988 0.448911 0.299114
0.264989 0.447835 0.293986
0.282938 0.447835 0.284571
0.304728 0.447835 0.273099
0.332130 0.449988 0.257325
0.362498 0.448911 0.238672
0.392382 0.448911 0.221447
0.425248 0.451064 0.205941
0.453035 0.447835 0.188117
0.479945 0.443551 0.170298
0.503325 0.445682 0.205941
0.530188 0.446758 0.244414
0.556005 0.448911 0.277401
0.584097 0.448911 0.305519
0.612198 0.451064 0.327293
0.638024 0.459676 0.360960
0.667557 0.474745 0.383475
0.692810 0.491968 0.409367
0.720015 0.514641 0.434955
0.750962 0.540335 0.458278
0.774973 0.568747 0.488297
0.798440 0.594396 0.514137
0.823023 0.622506 0.538072
0.843757 0.652048 0.563750
0.863032 0.682806 0.599589
0.886464 0.712461 0.627700
0.243944 0.468287 0.354198
0.249686 0.470440 0.354198
0.253988 0.471516 0.352915
0.256856 0.471516 0.351632
0.262425 0.472592 0.350349
0.266271 0.472592 0.349068
0.272681 0.472592 0.347787
0.280374 0.473669 0.345225
0.290630 0.473669 0.341383
0.303447 0.473669 0.333698
0.318817 0.476898 0.326013
0.338874 0.476898 0.317047
0.362498 0.476898 0.304238
0.391322 0.474745 0.288858
0.421007 0.477975 0.268797
0.449806 0.476898 0.253023
0.478869 0.476898 0.235801
0.504493 0.471516 0.214173
0.531356 0.472592 0.255891
0.559669 0.474745 0.286005
0.587761 0.474745 0.313204
0.612198 0.477975 0.338821
0.639255 0.477975 0.366589
0.667557 0.486586 0.387978
0.693992 0.500625 0.412691
0.721198 0.521648 0.437075
0.750962 0.545007 0.459338
0.774973 0.571190 0.488297
0.798440 0.596839 0.515214
0.823023 0.623737 0.538072
0.843757 0.653279 0.566084
0.863032 0.684036 0.599589
0.886464 0.713644 0.627700
0.284220 0.494121 0.387978
0.289348 0.494121 0.386852
0.293194 0.495197 0.386852
0.295758 0.495197 0.385727
0.299604 0.497350 0.384601
0.302166 0.497350 0.384601
0.304728 0.498426 0.383475
0.308571 0.498426 0.382349
0.316256 0.499503 0.381224
0.326502 0.501793 0.376721
0.336626 0.502961 0.372218
0.348991 0.501793 0.365463
0.365875 0.501793 0.357583
0.390262 0.501793 0.347787
0.419947 0.502961 0.329855
0.447653 0.504129 0.314485
0.478869 0.504129 0.299114
0.506829 0.501793 0.281703
0.531356 0.500625 0.263061
0.560891 0.499503 0.296550
0.587761 0.499503 0.322170
0.613420 0.502961 0.349068
0.640486 0.501793 0.373343
0.668788 0.504129 0.391355
0.693992 0.512305 0.415872
0.722381 0.529824 0.439196
0.752054 0.550846 0.462518
0.774974 0.574854 0.490450
0.798441 0.599282 0.516291
0.823023 0.626199 0.539240
0.843757 0.654509 0.566084
0.863870 0.684036 0.599589
0.886464 0.713644 0.627700
0.321379 0.522816 0.417992
0.323941 0.522816 0.417992
0.326502 0.523984 0.417992
0.327634 0.525152 0.417992
0.329882 0.525152 0.416932
0.332130 0.526320 0.416932
0.334378 0.526320 0.415872
0.337750 0.527488 0.414812
0.341122 0.528656 0.413751
0.346742 0.529824 0.412691
0.354618 0.530992 0.409367
0.364749 0.530992 0.405990
0.376007 0.530992 0.400361
0.394502 0.532160 0.392481
0.419947 0.533328 0.382349
0.446576 0.532160 0.367715
0.475640 0.533328 0.352915
0.505661 0.533328 0.338821
0.536028 0.530992 0.322170
0.564555 0.529824 0.301676
0.591426 0.528656 0.328574
0.617097 0.532160 0.356457
0.644178 0.532160 0.383475
0.672478 0.533328 0.400361
0.697538 0.533328 0.423293
0.725931 0.545007 0.444496
0.752054 0.559012 0.465699
0.774973 0.580961 0.492603
0.799387 0.602948 0.517368
0.823023 0.629892 0.541576
0.843757 0.656969 0.567250
0.863870 0.686446 0.600811
0.886464 0.714827 0.628922
0.352366 0.552013 0.446617
0.353492 0.552013 0.446617
0.354618 0.553179 0.445557
0.355743 0.553179 0.445557
0.356869 0.553179 0.445557
0.359121 0.554346 0.444496
0.360246 0.554346 0.444496
0.361372 0.554346 0.444496
0.364749 0.555512 0.443436
0.368127 0.555512 0.440256
0.373755 0.555512 0.438135
0.381636 0.556679 0.436015
0.392382 0.559012 0.434955
0.407225 0.561419 0.430714
0.425248 0.560198 0.420112
0.446576 0.560198 0.411618
0.474563 0.560198 0.398110
0.504493 0.561419 0.386852
0.537196 0.562640 0.371092
0.564555 0.561419 0.355331
0.593868 0.556679 0.340102
0.619559 0.559012 0.365463
0.645409 0.559012 0.391355
0.674939 0.561419 0.411618
0.699902 0.561419 0.432835
0.727114 0.562640 0.451917
0.752054 0.572412 0.469998
0.776065 0.590733 0.495832
0.800333 0.609060 0.519521
0.823023 0.634816 0.545080
0.843757 0.659430 0.568417
0.863870 0.688810 0.600811
0.886464 0.716010 0.628922
0.378258 0.577297 0.473228
0.379384 0.577297 0.472151
0.381636 0.578519 0.472151
0.381636 0.578519 0.472151
0.382761 0.578519 0.472151
0.383887 0.579740 0.472151
0.384960 0.579740 0.472151
0.387081 0.580961 0.471075
0.389201 0.582183 0.471075
0.393442 0.583404 0.469999
0.397683 0.584625 0.468922
0.404044 0.585847 0.466769
0.412526 0.587068 0.464638
0.424188 0.589511 0.462518
0.435850 0.589511 0.458278
0.449806 0.590733 0.448737
0.474563 0.591954 0.438135
0.503325 0.590732 0.426473
0.531356 0.591954 0.413751
0.565776 0.591954 0.400361
0.597533 0.593175 0.387978
0.623252 0.585847 0.369966
0.650333 0.585847 0.396984
0.676169 0.589511 0.419052
0.702268 0.590732 0.438135
0.728297 0.593175 0.459338
0.754236 0.594397 0.477533
0.777156 0.602948 0.500138
0.801278 0.618838 0.524056
0.823968 0.643433 0.548584
0.843757 0.664351 0.569583
0.864708 0.691173 0.602033
0.886464 0.718377 0.630145
0.410405 0.609060 0.500138
0.411466 0.609060 0.500138
0.411466 0.609060 0.500138
0.412526 0.609060 0.500138
0.412526 0.609060 0.500138
0.413586 0.609060 0.500138
0.413586 0.609060 0.500138
0.414646 0.610282 0.500138
0.415706 0.610282 0.500138
0.418887 0.610282 0.499062
0.421007 0.611504 0.499062
0.426308 0.613949 0.499062
0.430549 0.613949 0.497985
0.435849 0.615171 0.494756
0.446576 0.617616 0.492603
0.459493 0.621282 0.488298
0.481022 0.620060 0.479686
0.503325 0.621282 0.469998
0.531356 0.621282 0.459338
0.568219 0.620060 0.446617
0.596311 0.622506 0.432835
0.624483 0.620060 0.420112
0.651563 0.615171 0.408241
0.680991 0.617615 0.425413
0.705817 0.617615 0.447677
0.731847 0.620060 0.466769
0.757511 0.621282 0.485068
0.780431 0.622506 0.506599
0.802224 0.632354 0.528728
0.823968 0.652048 0.552085
0.844594 0.670503 0.571916
0.864708 0.695901 0.604478
0.887214 0.720743 0.631367
0.437970 0.639740 0.531064
0.437970 0.639740 0.529896
0.437970 0.639740 0.529896
0.439041 0.640971 0.529896
0.439041 0.640971 0.529896
0.439041 0.640971 0.529896
0.440117 0.640971 0.529896
0.440117 0.640971 0.529896
0.441194 0.640971 0.529896
0.442270 0.642202 0.528728
0.445500 0.642202 0.528728
0.447653 0.643433 0.528728
0.451958 0.644664 0.527560
0.457340 0.645895 0.525224
0.465952 0.647126 0.522889
0.478869 0.649588 0.519521
0.492862 0.652048 0.515214
0.507997 0.650818 0.508753
0.531356 0.652048 0.499062
0.563333 0.652048 0.486145
0.595090 0.654509 0.473228
0.625714 0.653279 0.461458
0.656485 0.652048 0.450857
0.683355 0.649587 0.433895
0.708184 0.649588 0.456158
0.734213 0.650818 0.476457
0.758602 0.652048 0.493680
0.781522 0.655739 0.516291
0.803169 0.655739 0.534568
0.823968 0.665582 0.554418
0.846269 0.679115 0.575416
0.865547 0.700629 0.606922
0.887214 0.725476 0.632589
0.464875 0.666812 0.556751
0.464875 0.668042 0.556751
0.464875 0.668042 0.556751
0.465952 0.668042 0.556751
0.465952 0.668042 0.556751
0.465952 0.668042 0.556751
0.468105 0.668042 0.556751
0.468105 0.668042 0.556751
0.469181 0.669272 0.556751
0.470257 0.669272 0.556751
0.472410 0.670503 0.556751
0.474563 0.670503 0.556751
0.477792 0.672963 0.556751
0.483174 0.674194 0.556751
0.489633 0.676654 0.555585
0.496319 0.677885 0.553251
0.505661 0.679115 0.550918
0.520845 0.680345 0.547416
0.538364 0.681575 0.539240
0.564555 0.681575 0.527560
0.595090 0.682806 0.514137
0.626945 0.681575 0.503369
0.657715 0.686446 0.491527
0.686901 0.681575 0.475381
0.711733 0.676654 0.461458
0.737763 0.679115 0.485068
0.762968 0.679115 0.503369
0.785888 0.682806 0.524056
0.806951 0.682806 0.546248
0.826804 0.684036 0.559084
0.847944 0.692355 0.580082
0.866385 0.711278 0.609366
0.887214 0.732575 0.636256
0.495152 0.698265 0.588596
0.496319 0.698265 0.588596
0.496319 0.698265 0.588596
0.496319 0.698265 0.588596
0.496319 0.698265 0.588596
0.496319 0.698265 0.588596
0.496319 0.698265 0.588596
0.497487 0.698265 0.588596
0.497487 0.698265 0.588596
0.498654 0.699447 0.588596
0.498654 0.699447 0.588596
0.499821 0.700629 0.588596
0.502157 0.700629 0.588596
0.505661 0.701812 0.586153
0.509165 0.704179 0.586153
0.517341 0.706545 0.586154
