Assets/Lutify-Free-LUTs-Pack/Lutify Free LUTs Pack/Commercial Pro - Claire/Lutify.me-Claire-DJIDlog-to-Rec709.cube
# Created with: fylm.ai - Colour Grading and Collaboration Software in Cloud 
# Website: https://fylm.ai 
# META
# Option: Gamut compress
# Block 1: IDT | DJI D-Gamut D-Log
# Block 2: colourMatch | Blending Mode: Normal | {"ColorSpace":0,"CrossCovarianceLimit":50,"ReshapingIterations":1,"PercentSaturationShift":100,"PercentShadingShift":100,"ExtraShading":true,"PercentTint":100,"PercentModified":100}
# Block 3: HSL | Blending Mode: Normal | {"hue":{"Reds":0,"Yellows":0,"Greens":0,"Cyans":0,"Blues":0,"Magentas":0},"saturation":{"Reds":1,"Yellows":1,"Greens":1,"Cyans":1,"Blues":1,"Magentas":1},"luminance":{"Reds":0.9,"Yellows":0.9,"Greens":0.9,"Cyans":0.8,"Blues":0.8,"Magentas":0.9},"lum_sat":{"Blacks":1,"Shadows":1,"Midtones":1,"Highlights":1,"Whites":1},"sat_sat":{"10":1,"20":1,"30":1,"40":1,"50":1}}
# Block 4: subtractiveColour | Blending Mode: Normal | {"sliders":{"gainY":0.1,"C":0.05,"M":0.05,"Y":0.05}}
# Block 5: logPrimaries | Blending Mode: Normal | {"wheels":{"shadows":{"Y":"0","R":"1","G":"1","B":"1"},"midtones":{"Y":"0","R":"1","G":"1","B":"1"},"highlights":{"Y":"0","R":"1","G":"1","B":"1"},"offset":{"Y":"0","R":"1","G":"1","B":"1"}},"sliders":{"shadows":{"Y":0,"R":-0.05,"G":0,"B":0.1},"midtones":{"Y":0,"R":0,"G":0,"B":0},"highlights":{"Y":0,"R":0,"G":0,"B":0},"offset":{"Y":0,"R":0,"G":0,"B":0}}}
# Block 6: LUT | Filmic Curve Response: Standard Contrast 1 (100%)
# Block 7: LUT | Illuminant: D93 (100%)
# Block 8: LUT | Neutral Tint: Teal Tint 4 (100%)
# Block 9: ODT | Rec709
TITLE "Lutify.me-Claire-DJIDlog-to-Rec709" 
LUT_3D_SIZE 33
0.000000 0.000000 0.000000
0.000000 0.000000 0.000000
0.024448 0.000000 0.000000
0.000000 0.000000 0.013418
0.060654 0.000000 0.000000
0.229370 0.000000 0.000000
0.268483 0.000000 0.000000
0.306246 0.000000 0.000000
0.354103 0.000000 0.000000
0.392767 0.000000 0.000000
0.426586 0.000000 0.000000
0.453322 0.000000 0.000000
0.481997 0.000000 0.000000
0.515924 0.000000 0.000000
0.548118 0.000000 0.000000
0.585411 0.000000 0.000000
0.636198 0.000000 0.000000
0.701010 0.000000 0.000000
0.769727 0.000000 0.000000
0.845051 0.000000 0.000000
0.916220 0.000000 0.000000
0.978258 0.000000 0.055708
1.000000 0.121687 0.094453
1.000000 0.245175 0.136340
1.000000 0.344040 0.177117
1.000000 0.431003 0.229103
1.000000 0.531421 0.285016
1.000000 0.608342 0.345961
1.000000 0.686149 0.419280
1.000000 0.751176 0.487865
1.000000 0.810822 0.561605
1.000000 0.849682 0.630477
1.000000 0.884153 0.708663
0.000000 0.000000 0.000000
0.000000 0.000000 0.000000
0.061549 0.000000 0.000000
0.000000 0.000000 0.000000
0.060254 0.000000 0.000000
0.213100 0.000000 0.000000
0.253741 0.000000 0.000000
0.288293 0.000000 0.000000
0.333126 0.000000 0.000000
0.372905 0.000000 0.000000
0.404809 0.000000 0.000000
0.430041 0.000000 0.000000
0.464121 0.000000 0.000000
0.500962 0.000000 0.000000
0.544232 0.000000 0.000000
0.585487 0.000000 0.000000
0.640525 0.000000 0.000000
0.701064 0.000000 0.000000
0.769715 0.000000 0.000000
0.844986 0.000000 0.000000
0.916059 0.000000 0.000000
0.977978 0.000000 0.053557
1.000000 0.131623 0.093679
1.000000 0.250476 0.135721
1.000000 0.348410 0.176573
1.000000 0.431003 0.229103
1.000000 0.531421 0.285016
1.000000 0.608342 0.345961
1.000000 0.689313 0.419109
1.000000 0.751176 0.487865
1.000000 0.810822 0.561605
1.000000 0.849670 0.633420
1.000000 0.884153 0.708663
0.000000 0.000000 0.000000
0.000000 0.000000 0.000000
0.000000 0.000000 0.000000
0.000000 0.000000 0.000000
0.060544 0.000000 0.000000
0.199919 0.000000 0.000000
0.237892 0.000000 0.000000
0.272947 0.000000 0.000000
0.313403 0.000000 0.000000
0.354279 0.000000 0.000000
0.384341 0.000000 0.000000
0.414353 0.000000 0.000000
0.447019 0.000000 0.000000
0.497362 0.000000 0.000000
0.548383 0.000000 0.000000
0.589705 0.000000 0.000000
0.640617 0.000000 0.000000
0.701105 0.000000 0.000000
0.769697 0.000000 0.000000
0.844919 0.000000 0.000000
0.919861 0.000000 0.000000
0.977834 0.000000 0.052401
1.000000 0.140774 0.092882
1.000000 0.255716 0.135087
1.000000 0.348410 0.176573
1.000000 0.435727 0.231861
1.000000 0.535220 0.284640
1.000000 0.608342 0.345961
1.000000 0.689313 0.419109
1.000000 0.751176 0.487865
1.000000 0.810822 0.561605
1.000000 0.849670 0.633420
1.000000 0.884153 0.708663
0.000000 0.000000 0.000000
0.000000 0.000000 0.000000
0.000000 0.000000 0.000000
0.000000 0.000000 0.000000
0.045503 0.000000 0.000000
0.177719 0.000000 0.000000
0.215514 0.000000 0.000000
0.256015 0.000000 0.000000
0.297326 0.000000 0.000000
0.336014 0.000000 0.000000
0.373407 0.000000 0.000000
0.408406 0.000000 0.000000
0.443814 0.000000 0.000000
0.501253 0.000000 0.000000
0.544471 0.000000 0.000000
0.585693 0.000000 0.000000
0.640703 0.000000 0.000000
0.709825 0.000000 0.000000
0.769685 0.000000 0.000000
0.844849 0.000000 0.000000
0.919779 0.000000 0.000000
0.977688 0.000000 0.051179
1.000000 0.149321 0.092057
1.000000 0.255716 0.135087
1.000000 0.348410 0.176573
1.000000 0.435727 0.231861
1.000000 0.535220 0.284640
1.000000 0.611972 0.345676
1.000000 0.689313 0.419109
1.000000 0.751167 0.490799
1.000000 0.810822 0.561605
1.000000 0.849670 0.633420
1.000000 0.884153 0.708663
0.000000 0.047608 0.000000
0.000000 0.046891 0.000000
0.000000 0.046858 0.000000
0.000000 0.046954 0.000000
0.027512 0.041245 0.000000
0.157608 0.000000 0.000000
0.192692 0.000000 0.000000
0.232506 0.000000 0.000000
0.276034 0.000000 0.000000
0.314047 0.000000 0.000000
0.360147 0.000000 0.000000
0.402542 0.000000 0.000000
0.434126 0.000000 0.000000
0.497696 0.000000 0.000000
0.544603 0.000000 0.000000
0.581683 0.000000 0.000000
0.640801 0.000000 0.000000
0.709864 0.000000 0.000000
0.769665 0.000000 0.000000
0.849330 0.000000 0.000000
0.919615 0.000000 0.000000
0.977538 0.000000 0.049890
1.000000 0.157381 0.095850
1.000000 0.260892 0.134436
1.000000 0.352761 0.176019
1.000000 0.435727 0.231861
1.000000 0.535220 0.284640
1.000000 0.611972 0.345676
1.000000 0.689313 0.419109
1.000000 0.756629 0.490685
1.000000 0.810822 0.561605
1.000000 0.849670 0.633420
1.000000 0.884153 0.708663
0.000000 0.105735 0.000000
0.000000 0.105661 0.000000
0.000000 0.101816 0.000000
0.000000 0.099261 0.000000
0.000000 0.094106 0.000000
0.148882 0.070800 0.000000
0.185336 0.058462 0.000000
0.223439 0.037451 0.000000
0.270450 0.000000 0.000000
0.305608 0.000000 0.000000
0.348243 0.000000 0.000000
0.388982 0.000000 0.000000
0.431860 0.000000 0.000000
0.494781 0.000000 0.000000
0.545236 0.000000 0.000000
0.586295 0.000000 0.000000
0.645423 0.000000 0.000000
0.714308 0.000000 0.000000
0.769625 0.000000 0.000000
0.849133 0.000000 0.000000
0.919360 0.000000 0.000000
0.980219 0.000000 0.049264
1.000000 0.179065 0.093752
1.000000 0.271043 0.135242
1.000000 0.357092 0.177760
1.000000 0.443671 0.230971
1.000000 0.539019 0.284260
1.000000 0.611965 0.348639
1.000000 0.689313 0.419109
1.000000 0.756629 0.490685
1.000000 0.810822 0.561605
1.000000 0.849670 0.633420
1.000000 0.885541 0.708809
0.000000 0.125146 0.000000
0.000000 0.123604 0.000000
0.000000 0.122039 0.000000
0.000000 0.116267 0.000000
0.000000 0.110326 0.000000
0.150048 0.090927 0.000000
0.187255 0.079506 0.000000
0.225042 0.066697 0.000000
0.268393 0.040351 0.000000
0.308331 0.000000 0.000000
0.351449 0.000000 0.000000
0.392533 0.000000 0.000000
0.432504 0.000000 0.000000
0.491722 0.000000 0.000000
0.545747 0.000000 0.000000
0.586626 0.000000 0.000000
0.645610 0.000000 0.000000
0.714358 0.000000 0.000000
0.774338 0.000000 0.000000
0.849051 0.000000 0.000000
0.919179 0.000000 0.000000
0.980056 0.000000 0.047783
1.000000 0.185914 0.092849
1.000000 0.271043 0.135242
1.000000 0.361407 0.177199
1.000000 0.443671 0.230971
1.000000 0.539818 0.285042
1.000000 0.615596 0.348357
1.000000 0.692591 0.418934
1.000000 0.756629 0.490685
1.000000 0.812938 0.561661
1.000000 0.850007 0.634343
1.000000 0.885541 0.708809
0.000000 0.149013 0.000000
0.000000 0.144248 0.000000
0.000000 0.141131 0.000000
0.000000 0.139616 0.000000
0.000000 0.131909 0.000000
0.146456 0.117258 0.000000
0.182115 0.110481 0.000000
0.222994 0.099342 0.000000
0.272400 0.079135 0.000000
0.311320 0.054581 0.000000
0.352345 0.000000 0.000000
0.390526 0.000000 0.000000
0.436748 0.000000 0.000000
0.496278 0.000000 0.000000
0.546578 0.000000 0.000000
0.583270 0.000000 0.000000
0.645882 0.000000 0.000000
0.710133 0.000000 0.000000
0.774317 0.000000 0.000000
0.848880 0.000000 0.000000
0.918996 0.000000 0.000000
0.979551 0.000000 0.042661
1.000000 0.192553 0.094356
1.000000 0.276030 0.134565
1.000000 0.365706 0.176627
1.000000 0.447636 0.230517
1.000000 0.543606 0.284660
1.000000 0.615596 0.348357
1.000000 0.692591 0.418934
1.000000 0.756629 0.490685
1.000000 0.812938 0.561661
1.000000 0.851806 0.634465
1.000000 0.885541 0.708809
0.000000 0.173046 0.000000
0.000000 0.171146 0.000000
0.000000 0.163930 0.000000
0.000000 0.162116 0.000000
0.000000 0.154964 0.000000
0.139958 0.143985 0.000000
0.179578 0.137856 0.000000
0.229303 0.127337 0.000000
0.275869 0.109470 0.000000
0.319191 0.090659 0.000000
0.361419 0.073956 0.000000
0.394734 0.042230 0.000000
0.447970 0.000000 0.000000
0.504907 0.000000 0.000000
0.551488 0.000000 0.000000
0.588162 0.000000 0.000000
0.650516 0.000000 0.000000
0.710330 0.000000 0.000000
0.774300 0.000000 0.000000
0.848667 0.000000 0.000000
0.918610 0.000000 0.000000
0.979198 0.000000 0.038475
1.000000 0.211459 0.091462
1.000000 0.285847 0.133167
1.000000 0.369988 0.176047
1.000000 0.451597 0.230058
1.000000 0.547394 0.284276
1.000000 0.619227 0.348074
1.000000 0.692591 0.418934
1.000000 0.756629 0.490685
1.000000 0.812928 0.564579
1.000000 0.851806 0.634465
1.000000 0.885541 0.708809
0.000000 0.200571 0.000000
0.000000 0.194321 0.000000
0.000000 0.192271 0.000000
0.000000 0.188134 0.000000
0.000000 0.183906 0.000000
0.140487 0.170315 0.000000
0.180317 0.164279 0.000000
0.227147 0.155749 0.000000
0.275288 0.140933 0.000000
0.327019 0.123997 0.000000
0.370623 0.108986 0.000000
0.408133 0.093925 0.000000
0.456449 0.071995 0.000000
0.513775 0.000000 0.000000
0.560785 0.000000 0.000000
0.593374 0.000000 0.000000
0.655605 0.000000 0.000000
0.710624 0.000000 0.000000
0.774294 0.000000 0.000000
0.852877 0.000000 0.000000
0.918082 0.000000 0.000000
0.978250 0.112619 0.029435
1.000000 0.228281 0.088418
1.000000 0.290956 0.132929
1.000000 0.374256 0.175456
1.000000 0.455554 0.229593
1.000000 0.551178 0.286518
1.000000 0.619227 0.348074
1.000000 0.695981 0.418756
1.000000 0.759322 0.490637
1.000000 0.812928 0.564579
1.000000 0.851806 0.634465
1.000000 0.885541 0.708809
0.000000 0.227940 0.000000
0.000000 0.222170 0.000000
0.000000 0.219891 0.000000
0.000000 0.219624 0.000000
0.000000 0.217053 0.000000
0.123231 0.200209 0.000000
0.176530 0.193319 0.000000
0.224528 0.185274 0.000000
0.274034 0.175418 0.000000
0.327845 0.162795 0.000000
0.379925 0.142671 0.000000
0.425174 0.127264 0.000000
0.472048 0.112451 0.000000
0.523242 0.097609 0.000000
0.570347 0.079492 0.000000
0.607044 0.086649 0.000000
0.656679 0.085469 0.000000
0.715501 0.061452 0.000000
0.779014 0.000000 0.000000
0.852445 0.000000 0.000000
0.921172 0.042230 0.000000
0.977215 0.156185 0.000000
1.000000 0.244297 0.085030
1.000000 0.305199 0.132938
1.000000 0.382751 0.174245
1.000000 0.459502 0.231756
1.000000 0.554966 0.286133
1.000000 0.622860 0.347790
1.000000 0.695973 0.421856
1.000000 0.759322 0.490637
1.000000 0.812928 0.564579
1.000000 0.851806 0.634465
1.000000 0.885541 0.708809
0.000000 0.251836 0.000000
0.000000 0.249606 0.000000
0.000000 0.249420 0.000000
0.000000 0.249193 0.000000
0.000000 0.248684 0.000000
0.092815 0.233015 0.000000
0.156633 0.230972 0.000000
0.222306 0.221075 0.000000
0.271700 0.212680 0.000000
0.322400 0.200533 0.000000
0.379057 0.187015 0.000000
0.430117 0.171812 0.000000
0.488683 0.156884 0.000000
0.540865 0.143552 0.000000
0.584257 0.138137 0.000000
0.624871 0.139324 0.000000
0.662439 0.158767 0.000000
0.720551 0.146838 0.000000
0.779190 0.147071 0.000000
0.851837 0.133696 0.000000
0.919955 0.147586 0.000000
0.978915 0.195345 0.000000
1.000000 0.264836 0.079836
1.000000 0.323695 0.129779
1.000000 0.391698 0.175959
1.000000 0.471437 0.230322
1.000000 0.558754 0.285746
1.000000 0.626493 0.347504
1.000000 0.699341 0.421683
1.000000 0.761989 0.490594
1.000000 0.815031 0.564639
1.000000 0.851806 0.634465
1.000000 0.885541 0.708809
0.000000 0.285220 0.000000
0.000000 0.285073 0.000000
0.000000 0.284891 0.000000
0.000000 0.279845 0.000000
0.000000 0.279382 0.000000
0.000000 0.272222 0.000000
0.131680 0.270514 0.000000
0.207159 0.263002 0.000000
0.268453 0.252159 0.000000
0.317840 0.243139 0.000000
0.373117 0.234499 0.000000
0.429339 0.221568 0.000000
0.498176 0.198570 0.000000
0.566173 0.176572 0.000000
0.598336 0.183024 0.000000
0.643020 0.186572 0.000000
0.676378 0.205324 0.000000
0.739047 0.214463 0.000000
0.784077 0.222234 0.000000
0.855127 0.213547 0.000000
0.918013 0.218497 0.000000
0.976855 0.239690 0.000000
1.000000 0.289459 0.071933
1.000000 0.341993 0.124431
1.000000 0.412580 0.170256
1.000000 0.479427 0.232022
1.000000 0.562542 0.285355
1.000000 0.630127 0.347218
1.000000 0.702685 0.421516
1.000000 0.765173 0.491539
1.000000 0.817120 0.564704
1.000000 0.855354 0.634728
1.000000 0.888293 0.709114
0.000000 0.328766 0.000000
0.000000 0.325824 0.000000
0.000000 0.320107 0.000000
0.000000 0.319837 0.000000
0.000000 0.319401 0.000000
0.000000 0.314718 0.000000
0.092764 0.313295 0.000000
0.177762 0.311440 0.000000
0.242342 0.306125 0.000000
0.309121 0.293937 0.000000
0.364077 0.283904 0.000000
0.426745 0.271639 0.000000
0.494702 0.254210 0.000000
0.576529 0.225406 0.000000
0.628250 0.220440 0.000000
0.661151 0.233126 0.000000
0.694241 0.250791 0.000000
0.744393 0.263069 0.000000
0.788869 0.281124 0.000000
0.857817 0.282758 0.000000
0.918857 0.283397 0.000000
0.973926 0.288318 0.000000
1.000000 0.326697 0.054905
1.000000 0.368385 0.121082
1.000000 0.429581 0.168015
1.000000 0.495375 0.230002
1.000000 0.573906 0.284164
1.000000 0.637355 0.346649
1.000000 0.706006 0.421353
1.000000 0.767764 0.494444
1.000000 0.817120 0.564704
1.000000 0.855354 0.634728
1.000000 0.888293 0.709114
0.000000 0.370880 0.000000
0.000000 0.370688 0.000000
0.000000 0.367511 0.000000
0.000000 0.364310 0.000000
0.000000 0.364020 0.000000
0.000000 0.362392 0.000000
0.000000 0.361355 0.000000
0.116503 0.360102 0.000000
0.203346 0.358191 0.000000
0.288001 0.348913 0.000000
0.347603 0.336574 0.000000
0.413584 0.325722 0.000000
0.497352 0.308294 0.000000
0.568916 0.292719 0.000000
0.642110 0.274532 0.000000
0.690812 0.272754 0.000000
0.723722 0.292045 0.000000
0.758269 0.312235 0.000000
0.810809 0.331418 0.000000
0.860004 0.339995 0.000000
0.918533 0.348339 0.000000
0.974577 0.355323 0.000000
1.000000 0.371003 0.023901
1.000000 0.394197 0.119960
1.000000 0.454148 0.166019
1.000000 0.515247 0.230138
1.000000 0.585267 0.282948
1.000000 0.644514 0.346089
1.000000 0.712569 0.424014
1.000000 0.770337 0.494422
1.000000 0.819195 0.564774
1.000000 0.857103 0.634869
1.000000 0.889645 0.711854
0.000000 0.421046 0.000000
0.000000 0.420841 0.000000
0.000000 0.420623 0.000000
0.000000 0.420432 0.000000
0.000000 0.416777 0.000000
0.000000 0.415652 0.000000
0.000000 0.411646 0.000000
0.000000 0.410832 0.000000
0.152078 0.409466 0.000000
0.243710 0.407495 0.000000
0.312712 0.401679 0.000000
0.391936 0.384087 0.000000
0.480117 0.367496 0.000000
0.567252 0.352137 0.000000
0.637002 0.336777 0.000000
0.703456 0.320268 0.000000
0.754050 0.323466 0.000000
0.780166 0.354542 0.000000
0.818298 0.381539 0.000000
0.872777 0.399011 0.000000
0.924587 0.401649 0.000000
0.970256 0.427305 0.000000
1.000000 0.434797 0.000000
1.000000 0.449442 0.108147
1.000000 0.496018 0.161487
1.000000 0.539539 0.230368
1.000000 0.600407 0.284015
1.000000 0.655117 0.345266
1.000000 0.719040 0.423727
1.000000 0.777883 0.497336
1.000000 0.823291 0.567851
1.000000 0.858834 0.635016
1.000000 0.891001 0.712014
0.000000 0.483371 0.000000
0.000000 0.483172 0.000000
0.000000 0.482988 0.000000
0.000000 0.482688 0.000000
0.000000 0.482393 0.000000
0.000000 0.478111 0.000000
0.000000 0.477718 0.000000
0.000000 0.473607 0.000000
0.000000 0.472599 0.000000
0.167465 0.471049 0.000000
0.263600 0.469100 0.000000
0.354565 0.462453 0.000000
0.452929 0.453883 0.000000
0.538126 0.437090 0.000000
0.612253 0.423244 0.000000
0.690815 0.403821 0.000000
0.770533 0.386615 0.000000
0.822091 0.399826 0.000000
0.840038 0.441891 0.000000
0.875639 0.466897 0.000000
0.924426 0.471152 0.000000
0.972152 0.481169 0.000000
1.000000 0.506000 0.000000
1.000000 0.516352 0.082943
1.000000 0.540656 0.156648
1.000000 0.572023 0.230129
1.000000 0.623702 0.285105
1.000000 0.673002 0.347892
1.000000 0.732200 0.424134
1.000000 0.782769 0.500301
1.000000 0.825681 0.568864
1.000000 0.862233 0.638256
1.000000 0.892348 0.712179
0.000000 0.556526 0.000000
0.000000 0.556361 0.000000
0.000000 0.556191 0.000000
0.000000 0.556000 0.000000
0.000000 0.552077 0.000000
0.000000 0.551496 0.000000
0.000000 0.551232 0.000000
0.000000 0.550787 0.000000
0.000000 0.550098 0.000000
0.000000 0.545147 0.000000
0.129480 0.543892 0.000000
0.281185 0.541477 0.000000
0.403544 0.533748 0.000000
0.495458 0.529321 0.000000
0.572555 0.509227 0.000000
0.665922 0.494140 0.000000
0.749558 0.474509 0.000000
0.839357 0.453312 0.000000
0.864036 0.479276 0.000000
0.888099 0.518524 0.000000
0.920376 0.532693 0.000000
0.968148 0.547175 0.000000
1.000000 0.559587 0.000000
1.000000 0.585863 0.000000
1.000000 0.597447 0.152568
1.000000 0.618880 0.229013
1.000000 0.649847 0.285026
1.000000 0.690415 0.349709
1.000000 0.747782 0.424591
1.000000 0.792741 0.501379
1.000000 0.831640 0.572069
1.000000 0.863911 0.638421
1.000000 0.893688 0.712350
0.000000 0.620496 0.000000
0.000000 0.620404 0.000000
0.000000 0.620259 0.000000
0.000000 0.620156 0.000000
0.000000 0.619995 0.000000
0.000000 0.619509 0.000000
0.000000 0.619304 0.000000
0.000000 0.618931 0.000000
0.000000 0.618427 0.000000
0.000000 0.617668 0.000000
0.000000 0.616682 0.000000
0.155737 0.614895 0.000000
0.329487 0.608173 0.000000
0.427171 0.605051 0.000000
0.525539 0.600706 0.000000
0.619733 0.587497 0.000000
0.719583 0.568416 0.000000
0.811307 0.548622 0.000000
0.879923 0.530618 0.000000
0.896650 0.553996 0.000000
0.929744 0.589037 0.000000
0.961414 0.604250 0.000000
0.992433 0.620557 0.000000
1.000000 0.638082 0.000000
1.000000 0.652963 0.131287
1.000000 0.672849 0.224403
1.000000 0.690571 0.284558
1.000000 0.718521 0.351998
1.000000 0.768018 0.428139
1.000000 0.804299 0.504584
1.000000 0.837469 0.572411
1.000000 0.868826 0.641879
1.000000 0.896329 0.715254
0.000000 0.688786 0.000000
0.000000 0.688669 0.000000
0.000000 0.688546 0.000000
0.000000 0.688419 0.000000
0.000000 0.692063 0.000000
0.000000 0.691699 0.000000
0.000000 0.695227 0.000000
0.000000 0.694979 0.000000
0.000000 0.694632 0.000000
0.000000 0.698173 0.000000
0.000000 0.693052 0.000000
0.000000 0.691859 0.000000
0.217330 0.689828 0.000000
0.356923 0.683486 0.000000
0.468668 0.680081 0.000000
0.570915 0.675776 0.000000
0.682035 0.657992 0.000000
0.773595 0.643786 0.000000
0.844290 0.626449 0.000000
0.898815 0.614469 0.000000
0.929503 0.637266 0.000000
0.957065 0.664905 0.000000
0.983680 0.681449 0.000000
1.000000 0.702083 0.000000
1.000000 0.711555 0.103991
1.000000 0.731764 0.208469
1.000000 0.745853 0.290114
1.000000 0.759612 0.357578
1.000000 0.789381 0.436077
1.000000 0.815805 0.505986
1.000000 0.845210 0.575881
1.000000 0.873585 0.642471
1.000000 0.899132 0.716354
0.000000 0.765339 0.000000
0.000000 0.765190 0.000000
0.000000 0.765114 0.000000
0.000000 0.768618 0.000000
0.000000 0.768457 0.000000
0.000000 0.768028 0.000000
0.000000 0.767843 0.000000
0.000000 0.771102 0.000000
0.000000 0.770689 0.000000
0.000000 0.773643 0.000000
0.000000 0.772784 0.000000
0.000000 0.768167 0.000000
0.000000 0.766781 0.000000
0.295638 0.764638 0.000000
0.406140 0.758785 0.000000
0.516270 0.758837 0.000000
0.620814 0.754455 0.000000
0.731369 0.748581 0.000000
0.803225 0.740539 0.000000
0.868052 0.721487 0.000000
0.931189 0.702235 0.000000
0.956111 0.720571 0.000000
0.974349 0.745241 0.000000
0.998024 0.752220 0.000000
1.000000 0.768929 0.051139
1.000000 0.779197 0.204353
1.000000 0.794650 0.290685
1.000000 0.802387 0.368657
1.000000 0.815494 0.440135
1.000000 0.830953 0.507873
1.000000 0.856731 0.580762
1.000000 0.879649 0.646275
1.000000 0.902971 0.719443
0.000000 0.827702 0.000000
0.000000 0.827600 0.000000
0.000000 0.827498 0.000000
0.000000 0.827393 0.000000
0.000000 0.827287 0.000000
0.000000 0.826847 0.000000
0.000000 0.829387 0.000000
0.000000 0.829151 0.000000
0.000000 0.826013 0.000000
0.000000 0.825499 0.000000
0.000000 0.824956 0.000000
0.000000 0.824236 0.000000
0.000000 0.823302 0.000000
0.233307 0.824170 0.000000
0.369370 0.822000 0.000000
0.497201 0.818617 0.000000
0.596991 0.814957 0.000000
0.700374 0.810156 0.000000
0.780111 0.802979 0.000000
0.846018 0.790307 0.000000
0.908536 0.780378 0.000000
0.953516 0.771853 0.000000
0.973480 0.783259 0.000000
0.987207 0.799637 0.000000
1.000000 0.810089 0.000000
1.000000 0.815802 0.192863
1.000000 0.826715 0.297892
1.000000 0.833070 0.377518
1.000000 0.846116 0.447189
1.000000 0.855270 0.517203
1.000000 0.868961 0.582369
1.000000 0.888495 0.651559
1.000000 0.907066 0.721507
0.000000 0.868667 0.000000
0.000000 0.868539 0.000000
0.000000 0.868411 0.000000
0.000000 0.868411 0.000000
0.000000 0.868280 0.000000
0.000000 0.865452 0.000000
0.000000 0.865314 0.000000
0.000000 0.865174 0.000000
0.000000 0.864890 0.000000
0.000000 0.864597 0.000000
0.000000 0.866414 0.000000
0.000000 0.865770 0.000000
0.115796 0.864746 0.000000
0.247380 0.868447 0.000000
0.383948 0.866261 0.000000
0.489859 0.863594 0.000000
0.591602 0.855403 0.000000
0.689205 0.851180 0.000000
0.765130 0.852068 0.000000
0.827200 0.848538 0.000000
0.892942 0.837243 0.000000
0.935011 0.829686 0.000000
0.967948 0.820686 0.000000
0.985848 0.827424 0.000000
0.999207 0.843885 0.000000
1.000000 0.852818 0.174504
1.000000 0.859603 0.298212
1.000000 0.862428 0.377772
1.000000 0.872910 0.456720
1.000000 0.878075 0.530203
1.000000 0.889220 0.593104
1.000000 0.898167 0.653615
1.000000 0.914437 0.726010
0.000000 0.902782 0.000000
0.000000 0.904688 0.000000
0.000000 0.904535 0.000000
0.000000 0.904535 0.000000
0.000000 0.904377 0.000000
0.000000 0.904057 0.000000
0.000000 0.903893 0.000000
0.000000 0.903731 0.000000
0.000000 0.903569 0.000000
0.000000 0.905111 0.000000
0.000000 0.904767 0.000000
0.175274 0.904239 0.000000
0.301684 0.902936 0.000000
0.373149 0.901744 0.000000
0.442853 0.898371 0.000000
0.525453 0.896077 0.000000
0.601786 0.893451 0.000000
0.690927 0.887827 0.000000
0.755269 0.888488 0.000000
0.812957 0.885388 0.000000
0.879148 0.881498 0.000000
0.920005 0.873212 0.000000
0.953767 0.867213 0.000000
0.982086 0.859652 0.000000
0.995725 0.869240 0.000000
1.000000 0.878205 0.145634
1.000000 0.885033 0.294697
1.000000 0.888567 0.383954
1.000000 0.895229 0.467166
1.000000 0.899137 0.543555
1.000000 0.905977 0.601922
1.000000 0.912585 0.664750
1.000000 0.923644 0.728810
0.181609 0.930048 0.224336
0.181609 0.930048 0.224336
0.205652 0.929868 0.224431
0.205944 0.929872 0.220422
0.245331 0.929507 0.220621
0.278176 0.929139 0.216797
0.278176 0.929139 0.216797
0.293016 0.928954 0.212846
0.306838 0.928763 0.212956
0.332625 0.928380 0.209098
0.354987 0.929477 0.210880
0.387715 0.928880 0.203057
0.417811 0.928270 0.190877
0.471875 0.926985 0.183186
0.522129 0.925594 0.170285
0.577258 0.922356 0.148006
0.650468 0.919624 0.113055
0.700793 0.918971 0.065142
0.761642 0.917554 0.000000
0.816932 0.914654 0.000000
0.868313 0.910238 0.000000
0.908763 0.907799 0.000000
0.942202 0.904235 0.000000
0.970164 0.901036 0.000000
0.992309 0.895260 0.000000
1.000000 0.896222 0.063294
1.000000 0.906357 0.274304
1.000000 0.910540 0.391750
1.000000 0.917339 0.475611
1.000000 0.920336 0.556679
1.000000 0.925762 0.620870
1.000000 0.929976 0.680915
1.000000 0.937046 0.737597
0.457775 0.953613 0.331040
0.457775 0.953613 0.331040
0.457775 0.953613 0.331040
0.466527 0.953408 0.327759
0.466527 0.953408 0.327759
