Assets/Lutify-Free-LUTs-Pack/Lutify Free LUTs Pack/Commercial Pro - Claire/Lutify.me-Claire-NLog-to-Rec709.cube
# Created with: fylm.ai - Colour Grading and Collaboration Software in Cloud 
# Website: https://fylm.ai 
# META
# Option: Gamut compress
# Block 1: IDT | Nikon BT2020 N-Log
# Block 2: colourMatch | Blending Mode: Normal | {"ColorSpace":0,"CrossCovarianceLimit":50,"ReshapingIterations":1,"PercentSaturationShift":100,"PercentShadingShift":100,"ExtraShading":true,"PercentTint":100,"PercentModified":100}
# Block 3: HSL | Blending Mode: Normal | {"hue":{"Reds":0,"Yellows":0,"Greens":0,"Cyans":0,"Blues":0,"Magentas":0},"saturation":{"Reds":1,"Yellows":1,"Greens":1,"Cyans":1,"Blues":1,"Magentas":1},"luminance":{"Reds":0.9,"Yellows":0.9,"Greens":0.9,"Cyans":0.8,"Blues":0.8,"Magentas":0.9},"lum_sat":{"Blacks":1,"Shadows":1,"Midtones":1,"Highlights":1,"Whites":1},"sat_sat":{"10":1,"20":1,"30":1,"40":1,"50":1}}
# Block 4: subtractiveColour | Blending Mode: Normal | {"sliders":{"gainY":0.1,"C":0.05,"M":0.05,"Y":0.05}}
# Block 5: logPrimaries | Blending Mode: Normal | {"wheels":{"shadows":{"Y":"0","R":"1","G":"1","B":"1"},"midtones":{"Y":"0","R":"1","G":"1","B":"1"},"highlights":{"Y":"0","R":"1","G":"1","B":"1"},"offset":{"Y":"0","R":"1","G":"1","B":"1"}},"sliders":{"shadows":{"Y":0,"R":-0.05,"G":0,"B":0.1},"midtones":{"Y":0,"R":0,"G":0,"B":0},"highlights":{"Y":0,"R":0,"G":0,"B":0},"offset":{"Y":0,"R":0,"G":0,"B":0}}}
# Block 6: LUT | Filmic Curve Response: Standard Contrast 1 (100%)
# Block 7: LUT | Illuminant: D93 (100%)
# Block 8: LUT | Neutral Tint: Teal Tint 4 (100%)
# Block 9: ODT | Rec709
TITLE "Lutify.me-Claire-NLog-to-Rec709" 
LUT_3D_SIZE 5
0.000000 0.000000 0.000000
0.310987 0.000000 0.000000
0.636342 0.000000 0.000000
1.000000 0.058892 0.137864
1.000000 0.686624 0.477492
0.000000 0.159973 0.000000
0.230011 0.125837 0.000000
0.628877 0.000000 0.000000
1.000000 0.171217 0.142069
1.000000 0.689721 0.480394
0.000000 0.491531 0.173784
0.000000 0.512045 0.060216
0.644160 0.469682 0.000000
1.000000 0.455982 0.158602
1.000000 0.722468 0.492114
0.000000 0.864780 0.553477
0.000000 0.880230 0.546328
0.389663 0.880812 0.436102
0.942612 0.848114 0.279629
1.000000 0.860315 0.567186
0.536334 0.993606 0.892411
0.563919 0.993996 0.892510
0.666396 0.993364 0.891276
0.881749 0.986219 0.851971
1.000000 0.977238 0.771965
0.000000 0.000000 0.126285
0.224273 0.000000 0.072921
0.616058 0.000000 0.082612
1.000000 0.095474 0.172747
1.000000 0.685807 0.485893
0.000000 0.148574 0.236977
0.132137 0.173750 0.241157
0.603168 0.000000 0.102496
1.000000 0.178555 0.178247
1.000000 0.692779 0.489457
0.000000 0.448891 0.372279
0.000000 0.523096 0.329175
0.611882 0.510505 0.149181
1.000000 0.460337 0.212150
1.000000 0.722447 0.498310
0.000000 0.857544 0.607846
0.000000 0.871046 0.600223
0.378368 0.884897 0.510927
0.938211 0.857119 0.346698
1.000000 0.860279 0.579832
0.529350 0.993774 0.895357
0.556400 0.993598 0.895376
0.666139 0.993346 0.894184
0.879262 0.986296 0.858915
1.000000 0.977766 0.778274
0.000000 0.117264 0.355269
0.000000 0.115434 0.393635
0.591676 0.000000 0.346085
1.000000 0.181154 0.394074
1.000000 0.691777 0.548962
0.000000 0.178056 0.432656
0.000000 0.185858 0.467425
0.593254 0.052906 0.440937
1.000000 0.241354 0.405987
1.000000 0.694985 0.552077
0.000000 0.457860 0.651555
0.000000 0.492781 0.684770
0.521139 0.590771 0.707177
0.994292 0.514509 0.492833
1.000000 0.728412 0.561862
0.000000 0.839720 0.809980
0.000000 0.846729 0.806815
0.192416 0.891557 0.789985
0.921046 0.880601 0.663404
1.000000 0.863947 0.642955
0.477127 0.991820 0.913234
0.509829 0.992270 0.913229
0.648727 0.991524 0.913148
0.878646 0.988077 0.890785
1.000000 0.979204 0.817897
0.000000 0.343676 0.750614
0.000000 0.351320 0.760454
0.429942 0.347657 0.792958
1.000000 0.230533 0.749534
1.000000 0.726184 0.785833
0.000000 0.364624 0.770777
0.000000 0.369668 0.780937
0.411643 0.375848 0.807919
1.000000 0.282851 0.772602
1.000000 0.732345 0.788323
0.000000 0.528090 0.844696
0.000000 0.538686 0.849061
0.268914 0.570486 0.878164
0.980181 0.565685 0.862282
1.000000 0.764724 0.797706
0.000000 0.840017 0.921186
0.000000 0.847201 0.923459
0.000000 0.878400 0.933503
0.886085 0.909534 0.937703
1.000000 0.885103 0.854839
0.305449 0.988950 0.964703
0.344515 0.989131 0.964612
0.515196 0.988385 0.962589
0.854526 0.990177 0.961023
0.995685 0.984968 0.927735
0.000000 0.728514 0.963447
0.000000 0.728041 0.964420
0.301438 0.735768 0.967258
0.841737 0.752152 0.970819
1.000000 0.760980 0.958352
0.000000 0.732401 0.964231
0.000000 0.735755 0.964948
0.295645 0.739541 0.967022
0.840276 0.755630 0.971487
1.000000 0.763742 0.959150
0.000000 0.769141 0.967748
0.000000 0.768667 0.967699
0.245296 0.775145 0.970339
0.826618 0.778880 0.973528
1.000000 0.795866 0.964589
0.000000 0.883405 0.978999
0.000000 0.882989 0.978959
0.000000 0.885980 0.981018
0.777605 0.896947 0.987078
1.000000 0.905530 0.980476
0.000000 0.988875 0.995486
0.000000 0.988446 0.995448
0.311666 0.987909 0.996111
0.780995 0.985713 0.997929
0.987661 0.991904 0.999076
