Assets/Lutify-Free-LUTs-Pack/Lutify Free LUTs Pack/Commercial Pro - Claire/Lutify.me-Claire-RWG-to-Rec709.cube
# Created with: fylm.ai - Colour Grading and Collaboration Software in Cloud 
# Website: https://fylm.ai 
# META
# Option: Gamut compress
# Block 1: IDT | RED REDWideGamutRGB Log3G10
# Block 2: colourMatch | Blending Mode: Normal | {"ColorSpace":0,"CrossCovarianceLimit":50,"ReshapingIterations":1,"PercentSaturationShift":100,"PercentShadingShift":100,"ExtraShading":true,"PercentTint":100,"PercentModified":100}
# Block 3: HSL | Blending Mode: Normal | {"hue":{"Reds":0,"Yellows":0,"Greens":0,"Cyans":0,"Blues":0,"Magentas":0},"saturation":{"Reds":1,"Yellows":1,"Greens":1,"Cyans":1,"Blues":1,"Magentas":1},"luminance":{"Reds":0.9,"Yellows":0.9,"Greens":0.9,"Cyans":0.8,"Blues":0.8,"Magentas":0.9},"lum_sat":{"Blacks":1,"Shadows":1,"Midtones":1,"Highlights":1,"Whites":1},"sat_sat":{"10":1,"20":1,"30":1,"40":1,"50":1}}
# Block 4: subtractiveColour | Blending Mode: Normal | {"sliders":{"gainY":0.1,"C":0.05,"M":0.05,"Y":0.05}}
# Block 5: logPrimaries | Blending Mode: Normal | {"wheels":{"shadows":{"Y":"0","R":"1","G":"1","B":"1"},"midtones":{"Y":"0","R":"1","G":"1","B":"1"},"highlights":{"Y":"0","R":"1","G":"1","B":"1"},"offset":{"Y":"0","R":"1","G":"1","B":"1"}},"sliders":{"shadows":{"Y":0,"R":-0.05,"G":0,"B":0.1},"midtones":{"Y":0,"R":0,"G":0,"B":0},"highlights":{"Y":0,"R":0,"G":0,"B":0},"offset":{"Y":0,"R":0,"G":0,"B":0}}}
# Block 6: LUT | Filmic Curve Response: Standard Contrast 1 (100%)
# Block 7: LUT | Illuminant: D93 (100%)
# Block 8: LUT | Neutral Tint: Teal Tint 4 (100%)
# Block 9: ODT | Rec709
TITLE "Lutify.me-Claire-RWG-to-Rec709" 
LUT_3D_SIZE 33
0.000000 0.000000 0.000000
0.000000 0.000000 0.000000
0.109028 0.000000 0.000000
0.000000 0.000000 0.000000
0.109130 0.000000 0.000000
0.195948 0.000000 0.000000
0.272881 0.000000 0.000000
0.348937 0.000000 0.000000
0.410834 0.000000 0.000000
0.463779 0.000000 0.000000
0.511826 0.000000 0.000000
0.572327 0.000000 0.000000
0.631308 0.000000 0.000000
0.687532 0.000000 0.000000
0.760157 0.000000 0.000000
0.836559 0.000000 0.000000
0.906367 0.000000 0.000000
0.975147 0.000000 0.000000
1.000000 0.000000 0.000000
1.000000 0.000000 0.000000
1.000000 0.242549 0.000000
1.000000 0.355149 0.096462
1.000000 0.454242 0.150051
1.000000 0.565264 0.212148
1.000000 0.652714 0.281888
1.000000 0.732196 0.360737
1.000000 0.798700 0.446105
1.000000 0.847181 0.526874
1.000000 0.885580 0.607370
1.000000 0.911909 0.689699
1.000000 0.938213 0.757460
1.000000 0.954810 0.807679
1.000000 0.969510 0.850017
0.000000 0.000000 0.000000
0.000000 0.000000 0.000000
0.101242 0.000000 0.000000
0.000000 0.000000 0.000000
0.101326 0.000000 0.000000
0.190691 0.000000 0.000000
0.266357 0.000000 0.000000
0.338307 0.000000 0.000000
0.401730 0.000000 0.000000
0.446539 0.000000 0.000000
0.508087 0.000000 0.000000
0.572374 0.000000 0.000000
0.631345 0.000000 0.000000
0.691890 0.000000 0.000000
0.764943 0.000000 0.000000
0.836542 0.000000 0.000000
0.906333 0.000000 0.000000
0.975148 0.000000 0.000000
1.000000 0.000000 0.000000
1.000000 0.000000 0.000000
1.000000 0.242549 0.000000
1.000000 0.355149 0.096462
1.000000 0.457914 0.149211
1.000000 0.565264 0.212148
1.000000 0.652714 0.281888
1.000000 0.732196 0.360737
1.000000 0.798700 0.446105
1.000000 0.847181 0.526874
1.000000 0.885580 0.607370
1.000000 0.911909 0.689699
1.000000 0.938213 0.757460
1.000000 0.954810 0.807679
1.000000 0.969510 0.850017
0.000000 0.000000 0.000000
0.000000 0.000000 0.000000
0.000000 0.000000 0.000000
0.000000 0.000000 0.000000
0.092169 0.000000 0.000000
0.180666 0.000000 0.000000
0.253772 0.000000 0.000000
0.325576 0.000000 0.000000
0.387096 0.000000 0.000000
0.436599 0.000000 0.000000
0.500686 0.000000 0.000000
0.572430 0.000000 0.000000
0.631399 0.000000 0.000000
0.696264 0.000000 0.000000
0.769730 0.000000 0.000000
0.836525 0.000000 0.000000
0.902207 0.000000 0.000000
0.975069 0.000000 0.000000
1.000000 0.000000 0.000000
1.000000 0.000000 0.000000
1.000000 0.242549 0.000000
1.000000 0.359236 0.092671
1.000000 0.457914 0.149211
1.000000 0.565264 0.212148
1.000000 0.655886 0.279134
1.000000 0.732196 0.360737
1.000000 0.798707 0.443754
1.000000 0.847181 0.526874
1.000000 0.885580 0.607370
1.000000 0.911909 0.689699
1.000000 0.938213 0.757460
1.000000 0.954810 0.807679
1.000000 0.969510 0.850017
0.000000 0.008978 0.000000
0.000000 0.007298 0.000000
0.000000 0.004560 0.000000
0.000000 0.000000 0.000000
0.068704 0.000000 0.000000
0.158275 0.000000 0.000000
0.236054 0.000000 0.000000
0.308756 0.000000 0.000000
0.373124 0.000000 0.000000
0.427002 0.000000 0.000000
0.493360 0.000000 0.000000
0.572526 0.000000 0.000000
0.635719 0.000000 0.000000
0.700644 0.000000 0.000000
0.769736 0.000000 0.000000
0.841158 0.000000 0.000000
0.906231 0.000000 0.000000
0.974989 0.000000 0.000000
1.000000 0.000000 0.000000
1.000000 0.000000 0.000000
1.000000 0.247788 0.000000
1.000000 0.359236 0.092671
1.000000 0.457914 0.149211
1.000000 0.565267 0.209977
1.000000 0.655886 0.279134
1.000000 0.734917 0.360614
1.000000 0.798707 0.443754
1.000000 0.847181 0.526874
1.000000 0.885580 0.607370
1.000000 0.911909 0.689699
1.000000 0.938213 0.757460
1.000000 0.954810 0.807679
1.000000 0.969510 0.850017
0.000000 0.058000 0.000000
0.000000 0.057261 0.000000
0.000000 0.056524 0.000000
0.000000 0.054593 0.000000
0.036632 0.046789 0.000000
0.127351 0.000000 0.000000
0.201972 0.000000 0.000000
0.282463 0.000000 0.000000
0.360028 0.000000 0.000000
0.424042 0.000000 0.000000
0.493533 0.000000 0.000000
0.572694 0.000000 0.000000
0.644334 0.000000 0.000000
0.709402 0.000000 0.000000
0.769747 0.000000 0.000000
0.841126 0.000000 0.000000
0.910207 0.000000 0.000000
0.978195 0.000000 0.000000
1.000000 0.000000 0.000000
1.000000 0.000000 0.000000
1.000000 0.247788 0.000000
1.000000 0.359236 0.092671
1.000000 0.457916 0.146993
1.000000 0.565267 0.209977
1.000000 0.655886 0.279134
1.000000 0.734917 0.360614
1.000000 0.798707 0.443754
1.000000 0.847181 0.526874
1.000000 0.885580 0.607370
1.000000 0.911909 0.689699
1.000000 0.938213 0.757460
1.000000 0.954810 0.807679
1.000000 0.969510 0.850017
0.000000 0.094799 0.000000
0.000000 0.094733 0.000000
0.000000 0.092399 0.000000
0.000000 0.088963 0.000000
0.000000 0.081081 0.000000
0.111418 0.065278 0.000000
0.192748 0.023457 0.000000
0.276515 0.000000 0.000000
0.350265 0.000000 0.000000
0.424568 0.000000 0.000000
0.501302 0.000000 0.000000
0.581114 0.000000 0.000000
0.657283 0.000000 0.000000
0.718178 0.000000 0.000000
0.784099 0.000000 0.000000
0.854895 0.000000 0.000000
0.914053 0.000000 0.000000
0.977936 0.000000 0.000000
1.000000 0.000000 0.000000
1.000000 0.077225 0.000000
1.000000 0.252950 0.000000
1.000000 0.363309 0.088683
1.000000 0.461587 0.146119
1.000000 0.568775 0.209367
1.000000 0.655886 0.279134
1.000000 0.734917 0.360614
1.000000 0.800792 0.443822
1.000000 0.847181 0.526874
1.000000 0.885580 0.607370
1.000000 0.911909 0.689699
1.000000 0.938213 0.757460
1.000000 0.954810 0.807679
1.000000 0.969510 0.850017
0.000000 0.132351 0.000000
0.000000 0.129520 0.000000
0.000000 0.127963 0.000000
0.000000 0.123400 0.000000
0.000000 0.117410 0.000000
0.099128 0.100677 0.000000
0.195989 0.076184 0.000000
0.276828 0.000000 0.000000
0.356363 0.000000 0.000000
0.434978 0.000000 0.000000
0.516919 0.000000 0.000000
0.602138 0.000000 0.000000
0.670335 0.000000 0.000000
0.736319 0.000000 0.000000
0.803226 0.000000 0.000000
0.859333 0.000000 0.000000
0.917887 0.000000 0.000000
0.977566 0.000000 0.000000
1.000000 0.000000 0.000000
1.000000 0.107508 0.000000
1.000000 0.258039 0.000000
1.000000 0.367370 0.084464
1.000000 0.465260 0.142970
1.000000 0.569863 0.208620
1.000000 0.655890 0.276758
1.000000 0.734922 0.358379
1.000000 0.800792 0.443822
1.000000 0.847181 0.526874
1.000000 0.885580 0.607370
1.000000 0.911909 0.689699
1.000000 0.938213 0.757460
1.000000 0.954810 0.807679
1.000000 0.969510 0.850017
0.000000 0.171050 0.000000
0.000000 0.171037 0.000000
0.000000 0.167394 0.000000
0.000000 0.162088 0.000000
0.000000 0.155213 0.000000
0.027175 0.147181 0.000000
0.176714 0.131654 0.000000
0.271934 0.097276 0.000000
0.355492 0.043444 0.000000
0.423994 0.000000 0.000000
0.518057 0.000000 0.000000
0.628019 0.000000 0.000000
0.713948 0.000000 0.000000
0.760216 0.000000 0.000000
0.836538 0.000000 0.000000
0.872607 0.000000 0.000000
0.921618 0.000000 0.000000
0.980496 0.000000 0.000000
1.000000 0.000000 0.000000
1.000000 0.130686 0.000000
1.000000 0.268940 0.000000
1.000000 0.372485 0.078999
1.000000 0.468933 0.139760
1.000000 0.569865 0.206474
1.000000 0.660102 0.278027
1.000000 0.737626 0.358262
1.000000 0.800792 0.443822
1.000000 0.847188 0.524637
1.000000 0.885580 0.607370
1.000000 0.911909 0.689699
1.000000 0.939057 0.757724
1.000000 0.954810 0.807679
1.000000 0.969510 0.850017
0.000000 0.213316 0.000000
0.000000 0.213308 0.000000
0.000000 0.206780 0.000000
0.000000 0.202525 0.000000
0.000000 0.196191 0.000000
0.000000 0.189406 0.000000
0.157483 0.173301 0.000000
0.260717 0.154922 0.000000
0.354447 0.118801 0.000000
0.423205 0.075495 0.000000
0.520130 0.000000 0.000000
0.628870 0.000000 0.000000
0.731881 0.000000 0.000000
0.836518 0.000000 0.000000
0.885895 0.000000 0.000000
0.910439 0.000000 0.000000
0.943925 0.000000 0.000000
0.992723 0.000000 0.000000
1.000000 0.000000 0.000000
1.000000 0.157047 0.000000
1.000000 0.278652 0.000000
1.000000 0.376508 0.070964
1.000000 0.473728 0.138028
1.000000 0.573368 0.201566
1.000000 0.660107 0.275675
1.000000 0.737626 0.358262
1.000000 0.800798 0.441486
1.000000 0.848847 0.524816
1.000000 0.885580 0.607370
1.000000 0.912993 0.689974
1.000000 0.939057 0.757724
1.000000 0.954817 0.806316
1.000000 0.969510 0.850017
0.000000 0.253941 0.000000
0.000000 0.249732 0.000000
0.000000 0.243548 0.000000
0.000000 0.243475 0.000000
0.000000 0.237271 0.000000
0.000000 0.232743 0.000000
0.087844 0.221498 0.000000
0.235822 0.203309 0.000000
0.341033 0.176502 0.000000
0.422777 0.146913 0.000000
0.519154 0.091093 0.000000
0.621988 0.000000 0.000000
0.727753 0.000000 0.000000
0.831591 0.000000 0.000000
0.933896 0.000000 0.000000
0.962677 0.000000 0.000000
0.971928 0.000000 0.000000
0.998285 0.000000 0.000000
1.000000 0.000000 0.000000
1.000000 0.172338 0.000000
1.000000 0.292857 0.000000
1.000000 0.384524 0.054805
1.000000 0.481045 0.131333
1.000000 0.576872 0.198775
1.000000 0.663236 0.272972
1.000000 0.740317 0.355927
1.000000 0.802874 0.441561
1.000000 0.848847 0.524816
1.000000 0.886889 0.605460
1.000000 0.912993 0.689974
1.000000 0.939057 0.757724
1.000000 0.954817 0.806316
1.000000 0.969516 0.848812
0.000000 0.294996 0.000000
0.000000 0.290091 0.000000
0.000000 0.290061 0.000000
0.000000 0.285182 0.000000
0.000000 0.282655 0.000000
0.000000 0.277570 0.000000
0.000000 0.266756 0.000000
0.201687 0.256449 0.000000
0.322736 0.237984 0.000000
0.423291 0.205409 0.000000
0.519579 0.177384 0.000000
0.632545 0.113772 0.000000
0.728471 0.000000 0.000000
0.831219 0.000000 0.000000
0.936250 0.000000 0.000000
1.000000 0.000000 0.000000
1.000000 0.000000 0.000000
1.000000 0.000000 0.000000
1.000000 0.000000 0.000000
1.000000 0.199398 0.000000
1.000000 0.308059 0.000000
1.000000 0.396484 0.000000
1.000000 0.488402 0.121825
1.000000 0.580383 0.191714
1.000000 0.666352 0.270278
1.000000 0.742991 0.353609
1.000000 0.802880 0.439240
1.000000 0.849276 0.526452
1.000000 0.886889 0.605460
1.000000 0.913001 0.687960
1.000000 0.939057 0.757724
1.000000 0.954817 0.806316
1.000000 0.969516 0.848812
0.000000 0.340204 0.000000
0.000000 0.340179 0.000000
0.000000 0.340142 0.000000
0.000000 0.328819 0.000000
0.000000 0.328681 0.000000
0.000000 0.328319 0.000000
0.000000 0.316279 0.000000
0.056718 0.313598 0.000000
0.298763 0.292002 0.000000
0.411817 0.270686 0.000000
0.514369 0.239729 0.000000
0.635574 0.202053 0.000000
0.725505 0.155504 0.000000
0.835320 0.000000 0.000000
0.938159 0.000000 0.000000
1.000000 0.000000 0.000000
1.000000 0.000000 0.000000
1.000000 0.000000 0.000000
1.000000 0.076208 0.000000
1.000000 0.234933 0.000000
1.000000 0.320973 0.000000
1.000000 0.414165 0.000000
1.000000 0.503271 0.103100
1.000000 0.588442 0.183425
1.000000 0.674550 0.266160
1.000000 0.745640 0.353510
1.000000 0.804951 0.437016
1.000000 0.850920 0.524430
1.000000 0.886889 0.605460
1.000000 0.913421 0.690423
1.000000 0.939057 0.757724
1.000000 0.955515 0.806540
1.000000 0.969516 0.848812
0.000000 0.389459 0.000000
0.000000 0.389436 0.000000
0.000000 0.386307 0.000000
0.000000 0.380129 0.000000
0.000000 0.376960 0.000000
0.000000 0.376603 0.000000
0.000000 0.366900 0.000000
0.000000 0.362237 0.000000
0.223740 0.351670 0.000000
0.381330 0.334155 0.000000
0.509937 0.306827 0.000000
0.629896 0.269847 0.000000
0.722939 0.240129 0.000000
0.839103 0.196893 0.000000
0.935512 0.115113 0.000000
1.000000 0.000000 0.000000
1.000000 0.000000 0.000000
1.000000 0.000000 0.055688
1.000000 0.000000 0.074666
1.000000 0.264306 0.000000
1.000000 0.351549 0.000000
1.000000 0.437149 0.000000
1.000000 0.522835 0.072556
1.000000 0.600994 0.176164
1.000000 0.680623 0.258718
1.000000 0.750890 0.348941
1.000000 0.807550 0.436528
1.000000 0.852578 0.522434
1.000000 0.888448 0.604988
1.000000 0.914489 0.690703
1.000000 0.940729 0.756604
1.000000 0.955515 0.806540
1.000000 0.969516 0.848812
0.000000 0.445433 0.000000
0.000000 0.445412 0.000000
0.000000 0.441920 0.000000
0.000000 0.441868 0.000000
0.000000 0.438256 0.000000
0.000000 0.437964 0.000000
0.000000 0.427139 0.000000
0.000000 0.422484 0.000000
0.049881 0.420258 0.000000
0.324895 0.404462 0.000000
0.479365 0.384619 0.000000
0.623423 0.349014 0.000000
0.723911 0.317069 0.000000
0.833655 0.289589 0.000000
0.927973 0.256172 0.000000
1.000000 0.209741 0.000000
1.000000 0.178609 0.000000
1.000000 0.171772 0.000000
1.000000 0.193800 0.102446
1.000000 0.221474 0.110669
1.000000 0.376057 0.000000
1.000000 0.457675 0.000000
1.000000 0.539233 0.047887
1.000000 0.619429 0.158461
1.000000 0.684786 0.245406
1.000000 0.756760 0.342000
1.000000 0.811616 0.432221
1.000000 0.854272 0.520467
1.000000 0.889739 0.603136
1.000000 0.914497 0.688724
1.000000 0.940729 0.756604
1.000000 0.955694 0.807801
1.000000 0.970067 0.849010
0.000000 0.505607 0.000000
0.000000 0.505575 0.000000
0.000000 0.505523 0.000000
0.000000 0.505427 0.000000
0.000000 0.505218 0.000000
0.000000 0.501328 0.000000
0.000000 0.490055 0.000000
0.000000 0.488946 0.000000
0.000000 0.487170 0.000000
0.232219 0.473248 0.000000
0.438666 0.461799 0.000000
0.590503 0.436262 0.000000
0.720710 0.404149 0.000000
0.831392 0.374646 0.000000
0.922754 0.349928 0.000000
0.997241 0.329119 0.000000
1.000000 0.305851 0.000000
1.000000 0.294601 0.000000
1.000000 0.309311 0.075990
1.000000 0.327656 0.142193
1.000000 0.356040 0.158345
1.000000 0.488115 0.000000
1.000000 0.557980 0.027915
1.000000 0.629839 0.129850
1.000000 0.699737 0.232456
1.000000 0.769233 0.330729
1.000000 0.817632 0.425935
1.000000 0.858000 0.518316
1.000000 0.891025 0.601308
1.000000 0.915567 0.687043
1.000000 0.941552 0.756889
1.000000 0.956389 0.806687
1.000000 0.970067 0.849010
0.000000 0.568776 0.000000
0.000000 0.568726 0.000000
0.000000 0.568631 0.000000
0.000000 0.568492 0.000000
0.000000 0.568269 0.000000
0.000000 0.560436 0.000000
0.000000 0.552365 0.000000
0.000000 0.551490 0.000000
0.000000 0.549837 0.000000
0.110306 0.547492 0.000000
0.349873 0.531816 0.000000
0.551067 0.510535 0.000000
0.700138 0.487032 0.000000
0.823069 0.454924 0.000000
0.916700 0.429413 0.000000
0.986575 0.412054 0.000000
1.000000 0.403990 0.000000
1.000000 0.387767 0.000000
1.000000 0.391661 0.000000
1.000000 0.404668 0.132835
1.000000 0.428978 0.192789
1.000000 0.459442 0.207374
1.000000 0.578918 0.057749
1.000000 0.649892 0.120994
1.000000 0.716906 0.205461
1.000000 0.778814 0.316937
1.000000 0.821603 0.413309
1.000000 0.862867 0.516928
1.000000 0.894826 0.600170
1.000000 0.916647 0.681459
1.000000 0.942378 0.755522
1.000000 0.956389 0.806687
1.000000 0.970128 0.849499
0.000000 0.636931 0.000000
0.000000 0.636853 0.000000
0.000000 0.632911 0.000000
0.000000 0.628929 0.000000
0.000000 0.624860 0.000000
0.000000 0.620678 0.000000
0.000000 0.620141 0.000000
0.000000 0.619309 0.000000
0.000000 0.617976 0.000000
0.000000 0.615777 0.000000
0.294517 0.608661 0.000000
0.473900 0.587491 0.000000
0.662767 0.568613 0.000000
0.807530 0.544756 0.000000
0.904264 0.520471 0.000000
0.976294 0.496108 0.000000
1.000000 0.488447 0.000000
1.000000 0.479054 0.000000
1.000000 0.479883 0.000000
1.000000 0.484128 0.107477
1.000000 0.495142 0.184614
1.000000 0.523500 0.252657
1.000000 0.547550 0.267574
1.000000 0.665004 0.131423
1.000000 0.732227 0.196450
1.000000 0.790830 0.295728
1.000000 0.827458 0.397409
1.000000 0.866058 0.508639
1.000000 0.896548 0.599267
1.000000 0.918744 0.680161
1.000000 0.943199 0.754170
1.000000 0.957758 0.805826
1.000000 0.971188 0.849895
0.000000 0.693750 0.000000
0.000000 0.693657 0.000000
0.000000 0.693558 0.000000
0.000000 0.693341 0.000000
0.000000 0.693097 0.000000
0.000000 0.692770 0.000000
0.000000 0.692210 0.000000
0.000000 0.691518 0.000000
0.000000 0.686551 0.000000
0.000000 0.684750 0.000000
0.242635 0.681675 0.000000
0.434226 0.661879 0.000000
0.604288 0.654398 0.000000
0.761847 0.632416 0.000000
0.886871 0.610974 0.000000
0.961758 0.591074 0.000000
1.000000 0.571108 0.000000
1.000000 0.564294 0.000000
1.000000 0.565894 0.000000
1.000000 0.568843 0.045296
1.000000 0.576880 0.169812
1.000000 0.596428 0.253612
1.000000 0.620674 0.326946
1.000000 0.639964 0.332632
1.000000 0.758376 0.201350
1.000000 0.797365 0.276583
1.000000 0.837712 0.385382
1.000000 0.871373 0.494361
1.000000 0.900262 0.592238
1.000000 0.921842 0.677344
1.000000 0.945029 0.753236
1.000000 0.958439 0.804745
1.000000 0.971708 0.848910
0.000000 0.751837 0.000000
0.000000 0.751731 0.000000
0.000000 0.751621 0.000000
0.000000 0.751323 0.000000
0.000000 0.751130 0.000000
0.000000 0.750703 0.000000
0.000000 0.750238 0.000000
0.000000 0.749541 0.000000
0.000000 0.748497 0.000000
0.000000 0.746978 0.000000
0.181148 0.744505 0.000000
0.402828 0.736952 0.000000
0.573804 0.719423 0.000000
0.708837 0.712309 0.000000
0.852782 0.690713 0.000000
0.940639 0.673129 0.000000
0.997844 0.655903 0.000000
1.000000 0.636421 0.000000
1.000000 0.636602 0.000000
1.000000 0.640501 0.000000
1.000000 0.649864 0.152502
1.000000 0.663447 0.243214
1.000000 0.675873 0.321423
1.000000 0.692614 0.394403
1.000000 0.717468 0.412466
1.000000 0.806491 0.284918
1.000000 0.847103 0.357185
1.000000 0.877601 0.474763
1.000000 0.902328 0.574255
1.000000 0.925062 0.670385
1.000000 0.946633 0.749063
1.000000 0.959194 0.804336
1.000000 0.972222 0.847935
0.000000 0.808372 0.000000
0.000000 0.808212 0.000000
0.000000 0.808130 0.000000
0.000000 0.807872 0.000000
0.000000 0.807599 0.000000
0.000000 0.807210 0.000000
0.000000 0.803565 0.000000
0.000000 0.802873 0.000000
0.000000 0.801715 0.000000
0.000000 0.800406 0.000000
0.210783 0.798386 0.000000
0.399464 0.795192 0.000000
0.548091 0.787430 0.000000
0.689852 0.774552 0.000000
0.815944 0.760437 0.000000
0.919947 0.743462 0.000000
0.977487 0.734236 0.000000
1.000000 0.717647 0.000000
1.000000 0.707740 0.000000
1.000000 0.704709 0.000000
1.000000 0.709696 0.136501
1.000000 0.717672 0.243109
1.000000 0.730991 0.324345
1.000000 0.745744 0.402999
1.000000 0.759173 0.480269
1.000000 0.776121 0.486731
1.000000 0.857724 0.363036
1.000000 0.884664 0.443405
1.000000 0.906377 0.560212
1.000000 0.929023 0.659267
1.000000 0.948316 0.744319
1.000000 0.960525 0.802254
1.000000 0.972792 0.846304
0.000000 0.850073 0.000000
0.000000 0.849955 0.000000
0.000000 0.849836 0.000000
0.000000 0.849592 0.000000
0.000000 0.849215 0.000000
0.000000 0.848821 0.000000
0.000000 0.848412 0.000000
0.000000 0.847694 0.000000
0.000000 0.846920 0.000000
0.144604 0.845397 0.000000
0.341368 0.843107 0.000000
0.462724 0.840283 0.000000
0.567679 0.836827 0.000000
0.683885 0.829289 0.000000
0.787032 0.815980 0.000000
0.881173 0.804781 0.000000
0.957861 0.792042 0.000000
1.000000 0.782803 0.000000
1.000000 0.776240 0.000000
1.000000 0.768915 0.000000
1.000000 0.764383 0.116215
1.000000 0.769482 0.232288
1.000000 0.777425 0.321788
1.000000 0.783383 0.401811
1.000000 0.796767 0.479613
1.000000 0.809619 0.555647
1.000000 0.820339 0.552299
1.000000 0.894262 0.450625
1.000000 0.913611 0.529283
1.000000 0.933824 0.644268
1.000000 0.949990 0.735126
1.000000 0.962495 0.796674
1.000000 0.973794 0.844424
0.000000 0.891314 0.000000
0.000000 0.891005 0.000000
0.000000 0.890848 0.000000
0.000000 0.890689 0.000000
0.000000 0.890529 0.000000
0.000000 0.890035 0.000000
0.000000 0.889524 0.000000
0.179156 0.888817 0.000000
0.287999 0.887697 0.000000
0.371908 0.886301 0.000000
0.447971 0.884585 0.000000
0.528575 0.882261 0.000000
0.604191 0.879576 0.000000
0.700492 0.871168 0.000000
0.784859 0.864634 0.000000
0.868601 0.857486 0.000000
0.927613 0.849260 0.000000
0.979985 0.841870 0.000000
1.000000 0.832174 0.000000
1.000000 0.824844 0.000000
1.000000 0.819579 0.121677
1.000000 0.821288 0.240013
1.000000 0.823086 0.330721
1.000000 0.829318 0.414741
1.000000 0.837150 0.490998
1.000000 0.845072 0.570300
1.000000 0.853902 0.633919
1.000000 0.860787 0.622252
1.000000 0.922406 0.525773
1.000000 0.940319 0.620192
1.000000 0.951418 0.714207
1.000000 0.964354 0.790587
1.000000 0.975277 0.838460
0.313529 0.918306 0.000000
0.313529 0.918306 0.000000
0.326203 0.918112 0.000000
0.338337 0.917916 0.000000
0.349997 0.917718 0.000000
0.372113 0.917316 0.000000
0.392892 0.916908 0.000000
0.422071 0.916280 0.000000
0.458095 0.915417 0.000000
0.507597 0.914065 0.000000
0.555989 0.912551 0.000000
0.613445 0.910498 0.000000
0.675642 0.907953 0.000000
0.739329 0.903370 0.000000
0.804236 0.896637 0.000000
0.868992 0.891161 0.000000
0.919128 0.886302 0.000000
0.961791 0.880104 0.000000
1.000000 0.870787 0.000000
1.000000 0.867401 0.000000
1.000000 0.863388 0.121541
1.000000 0.861142 0.243121
1.000000 0.858854 0.335790
1.000000 0.861437 0.414569
1.000000 0.864520 0.493688
1.000000 0.869774 0.572342
1.000000 0.876549 0.638651
1.000000 0.882768 0.696599
1.000000 0.891052 0.683720
1.000000 0.944602 0.606808
1.000000 0.956734 0.694144
1.000000 0.966940 0.776860
1.000000 0.977177 0.832286
0.528671 0.936981 0.000000
0.528671 0.936981 0.000000
0.536631 0.936739 0.000000
0.536631 0.936739 0.000000
0.544441 0.936497 0.000000
0.552111 0.936255 0.000000
0.567042 0.935768 0.000000
0.581459 0.935281 0.000000
0.602191 0.934551 0.000000
0.640728 0.933097 0.000000
0.670120 0.931901 0.000000
0.702459 0.930498 0.000000
0.745416 0.928493 0.000000
0.786463 0.926425 0.000000
0.838106 0.923612 0.000000
0.882355 0.918238 0.000000
0.921054 0.911559 0.000000
0.955975 0.907899 0.000000
0.992862 0.901312 0.000000
1.000000 0.897509 0.000000
1.000000 0.895020 0.157543
1.000000 0.893655 0.261690
1.000000 0.892060 0.352240
1.000000 0.891525 0.430795
1.000000 0.889762 0.505750
1.000000 0.893609 0.583184
1.000000 0.897664 0.647689
1.000000 0.901430 0.703870
1.000000 0.907305 0.753422
1.000000 0.916149 0.735904
1.000000 0.959753 0.677458
1.000000 0.971113 0.758145
1.000000 0.978576 0.823098
0.677896 0.954947 0.000000
0.683140 0.954729 0.000000
0.683140 0.954729 0.000000
0.683140 0.954729 0.000000
0.688301 0.954512 0.000000
0.693379 0.954295 0.000000
0.698377 0.954081 0.000000
0.703293 0.953867 0.000000
0.717566 0.953236 0.000000
0.731136 0.952619 0.000000
0.748612 0.950698 0.000000
0.769239 0.948577 0.000000
0.792385 0.947408 0.000000
0.832141 0.944150 0.000000
0.865919 0.942239 0.000000
0.894377 0.940558 0.000000
0.926258 0.936276 0.000000
0.956243 0.934383 0.000000
0.985434 0.930171 0.000000
1.000000 0.926514 0.066001
1.000000 0.923627 0.204817
1.000000 0.920546 0.291475
1.000000 0.918414 0.375135
1.000000 0.916088 0.454539
1.000000 0.915522 0.522087
1.000000 0.916965 0.590280
1.000000 0.918977 0.652934
1.000000 0.920670 0.707205
1.000000 0.924495 0.757637
1.000000 0.928512 0.799393
1.000000 0.937683 0.777133
1.000000 0.973830 0.733958
1.000000 0.981691 0.810512
0.785334 0.966700 0.000000
0.785334 0.966700 0.000000
0.785334 0.966700 0.000000
0.792731 0.966328 0.000000
0.792731 0.966328 0.000000
