Assets/Lutify-Free-LUTs-Pack/Lutify Free LUTs Pack/Commercial Pro - Claire/Lutify.me-Claire-BolexLog-to-Rec709.cube
# Created with: fylm.ai - Colour Grading and Collaboration Software in Cloud 
# Website: https://fylm.ai 
# META
# Option: Gamut compress
# Block 1: IDT | Bolex Wide Gamut RGB Bolex Log
# Block 2: colourMatch | Blending Mode: Normal | {"ColorSpace":0,"CrossCovarianceLimit":50,"ReshapingIterations":1,"PercentSaturationShift":100,"PercentShadingShift":100,"ExtraShading":true,"PercentTint":100,"PercentModified":100}
# Block 3: HSL | Blending Mode: Normal | {"hue":{"Reds":0,"Yellows":0,"Greens":0,"Cyans":0,"Blues":0,"Magentas":0},"saturation":{"Reds":1,"Yellows":1,"Greens":1,"Cyans":1,"Blues":1,"Magentas":1},"luminance":{"Reds":0.9,"Yellows":0.9,"Greens":0.9,"Cyans":0.8,"Blues":0.8,"Magentas":0.9},"lum_sat":{"Blacks":1,"Shadows":1,"Midtones":1,"Highlights":1,"Whites":1},"sat_sat":{"10":1,"20":1,"30":1,"40":1,"50":1}}
# Block 4: subtractiveColour | Blending Mode: Normal | {"sliders":{"gainY":0.1,"C":0.05,"M":0.05,"Y":0.05}}
# Block 5: logPrimaries | Blending Mode: Normal | {"wheels":{"shadows":{"Y":"0","R":"1","G":"1","B":"1"},"midtones":{"Y":"0","R":"1","G":"1","B":"1"},"highlights":{"Y":"0","R":"1","G":"1","B":"1"},"offset":{"Y":"0","R":"1","G":"1","B":"1"}},"sliders":{"shadows":{"Y":0,"R":-0.05,"G":0,"B":0.1},"midtones":{"Y":0,"R":0,"G":0,"B":0},"highlights":{"Y":0,"R":0,"G":0,"B":0},"offset":{"Y":0,"R":0,"G":0,"B":0}}}
# Block 6: LUT | Filmic Curve Response: Standard Contrast 1 (100%)
# Block 7: LUT | Illuminant: D93 (100%)
# Block 8: LUT | Neutral Tint: Teal Tint 4 (100%)
# Block 9: ODT | Rec709
TITLE "Lutify.me-Claire-BolexLog-to-Rec709" 
LUT_3D_SIZE 5
0.000000 0.000000 0.000000
0.281858 0.000000 0.000000
0.564779 0.000000 0.000000
1.000000 0.000000 0.146055
1.000000 0.771039 0.579327
0.000000 0.152914 0.000000
0.199426 0.116745 0.000000
0.546296 0.000000 0.000000
1.000000 0.138152 0.148443
1.000000 0.773481 0.579295
0.000000 0.473397 0.047886
0.000000 0.478651 0.000000
0.570051 0.446136 0.000000
1.000000 0.392967 0.168548
1.000000 0.791314 0.593839
0.000000 0.916136 0.592661
0.000000 0.915386 0.581393
0.525776 0.908963 0.523229
0.947919 0.885641 0.394043
1.000000 0.882758 0.667643
0.880185 1.000000 0.940836
0.880249 1.000000 0.939920
0.889106 1.000000 0.938998
0.941311 0.999102 0.924453
1.000000 0.995125 0.882532
0.000000 0.000000 0.132278
0.191563 0.000000 0.055427
0.533539 0.000000 0.057404
1.000000 0.000000 0.174983
1.000000 0.771026 0.582394
0.000000 0.123283 0.205457
0.097265 0.141822 0.211150
0.517953 0.000000 0.085168
1.000000 0.138318 0.180422
1.000000 0.773442 0.588519
0.000000 0.448789 0.319495
0.000000 0.500299 0.269766
0.529761 0.474840 0.138486
1.000000 0.392921 0.209810
1.000000 0.791289 0.599981
0.000000 0.915959 0.638100
0.000000 0.916886 0.627019
0.512897 0.910723 0.571632
0.946334 0.887309 0.434323
1.000000 0.884234 0.673859
0.878311 1.000000 0.941743
0.880121 1.000000 0.941742
0.889042 1.000000 0.939918
0.941100 0.999368 0.926651
1.000000 0.995118 0.883681
0.000000 0.000000 0.206432
0.093990 0.000000 0.171030
0.542644 0.000000 0.113141
1.000000 0.000000 0.327293
1.000000 0.770857 0.620073
0.000000 0.085241 0.308214
0.000000 0.089315 0.321419
0.488924 0.000000 0.288207
1.000000 0.124545 0.337882
1.000000 0.773286 0.623244
0.000000 0.406514 0.607539
0.000000 0.433092 0.629515
0.434883 0.511003 0.641969
1.000000 0.405219 0.405045
1.000000 0.790188 0.633392
0.000000 0.901308 0.781435
0.000000 0.904106 0.778373
0.459772 0.920149 0.769404
0.933214 0.898435 0.634875
1.000000 0.883968 0.705538
0.876209 1.000000 0.947067
0.876209 1.000000 0.947067
0.886934 1.000000 0.946198
0.939255 0.999938 0.934781
1.000000 0.995325 0.894428
0.000000 0.138547 0.548719
0.000000 0.139684 0.563455
0.316481 0.097105 0.584681
0.983785 0.000000 0.474592
1.000000 0.769647 0.797394
0.000000 0.185115 0.608129
0.000000 0.183680 0.615750
0.279443 0.165826 0.645413
0.988564 0.000000 0.563657
1.000000 0.772081 0.799800
0.000000 0.341707 0.750812
0.000000 0.346967 0.760845
0.066899 0.358081 0.797470
1.000000 0.207149 0.773688
1.000000 0.790909 0.806298
0.000000 0.863478 0.934336
0.000000 0.865390 0.935387
0.000000 0.883353 0.941782
0.897231 0.914443 0.946486
1.000000 0.887852 0.853895
0.841532 1.000000 0.976214
0.843796 1.000000 0.976203
0.856405 1.000000 0.976155
0.931502 1.000000 0.975423
1.000000 0.997134 0.949269
0.098150 0.491093 0.944125
0.163392 0.490485 0.944056
0.337497 0.493830 0.946041
0.824514 0.464863 0.954217
1.000000 0.443242 0.915653
0.000000 0.502368 0.945001
0.135511 0.501778 0.944933
0.324626 0.509241 0.948076
0.821622 0.477644 0.954998
1.000000 0.457957 0.919820
0.000000 0.567394 0.952471
0.000000 0.566928 0.953689
0.267016 0.571242 0.956633
0.793078 0.550581 0.964952
1.000000 0.535770 0.939787
0.000000 0.802774 0.980326
0.000000 0.802489 0.980297
0.000000 0.806708 0.982008
0.718183 0.818843 0.988544
1.000000 0.816819 0.981126
0.659012 0.999246 1.000000
0.663177 0.999089 1.000000
0.690912 0.998471 1.000000
0.836093 0.996944 1.000000
0.996905 0.999612 1.000000
