Assets/Lutify-Free-LUTs-Pack/Lutify Free LUTs Pack/Commercial Pro - Claire/Lutify.me-Claire-FLog2-to-Rec709.cube
# Created with: fylm.ai - Colour Grading and Collaboration Software in Cloud 
# Website: https://fylm.ai 
# META
# Option: Gamut compress
# Block 1: IDT | Fujifilm F-Gamut F-Log2
# Block 2: colourMatch | Blending Mode: Normal | {"ColorSpace":0,"CrossCovarianceLimit":50,"ReshapingIterations":1,"PercentSaturationShift":100,"PercentShadingShift":100,"ExtraShading":true,"PercentTint":100,"PercentModified":100}
# Block 3: HSL | Blending Mode: Normal | {"hue":{"Reds":0,"Yellows":0,"Greens":0,"Cyans":0,"Blues":0,"Magentas":0},"saturation":{"Reds":1,"Yellows":1,"Greens":1,"Cyans":1,"Blues":1,"Magentas":1},"luminance":{"Reds":0.9,"Yellows":0.9,"Greens":0.9,"Cyans":0.8,"Blues":0.8,"Magentas":0.9},"lum_sat":{"Blacks":1,"Shadows":1,"Midtones":1,"Highlights":1,"Whites":1},"sat_sat":{"10":1,"20":1,"30":1,"40":1,"50":1}}
# Block 4: subtractiveColour | Blending Mode: Normal | {"sliders":{"gainY":0.1,"C":0.05,"M":0.05,"Y":0.05}}
# Block 5: logPrimaries | Blending Mode: Normal | {"wheels":{"shadows":{"Y":"0","R":"1","G":"1","B":"1"},"midtones":{"Y":"0","R":"1","G":"1","B":"1"},"highlights":{"Y":"0","R":"1","G":"1","B":"1"},"offset":{"Y":"0","R":"1","G":"1","B":"1"}},"sliders":{"shadows":{"Y":0,"R":-0.05,"G":0,"B":0.1},"midtones":{"Y":0,"R":0,"G":0,"B":0},"highlights":{"Y":0,"R":0,"G":0,"B":0},"offset":{"Y":0,"R":0,"G":0,"B":0}}}
# Block 6: LUT | Filmic Curve Response: Standard Contrast 1 (100%)
# Block 7: LUT | Illuminant: D93 (100%)
# Block 8: LUT | Neutral Tint: Teal Tint 4 (100%)
# Block 9: ODT | Rec709
TITLE "Lutify.me-Claire-FLog2-to-Rec709" 
LUT_3D_SIZE 9
0.000000 0.000000 0.000000
0.033421 0.000000 0.000000
0.283986 0.000000 0.000000
0.450172 0.000000 0.000000
0.653428 0.000000 0.000000
0.952707 0.000000 0.079810
1.000000 0.386655 0.256297
1.000000 0.733378 0.523326
1.000000 0.906002 0.797387
0.000000 0.014846 0.000000
0.000000 0.002354 0.000000
0.238072 0.000000 0.000000
0.414783 0.000000 0.000000
0.644998 0.000000 0.000000
0.952403 0.000000 0.080265
1.000000 0.390776 0.255961
1.000000 0.736270 0.526290
1.000000 0.906002 0.797387
0.000000 0.131941 0.000000
0.000000 0.128472 0.000000
0.192205 0.092056 0.000000
0.393068 0.000000 0.000000
0.645530 0.000000 0.000000
0.951504 0.000000 0.081935
1.000000 0.399716 0.258207
1.000000 0.736270 0.526290
1.000000 0.906002 0.797387
0.000000 0.272129 0.000000
0.000000 0.278839 0.000000
0.000000 0.271474 0.000000
0.390651 0.235220 0.000000
0.654233 0.202617 0.000000
0.951347 0.145521 0.085210
1.000000 0.432811 0.263239
1.000000 0.742653 0.530025
1.000000 0.907179 0.799527
0.000000 0.502294 0.174297
0.000000 0.520463 0.154469
0.000000 0.519788 0.086433
0.105763 0.522146 0.000000
0.659611 0.483603 0.000000
0.943614 0.474400 0.065184
1.000000 0.533996 0.283719
1.000000 0.765013 0.539590
1.000000 0.909522 0.801716
0.000000 0.794422 0.436400
0.000000 0.800669 0.432347
0.000000 0.809448 0.424516
0.000000 0.816298 0.371949
0.478639 0.807616 0.261239
0.904107 0.780482 0.112308
1.000000 0.781432 0.347502
1.000000 0.819939 0.572628
1.000000 0.918727 0.806737
0.000000 0.946117 0.745490
0.000000 0.947214 0.745638
0.000000 0.948036 0.745789
0.000000 0.952564 0.733984
0.455481 0.949478 0.699983
0.839041 0.936202 0.603476
0.985148 0.926822 0.512179
1.000000 0.927060 0.676449
1.000000 0.942658 0.831252
0.632789 0.998124 0.912469
0.637498 0.997956 0.912460
0.642950 0.998260 0.912513
0.662123 0.998529 0.912609
0.722624 0.997533 0.911436
0.831346 0.995223 0.900156
0.949957 0.989286 0.859378
1.000000 0.983925 0.807111
1.000000 0.984629 0.885749
0.876239 1.000000 0.979517
0.876239 1.000000 0.979517
0.878347 1.000000 0.979546
0.879963 1.000000 0.979067
0.888182 1.000000 0.979078
0.911266 1.000000 0.979569
0.951485 1.000000 0.975205
0.993910 1.000000 0.958266
1.000000 1.000000 0.936148
0.000000 0.000000 0.035310
0.014042 0.000000 0.012497
0.244155 0.000000 0.000000
0.405509 0.000000 0.000000
0.649267 0.000000 0.000000
0.952597 0.000000 0.092025
1.000000 0.387408 0.261593
1.000000 0.733366 0.526382
1.000000 0.905991 0.799470
0.000000 0.016308 0.048696
0.000000 0.014029 0.040286
0.201172 0.000000 0.000000
0.382469 0.000000 0.000000
0.640840 0.000000 0.000000
0.952283 0.000000 0.092684
1.000000 0.391518 0.261268
1.000000 0.736270 0.526290
1.000000 0.905991 0.799470
0.000000 0.112188 0.069546
0.000000 0.130899 0.045513
0.158734 0.116179 0.000000
0.365513 0.031766 0.000000
0.641242 0.000000 0.000000
0.951351 0.000000 0.096833
1.000000 0.399702 0.263017
1.000000 0.736270 0.526290
1.000000 0.905991 0.799470
0.000000 0.245609 0.126329
0.000000 0.278583 0.081249
0.000000 0.286266 0.000000
0.362270 0.261580 0.000000
0.649630 0.210744 0.000000
0.951054 0.153022 0.105041
1.000000 0.432794 0.270730
1.000000 0.745471 0.529948
1.000000 0.907179 0.799527
0.000000 0.487914 0.237400
0.000000 0.516736 0.216811
0.000000 0.527189 0.174906
0.000000 0.529791 0.000000
0.655401 0.499443 0.000000
0.939863 0.478779 0.096812
1.000000 0.537960 0.291774
1.000000 0.765002 0.542669
1.000000 0.909522 0.801716
0.000000 0.787747 0.459480
0.000000 0.797471 0.451419
0.000000 0.809450 0.443416
0.000000 0.819086 0.398197
0.480658 0.813182 0.284475
0.903876 0.780468 0.153931
1.000000 0.781427 0.357846
1.000000 0.822081 0.572707
1.000000 0.918727 0.806737
0.000000 0.946085 0.751921
0.000000 0.945842 0.751919
0.000000 0.948020 0.749007
0.000000 0.952699 0.737031
0.454700 0.949448 0.706520
0.838735 0.936177 0.610489
0.984382 0.928047 0.522084
1.000000 0.927050 0.679295
1.000000 0.942658 0.831252
0.632789 0.998124 0.912469
0.632789 0.998124 0.912469
0.642950 0.998260 0.912513
0.661407 0.998069 0.912541
0.722522 0.997525 0.912702
0.831346 0.995223 0.900156
0.949861 0.989277 0.860975
1.000000 0.983917 0.808894
1.000000 0.984629 0.885749
0.876239 1.000000 0.979517
0.876239 1.000000 0.979517
0.878347 1.000000 0.979546
0.879936 1.000000 0.979540
0.888154 1.000000 0.979550
0.911266 1.000000 0.979569
0.951450 1.000000 0.975728
0.993910 1.000000 0.958266
1.000000 1.000000 0.936148
0.000000 0.000000 0.118937
0.000000 0.000000 0.086105
0.195008 0.000000 0.058239
0.378196 0.000000 0.054510
0.636865 0.000000 0.062909
0.948937 0.000000 0.120412
1.000000 0.391479 0.273441
1.000000 0.736258 0.529355
1.000000 0.905991 0.799470
0.000000 0.027323 0.127589
0.000000 0.023204 0.112038
0.166251 0.000000 0.088551
0.356829 0.000000 0.070962
0.632634 0.000000 0.067026
0.948608 0.000000 0.123394
1.000000 0.391471 0.275925
1.000000 0.736246 0.532428
1.000000 0.905991 0.799470
0.000000 0.120754 0.197584
0.000000 0.123395 0.203449
0.103434 0.140166 0.198185
0.337253 0.083675 0.110243
0.632638 0.000000 0.075448
0.947636 0.000000 0.127009
1.000000 0.403741 0.277522
1.000000 0.736246 0.532428
1.000000 0.907179 0.799527
0.000000 0.239674 0.279250
0.000000 0.254882 0.275898
0.000000 0.299835 0.241435
0.321235 0.293782 0.149907
0.643207 0.226001 0.094256
0.947111 0.161762 0.139211
1.000000 0.436787 0.280617
1.000000 0.745448 0.536085
1.000000 0.907179 0.799527
0.000000 0.462942 0.343952
0.000000 0.487652 0.328836
0.000000 0.527108 0.305997
0.000000 0.552765 0.213756
0.633882 0.520481 0.088217
0.938606 0.483085 0.151204
1.000000 0.537938 0.309129
1.000000 0.767593 0.545718
1.000000 0.909511 0.803775
0.000000 0.780976 0.501702
0.000000 0.787568 0.497563
0.000000 0.800134 0.489397
0.000000 0.824795 0.450854
0.483821 0.815698 0.343933
0.898310 0.786712 0.212372
1.000000 0.781418 0.375177
1.000000 0.822071 0.575820
1.000000 0.918716 0.808748
0.000000 0.944921 0.761201
0.000000 0.946053 0.758215
0.000000 0.948100 0.758457
0.000000 0.952621 0.752960
0.443832 0.950817 0.719580
0.837523 0.937371 0.625083
0.984021 0.928013 0.534293
1.000000 0.928178 0.682632
1.000000 0.942649 0.833056
0.627001 0.997808 0.913694
0.632677 0.998116 0.913743
0.637387 0.997947 0.913732
0.661299 0.998061 0.913808
0.722421 0.997517 0.913957
0.831153 0.995207 0.902816
0.950868 0.989186 0.864177
1.000000 0.983899 0.812443
1.000000 0.984624 0.886918
0.876239 1.000000 0.979517
0.876239 1.000000 0.979517
0.877855 1.000000 0.979512
0.879936 1.000000 0.979540
0.888154 1.000000 0.979550
0.911266 1.000000 0.979569
0.951450 1.000000 0.975728
0.993910 1.000000 0.958266
1.000000 1.000000 0.936904
0.000000 0.034091 0.190341
0.000000 0.036497 0.180614
0.130963 0.000000 0.174352
0.345698 0.000000 0.139455
0.606247 0.000000 0.181812
0.941430 0.000000 0.192621
1.000000 0.396216 0.307353
1.000000 0.736197 0.544808
1.000000 0.907169 0.801600
0.000000 0.056755 0.218053
0.000000 0.058542 0.213872
0.102764 0.048170 0.221789
0.342915 0.000000 0.188811
0.614708 0.000000 0.193439
0.941047 0.000000 0.196474
1.000000 0.400289 0.309825
1.000000 0.736197 0.544808
1.000000 0.907169 0.801600
0.000000 0.127352 0.286842
0.000000 0.134455 0.289076
0.000000 0.139373 0.317280
0.325905 0.108383 0.294648
0.606084 0.000000 0.222805
0.943445 0.000000 0.204202
1.000000 0.408422 0.312066
1.000000 0.739065 0.547835
1.000000 0.907158 0.803664
0.000000 0.252349 0.385962
0.000000 0.261297 0.402438
0.000000 0.284558 0.432468
0.262931 0.325493 0.431776
0.611250 0.268716 0.292954
0.941617 0.200308 0.222884
1.000000 0.440678 0.321264
1.000000 0.744745 0.550793
1.000000 0.908338 0.803718
0.000000 0.469169 0.535900
0.000000 0.479740 0.535363
0.000000 0.500855 0.530544
0.000000 0.567917 0.493278
0.603601 0.560701 0.379165
0.932826 0.504288 0.274985
1.000000 0.541371 0.348302
1.000000 0.770110 0.561238
1.000000 0.910676 0.803835
0.000000 0.755868 0.611624
0.000000 0.759374 0.611439
0.000000 0.780233 0.606429
0.000000 0.813091 0.597230
0.446700 0.829440 0.493913
0.887592 0.801171 0.369964
1.000000 0.789609 0.429108
1.000000 0.824143 0.591568
1.000000 0.919800 0.810825
0.000000 0.943901 0.781834
0.000000 0.945044 0.781896
0.000000 0.947148 0.782027
0.000000 0.949098 0.779412
0.428879 0.952033 0.759966
0.829753 0.942186 0.675350
0.980404 0.930406 0.578910
1.000000 0.928117 0.699415
1.000000 0.942640 0.834849
0.620978 0.997479 0.916170
0.626779 0.997792 0.916211
0.631595 0.997622 0.916200
0.656043 0.997740 0.916260
0.718131 0.997204 0.916374
0.830731 0.995602 0.909384
0.949301 0.989227 0.870238
1.000000 0.984336 0.818188
1.000000 0.984618 0.888102
0.876212 1.000000 0.979988
0.876212 1.000000 0.979988
0.876212 1.000000 0.979988
0.879909 1.000000 0.980009
0.886604 1.000000 0.980021
0.909843 1.000000 0.980018
0.951415 1.000000 0.976246
0.993823 1.000000 0.959599
1.000000 1.000000 0.937655
0.000000 0.119854 0.367534
0.000000 0.119207 0.377085
0.000000 0.122899 0.396866
0.282436 0.089354 0.412565
0.608064 0.000000 0.355260
0.933520 0.000000 0.401215
1.000000 0.419164 0.432189
1.000000 0.738220 0.588371
1.000000 0.908306 0.809848
0.000000 0.133956 0.386519
0.000000 0.133555 0.393377
0.000000 0.138132 0.409837
0.270633 0.113878 0.436290
0.606709 0.000000 0.377661
0.933002 0.000000 0.407625
1.000000 0.423232 0.432023
1.000000 0.741097 0.588282
1.000000 0.908306 0.809848
0.000000 0.166731 0.426107
0.000000 0.170135 0.436363
0.000000 0.172663 0.457230
0.244397 0.166386 0.477707
0.607611 0.000000 0.434256
0.934975 0.074394 0.417199
1.000000 0.431323 0.434937
1.000000 0.741746 0.588960
1.000000 0.908306 0.809848
0.000000 0.279046 0.529617
0.000000 0.283877 0.540570
0.000000 0.301522 0.562308
0.035602 0.315188 0.603341
0.606371 0.299161 0.567134
0.934526 0.254017 0.459520
1.000000 0.459483 0.443554
1.000000 0.747380 0.592017
1.000000 0.909468 0.811920
0.000000 0.471899 0.666390
0.000000 0.482498 0.673635
0.000000 0.503727 0.695812
0.000000 0.545635 0.716010
0.541831 0.613019 0.721736
0.910792 0.550370 0.565830
1.000000 0.564435 0.475893
1.000000 0.771991 0.601974
1.000000 0.911945 0.814371
0.000000 0.755335 0.795666
0.000000 0.758878 0.795427
0.000000 0.772851 0.794505
0.000000 0.791375 0.793151
0.350405 0.839742 0.780279
0.870790 0.831376 0.680600
1.000000 0.805075 0.571528
1.000000 0.829973 0.636502
1.000000 0.920835 0.820742
0.000000 0.933272 0.850597
0.000000 0.933076 0.850584
0.000000 0.935527 0.850462
0.000000 0.938135 0.848107
0.297495 0.951187 0.845438
0.817070 0.947512 0.795234
0.975521 0.935697 0.706839
1.000000 0.930216 0.737622
1.000000 0.942597 0.843646
0.584513 0.996450 0.926899
0.595528 0.996094 0.926874
0.607126 0.996254 0.926875
0.629839 0.997062 0.926913
0.701299 0.996842 0.926928
0.829676 0.995515 0.923797
0.947693 0.989996 0.890700
1.000000 0.985527 0.847884
1.000000 0.985013 0.893118
0.874250 1.000000 0.981364
0.874250 1.000000 0.981364
0.875886 1.000000 0.981358
0.877751 1.000000 0.981365
0.884767 1.000000 0.981385
0.908346 1.000000 0.981370
0.951251 1.000000 0.978702
0.993540 1.000000 0.962902
1.000000 1.000000 0.940737
0.000000 0.261664 0.644284
0.000000 0.263715 0.648053
0.000000 0.267606 0.655568
0.000000 0.275770 0.681932
0.546042 0.250947 0.713892
0.928212 0.000000 0.640428
1.000000 0.450703 0.684518
1.000000 0.758304 0.710999
1.000000 0.910666 0.837521
0.000000 0.268934 0.647899
0.000000 0.271058 0.651667
0.000000 0.275047 0.663051
0.000000 0.286488 0.685448
0.543685 0.260989 0.721097
0.927921 0.031650 0.647851
1.000000 0.454732 0.688066
1.000000 0.758304 0.710999
1.000000 0.910666 0.837521
0.000000 0.286423 0.666623
0.000000 0.286118 0.670482
0.000000 0.293241 0.677894
0.000000 0.303227 0.696489
0.534037 0.282145 0.731592
0.930471 0.141183 0.666477
1.000000 0.463476 0.691594
1.000000 0.760962 0.714022
1.000000 0.910666 0.837521
0.000000 0.342216 0.710782
0.000000 0.342004 0.714547
0.000000 0.344325 0.721865
0.000000 0.356364 0.742783
0.495958 0.359426 0.771622
0.930288 0.282896 0.717287
1.000000 0.496072 0.708435
1.000000 0.766221 0.716936
1.000000 0.911810 0.839392
0.000000 0.521394 0.803405
0.000000 0.521271 0.806461
0.000000 0.524677 0.815180
0.000000 0.549361 0.832988
0.367211 0.590962 0.851707
0.898878 0.588983 0.838204
1.000000 0.609815 0.744802
1.000000 0.784184 0.728896
1.000000 0.914082 0.841269
0.000000 0.747900 0.877370
0.000000 0.751559 0.879129
0.000000 0.758673 0.882686
0.000000 0.782026 0.894447
0.000000 0.825019 0.900547
0.837549 0.862098 0.902639
0.988725 0.833851 0.829087
1.000000 0.840015 0.762728
1.000000 0.923104 0.847362
0.000000 0.930922 0.930444
0.000000 0.930749 0.931686
0.000000 0.931743 0.931533
0.000000 0.937708 0.932138
0.000000 0.944344 0.930820
0.781825 0.952348 0.923171
0.960038 0.948498 0.888626
1.000000 0.936298 0.831965
1.000000 0.945090 0.865267
0.496340 0.994082 0.954110
0.503550 0.993896 0.954094
0.511980 0.994280 0.954057
0.546381 0.993919 0.953961
0.643962 0.994149 0.953625
0.804031 0.994286 0.953113
0.943724 0.992654 0.935187
1.000000 0.988243 0.900433
1.000000 0.985348 0.909464
0.869965 1.000000 0.984851
0.869965 1.000000 0.984851
0.869965 1.000000 0.984851
0.873566 1.000000 0.984845
0.880536 1.000000 0.984836
0.902355 1.000000 0.984803
0.949106 1.000000 0.983976
0.992882 1.000000 0.971843
1.000000 1.000000 0.950055
0.000000 0.495840 0.876872
0.000000 0.495675 0.879051
0.000000 0.495222 0.881171
0.000000 0.497093 0.887142
0.347700 0.511638 0.899373
0.861984 0.517747 0.909054
1.000000 0.478374 0.878430
1.000000 0.778905 0.884637
1.000000 0.916025 0.892703
0.000000 0.499509 0.878888
0.000000 0.499341 0.878868
0.000000 0.498892 0.880988
0.000000 0.500823 0.886959
0.344681 0.515500 0.899190
0.860839 0.522035 0.910597
1.000000 0.482762 0.878280
1.000000 0.778905 0.884637
1.000000 0.916025 0.892703
0.000000 0.506955 0.880686
0.000000 0.506790 0.880667
0.000000 0.506350 0.882761
0.000000 0.508349 0.888653
0.334728 0.527122 0.900597
0.858640 0.530568 0.911936
1.000000 0.490874 0.882025
1.000000 0.781375 0.884501
1.000000 0.916025 0.892703
0.000000 0.522048 0.886290
0.000000 0.525655 0.886077
0.000000 0.525246 0.888097
0.000000 0.534978 0.893400
0.320189 0.550245 0.906983
0.847611 0.556444 0.915785
1.000000 0.525056 0.890610
1.000000 0.786614 0.889471
1.000000 0.917130 0.894076
0.000000 0.605749 0.907297
0.000000 0.605610 0.907281
0.000000 0.612865 0.908581
0.000000 0.619338 0.911490
0.182638 0.625068 0.921593
0.826678 0.635706 0.931630
1.000000 0.624801 0.910853
1.000000 0.805415 0.893366
1.000000 0.919607 0.895624
0.000000 0.791708 0.940729
0.000000 0.791651 0.940723
0.000000 0.794604 0.941736
0.000000 0.799914 0.943676
0.000000 0.818902 0.949791
0.739589 0.844308 0.955340
0.979190 0.855666 0.949644
1.000000 0.860369 0.909955
1.000000 0.927098 0.900974
0.000000 0.931558 0.964126
0.000000 0.931483 0.964984
0.000000 0.932704 0.964840
0.000000 0.933305 0.966339
0.000000 0.940202 0.970683
0.691779 0.946405 0.973432
0.947863 0.959142 0.974183
1.000000 0.948404 0.942605
1.000000 0.949977 0.915981
0.418913 0.996156 0.986085
0.426975 0.995992 0.986071
0.442549 0.995663 0.986042
0.473676 0.995547 0.986405
0.569562 0.994675 0.986058
0.741584 0.994060 0.985137
0.932529 0.994357 0.983878
0.996237 0.992595 0.970914
1.000000 0.989060 0.948508
0.845846 1.000000 0.993793
0.845846 1.000000 0.993793
0.845846 1.000000 0.993793
0.849610 1.000000 0.993778
0.857554 1.000000 0.993734
0.880925 1.000000 0.993930
0.942697 1.000000 0.993948
0.990908 1.000000 0.988021
1.000000 1.000000 0.974679
0.000000 0.774502 0.972627
0.000000 0.774502 0.972627
0.000000 0.773990 0.973455
0.106649 0.773073 0.974232
0.370796 0.773125 0.975390
0.695663 0.780488 0.980971
0.973025 0.796197 0.982303
1.000000 0.793451 0.969037
1.000000 0.928042 0.969737
0.000000 0.774502 0.972627
0.000000 0.774502 0.972627
0.000000 0.773990 0.973455
0.106649 0.773073 0.974232
0.370809 0.773155 0.976235
0.695663 0.780488 0.980971
0.972020 0.798899 0.982139
1.000000 0.793451 0.969037
1.000000 0.928042 0.969737
0.000000 0.777902 0.973288
0.000000 0.777902 0.973288
0.000000 0.777365 0.973233
0.079031 0.776452 0.974011
0.377026 0.776276 0.975996
0.694014 0.783636 0.980774
0.971967 0.798927 0.982825
1.000000 0.795828 0.969720
1.000000 0.928029 0.970431
0.000000 0.784552 0.973723
0.000000 0.784200 0.973687
0.000000 0.784020 0.973669
0.000000 0.783114 0.974439
0.369266 0.782887 0.976404
0.692365 0.786770 0.981331
0.969917 0.804279 0.983177
1.000000 0.800680 0.970245
1.000000 0.929054 0.970365
0.000000 0.803162 0.974986
0.000000 0.802987 0.974969
0.000000 0.802810 0.974951
0.000000 0.804920 0.975492
0.353014 0.804452 0.977402
0.679805 0.810075 0.982051
0.960109 0.824744 0.983909
1.000000 0.821794 0.972904
1.000000 0.931062 0.970922
0.000000 0.851083 0.981014
0.000000 0.851083 0.981014
0.000000 0.850742 0.980980
0.000000 0.852457 0.981467
0.279571 0.854469 0.982267
0.649818 0.862728 0.984669
0.938256 0.872054 0.988455
1.000000 0.874911 0.980664
1.000000 0.939860 0.972414
0.000000 0.941899 0.990963
0.000000 0.941899 0.990963
0.000000 0.941746 0.990949
0.000000 0.942451 0.991264
0.172276 0.942490 0.992223
0.626743 0.944346 0.993594
0.907560 0.950833 0.995582
1.000000 0.956729 0.993231
1.000000 0.959553 0.980092
0.272231 0.994631 0.999301
0.272231 0.994631 0.999301
0.302469 0.994910 0.999217
0.337561 0.994426 0.999477
0.458017 0.994038 1.000000
0.668477 0.991731 1.000000
0.898185 0.991896 1.000000
0.992008 0.996280 1.000000
1.000000 0.993407 0.992063
0.819138 1.000000 1.000000
0.819138 1.000000 1.000000
0.819138 1.000000 1.000000
0.823150 1.000000 1.000000
0.833430 1.000000 1.000000
0.860554 1.000000 1.000000
0.920887 1.000000 1.000000
0.986806 1.000000 1.000000
1.000000 1.000000 1.000000
0.670869 0.923405 1.000000
0.670869 0.923405 1.000000
0.676026 0.923188 1.000000
0.691091 0.922551 1.000000
0.713688 0.922940 1.000000
0.773379 0.924184 1.000000
0.895235 0.926651 1.000000
1.000000 0.936846 1.000000
1.000000 0.934092 0.999770
0.670869 0.923405 1.000000
0.670869 0.923405 1.000000
0.676026 0.923188 1.000000
0.691091 0.922551 1.000000
0.713688 0.922940 1.000000
0.773379 0.924184 1.000000
0.895235 0.926651 1.000000
1.000000 0.936846 1.000000
1.000000 0.934092 0.999770
0.670869 0.923405 1.000000
0.670869 0.923405 1.000000
0.676026 0.923188 1.000000
0.690406 0.923965 1.000000
0.713007 0.924342 1.000000
0.773379 0.924184 1.000000
0.894639 0.927928 1.000000
1.000000 0.937891 1.000000
1.000000 0.934058 1.000000
0.670189 0.924817 1.000000
0.670325 0.924824 1.000000
0.675477 0.924607 1.000000
0.680540 0.924391 1.000000
0.708541 0.924544 1.000000
0.772732 0.925547 1.000000
0.894646 0.927950 1.000000
1.000000 0.937891 1.000000
1.000000 0.935062 0.999993
0.669008 0.927601 1.000000
0.669008 0.927601 1.000000
0.674289 0.927392 1.000000
0.679344 0.927178 1.000000
0.707321 0.927309 1.000000
0.771529 0.928240 1.000000
0.893481 0.930468 1.000000
1.000000 0.939948 1.000000
1.000000 0.936977 1.000000
0.671506 0.934096 1.000000
0.671649 0.934101 1.000000
0.671077 0.935401 1.000000
0.685882 0.934778 1.000000
0.703966 0.935266 1.000000
0.760945 0.935130 1.000000
0.891750 0.938679 1.000000
0.999624 0.945801 1.000000
1.000000 0.943526 1.000000
0.679442 0.955658 1.000000
0.679442 0.955658 1.000000
0.679442 0.955658 1.000000
0.688556 0.955279 1.000000
0.705689 0.955554 1.000000
0.764406 0.955820 1.000000
0.879372 0.957173 1.000000
0.990678 0.962212 1.000000
1.000000 0.965735 1.000000
0.698921 0.992197 1.000000
0.702666 0.992042 1.000000
0.702666 0.992042 1.000000
0.707082 0.992921 1.000000
0.721613 0.992308 1.000000
0.772434 0.992062 1.000000
0.872116 0.990745 1.000000
0.980191 0.992962 1.000000
1.000000 0.995483 1.000000
0.772664 1.000000 1.000000
0.772664 1.000000 1.000000
0.772664 1.000000 1.000000
0.777460 1.000000 1.000000
0.789971 1.000000 1.000000
0.819904 1.000000 1.000000
0.890923 1.000000 1.000000
0.977323 1.000000 1.000000
1.000000 1.000000 1.000000
