Assets/Lutify-Free-LUTs-Pack/Lutify Free LUTs Pack/Commercial Pro - Claire/Lutify.me-Claire-SLog2-to-Rec709.cube
# Created with: fylm.ai - Colour Grading and Collaboration Software in Cloud 
# Website: https://fylm.ai 
# META
# Option: Gamut compress
# Block 1: IDT | Sony S-Log2 S-Gamut Daylight 10-bit
# Block 2: colourMatch | Blending Mode: Normal | {"ColorSpace":0,"CrossCovarianceLimit":50,"ReshapingIterations":1,"PercentSaturationShift":100,"PercentShadingShift":100,"ExtraShading":true,"PercentTint":100,"PercentModified":100}
# Block 3: HSL | Blending Mode: Normal | {"hue":{"Reds":0,"Yellows":0,"Greens":0,"Cyans":0,"Blues":0,"Magentas":0},"saturation":{"Reds":1,"Yellows":1,"Greens":1,"Cyans":1,"Blues":1,"Magentas":1},"luminance":{"Reds":0.9,"Yellows":0.9,"Greens":0.9,"Cyans":0.8,"Blues":0.8,"Magentas":0.9},"lum_sat":{"Blacks":1,"Shadows":1,"Midtones":1,"Highlights":1,"Whites":1},"sat_sat":{"10":1,"20":1,"30":1,"40":1,"50":1}}
# Block 4: subtractiveColour | Blending Mode: Normal | {"sliders":{"gainY":0.1,"C":0.05,"M":0.05,"Y":0.05}}
# Block 5: logPrimaries | Blending Mode: Normal | {"wheels":{"shadows":{"Y":"0","R":"1","G":"1","B":"1"},"midtones":{"Y":"0","R":"1","G":"1","B":"1"},"highlights":{"Y":"0","R":"1","G":"1","B":"1"},"offset":{"Y":"0","R":"1","G":"1","B":"1"}},"sliders":{"shadows":{"Y":0,"R":-0.05,"G":0,"B":0.1},"midtones":{"Y":0,"R":0,"G":0,"B":0},"highlights":{"Y":0,"R":0,"G":0,"B":0},"offset":{"Y":0,"R":0,"G":0,"B":0}}}
# Block 6: LUT | Filmic Curve Response: Standard Contrast 1 (100%)
# Block 7: LUT | Illuminant: D93 (100%)
# Block 8: LUT | Neutral Tint: Teal Tint 4 (100%)
# Block 9: ODT | Rec709
TITLE "Lutify.me-Claire-SLog2-to-Rec709" 
LUT_3D_SIZE 33
0.000000 0.000000 0.000000
0.000000 0.000000 0.000000
0.111315 0.000000 0.000000
0.131059 0.000000 0.000000
0.299341 0.000000 0.000000
0.407658 0.000000 0.000000
0.485318 0.000000 0.000000
0.511515 0.000000 0.000000
0.519255 0.000000 0.000000
0.527173 0.000000 0.000000
0.531364 0.000000 0.000000
0.543721 0.000000 0.000000
0.560385 0.000000 0.000000
0.581332 0.000000 0.000000
0.627756 0.000000 0.000000
0.679391 0.000000 0.000000
0.731880 0.000000 0.031337
0.779305 0.000000 0.057530
0.840594 0.000000 0.078349
0.892724 0.000000 0.103486
0.941946 0.000000 0.129707
0.980940 0.000000 0.155212
1.000000 0.045153 0.186429
1.000000 0.190943 0.224446
1.000000 0.277834 0.259378
1.000000 0.344288 0.295640
1.000000 0.406881 0.333925
1.000000 0.472859 0.381129
1.000000 0.535580 0.428699
1.000000 0.593685 0.477272
1.000000 0.651826 0.522519
1.000000 0.700844 0.570888
1.000000 0.746636 0.617783
0.000000 0.000000 0.000000
0.000000 0.000000 0.000000
0.051271 0.000000 0.000000
0.089643 0.000000 0.000000
0.255600 0.000000 0.000000
0.351488 0.000000 0.000000
0.426522 0.000000 0.000000
0.463663 0.000000 0.000000
0.478102 0.000000 0.000000
0.485592 0.000000 0.000000
0.508192 0.000000 0.000000
0.519982 0.000000 0.000000
0.552414 0.000000 0.000000
0.577336 0.000000 0.000000
0.632087 0.000000 0.000000
0.675109 0.000000 0.000000
0.727299 0.000000 0.030344
0.779210 0.000000 0.057302
0.840430 0.000000 0.078725
0.892502 0.000000 0.104390
0.941628 0.000000 0.129034
0.980627 0.000000 0.154746
1.000000 0.088891 0.185936
1.000000 0.197564 0.224195
1.000000 0.282736 0.261509
1.000000 0.348664 0.295397
1.000000 0.410966 0.333694
1.000000 0.472859 0.381129
1.000000 0.535580 0.428699
1.000000 0.601042 0.476891
1.000000 0.655286 0.522352
1.000000 0.700844 0.570888
1.000000 0.746636 0.617783
0.000000 0.000000 0.000000
0.000000 0.000000 0.000000
0.000000 0.000000 0.000000
0.054604 0.000000 0.000000
0.211151 0.000000 0.000000
0.301661 0.000000 0.000000
0.375667 0.000000 0.000000
0.417131 0.000000 0.000000
0.433294 0.000000 0.000000
0.457120 0.000000 0.000000
0.486078 0.000000 0.000000
0.512524 0.000000 0.000000
0.544508 0.000000 0.000000
0.573347 0.000000 0.000000
0.619490 0.000000 0.000000
0.670852 0.000000 0.000000
0.727272 0.000000 0.026385
0.779128 0.000000 0.055830
0.840300 0.000000 0.079353
0.892185 0.000000 0.103274
0.941407 0.000000 0.128559
0.980301 0.000000 0.154256
1.000000 0.102647 0.187814
1.000000 0.210304 0.223673
1.000000 0.287602 0.261256
1.000000 0.353020 0.295150
1.000000 0.419112 0.333225
1.000000 0.476791 0.380915
1.000000 0.539378 0.428496
1.000000 0.601027 0.480124
1.000000 0.655286 0.522352
1.000000 0.700844 0.570888
1.000000 0.749424 0.621038
0.000000 0.028972 0.000000
0.000000 0.028074 0.000000
0.000000 0.027037 0.000000
0.000000 0.019063 0.000000
0.147921 0.000000 0.000000
0.245923 0.000000 0.000000
0.325781 0.000000 0.000000
0.381696 0.000000 0.000000
0.417634 0.000000 0.000000
0.443760 0.000000 0.000000
0.479011 0.000000 0.000000
0.508946 0.000000 0.000000
0.540684 0.000000 0.000000
0.573519 0.000000 0.000000
0.615383 0.000000 0.000000
0.670913 0.000000 0.000000
0.727247 0.000000 0.020693
0.779065 0.000000 0.057576
0.840162 0.000000 0.078360
0.891933 0.000000 0.102352
0.941176 0.000000 0.130003
0.979958 0.000000 0.155667
1.000000 0.124957 0.187294
1.000000 0.221856 0.225580
1.000000 0.287602 0.261256
1.000000 0.357357 0.294899
1.000000 0.419099 0.336184
1.000000 0.480705 0.383926
1.000000 0.539378 0.428496
1.000000 0.601027 0.480124
1.000000 0.655286 0.522352
1.000000 0.700844 0.570888
1.000000 0.749424 0.621038
0.000000 0.081136 0.000000
0.000000 0.080151 0.000000
0.000000 0.077231 0.000000
0.000000 0.071581 0.000000
0.101541 0.050562 0.000000
0.203321 0.000000 0.000000
0.284867 0.000000 0.000000
0.355288 0.000000 0.000000
0.402889 0.000000 0.000000
0.431046 0.000000 0.000000
0.472189 0.000000 0.000000
0.509243 0.000000 0.000000
0.540947 0.000000 0.000000
0.573797 0.000000 0.000000
0.615572 0.000000 0.000000
0.670988 0.000000 0.000000
0.727225 0.000000 0.014944
0.778956 0.000000 0.055381
0.839968 0.000000 0.080155
0.891691 0.000000 0.101434
0.940818 0.000000 0.129228
0.979785 0.000000 0.155406
1.000000 0.143389 0.186749
1.000000 0.227454 0.225319
1.000000 0.297198 0.260738
1.000000 0.361676 0.294646
1.000000 0.423161 0.335949
1.000000 0.480705 0.383926
1.000000 0.543176 0.428292
1.000000 0.604706 0.479933
1.000000 0.655271 0.525646
1.000000 0.704150 0.570755
1.000000 0.749424 0.621038
0.000000 0.120494 0.000000
0.000000 0.120489 0.000000
0.000000 0.116161 0.000000
0.000000 0.107969 0.000000
0.058190 0.093863 0.000000
0.189023 0.061769 0.000000
0.272549 0.000000 0.000000
0.345560 0.000000 0.000000
0.394789 0.000000 0.000000
0.425473 0.000000 0.000000
0.469378 0.000000 0.000000
0.509926 0.000000 0.000000
0.533567 0.000000 0.000000
0.574300 0.000000 0.000000
0.615896 0.000000 0.000000
0.675406 0.000000 0.000000
0.727204 0.000000 0.000000
0.778827 0.000000 0.052167
0.839660 0.000000 0.077742
0.891284 0.000000 0.099819
0.940435 0.000000 0.130384
0.979237 0.000000 0.156538
1.000000 0.159568 0.186178
1.000000 0.238396 0.224779
1.000000 0.301933 0.260473
1.000000 0.365968 0.297067
1.000000 0.427216 0.335711
1.000000 0.484633 0.383710
1.000000 0.546974 0.428086
1.000000 0.604706 0.479933
1.000000 0.658713 0.525482
1.000000 0.704150 0.570755
1.000000 0.749424 0.621038
0.000000 0.157043 0.000000
0.000000 0.158733 0.000000
0.000000 0.153681 0.000000
0.000000 0.147200 0.000000
0.000000 0.133240 0.000000
0.158671 0.117766 0.000000
0.259418 0.085557 0.000000
0.336226 0.000000 0.000000
0.393217 0.000000 0.000000
0.433216 0.000000 0.000000
0.474403 0.000000 0.000000
0.507599 0.000000 0.000000
0.535043 0.000000 0.000000
0.567203 0.000000 0.000000
0.616421 0.000000 0.000000
0.675565 0.000000 0.000000
0.727207 0.000000 0.000000
0.778700 0.000000 0.048083
0.839338 0.000000 0.074892
0.890932 0.000000 0.100223
0.940036 0.000000 0.129506
0.978666 0.047209 0.155672
1.000000 0.181183 0.187459
1.000000 0.254292 0.223923
1.000000 0.311272 0.264796
1.000000 0.370255 0.296810
1.000000 0.431265 0.335471
1.000000 0.488557 0.383492
1.000000 0.546974 0.428086
1.000000 0.608387 0.479742
1.000000 0.658713 0.525482
1.000000 0.704150 0.570755
1.000000 0.754958 0.620887
0.000000 0.194293 0.000000
0.000000 0.194293 0.000000
0.000000 0.188234 0.000000
0.000000 0.182323 0.000000
0.000000 0.172738 0.000000
0.123627 0.156559 0.000000
0.239122 0.134338 0.000000
0.327016 0.102895 0.000000
0.392003 0.055575 0.000000
0.441436 0.000000 0.000000
0.483439 0.000000 0.000000
0.520694 0.000000 0.000000
0.536635 0.000000 0.000000
0.576705 0.000000 0.000000
0.617500 0.000000 0.000000
0.675941 0.000000 0.000000
0.727269 0.000000 0.000000
0.778564 0.000000 0.035166
0.839088 0.000000 0.072373
0.890470 0.000000 0.098245
0.939464 0.000000 0.130284
0.977633 0.122715 0.156088
1.000000 0.200744 0.186499
1.000000 0.264603 0.225798
1.000000 0.325068 0.263977
1.000000 0.378785 0.296287
1.000000 0.435308 0.335228
1.000000 0.496400 0.383050
1.000000 0.554570 0.427670
1.000000 0.612067 0.479551
1.000000 0.662137 0.525319
1.000000 0.707433 0.570624
1.000000 0.754958 0.620887
0.000000 0.229866 0.000000
0.000000 0.229866 0.000000
0.000000 0.224155 0.000000
0.000000 0.219997 0.000000
0.000000 0.206721 0.000000
0.000000 0.194738 0.000000
0.204914 0.175246 0.000000
0.312651 0.148191 0.000000
0.385224 0.121536 0.000000
0.456573 0.076340 0.000000
0.495825 0.062544 0.000000
0.534070 0.061391 0.000000
0.554520 0.092391 0.000000
0.586705 0.103086 0.000000
0.619139 0.110396 0.000000
0.676835 0.085005 0.000000
0.727544 0.054665 0.000000
0.778447 0.000000 0.000000
0.838616 0.000000 0.066707
0.889845 0.000000 0.099453
0.938701 0.052851 0.128540
0.976733 0.156262 0.156738
1.000000 0.229582 0.184795
1.000000 0.279648 0.224868
1.000000 0.338612 0.263121
1.000000 0.383030 0.296020
1.000000 0.443366 0.337736
1.000000 0.500319 0.382826
1.000000 0.558354 0.430620
1.000000 0.615749 0.479358
1.000000 0.665542 0.525159
1.000000 0.710678 0.573804
1.000000 0.757686 0.620817
0.000000 0.258273 0.000000
0.000000 0.260428 0.000000
0.000000 0.256127 0.000000
0.000000 0.249742 0.000000
0.000000 0.241401 0.000000
0.000000 0.232593 0.000000
0.164027 0.212789 0.000000
0.288874 0.193185 0.000000
0.376975 0.165152 0.000000
0.445557 0.140414 0.000000
0.515864 0.105869 0.000000
0.547588 0.118225 0.000000
0.572075 0.135416 0.000000
0.589002 0.160865 0.000000
0.625051 0.163333 0.000000
0.678197 0.165990 0.000000
0.732492 0.151204 0.000000
0.778363 0.136981 0.000000
0.838014 0.122753 0.062800
0.893002 0.119699 0.097413
0.937322 0.145421 0.127430
0.975271 0.196325 0.154414
1.000000 0.250562 0.185601
1.000000 0.299005 0.223555
1.000000 0.351935 0.264724
1.000000 0.395679 0.297924
1.000000 0.451414 0.337239
1.000000 0.512051 0.385403
1.000000 0.562152 0.430410
1.000000 0.619430 0.479165
1.000000 0.668929 0.525000
1.000000 0.710678 0.573804
1.000000 0.757686 0.620817
0.000000 0.287768 0.000000
0.000000 0.287768 0.000000
0.000000 0.287766 0.000000
0.000000 0.280611 0.000000
0.000000 0.273578 0.000000
0.000000 0.264165 0.000000
0.000000 0.252583 0.000000
0.252738 0.231183 0.000000
0.360773 0.212804 0.000000
0.437100 0.185965 0.000000
0.518622 0.160802 0.000000
0.572752 0.149330 0.000000
0.585726 0.170852 0.000000
0.598820 0.196024 0.000000
0.639381 0.209247 0.000000
0.679944 0.220080 0.000000
0.733375 0.216918 0.000000
0.783026 0.205958 0.000000
0.841367 0.208919 0.041974
0.891365 0.196292 0.091444
0.935522 0.202570 0.125210
0.976470 0.234810 0.153670
1.000000 0.275658 0.183595
1.000000 0.322327 0.224356
1.000000 0.365088 0.263806
1.000000 0.404063 0.297368
1.000000 0.459442 0.336732
1.000000 0.519872 0.384944
1.000000 0.569746 0.429989
1.000000 0.623113 0.478971
1.000000 0.675645 0.524689
1.000000 0.714546 0.574254
1.000000 0.760371 0.624089
0.000000 0.320843 0.000000
0.000000 0.323547 0.000000
0.000000 0.323547 0.000000
0.000000 0.318125 0.000000
0.000000 0.310145 0.000000
0.000000 0.299635 0.000000
0.000000 0.288330 0.000000
0.185145 0.278123 0.000000
0.329988 0.258728 0.000000
0.428763 0.229189 0.000000
0.509916 0.209792 0.000000
0.594548 0.187229 0.000000
0.611154 0.198691 0.000000
0.628199 0.220627 0.000000
0.645515 0.257654 0.000000
0.685790 0.268188 0.000000
0.734394 0.269741 0.000000
0.783182 0.267323 0.000000
0.840114 0.274507 0.000000
0.888862 0.267978 0.081721
0.932469 0.267561 0.121932
0.974076 0.274336 0.151867
1.000000 0.299709 0.183742
1.000000 0.340457 0.222869
1.000000 0.382386 0.265069
1.000000 0.420707 0.298984
1.000000 0.471602 0.338993
1.000000 0.531593 0.384243
1.000000 0.577340 0.429562
1.000000 0.630476 0.478581
1.000000 0.679597 0.528386
1.000000 0.717743 0.574134
1.000000 0.763046 0.624028
0.000000 0.356905 0.000000
0.000000 0.356905 0.000000
0.000000 0.356905 0.000000
0.000000 0.356894 0.000000
0.000000 0.345684 0.000000
0.000000 0.331550 0.000000
0.000000 0.328000 0.000000
0.000000 0.317243 0.000000
0.284482 0.298311 0.000000
0.398344 0.280420 0.000000
0.494935 0.248471 0.000000
0.584510 0.226838 0.000000
0.644557 0.223264 0.000000
0.661627 0.246751 0.000000
0.662353 0.278334 0.000000
0.695001 0.308669 0.000000
0.735180 0.316875 0.000000
0.778824 0.325012 0.000000
0.838977 0.323162 0.000000
0.886572 0.319545 0.052298
0.929105 0.321597 0.114368
0.969499 0.334232 0.148508
1.000000 0.340713 0.182026
1.000000 0.367072 0.223405
1.000000 0.408230 0.263390
1.000000 0.437229 0.297795
1.000000 0.483754 0.338191
1.000000 0.543289 0.386816
1.000000 0.592499 0.435073
1.000000 0.637795 0.478194
1.000000 0.682893 0.528237
1.000000 0.720915 0.574017
1.000000 0.768314 0.623917
0.000000 0.389555 0.000000
0.000000 0.389555 0.000000
0.000000 0.389555 0.000000
0.000000 0.389552 0.000000
0.000000 0.377291 0.000000
0.000000 0.371216 0.000000
0.000000 0.364880 0.000000
0.000000 0.351806 0.000000
0.176341 0.341873 0.000000
0.358067 0.321315 0.000000
0.477856 0.301029 0.000000
0.569539 0.270035 0.000000
0.645914 0.263563 0.000000
0.678567 0.271446 0.000000
0.695277 0.303872 0.000000
0.703124 0.339235 0.000000
0.744001 0.360588 0.000000
0.787435 0.366405 0.000000
0.837450 0.375570 0.000000
0.883665 0.373748 0.000000
0.925090 0.377141 0.088803
0.965105 0.381916 0.142686
1.000000 0.384253 0.182073
1.000000 0.397377 0.220681
1.000000 0.429503 0.264558
1.000000 0.462308 0.301991
1.000000 0.504423 0.340377
1.000000 0.554983 0.386094
1.000000 0.603880 0.434424
1.000000 0.648623 0.480883
1.000000 0.689837 0.527930
1.000000 0.727170 0.577102
1.000000 0.770906 0.623868
0.000000 0.428432 0.000000
0.000000 0.428432 0.000000
0.000000 0.428432 0.000000
0.000000 0.428432 0.000000
0.000000 0.421767 0.000000
0.000000 0.411828 0.000000
0.000000 0.395432 0.000000
0.000000 0.388170 0.000000
0.000000 0.382384 0.000000
0.291598 0.363553 0.000000
0.432403 0.348625 0.000000
0.553908 0.323710 0.000000
0.629927 0.307036 0.000000
0.683054 0.312722 0.000000
0.719820 0.317726 0.000000
0.735663 0.360616 0.000000
0.747782 0.394375 0.000000
0.799534 0.411553 0.000000
0.844019 0.418358 0.000000
0.880487 0.426555 0.000000
0.923709 0.430668 0.059534
0.959371 0.436435 0.127094
0.999575 0.439199 0.176629
1.000000 0.448134 0.221079
1.000000 0.467003 0.263753
1.000000 0.495221 0.308125
1.000000 0.528472 0.344994
1.000000 0.570546 0.388430
1.000000 0.615243 0.436981
1.000000 0.659288 0.480334
1.000000 0.697387 0.531488
1.000000 0.733890 0.577475
1.000000 0.776466 0.624395
0.000000 0.473564 0.000000
0.000000 0.473564 0.000000
0.000000 0.473564 0.000000
0.000000 0.473564 0.000000
0.000000 0.462965 0.000000
0.000000 0.455924 0.000000
0.000000 0.441912 0.000000
0.000000 0.437912 0.000000
0.000000 0.426092 0.000000
0.129709 0.419712 0.000000
0.368898 0.402327 0.000000
0.506282 0.385872 0.000000
0.622340 0.359828 0.000000
0.668681 0.365208 0.000000
0.722813 0.369657 0.000000
0.757355 0.380580 0.000000
0.764496 0.418763 0.000000
0.797438 0.454688 0.000000
0.844974 0.469841 0.000000
0.884246 0.474450 0.000000
0.924643 0.483716 0.000000
0.960889 0.494264 0.104737
0.991459 0.497792 0.168414
1.000000 0.506676 0.216145
1.000000 0.520832 0.260903
1.000000 0.531924 0.311100
1.000000 0.552423 0.349733
1.000000 0.589967 0.390528
1.000000 0.630394 0.436105
1.000000 0.673214 0.482907
1.000000 0.707633 0.531065
1.000000 0.739922 0.577285
1.000000 0.781408 0.627664
0.000000 0.513117 0.000000
0.000000 0.513117 0.000000
0.000000 0.513117 0.000000
0.000000 0.513117 0.000000
0.000000 0.513117 0.000000
0.000000 0.502138 0.000000
0.000000 0.487704 0.000000
0.000000 0.483795 0.000000
0.000000 0.472151 0.000000
0.000000 0.469945 0.000000
0.253918 0.448177 0.000000
0.455669 0.435669 0.000000
0.585613 0.418296 0.000000
0.658771 0.414776 0.000000
0.701800 0.421511 0.000000
0.754402 0.431123 0.000000
0.798343 0.445891 0.000000
0.811644 0.488826 0.000000
0.836511 0.518826 0.000000
0.879282 0.527444 0.000000
0.919100 0.532960 0.000000
0.956836 0.543629 0.056767
0.986271 0.547334 0.150319
1.000000 0.556089 0.208365
1.000000 0.573916 0.260498
1.000000 0.576383 0.307183
1.000000 0.588180 0.350422
1.000000 0.613217 0.392386
1.000000 0.645382 0.438472
1.000000 0.688010 0.486047
1.000000 0.718137 0.534546
1.000000 0.751645 0.580264
1.000000 0.786265 0.627619
0.000000 0.546573 0.000000
0.000000 0.546573 0.000000
0.000000 0.546573 0.000000
0.000000 0.546573 0.000000
0.000000 0.546573 0.000000
0.000000 0.546569 0.000000
0.000000 0.542782 0.000000
0.000000 0.523973 0.000000
0.000000 0.519533 0.000000
0.000000 0.506770 0.000000
0.000000 0.503850 0.000000
0.344506 0.484172 0.000000
0.532524 0.466738 0.000000
0.635784 0.462134 0.000000
0.690795 0.464628 0.000000
0.739788 0.475405 0.000000
0.793946 0.489983 0.000000
0.829223 0.514882 0.000000
0.840783 0.546605 0.000000
0.874720 0.564107 0.000000
0.912416 0.581931 0.000000
0.949396 0.592591 0.000000
0.978705 0.592232 0.119750
1.000000 0.600838 0.190025
1.000000 0.614442 0.255842
1.000000 0.620410 0.306212
1.000000 0.627639 0.347448
1.000000 0.644027 0.393765
1.000000 0.671247 0.440850
1.000000 0.702269 0.488697
1.000000 0.731047 0.534092
1.000000 0.760147 0.580067
1.000000 0.793828 0.628194
0.000000 0.584297 0.000000
0.000000 0.584297 0.000000
0.000000 0.584297 0.000000
0.000000 0.584297 0.000000
0.000000 0.584297 0.000000
0.000000 0.584297 0.000000
0.000000 0.580485 0.000000
0.000000 0.565251 0.000000
0.000000 0.560988 0.000000
0.000000 0.548516 0.000000
0.000000 0.546049 0.000000
0.218059 0.538845 0.000000
0.441271 0.516846 0.000000
0.601983 0.510778 0.000000
0.664180 0.517556 0.000000
0.720401 0.524608 0.000000
0.772732 0.535930 0.000000
0.818541 0.556071 0.000000
0.847064 0.578072 0.000000
0.874820 0.604390 0.000000
0.903420 0.618677 0.000000
0.942466 0.633060 0.000000
0.970482 0.636670 0.069797
0.991004 0.649070 0.171675
1.000000 0.662151 0.246314
1.000000 0.663867 0.302500
1.000000 0.670552 0.348140
1.000000 0.685679 0.394468
1.000000 0.700923 0.442617
1.000000 0.722809 0.491178
1.000000 0.749526 0.536871
1.000000 0.773704 0.583150
1.000000 0.805412 0.631531
0.000000 0.626235 0.000000
0.000000 0.626235 0.000000
0.000000 0.626235 0.000000
0.000000 0.626235 0.000000
0.000000 0.626235 0.000000
0.000000 0.626235 0.000000
0.000000 0.626235 0.000000
0.000000 0.618534 0.000000
0.000000 0.599183 0.000000
0.000000 0.590685 0.000000
0.000000 0.581390 0.000000
0.000000 0.578234 0.000000
0.336351 0.569779 0.000000
0.524211 0.558123 0.000000
0.627230 0.567216 0.000000
0.694966 0.578046 0.000000
0.748010 0.577897 0.000000
0.804284 0.601383 0.000000
0.839236 0.614855 0.000000
0.871410 0.636733 0.000000
0.901158 0.658847 0.000000
0.933516 0.678202 0.000000
0.961456 0.681580 0.000000
0.982115 0.689712 0.147938
0.999369 0.705973 0.230556
1.000000 0.707106 0.298687
1.000000 0.712997 0.349892
1.000000 0.726160 0.396800
1.000000 0.738994 0.448263
1.000000 0.751839 0.497496
1.000000 0.769655 0.543144
1.000000 0.788965 0.586407
1.000000 0.816589 0.634969
0.000000 0.668403 0.000000
0.000000 0.668403 0.000000
0.000000 0.668403 0.000000
0.000000 0.668403 0.000000
0.000000 0.668403 0.000000
0.000000 0.668403 0.000000
0.000000 0.668403 0.000000
0.000000 0.668392 0.000000
0.000000 0.649086 0.000000
0.000000 0.648522 0.000000
0.000000 0.631793 0.000000
0.000000 0.629541 0.000000
0.148474 0.625952 0.000000
0.419027 0.605026 0.000000
0.580109 0.612987 0.000000
0.642358 0.632719 0.000000
0.724264 0.635188 0.000000
0.785396 0.650635 0.000000
0.814654 0.672884 0.000000
0.851813 0.695217 0.000000
0.894866 0.696450 0.000000
0.926872 0.718002 0.000000
0.952384 0.731692 0.000000
0.972837 0.738405 0.059655
0.992263 0.748875 0.201992
1.000000 0.755938 0.289318
1.000000 0.760220 0.344650
1.000000 0.768131 0.400186
1.000000 0.775574 0.451588
1.000000 0.780909 0.504946
1.000000 0.791187 0.550876
1.000000 0.808458 0.590508
1.000000 0.825210 0.638462
0.000000 0.715406 0.000000
0.000000 0.715406 0.000000
0.000000 0.715406 0.000000
0.000000 0.715406 0.000000
0.000000 0.715406 0.000000
0.000000 0.715406 0.000000
0.000000 0.715406 0.000000
0.000000 0.715406 0.000000
0.000000 0.707193 0.000000
0.000000 0.694927 0.000000
0.000000 0.678582 0.000000
0.000000 0.672894 0.000000
0.000000 0.670014 0.000000
0.309389 0.657707 0.000000
0.484262 0.656191 0.000000
0.595975 0.670353 0.000000
0.670249 0.694616 0.000000
0.762038 0.701090 0.000000
0.796903 0.722333 0.000000
0.834324 0.745650 0.000000
0.871627 0.750211 0.000000
0.921659 0.747173 0.000000
0.945910 0.765888 0.000000
0.965701 0.774514 0.000000
0.983660 0.783120 0.160193
0.999219 0.791594 0.266067
1.000000 0.794665 0.341721
1.000000 0.800894 0.400995
1.000000 0.809556 0.456411
1.000000 0.813513 0.512346
1.000000 0.817631 0.554786
1.000000 0.824247 0.597620
1.000000 0.837732 0.642191
0.000000 0.754471 0.000000
0.000000 0.754471 0.000000
0.000000 0.754471 0.000000
0.000000 0.754471 0.000000
0.000000 0.754473 0.000000
0.000000 0.754473 0.000000
0.000000 0.754473 0.000000
0.000000 0.754473 0.000000
0.000000 0.754473 0.000000
0.000000 0.735265 0.000000
0.000000 0.730721 0.000000
0.000000 0.717211 0.000000
0.000000 0.710857 0.000000
0.000000 0.706972 0.000000
0.414107 0.693526 0.000000
0.530355 0.709535 0.000000
0.616391 0.728922 0.000000
0.704227 0.746424 0.000000
0.770139 0.763448 0.000000
0.807888 0.780611 0.000000
0.855717 0.783716 0.000000
0.907272 0.792216 0.000000
0.935565 0.793376 0.000000
0.958709 0.800415 0.000000
0.975912 0.812824 0.075801
0.992481 0.817512 0.236723
1.000000 0.820017 0.333422
1.000000 0.827688 0.396779
1.000000 0.830807 0.458050
1.000000 0.843121 0.514555
1.000000 0.846495 0.560487
1.000000 0.847785 0.605591
1.000000 0.855984 0.647136
0.000000 0.790041 0.000000
0.000000 0.790041 0.000000
0.000000 0.790041 0.000000
0.000000 0.790041 0.000000
0.000000 0.790041 0.000000
0.000000 0.790041 0.000000
0.000000 0.790041 0.000000
0.000000 0.790041 0.000000
0.000000 0.790041 0.000000
0.000000 0.790041 0.000000
0.000000 0.772493 0.000000
0.000000 0.760584 0.000000
0.000000 0.751062 0.000000
0.000000 0.748143 0.000000
0.245737 0.743793 0.000000
0.493071 0.734125 0.000000
0.553484 0.760737 0.000000
0.644231 0.780123 0.000000
0.731754 0.791173 0.000000
0.791310 0.807844 0.000000
0.835116 0.815797 0.000000
0.891016 0.819985 0.000000
0.925583 0.822855 0.000000
0.951565 0.823863 0.000000
0.970344 0.832810 0.000000
0.986011 0.841748 0.188790
0.999953 0.846023 0.311194
1.000000 0.852632 0.393709
1.000000 0.857193 0.452843
1.000000 0.861808 0.518233
1.000000 0.866335 0.570004
1.000000 0.869103 0.615532
1.000000 0.874005 0.656006
0.000000 0.821694 0.000000
0.000000 0.821694 0.000000
0.000000 0.821694 0.000000
0.000000 0.821694 0.000000
0.000000 0.821694 0.000000
0.000000 0.821694 0.000000
0.000000 0.821694 0.000000
0.000000 0.821694 0.000000
0.000000 0.821694 0.000000
0.000000 0.821694 0.000000
0.000000 0.812625 0.000000
0.000000 0.802640 0.000000
0.000000 0.794589 0.000000
0.000000 0.788586 0.000000
0.000000 0.781529 0.000000
0.376640 0.776488 0.000000
0.510949 0.782419 0.000000
0.578027 0.801496 0.000000
0.674982 0.824644 0.000000
0.740069 0.836443 0.000000
0.811805 0.842239 0.000000
0.865133 0.850941 0.000000
0.915123 0.850116 0.000000
0.942096 0.850751 0.000000
0.965516 0.853922 0.000000
0.983434 0.861575 0.090222
0.996258 0.865138 0.264900
1.000000 0.870727 0.369803
1.000000 0.877977 0.448920
1.000000 0.879929 0.509670
1.000000 0.885183 0.574438
1.000000 0.887284 0.622607
1.000000 0.891338 0.666173
0.000000 0.846597 0.000000
0.000000 0.846597 0.000000
0.000000 0.846597 0.000000
0.000000 0.846597 0.000000
0.000000 0.846597 0.000000
