Assets/Lutify-Free-LUTs-Pack/Lutify Free LUTs Pack/Commercial Pro - Claire/Lutify.me-Claire-DJIDlog-to-Rec709.cube
# Created with: fylm.ai - Colour Grading and Collaboration Software in Cloud 
# Website: https://fylm.ai 
# META
# Option: Gamut compress
# Block 1: IDT | DJI D-Gamut D-Log
# Block 2: colourMatch | Blending Mode: Normal | {"ColorSpace":0,"CrossCovarianceLimit":50,"ReshapingIterations":1,"PercentSaturationShift":100,"PercentShadingShift":100,"ExtraShading":true,"PercentTint":100,"PercentModified":100}
# Block 3: HSL | Blending Mode: Normal | {"hue":{"Reds":0,"Yellows":0,"Greens":0,"Cyans":0,"Blues":0,"Magentas":0},"saturation":{"Reds":1,"Yellows":1,"Greens":1,"Cyans":1,"Blues":1,"Magentas":1},"luminance":{"Reds":0.9,"Yellows":0.9,"Greens":0.9,"Cyans":0.8,"Blues":0.8,"Magentas":0.9},"lum_sat":{"Blacks":1,"Shadows":1,"Midtones":1,"Highlights":1,"Whites":1},"sat_sat":{"10":1,"20":1,"30":1,"40":1,"50":1}}
# Block 4: subtractiveColour | Blending Mode: Normal | {"sliders":{"gainY":0.1,"C":0.05,"M":0.05,"Y":0.05}}
# Block 5: logPrimaries | Blending Mode: Normal | {"wheels":{"shadows":{"Y":"0","R":"1","G":"1","B":"1"},"midtones":{"Y":"0","R":"1","G":"1","B":"1"},"highlights":{"Y":"0","R":"1","G":"1","B":"1"},"offset":{"Y":"0","R":"1","G":"1","B":"1"}},"sliders":{"shadows":{"Y":0,"R":-0.05,"G":0,"B":0.1},"midtones":{"Y":0,"R":0,"G":0,"B":0},"highlights":{"Y":0,"R":0,"G":0,"B":0},"offset":{"Y":0,"R":0,"G":0,"B":0}}}
# Block 6: LUT | Filmic Curve Response: Standard Contrast 1 (100%)
# Block 7: LUT | Illuminant: D93 (100%)
# Block 8: LUT | Neutral Tint: Teal Tint 4 (100%)
# Block 9: ODT | Rec709
TITLE "Lutify.me-Claire-DJIDlog-to-Rec709" 
LUT_3D_SIZE 9
0.000000 0.000000 0.000000
0.060654 0.000000 0.000000
0.354103 0.000000 0.000000
0.481997 0.000000 0.000000
0.636198 0.000000 0.000000
0.916220 0.000000 0.000000
1.000000 0.344040 0.177117
1.000000 0.686149 0.419280
1.000000 0.884153 0.708663
0.000000 0.047608 0.000000
0.027512 0.041245 0.000000
0.276034 0.000000 0.000000
0.434126 0.000000 0.000000
0.640801 0.000000 0.000000
0.919615 0.000000 0.000000
1.000000 0.352761 0.176019
1.000000 0.689313 0.419109
1.000000 0.884153 0.708663
0.000000 0.173046 0.000000
0.000000 0.154964 0.000000
0.275869 0.109470 0.000000
0.447970 0.000000 0.000000
0.650516 0.000000 0.000000
0.918610 0.000000 0.000000
1.000000 0.369988 0.176047
1.000000 0.692591 0.418934
1.000000 0.885541 0.708809
0.000000 0.285220 0.000000
0.000000 0.279382 0.000000
0.268453 0.252159 0.000000
0.498176 0.198570 0.000000
0.676378 0.205324 0.000000
0.918013 0.218497 0.000000
1.000000 0.412580 0.170256
1.000000 0.702685 0.421516
1.000000 0.888293 0.709114
0.000000 0.483371 0.000000
0.000000 0.482393 0.000000
0.000000 0.472599 0.000000
0.452929 0.453883 0.000000
0.770533 0.386615 0.000000
0.924426 0.471152 0.000000
1.000000 0.540656 0.156648
1.000000 0.732200 0.424134
1.000000 0.892348 0.712179
0.000000 0.765339 0.000000
0.000000 0.768457 0.000000
0.000000 0.770689 0.000000
0.000000 0.766781 0.000000
0.620814 0.754455 0.000000
0.931189 0.702235 0.000000
1.000000 0.768929 0.051139
1.000000 0.815494 0.440135
1.000000 0.902971 0.719443
0.181609 0.930048 0.224336
0.245331 0.929507 0.220621
0.306838 0.928763 0.212956
0.417811 0.928270 0.190877
0.650468 0.919624 0.113055
0.868313 0.910238 0.000000
0.992309 0.895260 0.000000
1.000000 0.917339 0.475611
1.000000 0.937046 0.737597
0.762638 0.988492 0.617121
0.762638 0.988492 0.617121
0.769985 0.988162 0.614526
0.784302 0.987522 0.606645
0.819784 0.985204 0.595570
0.878704 0.983374 0.566346
0.966531 0.977717 0.523976
1.000000 0.970381 0.476376
1.000000 0.978550 0.774666
0.921202 1.000000 0.859799
0.922535 1.000000 0.859840
0.922535 1.000000 0.859840
0.923940 1.000000 0.858538
0.926718 1.000000 0.855921
0.939525 1.000000 0.849601
0.967942 1.000000 0.834504
1.000000 1.000000 0.809709
1.000000 0.998570 0.778224
0.000000 0.000000 0.056993
0.000000 0.000000 0.033686
0.295242 0.000000 0.000000
0.414575 0.000000 0.000000
0.619413 0.000000 0.000000
0.916190 0.000000 0.053041
1.000000 0.343442 0.190360
1.000000 0.686133 0.425336
1.000000 0.884153 0.708663
0.000000 0.023626 0.057459
0.000000 0.023410 0.045202
0.226871 0.000000 0.000000
0.379763 0.000000 0.000000
0.611279 0.000000 0.000000
0.915609 0.000000 0.049421
1.000000 0.352745 0.189884
1.000000 0.689297 0.425167
1.000000 0.885529 0.711402
0.000000 0.147002 0.055378
0.000000 0.166796 0.000000
0.206033 0.148334 0.000000
0.378688 0.105620 0.000000
0.616867 0.000000 0.000000
0.918309 0.000000 0.044214
1.000000 0.370519 0.190723
1.000000 0.692575 0.424995
1.000000 0.885529 0.711402
0.000000 0.303117 0.000000
0.000000 0.302731 0.000000
0.130116 0.297948 0.000000
0.403661 0.261537 0.000000
0.640253 0.246104 0.000000
0.917572 0.223823 0.000000
1.000000 0.413059 0.185656
1.000000 0.702678 0.424484
1.000000 0.888281 0.711699
0.000000 0.509187 0.000000
0.000000 0.512364 0.000000
0.000000 0.514306 0.000000
0.307032 0.504085 0.000000
0.682111 0.466053 0.000000
0.920142 0.479719 0.000000
1.000000 0.540666 0.177769
1.000000 0.732193 0.427076
1.000000 0.892348 0.712179
0.000000 0.779703 0.000000
0.000000 0.779190 0.000000
0.000000 0.781299 0.000000
0.000000 0.778025 0.000000
0.586573 0.769727 0.000000
0.906768 0.730233 0.000000
1.000000 0.771933 0.110315
1.000000 0.815482 0.445992
1.000000 0.902971 0.719443
0.144903 0.930165 0.278700
0.201248 0.929813 0.275019
0.303239 0.930204 0.261417
0.416436 0.928223 0.243191
0.642978 0.921348 0.188236
0.864286 0.911927 0.000000
0.991064 0.898395 0.000000
1.000000 0.918591 0.481679
1.000000 0.937036 0.739835
0.762059 0.988452 0.628419
0.765835 0.988292 0.625646
0.769421 0.988123 0.625738
0.787011 0.987309 0.620595
0.822235 0.985626 0.605347
0.878128 0.983326 0.581532
0.966282 0.977693 0.532323
1.000000 0.971013 0.486481
1.000000 0.979040 0.776960
0.921119 1.000000 0.861136
0.922452 1.000000 0.861176
0.922452 1.000000 0.861176
0.923857 1.000000 0.859881
0.926551 1.000000 0.858625
0.939443 1.000000 0.850978
0.967864 1.000000 0.835885
1.000000 1.000000 0.810846
1.000000 0.998563 0.779813
0.000000 0.000000 0.206330
0.000000 0.000000 0.093713
0.238292 0.000000 0.054474
0.389227 0.000000 0.051144
0.599152 0.000000 0.071589
0.908333 0.000000 0.103010
1.000000 0.347774 0.218573
1.000000 0.689280 0.431049
1.000000 0.885518 0.713986
0.000000 0.000000 0.159324
0.000000 0.000000 0.114931
0.189543 0.000000 0.086206
0.348674 0.000000 0.085372
0.594966 0.000000 0.077599
0.911686 0.000000 0.102729
1.000000 0.356483 0.217768
1.000000 0.689280 0.431049
1.000000 0.885518 0.713986
0.000000 0.133955 0.226245
0.000000 0.142551 0.232647
0.125391 0.165025 0.229634
0.330785 0.135173 0.146420
0.595080 0.000000 0.081988
0.910358 0.000000 0.105564
1.000000 0.369935 0.219481
1.000000 0.692551 0.433837
1.000000 0.885518 0.713986
0.000000 0.252505 0.283459
0.000000 0.275579 0.272059
0.000000 0.328646 0.213242
0.328324 0.312799 0.134489
0.617357 0.267219 0.061243
0.913494 0.220042 0.101772
1.000000 0.413037 0.215954
1.000000 0.702655 0.433336
1.000000 0.888270 0.714275
0.000000 0.527707 0.217715
0.000000 0.534768 0.188727
0.000000 0.548450 0.128777
0.181946 0.543482 0.000000
0.635960 0.516515 0.000000
0.910520 0.500987 0.000000
1.000000 0.540682 0.213387
1.000000 0.732164 0.438935
1.000000 0.892326 0.717297
0.000000 0.793331 0.179124
0.000000 0.792862 0.161304
0.000000 0.795027 0.122019
0.000000 0.795031 0.000000
0.547994 0.787465 0.000000
0.892473 0.755702 0.000000
1.000000 0.774832 0.176377
1.000000 0.817713 0.460937
1.000000 0.902961 0.721938
0.184589 0.932637 0.363513
0.229469 0.932281 0.359920
0.295677 0.931547 0.352752
0.401227 0.931257 0.332179
0.633763 0.924486 0.283754
0.859098 0.915066 0.193875
0.988344 0.901521 0.063003
1.000000 0.918526 0.496310
1.000000 0.937026 0.742065
0.761051 0.988962 0.649823
0.761051 0.988962 0.649823
0.768411 0.988635 0.647132
0.782475 0.987980 0.644628
0.818157 0.985691 0.630171
0.877180 0.983862 0.601267
0.965427 0.978254 0.551399
1.000000 0.971621 0.502648
1.000000 0.979025 0.780119
0.920954 1.000000 0.863788
0.922287 1.000000 0.863826
0.922287 1.000000 0.863826
0.923609 1.000000 0.863865
0.926386 1.000000 0.861300
0.939196 1.000000 0.855074
0.967621 1.000000 0.839330
1.000000 1.000000 0.815411
1.000000 0.998548 0.783032
0.000000 0.000000 0.272558
0.000000 0.000000 0.132278
0.180524 0.000000 0.085146
0.394848 0.000000 0.071457
0.576842 0.000000 0.156945
0.896468 0.000000 0.182442
1.000000 0.348219 0.262032
1.000000 0.689200 0.457997
1.000000 0.885494 0.719127
0.000000 0.000000 0.218645
0.000000 0.000000 0.167948
0.141507 0.000000 0.144567
0.344241 0.000000 0.125399
0.569787 0.000000 0.185798
0.899819 0.000000 0.185761
1.000000 0.356921 0.261429
1.000000 0.692480 0.457838
1.000000 0.885494 0.719127
0.000000 0.097311 0.275865
0.000000 0.101271 0.271135
0.000000 0.112593 0.297071
0.311745 0.076461 0.282812
0.574207 0.000000 0.229947
0.898262 0.000000 0.192403
1.000000 0.374104 0.265110
1.000000 0.695872 0.457676
1.000000 0.888247 0.719399
0.000000 0.237124 0.376356
0.000000 0.256733 0.399245
0.000000 0.289293 0.432299
0.260684 0.322657 0.428356
0.575676 0.284300 0.292672
0.900909 0.218760 0.206899
1.000000 0.416629 0.269857
1.000000 0.705899 0.460260
1.000000 0.888235 0.721947
0.000000 0.476385 0.498394
0.000000 0.486918 0.490495
0.000000 0.515142 0.470655
0.000000 0.574412 0.427216
0.589476 0.561909 0.309485
0.902042 0.518199 0.211416
1.000000 0.544409 0.277867
1.000000 0.731567 0.465370
1.000000 0.892303 0.722376
0.000000 0.802949 0.439971
0.000000 0.805616 0.436148
0.000000 0.810804 0.417219
0.000000 0.810728 0.365119
0.511036 0.803644 0.269635
0.876602 0.779130 0.125947
1.000000 0.780637 0.285920
1.000000 0.817653 0.488134
1.000000 0.902927 0.729366
0.000000 0.942898 0.495077
0.077916 0.942392 0.491641
0.238847 0.941525 0.481254
0.367239 0.938486 0.459904
0.593969 0.931249 0.422706
0.857696 0.920578 0.331562
0.983805 0.907517 0.245082
1.000000 0.919720 0.523899
1.000000 0.937937 0.753388
0.755175 0.989539 0.692858
0.755338 0.989550 0.690120
0.762526 0.989217 0.690239
0.776778 0.988561 0.687757
0.815705 0.986701 0.677700
0.873037 0.984432 0.642937
0.962507 0.979433 0.586075
1.000000 0.972826 0.537145
1.000000 0.979495 0.785457
0.920647 1.000000 0.869435
0.920647 1.000000 0.869435
0.921978 1.000000 0.869469
0.923298 1.000000 0.869504
0.927353 1.000000 0.867056
0.938765 1.000000 0.862260
0.967236 1.000000 0.846092
1.000000 1.000000 0.820874
1.000000 0.998744 0.789942
0.000000 0.000000 0.257075
0.000000 0.000000 0.173272
0.122822 0.000000 0.144577
0.329612 0.000000 0.124150
0.612842 0.000000 0.121548
0.870584 0.000000 0.349404
1.000000 0.346799 0.390712
1.000000 0.689013 0.510963
1.000000 0.885400 0.739274
0.000000 0.000000 0.265853
0.000000 0.020795 0.229252
0.065704 0.000000 0.218153
0.290720 0.000000 0.208184
0.557032 0.000000 0.197918
0.874514 0.000000 0.368053
1.000000 0.355542 0.393743
1.000000 0.692295 0.510817
1.000000 0.885400 0.739274
0.000000 0.080814 0.329898
0.000000 0.087901 0.326970
0.000000 0.091067 0.338162
0.240388 0.055032 0.370033
0.549202 0.000000 0.331389
0.877271 0.000000 0.394118
1.000000 0.372848 0.396454
1.000000 0.695677 0.513863
1.000000 0.888154 0.739483
0.000000 0.194190 0.442524
0.000000 0.209015 0.456092
0.000000 0.220635 0.491461
0.115987 0.235263 0.534472
0.554352 0.207990 0.517875
0.887906 0.174948 0.432667
1.000000 0.415619 0.401454
1.000000 0.706362 0.514107
1.000000 0.889518 0.739593
0.000000 0.426857 0.622024
0.000000 0.447391 0.644305
0.000000 0.475177 0.662371
0.000000 0.508527 0.687723
0.505069 0.580006 0.695948
0.865231 0.537688 0.528872
1.000000 0.539550 0.428536
1.000000 0.732452 0.523443
1.000000 0.892211 0.742272
0.000000 0.743761 0.747095
0.000000 0.747327 0.739784
0.000000 0.757903 0.735745
0.000000 0.793682 0.723297
0.402815 0.834392 0.689106
0.849147 0.815917 0.570264
0.998949 0.791596 0.468856
1.000000 0.817267 0.547095
1.000000 0.904117 0.746474
0.000000 0.947171 0.723794
0.000000 0.946871 0.720618
0.000000 0.947553 0.714431
0.272548 0.946390 0.708244
0.567293 0.941510 0.671746
0.840141 0.928632 0.585974
0.972053 0.922581 0.487648
1.000000 0.921987 0.602048
1.000000 0.938886 0.771141
0.749642 0.991347 0.788258
0.749804 0.991359 0.785978
0.756970 0.991031 0.786019
0.771182 0.990386 0.783815
0.801022 0.988459 0.774138
0.869776 0.986195 0.741416
0.955502 0.982547 0.694870
1.000000 0.976213 0.619870
1.000000 0.979432 0.801239
0.919554 1.000000 0.888239
0.919554 1.000000 0.888239
0.920880 1.000000 0.888262
0.922195 1.000000 0.888286
0.926226 1.000000 0.886037
0.937581 1.000000 0.881669
0.965877 1.000000 0.867849
0.999191 1.000000 0.841667
1.000000 0.999322 0.807911
0.000000 0.000000 0.257196
0.000000 0.000000 0.238201
0.111013 0.000000 0.239770
0.252211 0.000000 0.230692
0.506439 0.000000 0.233181
0.842465 0.000000 0.299094
1.000000 0.277764 0.622727
1.000000 0.688278 0.648512
1.000000 0.885421 0.782458
0.000000 0.037436 0.322232
0.000000 0.039709 0.319497
0.000000 0.030181 0.322057
0.197752 0.000000 0.334746
0.490508 0.000000 0.340414
0.834719 0.000000 0.371635
1.000000 0.292938 0.630025
1.000000 0.691548 0.651871
1.000000 0.885421 0.782458
0.000000 0.097552 0.427768
0.000000 0.102737 0.431115
0.000000 0.103770 0.451872
0.089295 0.102007 0.458453
0.472971 0.000000 0.484343
0.841538 0.000000 0.465671
1.000000 0.321254 0.636922
1.000000 0.694956 0.651730
1.000000 0.888167 0.782537
0.000000 0.184142 0.529113
0.000000 0.190103 0.536332
0.000000 0.193434 0.558534
0.000000 0.203286 0.592082
0.433748 0.178039 0.635981
0.860756 0.000000 0.584342
1.000000 0.375682 0.654591
1.000000 0.708927 0.658596
1.000000 0.889528 0.782581
0.000000 0.367101 0.686707
0.000000 0.376242 0.701779
0.000000 0.385394 0.720233
0.000000 0.403987 0.744562
0.310407 0.444536 0.792996
0.858943 0.439503 0.779111
1.000000 0.511220 0.709832
1.000000 0.734316 0.671552
1.000000 0.893550 0.785054
0.000000 0.689087 0.847865
0.000000 0.696641 0.852154
0.000000 0.708549 0.858333
0.000000 0.735279 0.869697
0.000000 0.785083 0.879630
0.789394 0.832479 0.881724
0.976855 0.807096 0.788661
1.000000 0.818764 0.700419
1.000000 0.904429 0.791270
0.000000 0.924687 0.900890
0.000000 0.924363 0.900864
0.000000 0.925235 0.902269
0.000000 0.928468 0.900319
0.278114 0.935412 0.894385
0.798654 0.944378 0.884523
0.952081 0.934974 0.830366
1.000000 0.925083 0.751521
1.000000 0.938710 0.810169
0.716399 0.993944 0.901552
0.720156 0.993784 0.901546
0.723874 0.993624 0.901539
0.738751 0.993505 0.900225
0.786932 0.992823 0.896289
0.851675 0.989691 0.877314
0.947668 0.985429 0.842962
1.000000 0.980998 0.782902
1.000000 0.981602 0.846165
0.915872 1.000000 0.928743
0.915938 1.000000 0.927779
0.917259 1.000000 0.927787
0.918571 1.000000 0.927794
0.922624 1.000000 0.926039
0.933913 1.000000 0.922179
0.961540 1.000000 0.907914
0.996242 1.000000 0.886519
1.000000 1.000000 0.851535
0.000000 0.049528 0.431687
0.000000 0.047598 0.435057
0.000000 0.041778 0.448727
0.174887 0.000000 0.462177
0.387375 0.000000 0.503219
0.769592 0.000000 0.537169
1.000000 0.000000 0.595147
1.000000 0.643990 0.845814
1.000000 0.888871 0.858718
0.000000 0.087056 0.509240
0.000000 0.089074 0.509165
0.000000 0.086016 0.509048
0.114318 0.077832 0.523252
0.362852 0.000000 0.569521
0.764707 0.000000 0.592843
1.000000 0.000000 0.621179
1.000000 0.647480 0.845648
1.000000 0.888871 0.858718
0.000000 0.138407 0.578707
0.000000 0.141330 0.582427
0.000000 0.143265 0.593757
0.000000 0.140322 0.604968
0.324447 0.114392 0.638052
0.768705 0.000000 0.657283
1.000000 0.000000 0.669614
1.000000 0.654363 0.847568
1.000000 0.888859 0.860497
0.000000 0.219055 0.668950
0.000000 0.218648 0.676682
0.000000 0.220025 0.684322
0.000000 0.228421 0.699301
0.251510 0.217452 0.728582
0.754039 0.097661 0.773371
1.000000 0.000000 0.734870
1.000000 0.667922 0.851339
1.000000 0.890435 0.860637
0.000000 0.344713 0.778847
0.000000 0.347448 0.785626
0.000000 0.353013 0.792099
0.000000 0.364063 0.804495
0.000000 0.380641 0.835251
0.725635 0.367892 0.860951
1.000000 0.333750 0.833908
1.000000 0.710440 0.860081
1.000000 0.894445 0.862287
0.000000 0.615934 0.887688
0.000000 0.619678 0.889476
0.000000 0.627109 0.893076
0.000000 0.630240 0.900576
0.000000 0.658023 0.914241
0.619301 0.709460 0.930667
0.989688 0.728954 0.922070
1.000000 0.804987 0.889172
1.000000 0.906008 0.867162
0.000000 0.898115 0.951748
0.000000 0.900017 0.951583
0.000000 0.901586 0.951391
0.000000 0.906503 0.952934
0.000000 0.917005 0.959251
0.613347 0.928182 0.962921
0.929067 0.944876 0.963175
1.000000 0.935841 0.925399
1.000000 0.938360 0.883505
0.508375 0.988481 0.972135
0.516578 0.988929 0.972074
0.530422 0.988547 0.972043
0.557436 0.988427 0.971255
0.632416 0.987889 0.970937
0.784086 0.987489 0.970125
0.930865 0.991095 0.967967
0.993340 0.986688 0.943393
1.000000 0.983102 0.913105
0.906419 1.000000 0.973660
0.907898 1.000000 0.973684
0.907898 1.000000 0.973684
0.909249 1.000000 0.973681
0.914563 1.000000 0.973104
0.928457 1.000000 0.972029
0.957483 1.000000 0.965444
0.991269 1.000000 0.948478
1.000000 1.000000 0.922599
0.000000 0.178037 0.741649
0.000000 0.177296 0.741595
0.000000 0.175471 0.741466
0.115476 0.171848 0.744817
0.305749 0.167772 0.764507
0.629242 0.098081 0.814400
1.000000 0.000000 0.838302
1.000000 0.252954 0.854154
1.000000 0.870917 0.948800
0.000000 0.203406 0.762097
0.000000 0.202702 0.765456
0.000000 0.203408 0.765280
0.069699 0.198099 0.765098
0.290508 0.191830 0.785344
0.611203 0.148670 0.828860
1.000000 0.000000 0.848206
1.000000 0.269771 0.856275
1.000000 0.870896 0.949764
0.000000 0.234313 0.796112
0.000000 0.236201 0.795997
0.000000 0.237208 0.799122
0.000000 0.234703 0.802181
0.268351 0.227448 0.807771
0.601123 0.195103 0.844543
1.000000 0.000000 0.862170
1.000000 0.297748 0.867052
1.000000 0.872430 0.949668
0.000000 0.287004 0.831483
0.000000 0.286618 0.834259
0.000000 0.285595 0.836922
0.000000 0.289294 0.844601
0.214297 0.291104 0.851448
0.573339 0.271960 0.875075
1.000000 0.182454 0.889217
1.000000 0.356531 0.886678
1.000000 0.873946 0.949574
0.000000 0.402768 0.883930
0.000000 0.406034 0.885929
0.000000 0.408945 0.887853
0.000000 0.407931 0.894004
0.000000 0.417797 0.903045
0.510419 0.421652 0.913661
0.995063 0.412754 0.934682
1.000000 0.472713 0.915645
1.000000 0.880030 0.951108
0.000000 0.588352 0.929921
0.000000 0.588216 0.931417
0.000000 0.588050 0.934378
0.000000 0.591317 0.938453
0.000000 0.611716 0.943806
0.420304 0.635767 0.955864
0.937939 0.661159 0.964861
1.000000 0.678127 0.951347
1.000000 0.896760 0.955518
0.000000 0.851622 0.969467
0.000000 0.851513 0.969456
0.000000 0.853695 0.970122
0.000000 0.855478 0.971598
0.000000 0.863086 0.974012
0.189886 0.878065 0.979934
0.869150 0.895059 0.986407
1.000000 0.907007 0.981580
1.000000 0.934682 0.966195
0.000000 0.983610 0.993251
0.000000 0.983494 0.993240
0.000000 0.984080 0.993146
0.000000 0.984004 0.993406
0.000000 0.984413 0.993826
0.550664 0.983566 0.994876
0.864816 0.983658 0.996489
0.984832 0.989534 0.997386
1.000000 0.985868 0.983355
0.840834 1.000000 0.999498
0.840834 1.000000 0.999498
0.842820 1.000000 0.999490
0.845044 1.000000 0.999466
0.850856 1.000000 0.999442
0.871596 1.000000 0.999524
0.927723 1.000000 0.998933
0.986649 1.000000 0.998745
1.000000 1.000000 0.990292
0.224428 0.360266 0.926988
0.248790 0.359477 0.926904
0.264033 0.358922 0.926846
0.299331 0.357467 0.928334
0.392786 0.355515 0.927690
0.585535 0.355786 0.936533
0.918494 0.353344 0.953894
1.000000 0.416259 0.963743
1.000000 0.636261 0.963297
0.213125 0.370460 0.931470
0.239099 0.369701 0.931388
0.255156 0.369168 0.931331
0.294487 0.364318 0.931306
0.389426 0.362555 0.930665
0.581741 0.371139 0.937562
0.912978 0.367807 0.956109
1.000000 0.425595 0.964555
1.000000 0.639111 0.963165
0.188058 0.391324 0.935375
0.217611 0.390672 0.936839
0.235748 0.390179 0.936785
0.276645 0.388851 0.936641
0.383301 0.387373 0.937507
0.571832 0.387222 0.942996
0.909378 0.390570 0.960375
1.000000 0.443078 0.966177
1.000000 0.648612 0.964643
0.077144 0.430878 0.945701
0.127912 0.430479 0.945655
0.173716 0.429905 0.947005
0.235725 0.432127 0.946697
0.358552 0.431423 0.947478
0.548719 0.426776 0.950119
0.894507 0.435743 0.964911
1.000000 0.474249 0.970281
1.000000 0.663432 0.968535
0.000000 0.511815 0.958078
0.000000 0.515484 0.959120
0.000000 0.514815 0.959041
0.000000 0.517746 0.959982
0.284398 0.522197 0.964006
0.514050 0.512868 0.966435
0.864058 0.524063 0.976302
1.000000 0.560635 0.981543
1.000000 0.701710 0.973542
0.000000 0.654564 0.976526
0.000000 0.658167 0.976272
0.000000 0.657841 0.977155
0.000000 0.661069 0.977768
0.000000 0.666391 0.978839
0.418765 0.683206 0.984388
0.809516 0.675850 0.987826
1.000000 0.735735 0.991752
1.000000 0.777707 0.982884
0.000000 0.833183 0.989946
0.000000 0.833093 0.990572
0.000000 0.835351 0.990351
0.000000 0.837471 0.990748
0.000000 0.840707 0.991426
0.276345 0.842996 0.994310
0.747368 0.854093 0.997334
0.994728 0.869774 0.999952
1.000000 0.880378 0.994530
0.000000 0.959964 1.000000
0.000000 0.959964 1.000000
0.000000 0.959680 1.000000
0.000000 0.961487 1.000000
0.000000 0.962135 1.000000
0.423705 0.961468 1.000000
0.739647 0.961639 1.000000
0.956442 0.968500 1.000000
1.000000 0.975865 1.000000
0.653788 1.000000 1.000000
0.657357 1.000000 1.000000
0.662107 1.000000 1.000000
0.665607 1.000000 1.000000
0.687381 1.000000 1.000000
0.737919 1.000000 1.000000
0.842824 1.000000 1.000000
0.959484 1.000000 1.000000
1.000000 1.000000 1.000000
