Assets/Lutify-Free-LUTs-Pack/Lutify Free LUTs Pack/Commercial Pro - Claire/Lutify.me-Claire-DragonColor2RLF-to-Rec709.cube
# Created with: fylm.ai - Colour Grading and Collaboration Software in Cloud 
# Website: https://fylm.ai 
# META
# Option: Gamut compress
# Block 1: IDT | RED DragonColor2 REDLogFilm
# Block 2: colourMatch | Blending Mode: Normal | {"ColorSpace":0,"CrossCovarianceLimit":50,"ReshapingIterations":1,"PercentSaturationShift":100,"PercentShadingShift":100,"ExtraShading":true,"PercentTint":100,"PercentModified":100}
# Block 3: HSL | Blending Mode: Normal | {"hue":{"Reds":0,"Yellows":0,"Greens":0,"Cyans":0,"Blues":0,"Magentas":0},"saturation":{"Reds":1,"Yellows":1,"Greens":1,"Cyans":1,"Blues":1,"Magentas":1},"luminance":{"Reds":0.9,"Yellows":0.9,"Greens":0.9,"Cyans":0.8,"Blues":0.8,"Magentas":0.9},"lum_sat":{"Blacks":1,"Shadows":1,"Midtones":1,"Highlights":1,"Whites":1},"sat_sat":{"10":1,"20":1,"30":1,"40":1,"50":1}}
# Block 4: subtractiveColour | Blending Mode: Normal | {"sliders":{"gainY":0.1,"C":0.05,"M":0.05,"Y":0.05}}
# Block 5: logPrimaries | Blending Mode: Normal | {"wheels":{"shadows":{"Y":"0","R":"1","G":"1","B":"1"},"midtones":{"Y":"0","R":"1","G":"1","B":"1"},"highlights":{"Y":"0","R":"1","G":"1","B":"1"},"offset":{"Y":"0","R":"1","G":"1","B":"1"}},"sliders":{"shadows":{"Y":0,"R":-0.05,"G":0,"B":0.1},"midtones":{"Y":0,"R":0,"G":0,"B":0},"highlights":{"Y":0,"R":0,"G":0,"B":0},"offset":{"Y":0,"R":0,"G":0,"B":0}}}
# Block 6: LUT | Filmic Curve Response: Standard Contrast 1 (100%)
# Block 7: LUT | Illuminant: D93 (100%)
# Block 8: LUT | Neutral Tint: Teal Tint 4 (100%)
# Block 9: ODT | Rec709
TITLE "Lutify.me-Claire-DragonColor2RLF-to-Rec709" 
LUT_3D_SIZE 33
0.000000 0.000000 0.000000
0.000000 0.000000 0.000000
0.029606 0.000000 0.000000
0.000000 0.000000 0.000000
0.000000 0.000000 0.009610
0.012284 0.000000 0.000000
0.063046 0.000000 0.000000
0.111237 0.000000 0.000000
0.155329 0.000000 0.000000
0.198071 0.000000 0.000000
0.241783 0.000000 0.000000
0.281895 0.000000 0.000000
0.325615 0.000000 0.000000
0.362201 0.000000 0.000000
0.390152 0.000000 0.000000
0.427067 0.000000 0.000000
0.471479 0.000000 0.000000
0.524011 0.000000 0.000000
0.576970 0.000000 0.000000
0.631694 0.000000 0.000000
0.683429 0.000000 0.000000
0.745949 0.000000 0.000000
0.803167 0.000000 0.000000
0.863500 0.000000 0.000000
0.913326 0.000000 0.000000
0.970243 0.000000 0.000000
1.000000 0.000000 0.000000
1.000000 0.091602 0.000000
1.000000 0.237445 0.000000
1.000000 0.310477 0.000000
1.000000 0.390945 0.000000
1.000000 0.475613 0.082075
1.000000 0.553262 0.135834
0.000000 0.000000 0.000000
0.000000 0.000000 0.000000
0.000000 0.000000 0.000000
0.000000 0.000000 0.000000
0.000000 0.000000 0.000000
0.018629 0.000000 0.000000
0.067454 0.000000 0.000000
0.112172 0.000000 0.000000
0.155378 0.000000 0.000000
0.196341 0.000000 0.000000
0.237927 0.000000 0.000000
0.279696 0.000000 0.000000
0.320696 0.000000 0.000000
0.359586 0.000000 0.000000
0.387314 0.000000 0.000000
0.423918 0.000000 0.000000
0.471510 0.000000 0.000000
0.524051 0.000000 0.000000
0.576993 0.000000 0.000000
0.631717 0.000000 0.000000
0.683440 0.000000 0.000000
0.745956 0.000000 0.000000
0.803167 0.000000 0.000000
0.863474 0.000000 0.000000
0.913323 0.000000 0.000000
0.970243 0.000000 0.000000
1.000000 0.000000 0.000000
1.000000 0.091602 0.000000
1.000000 0.237445 0.000000
1.000000 0.310477 0.000000
1.000000 0.390945 0.000000
1.000000 0.475613 0.082075
1.000000 0.553262 0.135834
0.000000 0.000000 0.000000
0.000000 0.000000 0.000000
0.000000 0.000000 0.000000
0.000000 0.000000 0.000000
0.000000 0.000000 0.000000
0.026636 0.000000 0.000000
0.069833 0.000000 0.000000
0.112998 0.000000 0.000000
0.155480 0.000000 0.000000
0.194716 0.000000 0.000000
0.234125 0.000000 0.000000
0.275256 0.000000 0.000000
0.313481 0.000000 0.000000
0.354381 0.000000 0.000000
0.384557 0.000000 0.000000
0.420806 0.000000 0.000000
0.467998 0.000000 0.000000
0.524106 0.000000 0.000000
0.577029 0.000000 0.000000
0.631755 0.000000 0.000000
0.683452 0.000000 0.000000
0.745962 0.000000 0.000000
0.803162 0.000000 0.000000
0.863447 0.000000 0.000000
0.913265 0.000000 0.000000
0.970243 0.000000 0.000000
1.000000 0.000000 0.000000
1.000000 0.091602 0.000000
1.000000 0.237445 0.000000
1.000000 0.315006 0.000000
1.000000 0.390945 0.000000
1.000000 0.475613 0.082075
1.000000 0.553262 0.135834
0.000000 0.000000 0.013024
0.000000 0.000000 0.013810
0.000000 0.000000 0.012892
0.000000 0.000000 0.012288
0.000000 0.000000 0.000000
0.032407 0.000000 0.000000
0.072254 0.000000 0.000000
0.112697 0.000000 0.000000
0.152944 0.000000 0.000000
0.191304 0.000000 0.000000
0.229893 0.000000 0.000000
0.268725 0.000000 0.000000
0.308805 0.000000 0.000000
0.349266 0.000000 0.000000
0.378986 0.000000 0.000000
0.417725 0.000000 0.000000
0.468052 0.000000 0.000000
0.524161 0.000000 0.000000
0.572960 0.000000 0.000000
0.631782 0.000000 0.000000
0.683487 0.000000 0.000000
0.745974 0.000000 0.000000
0.803157 0.000000 0.000000
0.863446 0.000000 0.000000
0.913206 0.000000 0.000000
0.970146 0.000000 0.000000
1.000000 0.000000 0.000000
1.000000 0.105515 0.000000
1.000000 0.237445 0.000000
1.000000 0.315006 0.000000
1.000000 0.390945 0.000000
1.000000 0.475613 0.082075
1.000000 0.553262 0.135834
0.000000 0.000000 0.000000
0.000000 0.000000 0.000000
0.000000 0.000000 0.000000
0.000000 0.000000 0.000000
0.000000 0.000000 0.000000
0.026972 0.000000 0.000000
0.067086 0.000000 0.000000
0.106877 0.000000 0.000000
0.143078 0.000000 0.000000
0.182720 0.000000 0.000000
0.219597 0.000000 0.000000
0.262394 0.000000 0.000000
0.301989 0.000000 0.000000
0.338824 0.000000 0.000000
0.376302 0.000000 0.000000
0.417817 0.000000 0.000000
0.468154 0.000000 0.000000
0.524229 0.000000 0.000000
0.573016 0.000000 0.000000
0.627568 0.000000 0.000000
0.683512 0.000000 0.000000
0.745993 0.000000 0.000000
0.803147 0.000000 0.000000
0.867852 0.000000 0.000000
0.913203 0.000000 0.000000
0.970043 0.000000 0.000000
1.000000 0.000000 0.000000
1.000000 0.105515 0.000000
1.000000 0.242840 0.000000
1.000000 0.315006 0.000000
1.000000 0.390945 0.000000
1.000000 0.479426 0.079833
1.000000 0.553262 0.135834
0.000000 0.034392 0.000000
0.000000 0.034245 0.000000
0.000000 0.033373 0.000000
0.000000 0.032403 0.000000
0.000000 0.031681 0.000000
0.022173 0.026469 0.000000
0.059768 0.015016 0.000000
0.094527 0.000000 0.000000
0.132303 0.000000 0.000000
0.169433 0.000000 0.000000
0.204159 0.000000 0.000000
0.248399 0.000000 0.000000
0.288892 0.000000 0.000000
0.328726 0.000000 0.000000
0.370910 0.000000 0.000000
0.411732 0.000000 0.000000
0.468304 0.000000 0.000000
0.524330 0.000000 0.000000
0.568987 0.000000 0.000000
0.627630 0.000000 0.000000
0.679229 0.000000 0.000000
0.741259 0.000000 0.000000
0.803135 0.000000 0.000000
0.867792 0.000000 0.000000
0.913080 0.000000 0.000000
0.969941 0.000000 0.000000
1.000000 0.000000 0.000000
1.000000 0.117325 0.000000
1.000000 0.242840 0.000000
1.000000 0.315006 0.000000
1.000000 0.390945 0.000000
1.000000 0.479426 0.079833
1.000000 0.553262 0.135834
0.000000 0.057113 0.000000
0.000000 0.057004 0.000000
0.000000 0.056164 0.000000
0.000000 0.054521 0.000000
0.000000 0.054328 0.000000
0.021116 0.050864 0.000000
0.057404 0.047203 0.000000
0.089364 0.038758 0.000000
0.127589 0.020713 0.000000
0.162684 0.000000 0.000000
0.196097 0.000000 0.000000
0.240609 0.000000 0.000000
0.282625 0.000000 0.000000
0.324013 0.000000 0.000000
0.368444 0.000000 0.000000
0.408920 0.000000 0.000000
0.464932 0.000000 0.000000
0.520516 0.000000 0.000000
0.569109 0.000000 0.000000
0.627698 0.000000 0.000000
0.679287 0.000000 0.000000
0.741282 0.000000 0.000000
0.803122 0.000000 0.000000
0.867732 0.000000 0.000000
0.913015 0.000000 0.000000
0.969838 0.000000 0.000000
1.000000 0.000000 0.000000
1.000000 0.117325 0.000000
1.000000 0.242840 0.000000
1.000000 0.319505 0.000000
1.000000 0.394995 0.000000
1.000000 0.479426 0.079833
1.000000 0.553262 0.135834
0.000000 0.077725 0.000000
0.000000 0.076661 0.000000
0.000000 0.075499 0.000000
0.000000 0.074405 0.000000
0.000000 0.073105 0.000000
0.000000 0.072375 0.000000
0.056253 0.067587 0.000000
0.090756 0.062397 0.000000
0.124481 0.052769 0.000000
0.160153 0.039955 0.000000
0.195090 0.000000 0.000000
0.240807 0.000000 0.000000
0.278677 0.000000 0.000000
0.317081 0.000000 0.000000
0.363537 0.000000 0.000000
0.403209 0.000000 0.000000
0.458204 0.000000 0.000000
0.516834 0.000000 0.000000
0.569259 0.000000 0.000000
0.627810 0.000000 0.000000
0.679366 0.000000 0.000000
0.741314 0.000000 0.000000
0.803102 0.000000 0.000000
0.867666 0.000000 0.000000
0.912884 0.000000 0.000000
0.969730 0.000000 0.000000
1.000000 0.000000 0.000000
1.000000 0.127976 0.000000
1.000000 0.248168 0.000000
1.000000 0.319505 0.000000
1.000000 0.394994 0.000000
1.000000 0.479426 0.079833
1.000000 0.556920 0.134625
0.000000 0.098932 0.000000
0.000000 0.098849 0.000000
0.000000 0.098726 0.000000
0.000000 0.097285 0.000000
0.000000 0.093443 0.000000
0.000000 0.092951 0.000000
0.060025 0.089622 0.000000
0.098811 0.082956 0.000000
0.133019 0.077081 0.000000
0.165569 0.069133 0.000000
0.201789 0.056368 0.000000
0.246969 0.000000 0.000000
0.278900 0.000000 0.000000
0.315164 0.000000 0.000000
0.361462 0.000000 0.000000
0.403745 0.000000 0.000000
0.458663 0.000000 0.000000
0.517184 0.000000 0.000000
0.569489 0.000000 0.000000
0.628006 0.000000 0.000000
0.679511 0.000000 0.000000
0.741349 0.000000 0.000000
0.803078 0.000000 0.000000
0.867566 0.000000 0.000000
0.912677 0.000000 0.000000
0.969513 0.000000 0.000000
1.000000 0.000000 0.000000
1.000000 0.146498 0.000000
1.000000 0.253423 0.000000
1.000000 0.323975 0.000000
1.000000 0.399036 0.000000
1.000000 0.483258 0.084718
1.000000 0.556920 0.134625
0.000000 0.122668 0.000000
0.000000 0.122527 0.000000
0.000000 0.122319 0.000000
0.000000 0.120647 0.000000
0.000000 0.117499 0.000000
0.000000 0.115627 0.000000
0.063132 0.114645 0.000000
0.103143 0.110232 0.000000
0.135744 0.105085 0.000000
0.173197 0.093630 0.000000
0.210780 0.083882 0.000000
0.246789 0.072528 0.000000
0.283492 0.053046 0.000000
0.323208 0.000000 0.000000
0.364906 0.000000 0.000000
0.404642 0.000000 0.000000
0.459537 0.000000 0.000000
0.521854 0.000000 0.000000
0.565960 0.000000 0.000000
0.628338 0.000000 0.000000
0.679685 0.000000 0.000000
0.741407 0.000000 0.000000
0.812550 0.000000 0.000000
0.867460 0.000000 0.000000
0.916452 0.000000 0.000000
0.969286 0.000000 0.000000
1.000000 0.000000 0.000000
1.000000 0.154907 0.000000
1.000000 0.258603 0.000000
1.000000 0.323975 0.000000
1.000000 0.399036 0.000000
1.000000 0.483258 0.084718
1.000000 0.556920 0.134625
0.000000 0.150818 0.000000
0.000000 0.150712 0.000000
0.000000 0.150580 0.000000
0.000000 0.148788 0.000000
0.000000 0.146915 0.000000
0.000000 0.144774 0.000000
0.065475 0.142424 0.000000
0.107135 0.141157 0.000000
0.142145 0.136191 0.000000
0.177739 0.130238 0.000000
0.218575 0.117476 0.000000
0.256012 0.109162 0.000000
0.290168 0.098273 0.000000
0.329307 0.081821 0.000000
0.369144 0.054342 0.000000
0.409085 0.000000 0.000000
0.460952 0.000000 0.000000
0.515284 0.000000 0.000000
0.570938 0.000000 0.000000
0.628852 0.000000 0.000000
0.684244 0.000000 0.000000
0.746197 0.000000 0.000000
0.802996 0.000000 0.000000
0.862902 0.000000 0.000000
0.916223 0.000000 0.000000
0.968929 0.000000 0.000000
1.000000 0.000000 0.000000
1.000000 0.170388 0.000000
1.000000 0.263713 0.000000
1.000000 0.332840 0.000000
1.000000 0.403070 0.000000
1.000000 0.487090 0.082527
1.000000 0.561483 0.137884
0.000000 0.180581 0.000000
0.000000 0.180479 0.000000
0.000000 0.178410 0.000000
0.000000 0.176276 0.000000
0.000000 0.175945 0.000000
0.000000 0.175496 0.000000
0.063954 0.172921 0.000000
0.111364 0.171806 0.000000
0.147965 0.168406 0.000000
0.185910 0.158557 0.000000
0.227319 0.148701 0.000000
0.264060 0.137461 0.000000
0.301259 0.128199 0.000000
0.337799 0.117060 0.000000
0.378879 0.103770 0.000000
0.417040 0.083278 0.000000
0.469722 0.024832 0.000000
0.520649 0.000000 0.000000
0.571936 0.000000 0.000000
0.629543 0.000000 0.000000
0.684589 0.000000 0.000000
0.746295 0.000000 0.000000
0.802933 0.000000 0.000000
0.862707 0.000000 0.000000
0.915935 0.000000 0.000000
0.968420 0.000000 0.000000
1.000000 0.049391 0.000000
1.000000 0.184631 0.000000
1.000000 0.273746 0.000000
1.000000 0.341613 0.000000
1.000000 0.407096 0.000000
1.000000 0.490921 0.083917
1.000000 0.565134 0.136686
0.000000 0.210923 0.000000
0.000000 0.210815 0.000000
0.000000 0.210565 0.000000
0.000000 0.210226 0.000000
0.000000 0.205741 0.000000
0.000000 0.205090 0.000000
0.070083 0.204182 0.000000
0.115847 0.202917 0.000000
0.153641 0.199161 0.000000
0.192438 0.192530 0.000000
0.230438 0.184986 0.000000
0.269007 0.176329 0.000000
0.305998 0.162363 0.000000
0.348725 0.149968 0.000000
0.385755 0.141427 0.000000
0.425257 0.130262 0.000000
0.479010 0.109648 0.000000
0.526686 0.086616 0.000000
0.577618 0.000000 0.000000
0.634815 0.000000 0.000000
0.685194 0.000000 0.000000
0.751166 0.000000 0.000000
0.812279 0.000000 0.000000
0.862325 0.000000 0.000000
0.915540 0.000000 0.000000
0.971013 0.000000 0.000000
1.000000 0.103980 0.000000
1.000000 0.197995 0.000000
1.000000 0.284051 0.000000
1.000000 0.345967 0.000000
1.000000 0.415127 0.000000
1.000000 0.494752 0.081655
1.000000 0.565134 0.136686
0.000000 0.238267 0.000000
0.000000 0.238144 0.000000
0.000000 0.237824 0.000000
0.000000 0.237556 0.000000
0.000000 0.237104 0.000000
0.000000 0.236670 0.000000
0.085368 0.233710 0.000000
0.123552 0.232705 0.000000
0.161832 0.231179 0.000000
0.199019 0.229151 0.000000
0.234066 0.222571 0.000000
0.270856 0.217212 0.000000
0.309943 0.204512 0.000000
0.357583 0.193253 0.000000
0.394803 0.184391 0.000000
0.436658 0.167856 0.000000
0.488457 0.154225 0.000000
0.532916 0.143307 0.000000
0.583677 0.126537 0.000000
0.640451 0.104023 0.000000
0.690444 0.072275 0.000000
0.751457 0.000000 0.000000
0.816818 0.000000 0.000000
0.866282 0.000000 0.000000
0.914832 0.000000 0.000000
0.970076 0.000000 0.000000
1.000000 0.152383 0.000000
1.000000 0.222182 0.000000
1.000000 0.293652 0.000000
1.000000 0.354616 0.000000
1.000000 0.427891 0.000000
1.000000 0.503267 0.083380
1.000000 0.572438 0.136950
0.000000 0.269681 0.000000
0.000000 0.269528 0.000000
0.000000 0.269237 0.000000
0.000000 0.268973 0.000000
0.000000 0.268513 0.000000
0.055977 0.267997 0.000000
0.113986 0.264848 0.000000
0.148117 0.263890 0.000000
0.179616 0.262646 0.000000
0.207071 0.261267 0.000000
0.238489 0.257072 0.000000
0.276154 0.251965 0.000000
0.318569 0.243427 0.000000
0.360616 0.233981 0.000000
0.405279 0.223042 0.000000
0.447626 0.208708 0.000000
0.501598 0.192796 0.000000
0.543059 0.186064 0.000000
0.589842 0.176419 0.000000
0.646320 0.168213 0.000000
0.695906 0.160871 0.000000
0.756595 0.136304 0.000000
0.821256 0.110878 0.000000
0.869694 0.091850 0.000000
0.917594 0.069400 0.000000
0.971843 0.134348 0.000000
1.000000 0.188364 0.000000
1.000000 0.243989 0.000000
1.000000 0.307748 0.000000
1.000000 0.368076 0.000000
1.000000 0.435841 0.000000
1.000000 0.507084 0.084852
1.000000 0.576093 0.135717
0.000000 0.318334 0.000000
0.000000 0.318169 0.000000
0.000000 0.317905 0.000000
0.000000 0.317719 0.000000
0.000000 0.317422 0.000000
0.072961 0.316991 0.000000
0.114269 0.313809 0.000000
0.137884 0.313346 0.000000
0.167623 0.312553 0.000000
0.196556 0.308886 0.000000
0.230727 0.304707 0.000000
0.273203 0.302373 0.000000
0.319497 0.291053 0.000000
0.357541 0.284970 0.000000
0.404138 0.274642 0.000000
0.463525 0.258795 0.000000
0.518309 0.245140 0.000000
0.564981 0.234109 0.000000
0.604399 0.229416 0.000000
0.652559 0.225325 0.000000
0.701611 0.224012 0.000000
0.761798 0.207099 0.000000
0.825440 0.203582 0.000000
0.872589 0.196872 0.000000
0.919258 0.190872 0.000000
0.969690 0.203403 0.000000
1.000000 0.229419 0.000000
1.000000 0.269819 0.000000
1.000000 0.330578 0.000000
1.000000 0.380760 0.000000
1.000000 0.447732 0.000000
1.000000 0.522348 0.079236
1.000000 0.584256 0.135105
0.000000 0.365222 0.000000
0.000000 0.365136 0.000000
0.000000 0.365050 0.000000
0.000000 0.364871 0.000000
0.000000 0.364588 0.000000
0.000000 0.364389 0.000000
0.084926 0.364075 0.000000
0.115448 0.363740 0.000000
0.152204 0.363133 0.000000
0.191000 0.359306 0.000000
0.221397 0.358366 0.000000
0.268367 0.356509 0.000000
0.310127 0.351433 0.000000
0.355077 0.342630 0.000000
0.405257 0.329953 0.000000
0.467781 0.315118 0.000000
0.523505 0.299091 0.000000
0.573176 0.292460 0.000000
0.621949 0.281779 0.000000
0.666347 0.277823 0.000000
0.715042 0.272566 0.000000
0.766874 0.265852 0.000000
0.829311 0.263743 0.000000
0.879104 0.260777 0.000000
0.923936 0.259775 0.000000
0.969732 0.265130 0.000000
1.000000 0.275369 0.000000
1.000000 0.303886 0.000000
1.000000 0.352767 0.000000
1.000000 0.397499 0.000000
1.000000 0.464219 0.000000
1.000000 0.530773 0.081177
1.000000 0.591552 0.138174
0.000000 0.415092 0.000000
0.000000 0.415010 0.000000
0.000000 0.414926 0.000000
0.000000 0.414840 0.000000
0.000000 0.414662 0.000000
0.000000 0.411155 0.000000
0.059021 0.410865 0.000000
0.119714 0.410448 0.000000
0.147808 0.410110 0.000000
0.191942 0.409362 0.000000
0.223124 0.408659 0.000000
0.270492 0.403924 0.000000
0.314825 0.402251 0.000000
0.363163 0.399979 0.000000
0.410006 0.390456 0.000000
0.470291 0.375816 0.000000
0.518190 0.361226 0.000000
0.576907 0.348023 0.000000
0.637139 0.337200 0.000000
0.678684 0.331695 0.000000
0.727752 0.324659 0.000000
0.775909 0.320919 0.000000
0.832583 0.319442 0.000000
0.884633 0.319320 0.000000
0.931149 0.316490 0.000000
0.971354 0.329237 0.000000
1.000000 0.340324 0.000000
1.000000 0.353813 0.000000
1.000000 0.383417 0.000000
1.000000 0.428013 0.000000
1.000000 0.480808 0.000000
1.000000 0.542184 0.077699
1.000000 0.606958 0.137636
0.000000 0.466087 0.000000
0.000000 0.466087 0.000000
0.000000 0.465989 0.000000
0.000000 0.465888 0.000000
0.000000 0.465785 0.000000
0.000000 0.465679 0.000000
0.058606 0.465349 0.000000
0.138780 0.457852 0.000000
0.169079 0.457466 0.000000
0.209701 0.456771 0.000000
0.242985 0.456035 0.000000
0.279396 0.455045 0.000000
0.319440 0.460752 0.000000
0.364176 0.458984 0.000000
0.423189 0.456115 0.000000
0.462757 0.446647 0.000000
0.510865 0.436172 0.000000
0.566894 0.424429 0.000000
0.635704 0.395513 0.000000
0.683866 0.390158 0.000000
0.734425 0.391862 0.000000
0.779258 0.386441 0.000000
0.834757 0.383460 0.000000
0.884684 0.389497 0.000000
0.929236 0.388719 0.000000
0.978023 0.384855 0.000000
1.000000 0.405123 0.000000
1.000000 0.414323 0.000000
1.000000 0.430386 0.000000
1.000000 0.456942 0.000000
1.000000 0.509152 0.000000
1.000000 0.558136 0.074213
1.000000 0.617894 0.139084
0.000000 0.522634 0.000000
0.000000 0.522634 0.000000
0.000000 0.522517 0.000000
0.047795 0.522397 0.000000
0.084834 0.522274 0.000000
0.107425 0.522149 0.000000
0.125041 0.522021 0.000000
0.143282 0.525527 0.000000
0.179436 0.525115 0.000000
0.209022 0.524676 0.000000
0.251081 0.523881 0.000000
0.276906 0.526981 0.000000
0.319152 0.525833 0.000000
0.364183 0.524345 0.000000
0.412065 0.522447 0.000000
0.459687 0.516459 0.000000
0.511207 0.509832 0.000000
0.557038 0.499296 0.000000
0.621957 0.482939 0.000000
0.686879 0.465732 0.000000
0.747597 0.455854 0.000000
0.806658 0.449742 0.000000
0.843285 0.449952 0.000000
0.887029 0.457738 0.000000
0.929518 0.454267 0.000000
0.973000 0.456041 0.000000
1.000000 0.468124 0.000000
1.000000 0.477598 0.000000
1.000000 0.484881 0.000000
1.000000 0.502602 0.000000
1.000000 0.533958 0.000000
1.000000 0.577802 0.072634
1.000000 0.633217 0.138664
0.109364 0.588889 0.000000
0.115993 0.592599 0.000000
0.115993 0.592599 0.000000
0.137116 0.592453 0.000000
0.137116 0.592453 0.000000
0.154833 0.592303 0.000000
0.184221 0.591995 0.000000
0.197044 0.591835 0.000000
0.220354 0.591507 0.000000
0.250954 0.590995 0.000000
0.278147 0.590460 0.000000
0.318655 0.589513 0.000000
0.341026 0.588911 0.000000
0.379285 0.583954 0.000000
0.418259 0.582568 0.000000
0.461880 0.580784 0.000000
0.511567 0.574600 0.000000
0.564549 0.567824 0.000000
0.620698 0.560366 0.000000
0.686851 0.543752 0.000000
0.750894 0.526506 0.000000
0.807995 0.517349 0.000000
0.852954 0.513338 0.000000
0.887916 0.518587 0.000000
0.928604 0.515903 0.000000
0.967515 0.518381 0.000000
0.998611 0.526383 0.000000
1.000000 0.535673 0.000000
1.000000 0.542477 0.000000
1.000000 0.558798 0.000000
1.000000 0.573037 0.000000
1.000000 0.604925 0.064019
1.000000 0.651116 0.137931
0.199313 0.648371 0.000000
0.212879 0.648203 0.000000
0.212879 0.648203 0.000000
0.212879 0.648203 0.000000
0.237421 0.647862 0.000000
0.248707 0.647688 0.000000
0.248707 0.647688 0.000000
0.269706 0.647333 0.000000
0.279667 0.647152 0.000000
0.298443 0.646781 0.000000
0.316180 0.646401 0.000000
0.333039 0.646010 0.000000
0.364755 0.645193 0.000000
0.387445 0.644544 0.000000
0.433186 0.639238 0.000000
0.472869 0.637746 0.000000
0.513161 0.632190 0.000000
0.576678 0.632938 0.000000
0.628182 0.630040 0.000000
0.685088 0.622509 0.000000
0.740093 0.606740 0.000000
0.802950 0.589868 0.000000
0.853981 0.581781 0.000000
0.892642 0.578975 0.000000
0.928708 0.576954 0.000000
0.963913 0.575764 0.000000
0.990423 0.587886 0.000000
1.000000 0.588848 0.000000
1.000000 0.599251 0.000000
1.000000 0.614752 0.000000
1.000000 0.624475 0.000000
1.000000 0.639384 0.068377
1.000000 0.675386 0.135211
0.294565 0.708607 0.000000
0.294565 0.708607 0.000000
0.294565 0.708607 0.000000
0.304891 0.708415 0.000000
0.304891 0.708415 0.000000
0.314938 0.708222 0.000000
0.314938 0.708222 0.000000
0.324671 0.708026 0.000000
0.343269 0.707625 0.000000
0.360962 0.707215 0.000000
0.369544 0.707007 0.000000
0.386199 0.706582 0.000000
0.406135 0.710015 0.000000
0.429211 0.709339 0.000000
0.458608 0.708403 0.000000
0.509916 0.702549 0.000000
0.548886 0.700946 0.000000
0.598458 0.698660 0.000000
0.651947 0.695877 0.000000
0.704822 0.684571 0.000000
0.763462 0.672350 0.000000
0.810998 0.657000 0.000000
0.859430 0.641571 0.000000
0.898316 0.631000 0.000000
0.930020 0.633395 0.000000
0.957171 0.640586 0.000000
0.984541 0.640515 0.000000
1.000000 0.649499 0.000000
1.000000 0.659091 0.000000
1.000000 0.669928 0.000000
1.000000 0.678043 0.000000
1.000000 0.691043 0.065282
1.000000 0.711011 0.141572
0.354406 0.770190 0.114753
0.354406 0.770190 0.114753
0.354406 0.770190 0.114753
0.363947 0.769982 0.114893
0.363947 0.769982 0.114893
0.364035 0.769985 0.107697
0.373334 0.769774 0.107850
0.382418 0.769562 0.108006
0.391381 0.769350 0.100453
0.400155 0.769135 0.092207
0.417128 0.768695 0.083229
0.433513 0.768247 0.072910
0.461700 0.770804 0.056409
0.477015 0.770335 0.000000
0.506294 0.769359 0.000000
0.541188 0.768084 0.000000
0.581146 0.766478 0.000000
0.622223 0.761236 0.000000
0.661702 0.759307 0.000000
0.723390 0.752490 0.000000
0.762678 0.746631 0.000000
0.807356 0.729226 0.000000
0.851220 0.718778 0.000000
0.891346 0.708498 0.000000
0.929961 0.706378 0.000000
0.954017 0.709326 0.000000
0.977496 0.709004 0.000000
1.000000 0.709542 0.000000
1.000000 0.714337 0.000000
1.000000 0.730459 0.000000
1.000000 0.733027 0.000000
1.000000 0.743001 0.063137
1.000000 0.759129 0.151886
0.453988 0.819638 0.194927
0.453988 0.819638 0.194927
0.453988 0.819638 0.194927
0.462193 0.819409 0.190686
0.462193 0.819409 0.190686
0.462193 0.819409 0.190686
0.470270 0.819178 0.186397
0.470270 0.819178 0.186397
0.478227 0.818944 0.182054
0.485999 0.818705 0.182178
0.493670 0.818464 0.182304
0.508797 0.817978 0.178047
0.523634 0.817487 0.169074
0.545284 0.816733 0.154981
0.566239 0.815956 0.145217
0.587489 0.815126 0.134098
0.616046 0.813943 0.114256
0.649699 0.812449 0.079851
0.694569 0.807517 0.000000
0.728565 0.805746 0.000000
0.769663 0.803464 0.000000
0.807430 0.798410 0.000000
0.843067 0.787455 0.000000
0.884364 0.778780 0.000000
0.922595 0.770251 0.000000
0.950607 0.765694 0.000000
0.970900 0.765077 0.000000
0.990836 0.768113 0.000000
1.000000 0.768558 0.000000
1.000000 0.775357 0.000000
1.000000 0.777055 0.000000
1.000000 0.781889 0.096236
1.000000 0.795086 0.178305
0.566626 0.853547 0.270182
0.566626 0.853547 0.270182
0.566626 0.853547 0.270182
0.566626 0.853547 0.270182
0.574214 0.853265 0.270304
