Assets/Lutify-Free-LUTs-Pack/Lutify Free LUTs Pack/Commercial Pro - Claire/Lutify.me-Claire-BMDFilmGen5-to-Rec709.cube
# Created with: fylm.ai - Colour Grading and Collaboration Software in Cloud 
# Website: https://fylm.ai 
# META
# Option: Gamut compress
# Block 1: IDT | BMD Wide Gamut BMDFilm Gen 5
# Block 2: colourMatch | Blending Mode: Normal | {"ColorSpace":0,"CrossCovarianceLimit":50,"ReshapingIterations":1,"PercentSaturationShift":100,"PercentShadingShift":100,"ExtraShading":true,"PercentTint":100,"PercentModified":100}
# Block 3: HSL | Blending Mode: Normal | {"hue":{"Reds":0,"Yellows":0,"Greens":0,"Cyans":0,"Blues":0,"Magentas":0},"saturation":{"Reds":1,"Yellows":1,"Greens":1,"Cyans":1,"Blues":1,"Magentas":1},"luminance":{"Reds":0.9,"Yellows":0.9,"Greens":0.9,"Cyans":0.8,"Blues":0.8,"Magentas":0.9},"lum_sat":{"Blacks":1,"Shadows":1,"Midtones":1,"Highlights":1,"Whites":1},"sat_sat":{"10":1,"20":1,"30":1,"40":1,"50":1}}
# Block 4: subtractiveColour | Blending Mode: Normal | {"sliders":{"gainY":0.1,"C":0.05,"M":0.05,"Y":0.05}}
# Block 5: logPrimaries | Blending Mode: Normal | {"wheels":{"shadows":{"Y":"0","R":"1","G":"1","B":"1"},"midtones":{"Y":"0","R":"1","G":"1","B":"1"},"highlights":{"Y":"0","R":"1","G":"1","B":"1"},"offset":{"Y":"0","R":"1","G":"1","B":"1"}},"sliders":{"shadows":{"Y":0,"R":-0.05,"G":0,"B":0.1},"midtones":{"Y":0,"R":0,"G":0,"B":0},"highlights":{"Y":0,"R":0,"G":0,"B":0},"offset":{"Y":0,"R":0,"G":0,"B":0}}}
# Block 6: LUT | Filmic Curve Response: Standard Contrast 1 (100%)
# Block 7: LUT | Illuminant: D93 (100%)
# Block 8: LUT | Neutral Tint: Teal Tint 4 (100%)
# Block 9: ODT | Rec709
TITLE "Lutify.me-Claire-BMDFilmGen5-to-Rec709" 
LUT_3D_SIZE 9
0.000000 0.000000 0.000000
0.013197 0.000000 0.000000
0.262077 0.000000 0.000000
0.457127 0.000000 0.000000
0.722856 0.000000 0.000000
1.000000 0.198022 0.083956
1.000000 0.653903 0.347442
1.000000 0.902261 0.723824
1.000000 0.981974 0.915345
0.000000 0.035931 0.000000
0.000000 0.030922 0.000000
0.204062 0.000000 0.000000
0.430858 0.000000 0.000000
0.727293 0.000000 0.000000
1.000000 0.210667 0.084278
1.000000 0.653903 0.347442
1.000000 0.903501 0.724007
1.000000 0.981974 0.915345
0.000000 0.139947 0.000000
0.000000 0.130794 0.000000
0.192255 0.104367 0.000000
0.426927 0.000000 0.000000
0.727459 0.000000 0.000000
1.000000 0.238593 0.078238
1.000000 0.657324 0.347180
1.000000 0.903501 0.724007
1.000000 0.981974 0.915345
0.000000 0.302211 0.000000
0.000000 0.298775 0.000000
0.179343 0.280829 0.000000
0.499004 0.225501 0.000000
0.757430 0.232897 0.000000
1.000000 0.322292 0.041213
1.000000 0.671527 0.350100
1.000000 0.904904 0.724885
1.000000 0.981974 0.915345
0.000000 0.589561 0.000000
0.000000 0.589077 0.000000
0.000000 0.587815 0.000000
0.420132 0.570991 0.000000
0.868151 0.474656 0.000000
1.000000 0.596778 0.000000
1.000000 0.736012 0.355331
1.000000 0.909721 0.728033
1.000000 0.982383 0.915431
0.000000 0.893407 0.000000
0.122734 0.893057 0.000000
0.203776 0.894552 0.000000
0.425082 0.889132 0.000000
0.743859 0.875329 0.000000
0.980722 0.839647 0.000000
1.000000 0.885867 0.385089
1.000000 0.929984 0.739010
1.000000 0.984388 0.917003
0.811885 0.983879 0.571654
0.815071 0.983729 0.569112
0.818103 0.983572 0.569258
0.827335 0.982489 0.562790
0.862144 0.981348 0.543417
0.947146 0.975956 0.489996
1.000000 0.964980 0.395885
1.000000 0.977654 0.778242
1.000000 0.990741 0.921853
0.959753 1.000000 0.875999
0.960633 1.000000 0.876052
0.960633 1.000000 0.876052
0.960698 1.000000 0.874971
0.963333 1.000000 0.874629
0.974088 1.000000 0.866703
1.000000 1.000000 0.841433
1.000000 1.000000 0.787042
1.000000 1.000000 0.935585
0.997276 1.000000 0.973087
0.997276 1.000000 0.973087
0.997537 1.000000 0.973103
0.997537 1.000000 0.973103
0.997859 1.000000 0.972216
0.998657 1.000000 0.971259
1.000000 1.000000 0.966722
1.000000 1.000000 0.955145
1.000000 1.000000 0.922271
0.000000 0.000000 0.045681
0.000000 0.000000 0.033577
0.219952 0.000000 0.000000
0.411518 0.000000 0.000000
0.714159 0.000000 0.000000
1.000000 0.198017 0.101087
1.000000 0.653891 0.353281
1.000000 0.903501 0.724007
1.000000 0.981974 0.915345
0.000000 0.009646 0.048858
0.000000 0.012743 0.039481
0.180354 0.000000 0.000000
0.385330 0.000000 0.000000
0.714215 0.000000 0.000000
1.000000 0.210664 0.099327
1.000000 0.653891 0.353281
1.000000 0.903501 0.724007
1.000000 0.981974 0.915345
0.000000 0.121943 0.038179
0.000000 0.133620 0.000000
0.154445 0.117340 0.000000
0.379701 0.022950 0.000000
0.718670 0.000000 0.000000
1.000000 0.238596 0.097244
1.000000 0.657312 0.353026
1.000000 0.903501 0.724007
1.000000 0.981974 0.915345
0.000000 0.315898 0.000000
0.000000 0.312745 0.000000
0.000000 0.309795 0.000000
0.419548 0.272874 0.000000
0.734555 0.254541 0.000000
1.000000 0.322309 0.078926
1.000000 0.671521 0.353030
1.000000 0.904904 0.724885
1.000000 0.981974 0.915345
0.000000 0.608919 0.000000
0.000000 0.608500 0.000000
0.000000 0.607412 0.000000
0.336997 0.607977 0.000000
0.808444 0.541020 0.000000
1.000000 0.600852 0.000000
1.000000 0.736002 0.361268
1.000000 0.909721 0.728033
1.000000 0.982383 0.915431
0.000000 0.895402 0.000000
0.000000 0.897228 0.000000
0.195569 0.896516 0.000000
0.411036 0.893372 0.000000
0.736545 0.879751 0.000000
0.977598 0.844461 0.000000
1.000000 0.885858 0.390506
1.000000 0.929984 0.739010
1.000000 0.984388 0.917003
0.811542 0.983853 0.579765
0.814618 0.983695 0.579903
0.817768 0.983546 0.577331
0.826847 0.983101 0.572386
0.861631 0.981959 0.552757
0.946562 0.976584 0.501034
1.000000 0.965738 0.402935
1.000000 0.977654 0.778242
1.000000 0.990741 0.921853
0.959687 1.000000 0.877076
0.960567 1.000000 0.877128
0.960633 1.000000 0.876052
0.960633 1.000000 0.876052
0.963333 1.000000 0.874629
0.974023 1.000000 0.867815
1.000000 1.000000 0.842407
1.000000 1.000000 0.787583
1.000000 1.000000 0.935585
0.997276 1.000000 0.973087
0.997276 1.000000 0.973087
0.997537 1.000000 0.973103
0.997537 1.000000 0.973103
0.997859 1.000000 0.972216
0.998657 1.000000 0.971259
1.000000 1.000000 0.966722
1.000000 1.000000 0.955145
1.000000 1.000000 0.922271
0.000000 0.000000 0.132278
0.000000 0.000000 0.088256
0.173113 0.000000 0.053907
0.389136 0.000000 0.041783
0.696890 0.000000 0.048788
1.000000 0.191502 0.128733
1.000000 0.653879 0.359162
1.000000 0.903490 0.726394
1.000000 0.981974 0.915345
0.000000 0.000000 0.123359
0.000000 0.000000 0.096112
0.149098 0.000000 0.073924
0.361753 0.000000 0.061090
0.701190 0.000000 0.047516
1.000000 0.210689 0.129200
1.000000 0.653879 0.359162
1.000000 0.903490 0.726394
1.000000 0.981974 0.915345
0.000000 0.108783 0.186428
0.000000 0.111405 0.190331
0.092535 0.127881 0.182988
0.346450 0.067944 0.082984
0.709802 0.000000 0.042829
1.000000 0.238589 0.128462
1.000000 0.657300 0.358912
1.000000 0.903490 0.726394
1.000000 0.981974 0.915345
0.000000 0.286687 0.208291
0.000000 0.320283 0.179243
0.000000 0.332818 0.125799
0.358406 0.316371 0.000000
0.724912 0.264311 0.000000
1.000000 0.326821 0.114226
1.000000 0.678120 0.361425
1.000000 0.904893 0.727256
1.000000 0.981974 0.915345
0.000000 0.635888 0.000000
0.000000 0.635575 0.000000
0.000000 0.630810 0.000000
0.228390 0.629109 0.000000
0.749102 0.594154 0.000000
1.000000 0.608892 0.000000
1.000000 0.735520 0.369229
1.000000 0.909710 0.730378
1.000000 0.982383 0.915431
0.000000 0.895502 0.196825
0.000000 0.895333 0.192411
0.163347 0.896630 0.188953
0.397546 0.895505 0.141596
0.728906 0.884031 0.000000
0.970351 0.855900 0.000000
1.000000 0.885841 0.401470
1.000000 0.929974 0.741205
1.000000 0.984388 0.917003
0.813904 0.983641 0.596377
0.814026 0.983650 0.593607
0.817064 0.983494 0.593740
0.829040 0.982898 0.588799
0.860946 0.981904 0.570882
0.946175 0.976549 0.514406
1.000000 0.966454 0.417443
1.000000 0.977647 0.779784
1.000000 0.990741 0.921853
0.959622 1.000000 0.878146
0.959622 1.000000 0.878146
0.960502 1.000000 0.878197
0.960567 1.000000 0.877128
0.963217 1.000000 0.876218
0.973892 1.000000 0.870025
1.000000 1.000000 0.844359
1.000000 1.000000 0.789233
1.000000 1.000000 0.935769
0.997276 1.000000 0.973087
0.997276 1.000000 0.973087
0.997537 1.000000 0.973103
0.997537 1.000000 0.973103
0.997799 1.000000 0.973118
0.998575 1.000000 0.971806
1.000000 1.000000 0.967204
1.000000 1.000000 0.956116
1.000000 1.000000 0.922271
0.000000 0.000000 0.192443
0.000000 0.000000 0.133850
0.115313 0.000000 0.101105
0.389220 0.000000 0.079671
0.678410 0.000000 0.181959
1.000000 0.184745 0.211809
1.000000 0.653785 0.398424
1.000000 0.903633 0.734154
1.000000 0.981969 0.916314
0.000000 0.000000 0.190578
0.000000 0.000000 0.161015
0.086900 0.000000 0.145005
0.353800 0.000000 0.116577
0.682748 0.000000 0.189508
1.000000 0.204413 0.213329
1.000000 0.657208 0.398206
1.000000 0.903633 0.734154
1.000000 0.981969 0.916314
0.000000 0.061755 0.239949
0.000000 0.064594 0.233070
0.000000 0.065274 0.246758
0.328666 0.000000 0.229312
0.682403 0.000000 0.213908
1.000000 0.238448 0.216675
1.000000 0.660605 0.401092
1.000000 0.903633 0.734154
1.000000 0.981969 0.916314
0.000000 0.261254 0.409190
0.000000 0.275287 0.425817
0.000000 0.292071 0.449650
0.271951 0.342577 0.446644
0.688109 0.283063 0.273318
1.000000 0.331339 0.217918
1.000000 0.677354 0.403191
1.000000 0.904861 0.734322
1.000000 0.981969 0.916314
0.000000 0.609194 0.483025
0.000000 0.620358 0.474880
0.000000 0.638871 0.458839
0.000000 0.664598 0.391404
0.703829 0.640590 0.237554
0.997233 0.617041 0.214185
1.000000 0.735439 0.412424
1.000000 0.909679 0.737361
1.000000 0.982377 0.916397
0.000000 0.911101 0.439508
0.000000 0.910789 0.435917
0.000000 0.910311 0.428719
0.355502 0.905042 0.403603
0.704075 0.896018 0.315584
0.959083 0.874599 0.133213
1.000000 0.887262 0.446411
1.000000 0.930942 0.752322
1.000000 0.984383 0.917951
0.807340 0.985416 0.665735
0.807340 0.985416 0.665735
0.810560 0.985270 0.662991
0.822855 0.984068 0.656554
0.855616 0.983077 0.633559
0.943896 0.977677 0.569196
1.000000 0.969157 0.476420
1.000000 0.978613 0.788631
1.000000 0.991052 0.922860
0.959170 1.000000 0.885525
0.959234 1.000000 0.884477
0.959234 1.000000 0.884477
0.960116 1.000000 0.884523
0.962831 1.000000 0.882569
0.973570 1.000000 0.875463
0.999902 1.000000 0.852397
1.000000 1.000000 0.798039
1.000000 1.000000 0.937698
0.997246 1.000000 0.973534
0.997246 1.000000 0.973534
0.997246 1.000000 0.973534
0.997507 1.000000 0.973550
0.997507 1.000000 0.973550
0.998544 1.000000 0.972261
1.000000 1.000000 0.967684
1.000000 1.000000 0.956601
1.000000 1.000000 0.923276
0.000000 0.000000 0.178854
0.055709 0.000000 0.169396
0.131780 0.000000 0.156643
0.324422 0.000000 0.136599
0.703462 0.000000 0.152339
1.000000 0.108855 0.460499
1.000000 0.659492 0.512920
1.000000 0.903525 0.757121
1.000000 0.981924 0.919042
0.000000 0.000000 0.218672
0.000000 0.000000 0.214383
0.086944 0.000000 0.215954
0.291292 0.000000 0.199897
0.659056 0.000000 0.210668
1.000000 0.139915 0.463707
1.000000 0.659492 0.512920
1.000000 0.903525 0.757121
1.000000 0.981924 0.919042
0.000000 0.058577 0.308746
0.000000 0.060941 0.316592
0.000000 0.058611 0.321917
0.247383 0.000000 0.339881
0.651943 0.000000 0.322637
1.000000 0.186086 0.466831
1.000000 0.666277 0.515860
1.000000 0.903515 0.759355
1.000000 0.981953 0.919195
0.000000 0.193378 0.481516
0.000000 0.197256 0.495825
0.000000 0.200890 0.513917
0.123577 0.211002 0.546292
0.668440 0.099938 0.529079
1.000000 0.318896 0.506662
1.000000 0.683566 0.518932
1.000000 0.904743 0.759475
1.000000 0.981953 0.919195
0.000000 0.551898 0.747775
0.000000 0.559286 0.757898
0.000000 0.570292 0.764396
0.000000 0.612949 0.782099
0.616324 0.687074 0.781656
0.980386 0.641548 0.598040
1.000000 0.744330 0.534870
1.000000 0.909721 0.762716
1.000000 0.982362 0.919272
0.000000 0.899476 0.803770
0.000000 0.899227 0.803759
0.000000 0.900674 0.803668
0.000000 0.912024 0.800502
0.648744 0.917070 0.757362
0.935228 0.899976 0.617436
1.000000 0.894566 0.601975
1.000000 0.930838 0.775246
1.000000 0.984368 0.920768
0.785472 0.988309 0.816249
0.785621 0.988320 0.814125
0.792057 0.988005 0.814163
0.804874 0.987423 0.807802
0.846149 0.985948 0.795501
0.931296 0.982003 0.749109
1.000000 0.975692 0.641915
1.000000 0.979954 0.814443
1.000000 0.991045 0.926482
0.956884 1.000000 0.907362
0.956884 1.000000 0.907362
0.957772 1.000000 0.907392
0.957837 1.000000 0.906367
0.960537 1.000000 0.905160
0.972774 1.000000 0.898481
0.998797 1.000000 0.876252
1.000000 1.000000 0.826174
1.000000 1.000000 0.939609
0.997050 1.000000 0.975793
0.997050 1.000000 0.975793
0.997050 1.000000 0.975793
0.997050 1.000000 0.975793
0.997311 1.000000 0.975806
0.998367 1.000000 0.974925
1.000000 1.000000 0.970603
1.000000 1.000000 0.959120
1.000000 1.000000 0.927475
0.244922 0.000000 0.187133
0.260776 0.000000 0.186750
0.284427 0.000000 0.184276
0.370931 0.000000 0.184163
0.611604 0.000000 0.219274
0.989520 0.000000 0.427366
1.000000 0.639904 0.795448
1.000000 0.905767 0.831545
1.000000 0.982311 0.928538
0.187655 0.000000 0.268703
0.207241 0.000000 0.263917
0.237247 0.000000 0.261223
0.322170 0.000000 0.262061
0.583678 0.000000 0.303445
0.986798 0.000000 0.467795
1.000000 0.643466 0.795284
1.000000 0.905767 0.831545
1.000000 0.982311 0.928538
0.041250 0.040438 0.401077
0.077116 0.036595 0.407640
0.122032 0.016910 0.414208
0.246537 0.000000 0.440691
0.556070 0.000000 0.466174
0.990580 0.000000 0.527609
1.000000 0.647722 0.795227
1.000000 0.906978 0.831562
1.000000 0.982311 0.928538
0.000000 0.199673 0.626943
0.000000 0.199233 0.630781
0.000000 0.198347 0.638459
0.000000 0.202938 0.657232
0.520503 0.160417 0.708233
0.996516 0.000000 0.672038
1.000000 0.665069 0.799924
1.000000 0.908179 0.831582
1.000000 0.982716 0.928596
0.000000 0.427892 0.814106
0.000000 0.427740 0.817076
0.000000 0.434392 0.819659
0.000000 0.446858 0.835556
0.429645 0.467431 0.857723
0.991794 0.448115 0.845818
1.000000 0.740950 0.824561
1.000000 0.912880 0.835513
1.000000 0.983113 0.929549
0.000000 0.861063 0.931903
0.000000 0.860829 0.933192
0.000000 0.862995 0.932994
0.000000 0.873512 0.935821
0.292220 0.891184 0.943576
0.899382 0.918500 0.943412
1.000000 0.903837 0.875769
1.000000 0.932494 0.847719
1.000000 0.984676 0.930673
0.697061 0.987449 0.951840
0.697061 0.987449 0.951840
0.705386 0.987714 0.951797
0.724994 0.987480 0.951721
0.794586 0.988275 0.950548
0.912414 0.988523 0.940333
0.994070 0.983075 0.894657
1.000000 0.981051 0.882052
1.000000 0.991007 0.935786
0.954318 1.000000 0.959385
0.955188 1.000000 0.959390
0.955188 1.000000 0.959390
0.956096 1.000000 0.958711
0.957838 1.000000 0.958033
0.968349 1.000000 0.952452
0.993968 1.000000 0.934207
1.000000 1.000000 0.898318
1.000000 1.000000 0.951656
0.996426 1.000000 0.983741
0.996426 1.000000 0.983741
0.996426 1.000000 0.983741
0.996426 1.000000 0.983741
0.996426 1.000000 0.983741
0.997458 1.000000 0.983059
1.000000 1.000000 0.980161
1.000000 1.000000 0.969282
1.000000 1.000000 0.941374
0.536065 0.000000 0.201933
0.539789 0.000000 0.201931
0.554860 0.000000 0.201924
0.597076 0.000000 0.197812
0.731205 0.000000 0.208765
0.930750 0.000000 0.508731
1.000000 0.000000 0.797589
1.000000 0.898043 0.946674
1.000000 0.982992 0.956643
0.527602 0.000000 0.214801
0.532176 0.000000 0.219236
0.539936 0.000000 0.221476
0.568154 0.000000 0.233008
0.666432 0.000000 0.287816
0.932201 0.000000 0.577927
1.000000 0.000000 0.806420
1.000000 0.898043 0.946674
1.000000 0.982992 0.956643
0.436366 0.000000 0.418558
0.439732 0.000000 0.425332
0.447242 0.000000 0.428691
0.486438 0.000000 0.445630
0.615892 0.000000 0.512280
0.942965 0.000000 0.672491
1.000000 0.075379 0.817421
1.000000 0.899313 0.946597
1.000000 0.983390 0.956654
0.218580 0.179848 0.761578
0.234140 0.178576 0.761500
0.247411 0.179781 0.764771
0.300839 0.178755 0.775031
0.504493 0.161981 0.803243
0.931868 0.000000 0.838711
1.000000 0.248248 0.853965
1.000000 0.900570 0.947474
1.000000 0.983390 0.956654
0.000000 0.434052 0.904661
0.000000 0.433692 0.904618
0.000000 0.436991 0.904427
0.000000 0.438869 0.906031
0.377802 0.451585 0.918729
0.895885 0.438347 0.935254
1.000000 0.486707 0.919757
1.000000 0.906904 0.948991
1.000000 0.983783 0.956666
0.000000 0.762551 0.961979
0.000000 0.762454 0.961968
0.000000 0.762255 0.961946
0.000000 0.768382 0.963412
0.000000 0.780759 0.968518
0.800646 0.795099 0.974352
1.000000 0.818295 0.970746
1.000000 0.930610 0.957277
1.000000 0.985709 0.958188
0.250645 0.981552 0.993305
0.250645 0.981552 0.993305
0.267780 0.981373 0.993691
0.339120 0.982079 0.993478
0.548337 0.981371 0.994313
0.834231 0.980640 0.995681
0.982917 0.988476 0.996376
1.000000 0.984239 0.975601
1.000000 0.992032 0.963343
0.924865 1.000000 0.997963
0.924865 1.000000 0.997963
0.926034 1.000000 0.997958
0.927245 1.000000 0.997947
0.932962 1.000000 0.997912
0.955213 1.000000 0.997787
0.988983 1.000000 0.995789
1.000000 1.000000 0.982050
1.000000 1.000000 0.975392
0.995304 1.000000 0.999067
0.995304 1.000000 0.999067
0.995304 1.000000 0.999067
0.995304 1.000000 0.999067
0.995575 1.000000 0.998894
0.996227 1.000000 0.998727
0.999604 1.000000 0.997290
1.000000 1.000000 0.992269
1.000000 1.000000 0.976875
0.926158 0.000000 0.268691
0.926158 0.000000 0.268691
0.930010 0.000000 0.268801
0.941299 0.000000 0.266849
0.980232 0.000000 0.263911
1.000000 0.000000 0.266859
1.000000 0.000000 0.880803
1.000000 0.629977 0.961818
1.000000 0.981809 0.996377
0.926158 0.000000 0.268691
0.930010 0.000000 0.268801
0.930010 0.000000 0.268801
0.941299 0.000000 0.266849
0.980232 0.000000 0.263911
1.000000 0.000000 0.266859
1.000000 0.000000 0.890864
1.000000 0.632551 0.961700
1.000000 0.981805 0.996656
0.926158 0.000000 0.268691
0.930010 0.000000 0.268801
0.930010 0.000000 0.268801
0.941299 0.000000 0.266849
0.980232 0.000000 0.263911
0.999328 0.000000 0.431052
1.000000 0.000000 0.904168
1.000000 0.637366 0.962458
1.000000 0.981805 0.996656
0.755456 0.000000 0.804785
0.759948 0.000000 0.807857
0.759948 0.000000 0.807857
0.774483 0.000000 0.813777
0.822750 0.000000 0.833137
0.955959 0.000000 0.881887
1.000000 0.177629 0.940808
1.000000 0.653078 0.966457
1.000000 0.982215 0.996629
0.596636 0.426660 0.957447
0.596636 0.426660 0.957447
0.602098 0.426151 0.957402
0.622624 0.428035 0.958340
0.692778 0.436426 0.962012
0.884881 0.446007 0.972219
1.000000 0.506452 0.981198
1.000000 0.721784 0.978163
1.000000 0.982648 0.996606
0.426920 0.766024 0.992787
0.426920 0.766024 0.992787
0.435626 0.765781 0.992763
0.460946 0.765086 0.993323
0.547257 0.768813 0.993829
0.764142 0.774660 0.996812
1.000000 0.804305 0.999900
1.000000 0.837837 0.992388
1.000000 0.984635 0.997027
0.503095 0.943673 1.000000
0.503095 0.943673 1.000000
0.503095 0.943673 1.000000
0.526695 0.943000 1.000000
0.595676 0.943240 1.000000
0.729601 0.944884 1.000000
0.950436 0.950287 1.000000
1.000000 0.961383 1.000000
1.000000 0.992068 0.999308
0.829435 1.000000 1.000000
0.829435 1.000000 1.000000
0.829435 1.000000 1.000000
0.831432 1.000000 1.000000
0.843763 1.000000 1.000000
0.885135 1.000000 1.000000
0.964976 1.000000 1.000000
1.000000 1.000000 1.000000
1.000000 1.000000 1.000000
0.988185 1.000000 1.000000
0.988185 1.000000 1.000000
0.988185 1.000000 1.000000
0.988185 1.000000 1.000000
0.989062 1.000000 1.000000
0.990452 1.000000 1.000000
0.994980 1.000000 1.000000
1.000000 1.000000 1.000000
1.000000 1.000000 1.000000
1.000000 0.000000 0.354915
1.000000 0.000000 0.354915
1.000000 0.000000 0.354915
1.000000 0.000000 0.355399
1.000000 0.000000 0.356893
1.000000 0.000000 0.365734
1.000000 0.000000 0.378551
1.000000 0.532500 0.997002
1.000000 0.880455 1.000000
1.000000 0.000000 0.354915
1.000000 0.000000 0.354915
1.000000 0.000000 0.354915
1.000000 0.000000 0.355399
1.000000 0.000000 0.356893
1.000000 0.000000 0.365734
1.000000 0.000000 0.378551
1.000000 0.535421 0.997528
1.000000 0.881394 1.000000
1.000000 0.000000 0.354915
1.000000 0.000000 0.354915
1.000000 0.000000 0.354915
1.000000 0.000000 0.355399
1.000000 0.000000 0.356893
1.000000 0.000000 0.365734
1.000000 0.000000 0.378551
1.000000 0.543479 0.997856
1.000000 0.881394 1.000000
1.000000 0.000000 0.354915
1.000000 0.000000 0.354915
1.000000 0.000000 0.355399
1.000000 0.000000 0.355399
1.000000 0.000000 0.356893
1.000000 0.000000 0.365734
1.000000 0.000000 0.770143
1.000000 0.576701 1.000000
1.000000 0.883462 1.000000
1.000000 0.255552 0.981387
1.000000 0.261292 0.981300
1.000000 0.261292 0.981300
1.000000 0.261042 0.981267
1.000000 0.272380 0.982866
1.000000 0.320352 0.986909
1.000000 0.443076 0.998423
1.000000 0.683772 1.000000
1.000000 0.890257 1.000000
0.888719 0.765727 1.000000
0.888719 0.765727 1.000000
0.888719 0.765727 1.000000
0.890503 0.768708 1.000000
0.899296 0.768246 1.000000
0.930609 0.772769 1.000000
0.997729 0.790402 1.000000
1.000000 0.853627 1.000000
1.000000 0.914756 1.000000
0.839608 0.932737 1.000000
0.839608 0.932737 1.000000
0.839608 0.932737 1.000000
0.841791 0.933814 1.000000
0.852422 0.933239 1.000000
0.879281 0.935273 1.000000
0.939560 0.938459 1.000000
1.000000 0.951990 1.000000
1.000000 0.962188 1.000000
0.871276 0.994685 1.000000
0.871276 0.994685 1.000000
0.871276 0.994685 1.000000
0.873133 0.994582 1.000000
0.876845 0.994378 1.000000
0.889119 0.994484 1.000000
0.935486 0.994404 1.000000
0.996396 0.997208 1.000000
1.000000 0.999411 1.000000
0.958633 1.000000 1.000000
0.958633 1.000000 1.000000
0.958633 1.000000 1.000000
0.959281 1.000000 1.000000
0.959924 1.000000 1.000000
0.963707 1.000000 1.000000
0.976818 1.000000 1.000000
0.997297 1.000000 1.000000
1.000000 1.000000 1.000000
