Assets/Lutify-Free-LUTs-Pack/Lutify Free LUTs Pack/Commercial Pro - Claire/Lutify.me-Claire-LogC3-to-Rec709.cube
# Created with: fylm.ai - Colour Grading and Collaboration Software in Cloud 
# Website: https://fylm.ai 
# META
# Option: Gamut compress
# Block 1: IDT | Arri Alexa - LogC3
# Block 2: colourMatch | Blending Mode: Normal | {"ColorSpace":0,"CrossCovarianceLimit":50,"ReshapingIterations":1,"PercentSaturationShift":100,"PercentShadingShift":100,"ExtraShading":true,"PercentTint":100,"PercentModified":100}
# Block 3: HSL | Blending Mode: Normal | {"hue":{"Reds":0,"Yellows":0,"Greens":0,"Cyans":0,"Blues":0,"Magentas":0},"saturation":{"Reds":1,"Yellows":1,"Greens":1,"Cyans":1,"Blues":1,"Magentas":1},"luminance":{"Reds":0.9,"Yellows":0.9,"Greens":0.9,"Cyans":0.8,"Blues":0.8,"Magentas":0.9},"lum_sat":{"Blacks":1,"Shadows":1,"Midtones":1,"Highlights":1,"Whites":1},"sat_sat":{"10":1,"20":1,"30":1,"40":1,"50":1}}
# Block 4: subtractiveColour | Blending Mode: Normal | {"sliders":{"gainY":0.1,"C":0.05,"M":0.05,"Y":0.05}}
# Block 5: logPrimaries | Blending Mode: Normal | {"wheels":{"shadows":{"Y":"0","R":"1","G":"1","B":"1"},"midtones":{"Y":"0","R":"1","G":"1","B":"1"},"highlights":{"Y":"0","R":"1","G":"1","B":"1"},"offset":{"Y":"0","R":"1","G":"1","B":"1"}},"sliders":{"shadows":{"Y":0,"R":-0.05,"G":0,"B":0.1},"midtones":{"Y":0,"R":0,"G":0,"B":0},"highlights":{"Y":0,"R":0,"G":0,"B":0},"offset":{"Y":0,"R":0,"G":0,"B":0}}}
# Block 6: LUT | Filmic Curve Response: Standard Contrast 1 (100%)
# Block 7: LUT | Illuminant: D93 (100%)
# Block 8: LUT | Neutral Tint: Teal Tint 4 (100%)
# Block 9: ODT | Rec709
TITLE "Lutify.me-Claire-LogC3-to-Rec709" 
LUT_3D_SIZE 5
0.000000 0.000000 0.000000
0.325496 0.000000 0.000000
0.644961 0.000000 0.000000
1.000000 0.439556 0.261435
1.000000 0.920501 0.805806
0.000000 0.158794 0.000000
0.247441 0.107243 0.000000
0.650814 0.000000 0.000000
1.000000 0.460210 0.265132
1.000000 0.920501 0.805806
0.000000 0.522960 0.000000
0.000000 0.520380 0.000000
0.730837 0.472676 0.000000
1.000000 0.616554 0.274158
1.000000 0.923846 0.808455
0.507412 0.948569 0.375118
0.539665 0.947636 0.372036
0.720955 0.943317 0.334990
0.993722 0.928245 0.302463
1.000000 0.958813 0.834473
0.956776 1.000000 0.908906
0.956776 1.000000 0.908906
0.959463 1.000000 0.907984
0.981371 1.000000 0.898056
1.000000 1.000000 0.881282
0.000000 0.000000 0.259251
0.209957 0.000000 0.049344
0.628577 0.000000 0.076529
1.000000 0.438895 0.281364
1.000000 0.920501 0.805806
0.000000 0.120555 0.201548
0.110413 0.145855 0.206149
0.628437 0.000000 0.084812
1.000000 0.459586 0.282831
1.000000 0.920501 0.805806
0.000000 0.564739 0.168399
0.000000 0.570671 0.097179
0.659949 0.549733 0.000000
1.000000 0.616197 0.303775
1.000000 0.923846 0.808455
0.486095 0.951331 0.446985
0.520155 0.950417 0.440618
0.723299 0.944214 0.402969
0.992071 0.930632 0.350340
1.000000 0.958804 0.836187
0.956648 1.000000 0.910917
0.956648 1.000000 0.910917
0.959335 1.000000 0.909999
0.981247 1.000000 0.900092
1.000000 1.000000 0.883629
0.000000 0.000000 0.344800
0.130264 0.000000 0.107258
0.651069 0.000000 0.112987
1.000000 0.440910 0.452834
1.000000 0.921517 0.819853
0.000000 0.053602 0.306197
0.000000 0.061260 0.298415
0.573746 0.000000 0.319927
1.000000 0.457675 0.455813
1.000000 0.921517 0.819853
0.000000 0.457843 0.655433
0.000000 0.492878 0.684766
0.538154 0.609356 0.718379
1.000000 0.619531 0.496978
1.000000 0.925894 0.822405
0.420318 0.960245 0.752358
0.467001 0.959204 0.749305
0.674875 0.955918 0.714393
0.982047 0.940404 0.587648
1.000000 0.958749 0.847908
0.954789 1.000000 0.925762
0.955679 1.000000 0.925781
0.958376 1.000000 0.924730
0.979517 1.000000 0.915642
1.000000 1.000000 0.894081
0.178411 0.000000 0.210296
0.255874 0.000000 0.190689
0.553037 0.000000 0.156864
1.000000 0.000000 0.603494
1.000000 0.921053 0.901888
0.189517 0.000000 0.205992
0.265151 0.000000 0.190470
0.557002 0.000000 0.156865
1.000000 0.000000 0.674314
1.000000 0.921053 0.901888
0.000000 0.312653 0.769479
0.000000 0.323626 0.783114
0.141828 0.347324 0.830969
1.000000 0.349768 0.850969
1.000000 0.925438 0.904518
0.000000 0.925234 0.961938
0.000000 0.926351 0.962668
0.000000 0.934149 0.968709
0.944655 0.957668 0.973016
1.000000 0.959870 0.920527
0.948352 1.000000 0.982355
0.948382 1.000000 0.982391
0.951949 1.000000 0.981957
0.974484 1.000000 0.976505
1.000000 1.000000 0.951871
0.680628 0.000000 0.277891
0.688155 0.000000 0.275488
0.767793 0.000000 0.271080
1.000000 0.000000 0.272018
1.000000 0.667904 0.968510
0.680628 0.000000 0.277891
0.692145 0.000000 0.275499
0.767793 0.000000 0.271080
1.000000 0.000000 0.272018
1.000000 0.676144 0.970756
0.692145 0.000000 0.275499
0.700163 0.000000 0.275523
0.776943 0.000000 0.271144
1.000000 0.000000 0.272018
1.000000 0.729152 0.980778
0.000000 0.824074 0.992881
0.000000 0.823810 0.992854
0.000000 0.829588 0.994917
0.785610 0.842998 1.000000
1.000000 0.898086 0.998711
0.774287 1.000000 1.000000
0.776778 1.000000 1.000000
0.791992 1.000000 1.000000
0.893256 1.000000 1.000000
1.000000 1.000000 1.000000
