Assets/Lutify-Free-LUTs-Pack/Lutify Free LUTs Pack/Commercial Pro - Claire/Lutify.me-Claire-SLog3Venice-to-Rec709.cube
# Created with: fylm.ai - Colour Grading and Collaboration Software in Cloud 
# Website: https://fylm.ai 
# META
# Option: Gamut compress
# Block 1: IDT | Sony Venice S-Log3 S-Gamut3
# Block 2: colourMatch | Blending Mode: Normal | {"ColorSpace":0,"CrossCovarianceLimit":50,"ReshapingIterations":1,"PercentSaturationShift":100,"PercentShadingShift":100,"ExtraShading":true,"PercentTint":100,"PercentModified":100}
# Block 3: HSL | Blending Mode: Normal | {"hue":{"Reds":0,"Yellows":0,"Greens":0,"Cyans":0,"Blues":0,"Magentas":0},"saturation":{"Reds":1,"Yellows":1,"Greens":1,"Cyans":1,"Blues":1,"Magentas":1},"luminance":{"Reds":0.9,"Yellows":0.9,"Greens":0.9,"Cyans":0.8,"Blues":0.8,"Magentas":0.9},"lum_sat":{"Blacks":1,"Shadows":1,"Midtones":1,"Highlights":1,"Whites":1},"sat_sat":{"10":1,"20":1,"30":1,"40":1,"50":1}}
# Block 4: subtractiveColour | Blending Mode: Normal | {"sliders":{"gainY":0.1,"C":0.05,"M":0.05,"Y":0.05}}
# Block 5: logPrimaries | Blending Mode: Normal | {"wheels":{"shadows":{"Y":"0","R":"1","G":"1","B":"1"},"midtones":{"Y":"0","R":"1","G":"1","B":"1"},"highlights":{"Y":"0","R":"1","G":"1","B":"1"},"offset":{"Y":"0","R":"1","G":"1","B":"1"}},"sliders":{"shadows":{"Y":0,"R":-0.05,"G":0,"B":0.1},"midtones":{"Y":0,"R":0,"G":0,"B":0},"highlights":{"Y":0,"R":0,"G":0,"B":0},"offset":{"Y":0,"R":0,"G":0,"B":0}}}
# Block 6: LUT | Filmic Curve Response: Standard Contrast 1 (100%)
# Block 7: LUT | Illuminant: D93 (100%)
# Block 8: LUT | Neutral Tint: Teal Tint 4 (100%)
# Block 9: ODT | Rec709
TITLE "Lutify.me-Claire-SLog3Venice-to-Rec709" 
LUT_3D_SIZE 33
0.000000 0.000000 0.000000
0.000000 0.000000 0.000000
0.111315 0.000000 0.000000
0.000000 0.000000 0.000000
0.095063 0.000000 0.000000
0.159079 0.000000 0.000000
0.220967 0.000000 0.000000
0.277302 0.000000 0.000000
0.333084 0.000000 0.000000
0.386936 0.000000 0.000000
0.436335 0.000000 0.000000
0.481737 0.000000 0.000000
0.507908 0.000000 0.000000
0.543516 0.000000 0.000000
0.568281 0.000000 0.000000
0.601824 0.000000 0.000000
0.657384 0.000000 0.000000
0.722711 0.000000 0.000000
0.793736 0.000000 0.000000
0.859271 0.000000 0.000000
0.933134 0.000000 0.036232
0.993125 0.000000 0.069507
1.000000 0.000000 0.104625
1.000000 0.078666 0.144360
1.000000 0.256873 0.186896
1.000000 0.360945 0.233194
1.000000 0.450478 0.288955
1.000000 0.539395 0.348237
1.000000 0.630608 0.420330
1.000000 0.701412 0.489747
1.000000 0.763884 0.556621
1.000000 0.819466 0.629111
1.000000 0.858456 0.704781
0.000000 0.000000 0.000000
0.000000 0.000000 0.000000
0.103811 0.000000 0.000000
0.000000 0.000000 0.000000
0.079793 0.000000 0.000000
0.141563 0.000000 0.000000
0.197786 0.000000 0.000000
0.255797 0.000000 0.000000
0.308596 0.000000 0.000000
0.367402 0.000000 0.000000
0.410840 0.000000 0.000000
0.449871 0.000000 0.000000
0.485635 0.000000 0.000000
0.523557 0.000000 0.000000
0.556104 0.000000 0.000000
0.597723 0.000000 0.000000
0.657421 0.000000 0.000000
0.722722 0.000000 0.000000
0.788934 0.000000 0.000000
0.859217 0.000000 0.000000
0.933075 0.000000 0.037777
0.993012 0.000000 0.068929
1.000000 0.000000 0.104209
1.000000 0.095115 0.143963
1.000000 0.256873 0.186896
1.000000 0.365046 0.232838
1.000000 0.454194 0.291112
1.000000 0.539395 0.348237
1.000000 0.630608 0.420330
1.000000 0.701412 0.489747
1.000000 0.763884 0.556621
1.000000 0.819466 0.629111
1.000000 0.858456 0.704781
0.000000 0.000000 0.000000
0.000000 0.000000 0.000000
0.000000 0.000000 0.000000
0.000000 0.000000 0.000000
0.067410 0.000000 0.000000
0.127444 0.000000 0.000000
0.183964 0.000000 0.000000
0.237883 0.000000 0.000000
0.286146 0.000000 0.000000
0.343627 0.000000 0.000000
0.387081 0.000000 0.000000
0.420384 0.000000 0.000000
0.467569 0.000000 0.000000
0.512112 0.000000 0.000000
0.552135 0.000000 0.000000
0.593629 0.000000 0.000000
0.653173 0.000000 0.000000
0.718368 0.000000 0.000000
0.788916 0.000000 0.000000
0.859164 0.000000 0.000000
0.932951 0.000000 0.035910
0.992898 0.000000 0.068330
1.000000 0.000000 0.103780
1.000000 0.095115 0.143963
1.000000 0.261929 0.186506
1.000000 0.365046 0.232838
1.000000 0.454194 0.291112
1.000000 0.542945 0.347983
1.000000 0.630596 0.423336
1.000000 0.701412 0.489747
1.000000 0.763884 0.556621
1.000000 0.821393 0.629150
1.000000 0.858456 0.704781
0.000000 0.001015 0.000000
0.000000 0.000000 0.000000
0.000000 0.000000 0.000000
0.000000 0.000000 0.000000
0.045329 0.000000 0.000000
0.107261 0.000000 0.000000
0.161183 0.000000 0.000000
0.215487 0.000000 0.000000
0.266490 0.000000 0.000000
0.320733 0.000000 0.000000
0.367631 0.000000 0.000000
0.405070 0.000000 0.000000
0.446913 0.000000 0.000000
0.500970 0.000000 0.000000
0.544174 0.000000 0.000000
0.585404 0.000000 0.000000
0.648934 0.000000 0.000000
0.718381 0.000000 0.000000
0.788896 0.000000 0.000000
0.859108 0.000000 0.000000
0.932888 0.000000 0.037472
0.992675 0.000000 0.069055
1.000000 0.000000 0.103341
1.000000 0.108551 0.143556
1.000000 0.261929 0.186506
1.000000 0.365038 0.235246
1.000000 0.454194 0.291112
1.000000 0.542945 0.347983
1.000000 0.630596 0.423336
1.000000 0.701412 0.489747
1.000000 0.763884 0.556621
1.000000 0.821393 0.629150
1.000000 0.858456 0.704781
0.000000 0.047456 0.000000
0.000000 0.045434 0.000000
0.000000 0.043175 0.000000
0.000000 0.041731 0.000000
0.000000 0.034089 0.000000
0.070671 0.008584 0.000000
0.129070 0.000000 0.000000
0.185897 0.000000 0.000000
0.242167 0.000000 0.000000
0.302013 0.000000 0.000000
0.352042 0.000000 0.000000
0.390453 0.000000 0.000000
0.433776 0.000000 0.000000
0.489951 0.000000 0.000000
0.540267 0.000000 0.000000
0.581349 0.000000 0.000000
0.644710 0.000000 0.000000
0.714034 0.000000 0.000000
0.784102 0.000000 0.000000
0.859049 0.000000 0.000000
0.932755 0.000000 0.035448
0.992569 0.000000 0.068497
1.000000 0.000000 0.102889
1.000000 0.120196 0.143139
1.000000 0.266913 0.188227
1.000000 0.369127 0.234890
1.000000 0.454194 0.291112
1.000000 0.542945 0.347983
1.000000 0.630596 0.423336
1.000000 0.704235 0.489624
1.000000 0.768726 0.556546
1.000000 0.821393 0.629150
1.000000 0.858456 0.704781
0.000000 0.066441 0.000000
0.000000 0.065505 0.000000
0.000000 0.064618 0.000000
0.000000 0.062397 0.000000
0.000000 0.057911 0.000000
0.053268 0.050350 0.000000
0.109642 0.033018 0.000000
0.165805 0.000000 0.000000
0.219787 0.000000 0.000000
0.280408 0.000000 0.000000
0.333874 0.000000 0.000000
0.384895 0.000000 0.000000
0.427442 0.000000 0.000000
0.486420 0.000000 0.000000
0.532368 0.000000 0.000000
0.581433 0.000000 0.000000
0.644770 0.000000 0.000000
0.714048 0.000000 0.000000
0.784082 0.000000 0.000000
0.858987 0.000000 0.000000
0.932618 0.000000 0.033142
0.992459 0.000000 0.069851
1.000000 0.000000 0.102426
1.000000 0.130630 0.142711
1.000000 0.266913 0.188227
1.000000 0.369127 0.234890
1.000000 0.457917 0.290811
1.000000 0.542945 0.347983
1.000000 0.630596 0.423336
1.000000 0.704235 0.489624
1.000000 0.768726 0.556546
1.000000 0.821393 0.629150
1.000000 0.858456 0.704781
0.000000 0.091845 0.000000
0.000000 0.090574 0.000000
0.000000 0.089352 0.000000
0.000000 0.084959 0.000000
0.000000 0.082736 0.000000
0.000000 0.074811 0.000000
0.093391 0.065445 0.000000
0.154605 0.043131 0.000000
0.207073 0.000000 0.000000
0.267784 0.000000 0.000000
0.321787 0.000000 0.000000
0.374092 0.000000 0.000000
0.418251 0.000000 0.000000
0.482960 0.000000 0.000000
0.528542 0.000000 0.000000
0.581548 0.000000 0.000000
0.644866 0.000000 0.000000
0.709720 0.000000 0.000000
0.779285 0.000000 0.000000
0.858923 0.000000 0.000000
0.932476 0.000000 0.030461
0.992349 0.000000 0.069283
1.000000 0.000000 0.103850
1.000000 0.140187 0.142272
1.000000 0.271846 0.187831
1.000000 0.369127 0.234890
1.000000 0.457917 0.290811
1.000000 0.546498 0.347727
1.000000 0.633966 0.423131
1.000000 0.704235 0.489624
1.000000 0.768726 0.556546
1.000000 0.821393 0.629150
1.000000 0.858456 0.704781
0.000000 0.118357 0.000000
0.000000 0.115389 0.000000
0.000000 0.115260 0.000000
0.000000 0.112434 0.000000
0.000000 0.107006 0.000000
0.000000 0.101468 0.000000
0.072569 0.094630 0.000000
0.141853 0.080491 0.000000
0.201473 0.059496 0.000000
0.266110 0.000000 0.000000
0.307973 0.000000 0.000000
0.361301 0.000000 0.000000
0.412566 0.000000 0.000000
0.476026 0.000000 0.000000
0.524871 0.000000 0.000000
0.581753 0.000000 0.000000
0.644975 0.000000 0.000000
0.709776 0.000000 0.000000
0.779238 0.000000 0.000000
0.858753 0.000000 0.000000
0.932250 0.000000 0.025353
0.992006 0.000000 0.067461
1.000000 0.000000 0.102884
1.000000 0.149049 0.146009
1.000000 0.276724 0.187426
1.000000 0.373204 0.234531
1.000000 0.461639 0.290506
1.000000 0.546498 0.347727
1.000000 0.633966 0.423131
1.000000 0.704235 0.489624
1.000000 0.768726 0.556546
1.000000 0.821895 0.630118
1.000000 0.861660 0.704917
0.000000 0.147996 0.000000
0.000000 0.146282 0.000000
0.000000 0.144597 0.000000
0.000000 0.142982 0.000000
0.000000 0.139854 0.000000
0.000000 0.135258 0.000000
0.000000 0.128660 0.000000
0.123034 0.117512 0.000000
0.190570 0.101472 0.000000
0.255292 0.077250 0.000000
0.306318 0.030784 0.000000
0.359662 0.000000 0.000000
0.404534 0.000000 0.000000
0.469833 0.000000 0.000000
0.521471 0.000000 0.000000
0.573915 0.000000 0.000000
0.645186 0.000000 0.000000
0.709850 0.000000 0.000000
0.779191 0.000000 0.000000
0.858606 0.000000 0.000000
0.932012 0.000000 0.023375
0.991764 0.000000 0.068194
1.000000 0.000000 0.101864
1.000000 0.165326 0.145116
1.000000 0.281545 0.189166
1.000000 0.377262 0.236607
1.000000 0.461639 0.290506
1.000000 0.550044 0.350303
1.000000 0.633966 0.423131
1.000000 0.707044 0.489504
1.000000 0.768726 0.556546
1.000000 0.821895 0.630118
1.000000 0.861660 0.704917
0.000000 0.177527 0.000000
0.000000 0.179261 0.000000
0.000000 0.177204 0.000000
0.000000 0.175197 0.000000
0.000000 0.171412 0.000000
0.000000 0.167676 0.000000
0.000000 0.163654 0.000000
0.072582 0.153181 0.000000
0.165055 0.145754 0.000000
0.242747 0.126900 0.000000
0.304349 0.103751 0.000000
0.358831 0.078300 0.000000
0.406448 0.000000 0.000000
0.461109 0.000000 0.000000
0.515301 0.000000 0.000000
0.574705 0.000000 0.000000
0.637066 0.000000 0.000000
0.709947 0.000000 0.000000
0.779120 0.000000 0.000000
0.858364 0.000000 0.000000
0.931491 0.000000 0.016861
0.991123 0.000000 0.066795
1.000000 0.000000 0.102224
1.000000 0.180148 0.146101
1.000000 0.286324 0.188755
1.000000 0.381318 0.236243
1.000000 0.465360 0.290198
1.000000 0.550044 0.350303
1.000000 0.637323 0.422927
1.000000 0.707044 0.489504
1.000000 0.768726 0.556546
1.000000 0.821882 0.633041
1.000000 0.861660 0.704917
0.000000 0.207876 0.000000
0.000000 0.212079 0.000000
0.000000 0.211898 0.000000
0.000000 0.207426 0.000000
0.000000 0.207273 0.000000
0.000000 0.202894 0.000000
0.000000 0.200552 0.000000
0.000000 0.197503 0.000000
0.125698 0.184608 0.000000
0.222301 0.171621 0.000000
0.294275 0.149544 0.000000
0.357306 0.127259 0.000000
0.405723 0.112194 0.000000
0.463725 0.084576 0.000000
0.517389 0.000000 0.000000
0.576319 0.000000 0.000000
0.637830 0.000000 0.000000
0.714388 0.000000 0.000000
0.779026 0.000000 0.000000
0.858095 0.000000 0.000000
0.930966 0.000000 0.000000
0.990557 0.000000 0.070275
1.000000 0.000000 0.103406
1.000000 0.200525 0.146587
1.000000 0.295747 0.190096
1.000000 0.385356 0.238344
1.000000 0.472801 0.289571
1.000000 0.553603 0.350047
1.000000 0.637313 0.425949
1.000000 0.709945 0.492274
1.000000 0.771115 0.556515
1.000000 0.823788 0.633083
1.000000 0.861660 0.704917
0.000000 0.232634 0.000000
0.000000 0.240480 0.000000
0.000000 0.242485 0.000000
0.000000 0.242422 0.000000
0.000000 0.240227 0.000000
0.000000 0.240011 0.000000
0.000000 0.237654 0.000000
0.000000 0.235034 0.000000
0.000000 0.231117 0.000000
0.175612 0.220323 0.000000
0.263101 0.205301 0.000000
0.346230 0.185197 0.000000
0.401198 0.165197 0.000000
0.463064 0.146944 0.000000
0.517012 0.135542 0.000000
0.578719 0.108093 0.000000
0.639274 0.053905 0.000000
0.714699 0.000000 0.000000
0.778919 0.000000 0.000000
0.857596 0.000000 0.000000
0.930395 0.000000 0.000000
0.989790 0.000000 0.070760
1.000000 0.108148 0.107269
1.000000 0.224754 0.146542
1.000000 0.310339 0.189328
1.000000 0.393419 0.237603
1.000000 0.476514 0.291756
1.000000 0.560719 0.352395
1.000000 0.640658 0.425748
1.000000 0.709945 0.492274
1.000000 0.771741 0.560377
1.000000 0.823788 0.633083
1.000000 0.862038 0.705751
0.000000 0.252654 0.000000
0.000000 0.261164 0.000000
0.000000 0.276746 0.000000
0.000000 0.281372 0.000000
0.000000 0.281366 0.000000
0.000000 0.278995 0.000000
0.000000 0.276480 0.000000
0.000000 0.273760 0.000000
0.000000 0.270353 0.000000
0.000000 0.265602 0.000000
0.217858 0.258113 0.000000
0.308822 0.241943 0.000000
0.388465 0.223027 0.000000
0.461861 0.201010 0.000000
0.516538 0.192465 0.000000
0.578157 0.186691 0.000000
0.637535 0.169564 0.000000
0.711513 0.138330 0.000000
0.778832 0.054570 0.000000
0.856911 0.000000 0.000000
0.929293 0.000000 0.000000
0.991616 0.000000 0.069560
1.000000 0.170995 0.109669
1.000000 0.246617 0.148505
1.000000 0.323858 0.190208
1.000000 0.405447 0.238971
1.000000 0.483982 0.293645
1.000000 0.564287 0.352137
1.000000 0.643990 0.425548
1.000000 0.712959 0.492151
1.000000 0.774092 0.560351
1.000000 0.825683 0.633129
1.000000 0.863597 0.708425
0.000000 0.269814 0.000000
0.000000 0.281277 0.000000
0.000000 0.300660 0.000000
0.000000 0.316113 0.000000
0.000000 0.324153 0.000000
0.000000 0.324124 0.000000
0.000000 0.329550 0.000000
0.000000 0.326683 0.000000
0.000000 0.323567 0.000000
0.000000 0.319577 0.000000
0.097426 0.313735 0.000000
0.247563 0.306279 0.000000
0.347878 0.291153 0.000000
0.438928 0.270417 0.000000
0.522187 0.250468 0.000000
0.581343 0.253232 0.000000
0.640617 0.242637 0.000000
0.713186 0.229737 0.000000
0.778983 0.198640 0.000000
0.855730 0.156491 0.000000
0.927525 0.127928 0.000000
0.989353 0.151563 0.067858
1.000000 0.222323 0.110748
1.000000 0.272788 0.150359
1.000000 0.345879 0.192421
1.000000 0.417406 0.242923
1.000000 0.495304 0.295225
1.000000 0.571420 0.354514
1.000000 0.650606 0.428194
1.000000 0.718922 0.494819
1.000000 0.776422 0.560330
1.000000 0.825683 0.633129
1.000000 0.863597 0.708425
0.000000 0.288051 0.104139
0.000000 0.302950 0.085165
0.000000 0.313310 0.066585
0.000000 0.326763 0.000000
0.000000 0.349014 0.000000
0.000000 0.368934 0.000000
0.000000 0.374815 0.000000
0.000000 0.380756 0.000000
0.000000 0.380566 0.000000
0.000000 0.380112 0.000000
0.000000 0.378632 0.000000
0.089925 0.372845 0.000000
0.284923 0.364644 0.000000
0.394466 0.349024 0.000000
0.503400 0.326789 0.000000
0.576278 0.315233 0.000000
0.646136 0.312692 0.000000
0.714662 0.305714 0.000000
0.779259 0.286937 0.000000
0.857755 0.270465 0.000000
0.924081 0.241622 0.000000
0.986047 0.233005 0.056959
1.000000 0.264651 0.109113
1.000000 0.301804 0.151107
1.000000 0.368011 0.195190
1.000000 0.434085 0.244587
1.000000 0.511323 0.297261
1.000000 0.582150 0.353730
1.000000 0.657167 0.430722
1.000000 0.721880 0.494707
1.000000 0.778717 0.563223
1.000000 0.827553 0.636107
1.000000 0.865153 0.708501
0.000000 0.312646 0.173497
0.000000 0.323441 0.167519
0.000000 0.334647 0.154767
0.000000 0.348681 0.138940
0.000000 0.362888 0.122181
0.000000 0.377669 0.097207
0.000000 0.415562 0.030001
0.000000 0.428794 0.000000
0.000000 0.435527 0.000000
0.000000 0.438725 0.000000
0.000000 0.438168 0.000000
0.000000 0.440093 0.000000
0.107860 0.430715 0.000000
0.318460 0.425949 0.000000
0.457927 0.411488 0.000000
0.557124 0.389239 0.000000
0.642154 0.380461 0.000000
0.718077 0.371514 0.000000
0.783169 0.363087 0.000000
0.854891 0.353068 0.000000
0.918914 0.335708 0.000000
0.980983 0.310651 0.036045
1.000000 0.322151 0.102316
1.000000 0.347668 0.149491
1.000000 0.398617 0.197508
1.000000 0.458447 0.248115
1.000000 0.531017 0.298980
1.000000 0.592893 0.355862
1.000000 0.663681 0.430349
1.000000 0.728517 0.498395
1.000000 0.783266 0.563205
1.000000 0.829424 0.636160
1.000000 0.866695 0.708580
0.000000 0.350630 0.233561
0.000000 0.353491 0.230598
0.000000 0.359246 0.227303
0.000000 0.371044 0.218019
0.000000 0.392564 0.202100
0.000000 0.408682 0.186657
0.000000 0.435629 0.166114
0.000000 0.473929 0.131313
0.000000 0.495223 0.091982
0.000000 0.505847 0.000000
0.000000 0.505513 0.000000
0.000000 0.508338 0.000000
0.000000 0.506700 0.000000
0.160514 0.499838 0.000000
0.368827 0.501950 0.000000
0.507129 0.483839 0.000000
0.618435 0.460633 0.000000
0.716769 0.443747 0.000000
0.784553 0.444383 0.000000
0.858748 0.432649 0.000000
0.915611 0.423076 0.000000
0.971243 0.414888 0.000000
1.000000 0.392612 0.103998
1.000000 0.408259 0.146379
1.000000 0.439709 0.199486
1.000000 0.490679 0.253631
1.000000 0.553537 0.302253
1.000000 0.610836 0.360444
1.000000 0.673331 0.432699
1.000000 0.737098 0.498113
1.000000 0.788297 0.567067
1.000000 0.831270 0.639150
1.000000 0.868209 0.711248
0.000000 0.395173 0.282689
0.000000 0.395166 0.285460
0.000000 0.408362 0.281530
0.000000 0.418456 0.277828
0.000000 0.432069 0.270981
0.000000 0.449320 0.258242
0.000000 0.473852 0.247206
0.000000 0.509669 0.217763
0.000000 0.535511 0.191282
0.000000 0.561583 0.158796
0.000000 0.580224 0.122591
0.000000 0.579684 0.000000
0.000000 0.586240 0.000000
0.000000 0.576532 0.000000
0.208779 0.580425 0.000000
0.420314 0.571098 0.000000
0.564425 0.556259 0.000000
0.690201 0.531702 0.000000
0.775057 0.524354 0.000000
0.851667 0.517560 0.000000
0.913914 0.504726 0.000000
0.968153 0.506253 0.000000
1.000000 0.493633 0.089977
1.000000 0.483347 0.148791
1.000000 0.497257 0.204883
1.000000 0.529985 0.256741
1.000000 0.580581 0.306080
1.000000 0.629632 0.365969
1.000000 0.689099 0.434762
1.000000 0.745477 0.500787
1.000000 0.794918 0.570005
1.000000 0.834947 0.639275
1.000000 0.869720 0.711333
0.000000 0.442209 0.335584
0.000000 0.445668 0.335315
0.000000 0.449117 0.341558
0.000000 0.459590 0.337463
0.000000 0.473699 0.326571
0.000000 0.487926 0.322119
0.000000 0.505895 0.310891
0.000000 0.546635 0.297086
0.000000 0.572937 0.271868
0.000000 0.599384 0.246247
0.000000 0.633527 0.227603
0.000000 0.644547 0.192942
0.000000 0.655348 0.137526
0.000000 0.650215 0.032005
0.000000 0.647567 0.000000
0.294733 0.643071 0.000000
0.481904 0.633540 0.000000
0.629940 0.626028 0.000000
0.750573 0.605938 0.000000
0.836138 0.591231 0.000000
0.902817 0.586511 0.000000
0.956259 0.584266 0.000000
0.998022 0.576048 0.061364
1.000000 0.578020 0.143347
1.000000 0.566162 0.211770
1.000000 0.576923 0.264438
1.000000 0.614307 0.311369
1.000000 0.654327 0.373286
1.000000 0.705319 0.439818
1.000000 0.758982 0.506345
1.000000 0.801436 0.572984
1.000000 0.840354 0.642429
1.000000 0.872685 0.714083
0.000000 0.487711 0.393728
0.000000 0.494863 0.396703
0.000000 0.505670 0.395942
0.000000 0.512981 0.402417
0.000000 0.516669 0.402154
0.000000 0.527785 0.397853
0.000000 0.546427 0.392969
0.000000 0.580334 0.379728
0.000000 0.606913 0.363119
0.000000 0.629782 0.346209
0.000000 0.667958 0.316689
0.000000 0.698219 0.291371
0.000000 0.721939 0.266428
0.000000 0.721049 0.216351
0.000000 0.715382 0.177090
0.000000 0.719679 0.069565
0.377416 0.714715 0.000000
0.568770 0.708044 0.000000
0.718278 0.691941 0.000000
0.814383 0.673008 0.000000
0.882803 0.668331 0.000000
0.941905 0.661172 0.000000
0.980657 0.652717 0.000000
1.000000 0.658021 0.148749
1.000000 0.645515 0.217388
1.000000 0.643717 0.272001
1.000000 0.655072 0.325432
1.000000 0.684923 0.380514
1.000000 0.727619 0.447754
1.000000 0.769904 0.510125
1.000000 0.812489 0.579948
1.000000 0.845627 0.648567
1.000000 0.875586 0.716830
0.000000 0.546252 0.450124
0.000000 0.553742 0.453259
0.000000 0.565011 0.459804
0.000000 0.568758 0.466888
0.000000 0.576321 0.466381
0.000000 0.583908 0.462200
0.000000 0.599094 0.461171
0.000000 0.629633 0.451637
0.000000 0.656433 0.438589
0.000000 0.675560 0.426057
0.000000 0.706533 0.412489
0.000000 0.742103 0.383625
0.000000 0.771117 0.370212
0.000000 0.790964 0.338184
0.000000 0.789830 0.299104
0.000000 0.793925 0.248697
0.077719 0.786406 0.186414
0.456958 0.784088 0.108173
0.647162 0.773452 0.000000
0.780726 0.759377 0.000000
0.858462 0.747514 0.000000
0.926582 0.736351 0.000000
0.966883 0.731376 0.000000
0.994677 0.735147 0.144313
1.000000 0.729537 0.227623
1.000000 0.722281 0.282811
1.000000 0.716682 0.331036
1.000000 0.722666 0.394195
1.000000 0.757725 0.459778
1.000000 0.787409 0.519930
1.000000 0.822729 0.586098
1.000000 0.853090 0.652824
1.000000 0.879823 0.719682
0.000000 0.595131 0.509748
0.000000 0.602734 0.513018
0.000000 0.617960 0.523349
0.000000 0.625610 0.522858
0.000000 0.633253 0.526147
0.000000 0.644740 0.525412
0.000000 0.656228 0.524674
0.000000 0.675383 0.523423
0.000000 0.702372 0.510214
0.000000 0.722693 0.501251
0.000000 0.745982 0.492132
0.000000 0.778539 0.474945
0.000000 0.801476 0.458626
0.000000 0.830657 0.442585
0.000000 0.840403 0.412470
0.000000 0.846434 0.378992
0.000000 0.843138 0.329528
0.282846 0.836158 0.270671
0.566482 0.834095 0.212655
0.728726 0.824265 0.164864
0.829989 0.815918 0.070304
0.905264 0.803283 0.000000
0.952471 0.792456 0.000000
0.981583 0.797020 0.160271
1.000000 0.794425 0.242142
1.000000 0.792975 0.305133
1.000000 0.792661 0.357902
1.000000 0.783067 0.415444
1.000000 0.792719 0.477514
1.000000 0.810573 0.536135
1.000000 0.834552 0.589542
1.000000 0.863305 0.659384
1.000000 0.885317 0.725159
0.000000 0.648435 0.563386
0.000000 0.656077 0.570675
0.000000 0.667560 0.577739
0.000000 0.679058 0.580916
0.000000 0.690535 0.587999
0.000000 0.702165 0.591187
0.000000 0.714448 0.594342
0.000000 0.726498 0.585793
0.000000 0.742100 0.577041
0.000000 0.768041 0.575551
0.000000 0.788799 0.566652
0.000000 0.811116 0.557866
0.000000 0.831308 0.541671
0.000000 0.851702 0.530041
0.000000 0.870380 0.515194
0.000000 0.882843 0.489560
0.000000 0.886717 0.452969
0.000000 0.883426 0.405211
0.461336 0.877248 0.354968
0.669816 0.867755 0.302443
0.789259 0.866199 0.261058
0.879662 0.856566 0.206638
0.932630 0.844216 0.155553
0.968017 0.842360 0.191276
0.994568 0.839225 0.264894
1.000000 0.839406 0.333873
1.000000 0.835977 0.388508
1.000000 0.833118 0.439667
1.000000 0.833570 0.494740
1.000000 0.833738 0.549170
1.000000 0.853758 0.606435
1.000000 0.872886 0.668898
1.000000 0.893349 0.730867
0.000000 0.706190 0.622199
0.000000 0.710247 0.633685
0.000000 0.722356 0.640781
0.000000 0.734218 0.640080
0.000000 0.745728 0.651148
0.000000 0.753252 0.650725
0.000000 0.767872 0.653828
0.000000 0.781875 0.660904
0.000000 0.792015 0.652585
0.000000 0.801751 0.648223
0.000000 0.823060 0.639533
0.000000 0.839533 0.635148
0.000000 0.857142 0.623183
0.000000 0.873615 0.615471
0.000000 0.891098 0.604392
0.000000 0.906102 0.594019
0.000000 0.918338 0.573108
0.000000 0.917066 0.539878
0.284908 0.914328 0.489371
0.577098 0.907647 0.440124
0.738819 0.900996 0.393264
0.851120 0.893358 0.352130
0.911405 0.891500 0.310712
0.955213 0.882030 0.263124
0.985345 0.873159 0.289564
1.000000 0.874450 0.361583
1.000000 0.874596 0.416801
1.000000 0.871648 0.464922
1.000000 0.872955 0.528569
1.000000 0.871796 0.572216
1.000000 0.872711 0.620466
1.000000 0.886110 0.679030
1.000000 0.902527 0.742176
0.000000 0.756843 0.685424
0.000000 0.771326 0.692143
0.000000 0.778347 0.695480
0.000000 0.788566 0.705927
0.000000 0.798428 0.712591
0.000000 0.801616 0.715975
0.000000 0.807886 0.722657
0.000000 0.822938 0.721904
0.000000 0.834199 0.721393
0.000000 0.842166 0.717602
0.000000 0.852361 0.710236
0.000000 0.864466 0.706364
0.000000 0.881010 0.698978
0.000000 0.895984 0.695451
0.000000 0.909360 0.688671
0.000000 0.922511 0.685996
0.000000 0.935880 0.669950
0.000000 0.939103 0.656546
0.000000 0.943964 0.629323
0.490052 0.936508 0.578271
0.679135 0.931549 0.533718
0.812482 0.923934 0.491371
0.885773 0.919939 0.446036
0.934819 0.915697 0.411052
0.972486 0.906407 0.368873
0.996803 0.902232 0.394603
1.000000 0.901780 0.442538
1.000000 0.900449 0.496390
1.000000 0.902372 0.551271
1.000000 0.902104 0.599157
1.000000 0.899432 0.645263
1.000000 0.901269 0.695947
1.000000 0.912438 0.748774
0.000000 0.814002 0.746567
0.000000 0.822915 0.749593
0.000000 0.831442 0.752612
0.000000 0.839532 0.762339
0.000000 0.842113 0.768762
