Assets/Lutify-Free-LUTs-Pack/Lutify Free LUTs Pack/Commercial Pro - Claire/Lutify.me-Claire-RWG-to-Rec709.cube
# Created with: fylm.ai - Colour Grading and Collaboration Software in Cloud 
# Website: https://fylm.ai 
# META
# Option: Gamut compress
# Block 1: IDT | RED REDWideGamutRGB Log3G10
# Block 2: colourMatch | Blending Mode: Normal | {"ColorSpace":0,"CrossCovarianceLimit":50,"ReshapingIterations":1,"PercentSaturationShift":100,"PercentShadingShift":100,"ExtraShading":true,"PercentTint":100,"PercentModified":100}
# Block 3: HSL | Blending Mode: Normal | {"hue":{"Reds":0,"Yellows":0,"Greens":0,"Cyans":0,"Blues":0,"Magentas":0},"saturation":{"Reds":1,"Yellows":1,"Greens":1,"Cyans":1,"Blues":1,"Magentas":1},"luminance":{"Reds":0.9,"Yellows":0.9,"Greens":0.9,"Cyans":0.8,"Blues":0.8,"Magentas":0.9},"lum_sat":{"Blacks":1,"Shadows":1,"Midtones":1,"Highlights":1,"Whites":1},"sat_sat":{"10":1,"20":1,"30":1,"40":1,"50":1}}
# Block 4: subtractiveColour | Blending Mode: Normal | {"sliders":{"gainY":0.1,"C":0.05,"M":0.05,"Y":0.05}}
# Block 5: logPrimaries | Blending Mode: Normal | {"wheels":{"shadows":{"Y":"0","R":"1","G":"1","B":"1"},"midtones":{"Y":"0","R":"1","G":"1","B":"1"},"highlights":{"Y":"0","R":"1","G":"1","B":"1"},"offset":{"Y":"0","R":"1","G":"1","B":"1"}},"sliders":{"shadows":{"Y":0,"R":-0.05,"G":0,"B":0.1},"midtones":{"Y":0,"R":0,"G":0,"B":0},"highlights":{"Y":0,"R":0,"G":0,"B":0},"offset":{"Y":0,"R":0,"G":0,"B":0}}}
# Block 6: LUT | Filmic Curve Response: Standard Contrast 1 (100%)
# Block 7: LUT | Illuminant: D93 (100%)
# Block 8: LUT | Neutral Tint: Teal Tint 4 (100%)
# Block 9: ODT | Rec709
TITLE "Lutify.me-Claire-RWG-to-Rec709" 
LUT_3D_SIZE 9
0.000000 0.000000 0.000000
0.109130 0.000000 0.000000
0.410834 0.000000 0.000000
0.631308 0.000000 0.000000
0.906367 0.000000 0.000000
1.000000 0.242549 0.000000
1.000000 0.652714 0.281888
1.000000 0.885580 0.607370
1.000000 0.969510 0.850017
0.000000 0.058000 0.000000
0.036632 0.046789 0.000000
0.360028 0.000000 0.000000
0.644334 0.000000 0.000000
0.910207 0.000000 0.000000
1.000000 0.247788 0.000000
1.000000 0.655886 0.279134
1.000000 0.885580 0.607370
1.000000 0.969510 0.850017
0.000000 0.213316 0.000000
0.000000 0.196191 0.000000
0.354447 0.118801 0.000000
0.731881 0.000000 0.000000
0.943925 0.000000 0.000000
1.000000 0.278652 0.000000
1.000000 0.660107 0.275675
1.000000 0.885580 0.607370
1.000000 0.969510 0.850017
0.000000 0.389459 0.000000
0.000000 0.376960 0.000000
0.223740 0.351670 0.000000
0.722939 0.240129 0.000000
1.000000 0.000000 0.000000
1.000000 0.351549 0.000000
1.000000 0.680623 0.258718
1.000000 0.888448 0.604988
1.000000 0.969516 0.848812
0.000000 0.636931 0.000000
0.000000 0.624860 0.000000
0.000000 0.617976 0.000000
0.662767 0.568613 0.000000
1.000000 0.488447 0.000000
1.000000 0.495142 0.184614
1.000000 0.732227 0.196450
1.000000 0.896548 0.599267
1.000000 0.971188 0.849895
0.000000 0.850073 0.000000
0.000000 0.849215 0.000000
0.000000 0.846920 0.000000
0.567679 0.836827 0.000000
0.957861 0.792042 0.000000
1.000000 0.764383 0.116215
1.000000 0.796767 0.479613
1.000000 0.913611 0.529283
1.000000 0.973794 0.844424
0.677896 0.954947 0.000000
0.688301 0.954512 0.000000
0.717566 0.953236 0.000000
0.792385 0.947408 0.000000
0.926258 0.936276 0.000000
1.000000 0.923627 0.204817
1.000000 0.915522 0.522087
1.000000 0.924495 0.757637
1.000000 0.981691 0.810512
0.946502 0.989191 0.357131
0.947908 0.989102 0.357957
0.950665 0.988927 0.359639
0.958596 0.988418 0.364931
0.977448 0.987184 0.380984
1.000000 0.983524 0.438403
1.000000 0.978232 0.601336
1.000000 0.976648 0.787929
1.000000 0.974850 0.853148
1.000000 1.000000 0.681504
1.000000 1.000000 0.681504
1.000000 1.000000 0.682313
1.000000 1.000000 0.683129
1.000000 1.000000 0.688163
1.000000 1.000000 0.711850
1.000000 1.000000 0.755265
1.000000 0.999543 0.833805
1.000000 0.999063 0.875967
0.000000 0.000000 0.074718
0.052999 0.000000 0.041470
0.349327 0.000000 0.000000
0.564633 0.000000 0.000000
0.885359 0.000000 0.000000
1.000000 0.242536 0.059022
1.000000 0.655869 0.288830
1.000000 0.885564 0.611792
1.000000 0.969510 0.850017
0.000000 0.038086 0.068955
0.000000 0.032033 0.052543
0.295708 0.000000 0.000000
0.560845 0.000000 0.000000
0.893522 0.000000 0.000000
1.000000 0.252938 0.051011
1.000000 0.655874 0.286377
1.000000 0.885564 0.611792
1.000000 0.969510 0.850017
0.000000 0.207877 0.000000
0.000000 0.205123 0.000000
0.302157 0.148092 0.000000
0.612764 0.000000 0.000000
0.904968 0.000000 0.000000
1.000000 0.277763 0.000000
1.000000 0.660094 0.282787
1.000000 0.885580 0.607370
1.000000 0.969510 0.850017
0.000000 0.389474 0.000000
0.000000 0.377007 0.000000
0.216875 0.349049 0.000000
0.722939 0.240129 0.000000
1.000000 0.000000 0.000000
1.000000 0.355846 0.000000
1.000000 0.680613 0.265431
1.000000 0.888440 0.607154
1.000000 0.969516 0.848812
0.000000 0.633134 0.000000
0.000000 0.624892 0.000000
0.000000 0.618160 0.000000
0.657529 0.568994 0.000000
1.000000 0.479926 0.000000
1.000000 0.493580 0.181481
1.000000 0.732366 0.196415
1.000000 0.897776 0.601686
1.000000 0.971188 0.849895
0.000000 0.850073 0.000000
0.000000 0.849215 0.000000
0.000000 0.846920 0.000000
0.560429 0.837098 0.000000
0.957861 0.792042 0.000000
1.000000 0.764383 0.116215
1.000000 0.796767 0.479613
1.000000 0.913603 0.532432
1.000000 0.973794 0.844424
0.677896 0.954947 0.000000
0.688301 0.954512 0.000000
0.717566 0.953236 0.000000
0.792385 0.947408 0.000000
0.926258 0.936276 0.000000
1.000000 0.923627 0.204817
1.000000 0.915522 0.522087
1.000000 0.924495 0.757637
1.000000 0.981686 0.811426
0.946502 0.989191 0.357131
0.947908 0.989102 0.357957
0.950665 0.988927 0.359639
0.958596 0.988418 0.364931
0.977448 0.987184 0.380984
1.000000 0.983524 0.438403
1.000000 0.978232 0.601336
1.000000 0.976648 0.787929
1.000000 0.974850 0.853148
1.000000 1.000000 0.681504
1.000000 1.000000 0.681504
1.000000 1.000000 0.682313
1.000000 1.000000 0.683129
1.000000 1.000000 0.688163
1.000000 1.000000 0.711850
1.000000 1.000000 0.755265
1.000000 0.999543 0.833805
1.000000 0.999063 0.875967
0.000000 0.000000 0.176954
0.000000 0.000000 0.103143
0.305626 0.000000 0.060129
0.534450 0.000000 0.074874
0.868096 0.000000 0.076199
1.000000 0.250986 0.124945
1.000000 0.655833 0.308258
1.000000 0.885547 0.616261
1.000000 0.969504 0.851220
0.000000 0.000000 0.178950
0.000000 0.000000 0.138821
0.258277 0.000000 0.093630
0.511777 0.000000 0.095230
0.872201 0.000000 0.074403
1.000000 0.261198 0.121313
1.000000 0.655833 0.308258
1.000000 0.885547 0.616261
1.000000 0.969504 0.851220
0.000000 0.167608 0.268664
0.000000 0.169337 0.270913
0.157709 0.204444 0.275159
0.506180 0.090710 0.116775
0.875083 0.000000 0.052566
1.000000 0.286460 0.111145
1.000000 0.662139 0.305354
1.000000 0.885547 0.616261
1.000000 0.969510 0.850017
0.000000 0.314763 0.214694
0.000000 0.371421 0.166321
0.000000 0.434381 0.000000
0.547058 0.372293 0.000000
0.896231 0.309044 0.000000
1.000000 0.371716 0.000000
1.000000 0.678647 0.288120
1.000000 0.888160 0.612350
1.000000 0.969510 0.850017
0.000000 0.633303 0.000000
0.000000 0.628955 0.000000
0.000000 0.614655 0.000000
0.653727 0.565347 0.000000
1.000000 0.479926 0.000000
1.000000 0.490304 0.182128
1.000000 0.741362 0.212524
1.000000 0.897761 0.605853
1.000000 0.971188 0.849895
0.000000 0.850527 0.000000
0.000000 0.849592 0.000000
0.000000 0.847237 0.000000
0.560429 0.837098 0.000000
0.957861 0.792042 0.000000
1.000000 0.764383 0.116215
1.000000 0.796767 0.479613
1.000000 0.913578 0.540537
1.000000 0.973788 0.845590
0.677896 0.954947 0.000000
0.683140 0.954729 0.000000
0.717566 0.953236 0.000000
0.792385 0.947408 0.000000
0.926258 0.936276 0.000000
1.000000 0.923627 0.204817
1.000000 0.915369 0.518818
1.000000 0.924495 0.757637
1.000000 0.981682 0.812343
0.946502 0.989191 0.357131
0.947908 0.989102 0.357957
0.949296 0.989014 0.358793
0.958596 0.988418 0.364931
0.977448 0.987184 0.380984
1.000000 0.983524 0.438403
1.000000 0.978232 0.601336
1.000000 0.976648 0.787929
1.000000 0.974850 0.853148
1.000000 1.000000 0.681504
1.000000 1.000000 0.681504
1.000000 1.000000 0.682313
1.000000 1.000000 0.683129
1.000000 1.000000 0.688163
1.000000 1.000000 0.711850
1.000000 1.000000 0.755265
1.000000 0.999543 0.833805
1.000000 0.999063 0.875967
0.000000 0.000000 0.200455
0.000000 0.000000 0.150624
0.238102 0.000000 0.106866
0.650104 0.000000 0.063329
0.839702 0.000000 0.248557
1.000000 0.248662 0.257737
1.000000 0.665097 0.381232
1.000000 0.887030 0.638438
1.000000 0.969491 0.853621
0.000000 0.000000 0.231543
0.000000 0.000000 0.200549
0.183454 0.000000 0.168478
0.534436 0.000000 0.106500
0.839492 0.000000 0.264365
1.000000 0.259006 0.257268
1.000000 0.665104 0.378499
1.000000 0.887030 0.638438
1.000000 0.969491 0.853621
0.000000 0.102649 0.335047
0.000000 0.108328 0.329254
0.000000 0.109726 0.358323
0.479871 0.000000 0.311871
0.851497 0.000000 0.290231
1.000000 0.290011 0.256594
1.000000 0.671342 0.375359
1.000000 0.887030 0.638438
1.000000 0.969491 0.853621
0.000000 0.313777 0.491567
0.000000 0.322249 0.487590
0.000000 0.380622 0.562751
0.385378 0.466920 0.577541
0.852951 0.358183 0.331695
1.000000 0.392135 0.244478
1.000000 0.692724 0.365838
1.000000 0.889371 0.633035
1.000000 0.970048 0.852609
0.000000 0.579972 0.495793
0.000000 0.602761 0.483176
0.000000 0.690405 0.439855
0.000000 0.762272 0.272309
0.831536 0.708479 0.000000
1.000000 0.672826 0.000000
1.000000 0.746317 0.320653
1.000000 0.897235 0.624726
1.000000 0.971176 0.852266
0.000000 0.848843 0.000000
0.000000 0.848117 0.000000
0.000000 0.845458 0.000000
0.533811 0.835551 0.000000
0.955828 0.792132 0.000000
1.000000 0.761589 0.117177
1.000000 0.795035 0.479615
1.000000 0.915722 0.575191
1.000000 0.974263 0.848146
0.667153 0.955387 0.000000
0.672568 0.955167 0.000000
0.703293 0.953867 0.000000
0.784638 0.947805 0.000000
0.924208 0.936405 0.000000
1.000000 0.922388 0.202128
1.000000 0.914237 0.518251
1.000000 0.924495 0.757637
1.000000 0.981659 0.816985
0.946502 0.989191 0.357131
0.946502 0.989191 0.357131
0.949296 0.989014 0.358793
0.957307 0.988501 0.364022
0.977727 0.986703 0.376706
1.000000 0.983524 0.438403
1.000000 0.978232 0.601336
1.000000 0.976648 0.787929
1.000000 0.974850 0.853148
1.000000 1.000000 0.681504
1.000000 1.000000 0.681504
1.000000 1.000000 0.681504
1.000000 1.000000 0.683129
1.000000 1.000000 0.688163
1.000000 1.000000 0.711850
1.000000 1.000000 0.755265
1.000000 0.999543 0.833805
1.000000 0.999063 0.875967
0.051522 0.000000 0.202021
0.107473 0.000000 0.191850
0.244791 0.000000 0.158826
0.534271 0.000000 0.106472
0.979592 0.000000 0.091737
1.000000 0.101742 0.520429
1.000000 0.665597 0.547823
1.000000 0.888012 0.710301
1.000000 0.969498 0.864676
0.000000 0.000000 0.259246
0.000000 0.000000 0.254502
0.184521 0.000000 0.243426
0.453983 0.000000 0.173322
0.979592 0.000000 0.091737
1.000000 0.135660 0.527229
1.000000 0.665597 0.547823
1.000000 0.888012 0.710301
1.000000 0.969498 0.864676
0.000000 0.110131 0.434413
0.000000 0.108204 0.437906
0.000000 0.106267 0.451707
0.371884 0.000000 0.463899
0.797875 0.000000 0.311988
1.000000 0.205600 0.544389
1.000000 0.671889 0.547536
1.000000 0.889298 0.710446
1.000000 0.969498 0.864676
0.000000 0.249870 0.575469
0.000000 0.261210 0.590390
0.000000 0.274901 0.624545
0.188803 0.291260 0.681056
0.819666 0.119636 0.628960
1.000000 0.374362 0.581211
1.000000 0.696458 0.546458
1.000000 0.890587 0.708224
1.000000 0.970047 0.864826
0.000000 0.518665 0.728469
0.000000 0.518665 0.728469
0.000000 0.589990 0.773741
0.000000 0.687382 0.840365
0.725428 0.785055 0.849545
1.000000 0.707222 0.655085
1.000000 0.762349 0.538633
1.000000 0.899400 0.700010
1.000000 0.971628 0.864130
0.000000 0.859347 0.780490
0.000000 0.864049 0.777184
0.000000 0.880462 0.767057
0.000000 0.922804 0.753596
0.623883 0.937069 0.649960
0.970841 0.906483 0.374565
1.000000 0.897505 0.452485
1.000000 0.921839 0.659799
1.000000 0.974160 0.858093
0.626994 0.955849 0.000000
0.633052 0.955622 0.000000
0.667452 0.954276 0.000000
0.765292 0.948772 0.000000
0.918486 0.935573 0.000000
1.000000 0.922376 0.193768
1.000000 0.914237 0.518251
1.000000 0.923710 0.757520
1.000000 0.982407 0.833133
0.943630 0.989373 0.355509
0.943630 0.989373 0.355509
0.946502 0.989191 0.357131
0.956268 0.988105 0.358548
0.975551 0.986847 0.374503
1.000000 0.983568 0.436178
1.000000 0.978227 0.599033
1.000000 0.976648 0.787929
1.000000 0.974850 0.853148
1.000000 1.000000 0.680702
1.000000 1.000000 0.680702
1.000000 1.000000 0.681504
1.000000 1.000000 0.683129
1.000000 1.000000 0.687307
1.000000 1.000000 0.711850
1.000000 1.000000 0.755265
1.000000 0.999543 0.833805
1.000000 0.999063 0.875967
0.278129 0.000000 0.210374
0.296120 0.000000 0.203740
0.360530 0.000000 0.184391
0.521881 0.000000 0.156866
0.897625 0.000000 0.146366
1.000000 0.000000 0.165416
1.000000 0.599807 0.810494
1.000000 0.892307 0.821622
1.000000 0.970949 0.894468
0.210243 0.000000 0.312627
0.234213 0.000000 0.304444
0.292331 0.000000 0.283546
0.459702 0.000000 0.226760
0.897625 0.000000 0.146366
1.000000 0.000000 0.165416
1.000000 0.603199 0.810347
1.000000 0.892307 0.821622
1.000000 0.970949 0.894468
0.000000 0.111511 0.560276
0.000000 0.107176 0.552823
0.058679 0.098327 0.552645
0.323057 0.000000 0.569925
0.727607 0.000000 0.431101
1.000000 0.000000 0.164596
1.000000 0.613356 0.817498
1.000000 0.893575 0.821627
1.000000 0.970949 0.894468
0.000000 0.267627 0.735868
0.000000 0.269882 0.739381
0.000000 0.273816 0.753301
0.000000 0.279967 0.783823
0.676855 0.193352 0.800280
1.000000 0.000000 0.658665
1.000000 0.655658 0.828051
1.000000 0.896314 0.821959
1.000000 0.971463 0.894545
0.000000 0.488718 0.841794
0.000000 0.495881 0.846555
0.000000 0.510257 0.858176
0.000000 0.530781 0.881826
0.536862 0.564313 0.910248
1.000000 0.512313 0.887098
1.000000 0.751429 0.846393
1.000000 0.904027 0.828522
1.000000 0.972483 0.893670
0.000000 0.756120 0.887054
0.000000 0.756120 0.887054
0.000000 0.756120 0.887054
0.000000 0.861262 0.933641
0.000000 0.915822 0.956992
0.924210 0.937831 0.957955
1.000000 0.912532 0.881681
1.000000 0.926619 0.824309
1.000000 0.974951 0.891029
0.000000 0.984524 0.929833
0.000000 0.984359 0.929819
0.000000 0.986235 0.929632
0.000000 0.990562 0.926772
0.438241 0.995756 0.922262
0.889517 0.991253 0.890478
1.000000 0.982084 0.752956
1.000000 0.977713 0.789027
1.000000 0.984597 0.878075
0.929528 0.990709 0.353512
0.931373 0.990138 0.349408
0.934553 0.989941 0.350877
0.943879 0.988894 0.350796
0.969883 0.987221 0.369203
1.000000 0.983205 0.426650
1.000000 0.977709 0.594913
1.000000 0.976187 0.787506
1.000000 0.973985 0.852828
1.000000 1.000000 0.679117
1.000000 1.000000 0.679117
1.000000 1.000000 0.679906
1.000000 1.000000 0.681504
1.000000 1.000000 0.685616
1.000000 1.000000 0.709064
1.000000 1.000000 0.753984
1.000000 0.999543 0.833805
1.000000 0.999063 0.875967
0.569291 0.000000 0.219205
0.576891 0.000000 0.219204
0.595468 0.000000 0.214779
0.667952 0.000000 0.212751
0.867136 0.000000 0.206071
1.000000 0.000000 0.216134
1.000000 0.000000 0.282780
1.000000 0.870738 0.946543
1.000000 0.972805 0.944226
0.534659 0.000000 0.273131
0.541045 0.000000 0.270728
0.566182 0.000000 0.256781
0.667952 0.000000 0.212751
0.867136 0.000000 0.206071
1.000000 0.000000 0.216134
1.000000 0.000000 0.281431
1.000000 0.870738 0.946543
1.000000 0.972805 0.944226
0.340314 0.000000 0.669406
0.348081 0.000000 0.669331
0.385206 0.000000 0.661271
0.499461 0.000000 0.637044
0.735031 0.000000 0.451649
1.000000 0.000000 0.216134
1.000000 0.000000 0.281431
1.000000 0.872175 0.946454
1.000000 0.972805 0.944226
0.000000 0.292075 0.861995
0.000000 0.291878 0.861975
0.133185 0.287443 0.861919
0.284712 0.278711 0.861479
0.609369 0.225215 0.873302
1.000000 0.000000 0.814243
1.000000 0.000000 0.281431
1.000000 0.876379 0.948139
1.000000 0.972805 0.944226
0.000000 0.526756 0.931550
0.000000 0.526723 0.933072
0.000000 0.530003 0.934326
0.000000 0.539118 0.940793
0.431721 0.550771 0.950612
0.961454 0.517522 0.958580
1.000000 0.413800 0.909496
1.000000 0.890469 0.951107
1.000000 0.973782 0.945038
0.000000 0.784013 0.962295
0.000000 0.783948 0.963299
0.000000 0.790244 0.964780
0.000000 0.805102 0.970138
0.000000 0.830412 0.976700
0.829135 0.844500 0.985769
1.000000 0.836018 0.977152
1.000000 0.924096 0.959471
1.000000 0.976612 0.945085
0.000000 0.917792 0.962354
0.000000 0.917792 0.962354
0.000000 0.917792 0.962354
0.000000 0.917792 0.962354
0.000000 0.981619 0.990986
0.705564 0.985487 0.997571
0.986651 0.990553 0.998270
1.000000 0.982545 0.972232
1.000000 0.986163 0.946620
0.403869 1.000000 0.987981
0.409698 1.000000 0.987971
0.426717 1.000000 0.987942
0.503122 1.000000 0.988159
0.627894 1.000000 0.986089
0.844726 1.000000 0.986589
0.975768 1.000000 0.976482
1.000000 1.000000 0.923323
1.000000 1.000000 0.928067
1.000000 1.000000 0.673055
1.000000 1.000000 0.673055
1.000000 1.000000 0.673789
1.000000 1.000000 0.674530
1.000000 1.000000 0.679906
1.000000 1.000000 0.702200
1.000000 1.000000 0.750127
1.000000 0.999727 0.833695
1.000000 0.999063 0.875967
0.910452 0.000000 0.275315
0.914454 0.000000 0.275412
0.922341 0.000000 0.275613
0.941344 0.000000 0.276168
1.000000 0.000000 0.276824
1.000000 0.000000 0.287293
1.000000 0.000000 0.327327
1.000000 0.517663 0.499948
1.000000 0.964764 0.994113
0.910452 0.000000 0.275315
0.914454 0.000000 0.275412
0.918418 0.000000 0.275511
0.941344 0.000000 0.276168
1.000000 0.000000 0.276628
1.000000 0.000000 0.287293
1.000000 0.000000 0.327327
1.000000 0.517663 0.499948
1.000000 0.964764 0.994113
0.819523 0.000000 0.427821
0.827194 0.000000 0.424484
0.836979 0.000000 0.407863
0.884972 0.000000 0.353210
1.000000 0.000000 0.276628
1.000000 0.000000 0.287293
1.000000 0.000000 0.327327
1.000000 0.517663 0.499948
1.000000 0.965360 0.994072
0.622025 0.240175 0.923196
0.627068 0.239044 0.923139
0.637138 0.236728 0.923025
0.677440 0.222511 0.924327
0.806655 0.129910 0.921497
1.000000 0.000000 0.854359
1.000000 0.000000 0.327327
1.000000 0.517663 0.499948
1.000000 0.965352 0.994403
0.455894 0.562860 0.981583
0.462696 0.562556 0.981551
0.471695 0.558330 0.981708
0.529566 0.555381 0.981405
0.656212 0.539327 0.980978
0.905786 0.524846 0.983751
1.000000 0.386674 0.970759
1.000000 0.517663 0.499948
1.000000 0.967103 0.994609
0.000000 0.818856 0.996199
0.000000 0.818520 0.996165
0.000000 0.818381 0.996679
0.000000 0.819914 0.996888
0.438716 0.819952 0.998490
0.775169 0.824221 1.000000
1.000000 0.821972 1.000000
1.000000 0.768933 0.987366
1.000000 0.973127 0.995776
0.000000 0.949788 1.000000
0.000000 0.949703 1.000000
0.000000 0.949527 1.000000
0.000000 0.950925 1.000000
0.000000 0.953235 1.000000
0.646102 0.953907 1.000000
0.952220 0.957244 1.000000
1.000000 0.955298 1.000000
1.000000 0.985784 0.997483
0.000000 0.992476 0.996503
0.000000 0.992476 0.996503
0.000000 0.992476 0.996503
0.000000 0.992476 0.996503
0.000000 0.992476 0.996503
0.359233 1.000000 1.000000
0.916789 1.000000 1.000000
1.000000 1.000000 1.000000
1.000000 1.000000 1.000000
0.816252 1.000000 1.000000
0.817088 1.000000 1.000000
0.818459 1.000000 1.000000
0.822727 1.000000 1.000000
0.842595 1.000000 1.000000
0.881732 1.000000 1.000000
0.955358 1.000000 1.000000
0.999920 1.000000 1.000000
1.000000 1.000000 0.985189
1.000000 0.000000 0.349226
1.000000 0.000000 0.349635
1.000000 0.000000 0.349635
1.000000 0.000000 0.350457
1.000000 0.000000 0.353052
1.000000 0.000000 0.365144
1.000000 0.000000 0.384838
1.000000 0.428982 0.475927
1.000000 0.760623 0.719069
1.000000 0.000000 0.349226
1.000000 0.000000 0.349635
1.000000 0.000000 0.349635
1.000000 0.000000 0.350457
1.000000 0.000000 0.353052
1.000000 0.000000 0.365144
1.000000 0.000000 0.384838
1.000000 0.428982 0.475927
1.000000 0.760623 0.719069
1.000000 0.000000 0.349226
1.000000 0.000000 0.349635
1.000000 0.000000 0.349635
1.000000 0.000000 0.350457
1.000000 0.000000 0.353052
1.000000 0.000000 0.365144
1.000000 0.000000 0.384838
1.000000 0.428982 0.475927
1.000000 0.760623 0.719069
1.000000 0.000000 0.815203
1.000000 0.000000 0.815203
1.000000 0.000000 0.806322
1.000000 0.000000 0.777504
1.000000 0.000000 0.582169
1.000000 0.000000 0.364561
1.000000 0.000000 0.384838
1.000000 0.428982 0.475927
1.000000 0.760623 0.719069
0.921213 0.526616 1.000000
0.921213 0.526616 1.000000
0.924486 0.526304 1.000000
0.930916 0.525696 1.000000
0.955953 0.519423 1.000000
1.000000 0.502646 1.000000
1.000000 0.336361 0.989109
1.000000 0.428982 0.475927
1.000000 0.760623 0.719069
0.795145 0.833984 1.000000
0.798936 0.833769 1.000000
0.798936 0.833769 1.000000
0.806621 0.833331 1.000000
0.828901 0.832038 1.000000
0.893914 0.815977 1.000000
0.995264 0.816208 1.000000
1.000000 0.770821 1.000000
1.000000 0.760623 0.719069
0.701002 0.944227 1.000000
0.701002 0.944227 1.000000
0.705316 0.944038 1.000000
0.713803 0.943663 1.000000
0.741388 0.944691 1.000000
0.823622 0.943933 1.000000
0.937713 0.945741 1.000000
1.000000 0.951144 1.000000
1.000000 0.923819 1.000000
0.528218 1.000000 1.000000
0.533288 1.000000 1.000000
0.533920 1.000000 1.000000
0.549351 1.000000 1.000000
0.606910 0.999252 1.000000
0.729312 0.997379 1.000000
0.890785 0.994781 1.000000
0.993812 0.996635 1.000000
1.000000 0.995982 1.000000
0.000000 1.000000 1.000000
0.000000 1.000000 1.000000
0.000000 1.000000 1.000000
0.000000 1.000000 1.000000
0.000000 1.000000 1.000000
0.000000 1.000000 1.000000
0.801661 1.000000 1.000000
0.981324 1.000000 1.000000
1.000000 1.000000 1.000000
