Assets/Lutify-Free-LUTs-Pack/Lutify Free LUTs Pack/Commercial Pro - Claire/Lutify.me-Claire-ProTune-to-Rec709.cube
# Created with: fylm.ai - Colour Grading and Collaboration Software in Cloud 
# Website: https://fylm.ai 
# META
# Option: Gamut compress
# Block 1: IDT | GoPro ProTune Native ProTune Flat
# Block 2: colourMatch | Blending Mode: Normal | {"ColorSpace":0,"CrossCovarianceLimit":50,"ReshapingIterations":1,"PercentSaturationShift":100,"PercentShadingShift":100,"ExtraShading":true,"PercentTint":100,"PercentModified":100}
# Block 3: HSL | Blending Mode: Normal | {"hue":{"Reds":0,"Yellows":0,"Greens":0,"Cyans":0,"Blues":0,"Magentas":0},"saturation":{"Reds":1,"Yellows":1,"Greens":1,"Cyans":1,"Blues":1,"Magentas":1},"luminance":{"Reds":0.9,"Yellows":0.9,"Greens":0.9,"Cyans":0.8,"Blues":0.8,"Magentas":0.9},"lum_sat":{"Blacks":1,"Shadows":1,"Midtones":1,"Highlights":1,"Whites":1},"sat_sat":{"10":1,"20":1,"30":1,"40":1,"50":1}}
# Block 4: subtractiveColour | Blending Mode: Normal | {"sliders":{"gainY":0.1,"C":0.05,"M":0.05,"Y":0.05}}
# Block 5: logPrimaries | Blending Mode: Normal | {"wheels":{"shadows":{"Y":"0","R":"1","G":"1","B":"1"},"midtones":{"Y":"0","R":"1","G":"1","B":"1"},"highlights":{"Y":"0","R":"1","G":"1","B":"1"},"offset":{"Y":"0","R":"1","G":"1","B":"1"}},"sliders":{"shadows":{"Y":0,"R":-0.05,"G":0,"B":0.1},"midtones":{"Y":0,"R":0,"G":0,"B":0},"highlights":{"Y":0,"R":0,"G":0,"B":0},"offset":{"Y":0,"R":0,"G":0,"B":0}}}
# Block 6: LUT | Filmic Curve Response: Standard Contrast 1 (100%)
# Block 7: LUT | Illuminant: D93 (100%)
# Block 8: LUT | Neutral Tint: Teal Tint 4 (100%)
# Block 9: ODT | Rec709
TITLE "Lutify.me-Claire-ProTune-to-Rec709" 
LUT_3D_SIZE 5
0.000000 0.000000 0.014579
0.131792 0.000000 0.000000
0.311389 0.000000 0.000000
0.508890 0.000000 0.000000
0.770635 0.000000 0.065295
0.000000 0.096367 0.000000
0.106301 0.075819 0.000000
0.274560 0.000000 0.000000
0.476004 0.000000 0.000000
0.756401 0.000000 0.079954
0.000000 0.210498 0.000000
0.187404 0.194574 0.000000
0.348383 0.156702 0.000000
0.485475 0.109361 0.000000
0.746095 0.000000 0.087383
0.340499 0.342852 0.000000
0.389924 0.333523 0.000000
0.514533 0.303070 0.000000
0.726904 0.231593 0.000000
0.787731 0.315873 0.000000
0.697139 0.538403 0.000000
0.712116 0.537156 0.000000
0.765282 0.524536 0.000000
0.880650 0.493807 0.000000
1.000000 0.441306 0.000000
0.000000 0.000000 0.087229
0.078313 0.000000 0.065848
0.277107 0.000000 0.042121
0.494695 0.000000 0.037018
0.761359 0.000000 0.078502
0.000000 0.083664 0.138721
0.059901 0.086746 0.124026
0.243201 0.000000 0.071759
0.466125 0.000000 0.059008
0.756790 0.000000 0.096123
0.000000 0.235350 0.000000
0.000000 0.231188 0.000000
0.264575 0.208576 0.000000
0.462534 0.134718 0.036209
0.741502 0.000000 0.108893
0.341943 0.339833 0.000000
0.389924 0.333523 0.000000
0.514533 0.303070 0.000000
0.654511 0.296621 0.000000
0.782014 0.320839 0.000000
0.697139 0.538403 0.000000
0.712116 0.537156 0.000000
0.765282 0.524536 0.000000
0.880650 0.493807 0.000000
1.000000 0.441306 0.000000
0.000000 0.000000 0.149004
0.017110 0.000000 0.129255
0.246190 0.000000 0.091434
0.495620 0.000000 0.068262
0.743581 0.000000 0.112978
0.000000 0.061750 0.195892
0.000000 0.056892 0.195948
0.220822 0.000000 0.161238
0.430505 0.000000 0.119673
0.735055 0.000000 0.144051
0.000000 0.217775 0.325417
0.000000 0.227251 0.325042
0.188940 0.240216 0.319125
0.444269 0.144570 0.224597
0.748657 0.000000 0.185459
0.000000 0.457569 0.079177
0.000000 0.456764 0.065508
0.200327 0.446509 0.049609
0.494204 0.426567 0.060361
0.767565 0.338991 0.180672
0.692172 0.538811 0.000000
0.708070 0.533547 0.000000
0.760352 0.524985 0.000000
0.877916 0.485904 0.000000
0.922318 0.543896 0.000000
0.000000 0.043701 0.237987
0.000000 0.040631 0.233470
0.159685 0.000000 0.212868
0.457095 0.000000 0.117898
0.814595 0.000000 0.093521
0.000000 0.073476 0.283566
0.000000 0.070476 0.288412
0.133592 0.043951 0.283110
0.417353 0.000000 0.193168
0.729998 0.000000 0.162630
0.000000 0.180489 0.405292
0.000000 0.182063 0.415412
0.000000 0.175827 0.442942
0.411606 0.043344 0.378257
0.720080 0.000000 0.308763
0.000000 0.426313 0.579709
0.000000 0.436170 0.583072
0.000000 0.451516 0.586102
0.395226 0.477192 0.588464
0.748416 0.359716 0.463352
0.000000 0.746484 0.339129
0.000000 0.745758 0.335380
0.195841 0.743972 0.328007
0.496064 0.741141 0.306226
0.791948 0.714623 0.304881
0.000000 0.111189 0.430943
0.000000 0.110670 0.434381
0.000000 0.100901 0.434347
0.324483 0.000000 0.409257
0.782064 0.000000 0.139444
0.000000 0.133160 0.458300
0.000000 0.131133 0.461857
0.000000 0.126452 0.472411
0.305876 0.055516 0.464324
0.698096 0.000000 0.226354
0.000000 0.189839 0.532638
0.000000 0.191566 0.536269
0.000000 0.194008 0.547205
0.278159 0.163315 0.561540
0.703671 0.000000 0.448235
0.000000 0.369568 0.686580
0.000000 0.372461 0.690314
0.000000 0.368296 0.705808
0.232968 0.372656 0.723416
0.724269 0.242156 0.670347
0.000000 0.705631 0.833951
0.000000 0.709241 0.833657
0.000000 0.716024 0.835569
0.000000 0.741607 0.838154
0.716663 0.770003 0.837391
