Assets/Lutify-Free-LUTs-Pack/Lutify Free LUTs Pack/Commercial Pro - Claire/Lutify.me-Claire-LogC3-to-Rec709.cube
# Created with: fylm.ai - Colour Grading and Collaboration Software in Cloud 
# Website: https://fylm.ai 
# META
# Option: Gamut compress
# Block 1: IDT | Arri Alexa - LogC3
# Block 2: colourMatch | Blending Mode: Normal | {"ColorSpace":0,"CrossCovarianceLimit":50,"ReshapingIterations":1,"PercentSaturationShift":100,"PercentShadingShift":100,"ExtraShading":true,"PercentTint":100,"PercentModified":100}
# Block 3: HSL | Blending Mode: Normal | {"hue":{"Reds":0,"Yellows":0,"Greens":0,"Cyans":0,"Blues":0,"Magentas":0},"saturation":{"Reds":1,"Yellows":1,"Greens":1,"Cyans":1,"Blues":1,"Magentas":1},"luminance":{"Reds":0.9,"Yellows":0.9,"Greens":0.9,"Cyans":0.8,"Blues":0.8,"Magentas":0.9},"lum_sat":{"Blacks":1,"Shadows":1,"Midtones":1,"Highlights":1,"Whites":1},"sat_sat":{"10":1,"20":1,"30":1,"40":1,"50":1}}
# Block 4: subtractiveColour | Blending Mode: Normal | {"sliders":{"gainY":0.1,"C":0.05,"M":0.05,"Y":0.05}}
# Block 5: logPrimaries | Blending Mode: Normal | {"wheels":{"shadows":{"Y":"0","R":"1","G":"1","B":"1"},"midtones":{"Y":"0","R":"1","G":"1","B":"1"},"highlights":{"Y":"0","R":"1","G":"1","B":"1"},"offset":{"Y":"0","R":"1","G":"1","B":"1"}},"sliders":{"shadows":{"Y":0,"R":-0.05,"G":0,"B":0.1},"midtones":{"Y":0,"R":0,"G":0,"B":0},"highlights":{"Y":0,"R":0,"G":0,"B":0},"offset":{"Y":0,"R":0,"G":0,"B":0}}}
# Block 6: LUT | Filmic Curve Response: Standard Contrast 1 (100%)
# Block 7: LUT | Illuminant: D93 (100%)
# Block 8: LUT | Neutral Tint: Teal Tint 4 (100%)
# Block 9: ODT | Rec709
TITLE "Lutify.me-Claire-LogC3-to-Rec709" 
LUT_3D_SIZE 9
0.000000 0.000000 0.000000
0.064087 0.000000 0.000000
0.325496 0.000000 0.000000
0.471124 0.000000 0.000000
0.644961 0.000000 0.000000
0.944134 0.000000 0.073675
1.000000 0.439556 0.261435
1.000000 0.768663 0.537039
1.000000 0.920501 0.805806
0.000000 0.052410 0.000000
0.036903 0.046130 0.000000
0.242504 0.000000 0.000000
0.424689 0.000000 0.000000
0.649655 0.000000 0.000000
0.946976 0.000000 0.074631
1.000000 0.447600 0.260685
1.000000 0.771251 0.537011
1.000000 0.920501 0.805806
0.000000 0.158794 0.000000
0.000000 0.143510 0.000000
0.247441 0.107243 0.000000
0.431405 0.000000 0.000000
0.650814 0.000000 0.000000
0.945634 0.079981 0.071795
1.000000 0.460210 0.265132
1.000000 0.771740 0.537829
1.000000 0.920501 0.805806
0.000000 0.289915 0.000000
0.000000 0.281153 0.000000
0.238639 0.265910 0.000000
0.487626 0.222013 0.000000
0.681560 0.251079 0.000000
0.945846 0.278646 0.045123
1.000000 0.500530 0.268960
1.000000 0.779285 0.540876
1.000000 0.921717 0.806258
0.000000 0.522960 0.000000
0.000000 0.522101 0.000000
0.000000 0.520380 0.000000
0.418679 0.510765 0.000000
0.730837 0.472676 0.000000
0.942995 0.531714 0.000000
1.000000 0.616554 0.274158
1.000000 0.803429 0.548084
1.000000 0.923846 0.808455
0.000000 0.812894 0.000000
0.000000 0.812223 0.000000
0.000000 0.811099 0.000000
0.148641 0.810873 0.000000
0.638404 0.801865 0.000000
0.917663 0.785782 0.000000
1.000000 0.815409 0.279202
1.000000 0.865465 0.574848
1.000000 0.932062 0.813264
0.507412 0.948569 0.375118
0.515684 0.948334 0.375206
0.539665 0.947636 0.372036
0.590631 0.945996 0.365889
0.720955 0.943317 0.334990
0.892044 0.934356 0.300265
0.993722 0.928245 0.302463
1.000000 0.941046 0.631471
1.000000 0.958813 0.834473
0.851454 0.993322 0.732223
0.853738 0.993198 0.732304
0.853738 0.993198 0.732304
0.858375 0.992963 0.730155
0.873799 0.992142 0.726160
0.914393 0.990847 0.710225
0.975320 0.988164 0.688875
1.000000 0.984877 0.682809
1.000000 0.989827 0.865106
0.956776 1.000000 0.908906
0.956776 1.000000 0.908906
0.956776 1.000000 0.908906
0.957660 1.000000 0.908935
0.959463 1.000000 0.907984
0.964584 1.000000 0.906155
0.981371 1.000000 0.898056
1.000000 1.000000 0.886701
1.000000 1.000000 0.881282
0.000000 0.000000 0.059029
0.000000 0.000000 0.036926
0.258640 0.000000 0.000000
0.408555 0.000000 0.000000
0.632332 0.000000 0.000000
0.944200 0.000000 0.097972
1.000000 0.439535 0.271523
1.000000 0.768652 0.540142
1.000000 0.920501 0.805806
0.000000 0.024587 0.057426
0.000000 0.028502 0.048937
0.191138 0.000000 0.000000
0.374412 0.000000 0.000000
0.632616 0.000000 0.000000
0.943402 0.000000 0.101119
1.000000 0.447575 0.273389
1.000000 0.771240 0.540113
1.000000 0.920501 0.805806
0.000000 0.126326 0.064954
0.000000 0.149979 0.000000
0.175018 0.139483 0.000000
0.372767 0.106010 0.000000
0.637596 0.000000 0.000000
0.942202 0.068097 0.101143
1.000000 0.459606 0.272317
1.000000 0.771729 0.540923
1.000000 0.920501 0.805806
0.000000 0.305614 0.000000
0.000000 0.307663 0.000000
0.000000 0.312174 0.000000
0.387080 0.288076 0.000000
0.660561 0.272963 0.000000
0.942147 0.279355 0.092983
1.000000 0.500520 0.276991
1.000000 0.779274 0.543976
1.000000 0.921717 0.806258
0.000000 0.542061 0.000000
0.000000 0.548921 0.000000
0.000000 0.551434 0.000000
0.292507 0.552618 0.000000
0.678783 0.520885 0.000000
0.941381 0.540023 0.000000
1.000000 0.616553 0.283058
1.000000 0.803419 0.551179
1.000000 0.923846 0.808455
0.000000 0.818990 0.000000
0.000000 0.818343 0.000000
0.000000 0.817390 0.000000
0.084998 0.813979 0.000000
0.626112 0.810902 0.000000
0.914520 0.794568 0.000000
1.000000 0.815350 0.298494
1.000000 0.865456 0.577917
1.000000 0.932062 0.813264
0.497376 0.949979 0.403144
0.514291 0.949520 0.400034
0.530513 0.949058 0.396938
0.582361 0.947419 0.394325
0.724747 0.943050 0.368450
0.889119 0.934457 0.330621
0.992990 0.929455 0.321264
1.000000 0.941021 0.633607
1.000000 0.958804 0.836187
0.851068 0.993292 0.739133
0.851068 0.993292 0.739133
0.853354 0.993168 0.739209
0.858121 0.992943 0.734779
0.873552 0.992122 0.730796
0.914057 0.990818 0.717109
0.974085 0.988201 0.694921
1.000000 0.984841 0.686938
1.000000 0.989827 0.865106
0.956712 1.000000 0.909914
0.956712 1.000000 0.909914
0.956712 1.000000 0.909914
0.957660 1.000000 0.908935
0.959399 1.000000 0.908994
0.964584 1.000000 0.906155
0.981309 1.000000 0.899075
1.000000 1.000000 0.886701
1.000000 1.000000 0.882061
0.000000 0.000000 0.259251
0.000000 0.000000 0.086103
0.209957 0.000000 0.049344
0.386450 0.000000 0.046514
0.628577 0.000000 0.076529
0.940558 0.000000 0.132660
1.000000 0.438895 0.281364
1.000000 0.768641 0.543253
1.000000 0.920501 0.805806
0.000000 0.000000 0.150775
0.000000 0.000000 0.103271
0.164718 0.000000 0.083121
0.348701 0.000000 0.083174
0.615832 0.000000 0.081691
0.939878 0.000000 0.135325
1.000000 0.447552 0.283840
1.000000 0.771719 0.544025
1.000000 0.920501 0.805806
0.000000 0.120555 0.201548
0.000000 0.124598 0.209530
0.110413 0.145855 0.206149
0.335733 0.115251 0.122174
0.628437 0.000000 0.084812
0.942026 0.068093 0.136809
1.000000 0.459586 0.282831
1.000000 0.771707 0.547136
1.000000 0.920501 0.805806
0.000000 0.257483 0.263605
0.000000 0.296006 0.231605
0.000000 0.326309 0.180547
0.337882 0.317922 0.106977
0.645859 0.282677 0.063831
0.938022 0.284702 0.137810
1.000000 0.500501 0.290691
1.000000 0.779263 0.547084
1.000000 0.921707 0.808273
0.000000 0.564739 0.168399
0.000000 0.568024 0.143182
0.000000 0.570671 0.097179
0.221195 0.572710 0.000000
0.659949 0.549733 0.000000
0.936540 0.548496 0.077443
1.000000 0.616197 0.303775
1.000000 0.803040 0.556610
1.000000 0.923846 0.808455
0.000000 0.830323 0.190200
0.000000 0.829807 0.181438
0.000000 0.828895 0.172606
0.000000 0.825805 0.118929
0.613365 0.819501 0.000000
0.909401 0.800360 0.000000
1.000000 0.817778 0.319118
1.000000 0.865428 0.587169
1.000000 0.932053 0.815218
0.486095 0.951331 0.446985
0.503495 0.950875 0.443794
0.520155 0.950417 0.440618
0.573632 0.948809 0.427974
0.723299 0.944214 0.402969
0.890437 0.935516 0.360542
0.992071 0.930632 0.350340
1.000000 0.941976 0.640016
1.000000 0.958804 0.836187
0.850683 0.993261 0.745949
0.850683 0.993261 0.745949
0.852969 0.993138 0.746021
0.857486 0.992892 0.746169
0.872934 0.992072 0.742227
0.913429 0.991236 0.727271
0.973558 0.988625 0.702631
1.000000 0.984813 0.693782
1.000000 0.989821 0.866343
0.956648 1.000000 0.910917
0.956648 1.000000 0.910917
0.956648 1.000000 0.910917
0.957531 1.000000 0.910945
0.959335 1.000000 0.909999
0.964520 1.000000 0.907168
0.981247 1.000000 0.900092
1.000000 1.000000 0.888531
1.000000 1.000000 0.883629
0.000000 0.000000 0.488133
0.000000 0.000000 0.126171
0.156814 0.000000 0.075677
0.406752 0.000000 0.067862
0.593970 0.000000 0.176405
0.929727 0.000000 0.213364
1.000000 0.442804 0.325395
1.000000 0.771173 0.558898
1.000000 0.920481 0.809848
0.000000 0.000000 0.233800
0.000000 0.000000 0.159319
0.110892 0.000000 0.141387
0.341512 0.000000 0.123978
0.590475 0.000000 0.199720
0.932512 0.000000 0.219630
1.000000 0.446828 0.328076
1.000000 0.771173 0.558898
1.000000 0.920481 0.809848
0.000000 0.070997 0.251519
0.000000 0.075538 0.239617
0.000000 0.078191 0.260415
0.314533 0.000000 0.253228
0.594635 0.000000 0.234636
0.930923 0.081482 0.225448
1.000000 0.458890 0.330259
1.000000 0.773734 0.558870
1.000000 0.921567 0.809931
0.000000 0.239229 0.379643
0.000000 0.261313 0.399083
0.000000 0.281900 0.432579
0.262931 0.325493 0.431776
0.603932 0.296735 0.305713
0.929963 0.281662 0.241890
1.000000 0.499916 0.330946
1.000000 0.781669 0.562733
1.000000 0.921697 0.810279
0.000000 0.504901 0.493137
0.000000 0.519335 0.484982
0.000000 0.548308 0.479620
0.000000 0.600326 0.428968
0.612083 0.595409 0.322941
0.926206 0.557452 0.251203
1.000000 0.616174 0.348833
1.000000 0.805292 0.569207
1.000000 0.924889 0.812535
0.000000 0.841121 0.446851
0.000000 0.843174 0.435612
0.000000 0.842361 0.424444
0.000000 0.839118 0.391245
0.573509 0.831094 0.313086
0.900087 0.813991 0.220337
1.000000 0.820144 0.387867
1.000000 0.863576 0.602587
1.000000 0.932043 0.817162
0.469109 0.954796 0.557994
0.478102 0.954588 0.554581
0.504316 0.953910 0.551260
0.559860 0.951147 0.540539
0.708303 0.949136 0.510982
0.879833 0.942781 0.463440
0.987579 0.935297 0.426903
1.000000 0.941919 0.656663
1.000000 0.958788 0.839588
0.846897 0.994191 0.771367
0.846897 0.994191 0.771367
0.849197 0.994068 0.771421
0.856107 0.993710 0.769508
0.871514 0.992894 0.765764
0.908598 0.991785 0.752118
0.973240 0.988911 0.727195
1.000000 0.985189 0.714173
1.000000 0.989809 0.868981
0.956456 1.000000 0.913903
0.956456 1.000000 0.913903
0.956456 1.000000 0.913903
0.957340 1.000000 0.913929
0.959143 1.000000 0.912992
0.965066 1.000000 0.911214
0.980933 1.000000 0.904421
1.000000 1.000000 0.892555
1.000000 1.000000 0.886606
0.000000 0.000000 0.344800
0.000000 0.000000 0.150673
0.130264 0.000000 0.107258
0.367330 0.000000 0.088257
0.651069 0.000000 0.112987
0.910285 0.000000 0.394853
1.000000 0.440910 0.452834
1.000000 0.770512 0.603304
1.000000 0.921517 0.819853
0.000000 0.000000 0.274899
0.000000 0.000000 0.198580
0.075824 0.000000 0.182365
0.295921 0.000000 0.167632
0.572652 0.000000 0.197917
0.913248 0.000000 0.407742
1.000000 0.449048 0.452498
1.000000 0.773074 0.606576
1.000000 0.921517 0.819853
0.000000 0.053602 0.306197
0.000000 0.058122 0.288629
0.000000 0.061260 0.298415
0.247019 0.000000 0.322940
0.573746 0.000000 0.319927
0.915552 0.000000 0.427337
1.000000 0.457675 0.455813
1.000000 0.776077 0.607178
1.000000 0.921517 0.819853
0.000000 0.178248 0.429159
0.000000 0.189940 0.446176
0.000000 0.197587 0.470671
0.137850 0.211550 0.516769
0.583327 0.187474 0.517973
0.919302 0.223340 0.463262
1.000000 0.498384 0.467478
1.000000 0.781045 0.610432
1.000000 0.922594 0.819923
0.000000 0.457843 0.655433
0.000000 0.475387 0.666228
0.000000 0.492878 0.684766
0.000000 0.530443 0.709385
0.538154 0.609356 0.718379
0.893956 0.579967 0.572131
1.000000 0.619531 0.496978
1.000000 0.807395 0.617685
1.000000 0.925894 0.822405
0.000000 0.792355 0.758098
0.000000 0.795261 0.754478
0.000000 0.807235 0.750298
0.000000 0.830359 0.748904
0.486858 0.861108 0.713375
0.873895 0.846248 0.613564
1.000000 0.829523 0.551451
1.000000 0.865384 0.648558
1.000000 0.932973 0.828711
0.420318 0.960245 0.752358
0.439122 0.959835 0.752363
0.467001 0.959204 0.749305
0.527485 0.957679 0.737157
0.674875 0.955918 0.714393
0.862743 0.948213 0.650076
0.982047 0.940404 0.587648
1.000000 0.944585 0.712850
1.000000 0.958749 0.847908
0.838134 0.995880 0.837951
0.840587 0.995767 0.836142
0.842916 0.996072 0.836553
0.847589 0.995839 0.834768
0.863169 0.995028 0.831269
0.904758 0.992818 0.815077
0.971491 0.990264 0.787386
1.000000 0.986369 0.757120
1.000000 0.990125 0.877608
0.954789 1.000000 0.925762
0.954789 1.000000 0.925762
0.955679 1.000000 0.925781
0.955679 1.000000 0.925781
0.958376 1.000000 0.924730
0.964349 1.000000 0.922090
0.979517 1.000000 0.915642
1.000000 1.000000 0.903152
1.000000 1.000000 0.894081
0.000000 0.000000 0.202403
0.070317 0.000000 0.174782
0.157508 0.000000 0.154781
0.311704 0.000000 0.127576
0.646596 0.000000 0.107551
0.877001 0.000000 0.279504
1.000000 0.374794 0.681749
1.000000 0.769330 0.733584
1.000000 0.922459 0.846172
0.000000 0.000000 0.198539
0.080211 0.000000 0.174708
0.163016 0.000000 0.153103
0.301095 0.000000 0.147262
0.540367 0.000000 0.183929
0.868695 0.000000 0.371965
1.000000 0.387631 0.685149
1.000000 0.771929 0.733491
1.000000 0.922459 0.846172
0.000000 0.015811 0.303897
0.000000 0.018090 0.296311
0.000000 0.008723 0.296158
0.197445 0.000000 0.323581
0.494038 0.000000 0.371563
0.868089 0.000000 0.455439
1.000000 0.400912 0.688630
1.000000 0.774948 0.733727
1.000000 0.922459 0.846172
0.000000 0.150516 0.504408
0.000000 0.155268 0.518892
0.000000 0.163902 0.529682
0.000000 0.169269 0.566426
0.452070 0.140479 0.624774
0.888488 0.000000 0.595693
1.000000 0.447547 0.709252
1.000000 0.782401 0.739390
1.000000 0.923529 0.846206
0.000000 0.357849 0.694842
0.000000 0.363631 0.713713
0.000000 0.372635 0.720785
0.000000 0.383952 0.748932
0.338690 0.429072 0.803077
0.893095 0.443056 0.794758
1.000000 0.583924 0.755311
1.000000 0.806111 0.747343
1.000000 0.926692 0.848094
0.000000 0.736440 0.874015
0.000000 0.740143 0.875816
0.000000 0.747442 0.879344
0.000000 0.774911 0.887325
0.000000 0.816700 0.896031
0.829477 0.858242 0.899700
0.979403 0.847670 0.830774
1.000000 0.864713 0.775957
1.000000 0.935748 0.853930
0.000000 0.945233 0.915359
0.000000 0.944928 0.915334
0.000000 0.945782 0.913818
0.000000 0.946358 0.913509
0.523894 0.954028 0.912268
0.840584 0.957188 0.904115
0.964190 0.951283 0.862085
1.000000 0.946932 0.823420
1.000000 0.959373 0.871244
0.825764 0.998268 0.919659
0.828220 0.998153 0.918489
0.828220 0.998153 0.918489
0.835281 0.998186 0.918577
0.849007 0.997892 0.915127
0.896869 0.994953 0.903987
0.962630 0.992035 0.878692
1.000000 0.989290 0.848349
1.000000 0.990370 0.899305
0.954111 1.000000 0.949406
0.954111 1.000000 0.949406
0.954111 1.000000 0.949406
0.955039 1.000000 0.948658
0.956777 1.000000 0.948577
0.961903 1.000000 0.946339
0.978350 1.000000 0.940842
0.999892 1.000000 0.927991
1.000000 1.000000 0.913608
0.178411 0.000000 0.210296
0.214798 0.000000 0.201443
0.255874 0.000000 0.190689
0.350878 0.000000 0.173368
0.553037 0.000000 0.156864
0.948460 0.000000 0.148130
1.000000 0.000000 0.603494
1.000000 0.726843 0.879527
1.000000 0.921053 0.901888
0.182858 0.000000 0.208157
0.217375 0.000000 0.199393
0.260488 0.000000 0.190580
0.350878 0.000000 0.173368
0.553037 0.000000 0.156864
0.944936 0.000000 0.154731
1.000000 0.000000 0.636834
1.000000 0.730489 0.881284
1.000000 0.921053 0.901888
0.189517 0.000000 0.205992
0.222129 0.000000 0.199290
0.265151 0.000000 0.190470
0.353461 0.000000 0.173309
0.557002 0.000000 0.156865
0.800891 0.000000 0.334486
1.000000 0.000000 0.674314
1.000000 0.733523 0.881120
1.000000 0.921053 0.901888
0.000000 0.097622 0.538422
0.000000 0.101194 0.542008
0.000000 0.102809 0.545599
0.044543 0.097890 0.560098
0.353099 0.054931 0.622774
0.786818 0.000000 0.683911
1.000000 0.000000 0.755515
1.000000 0.742399 0.884333
1.000000 0.922126 0.903197
0.000000 0.312653 0.769479
0.000000 0.318162 0.776384
0.000000 0.323626 0.783114
0.000000 0.337087 0.795913
0.141828 0.347324 0.830969
0.756995 0.334426 0.868511
1.000000 0.349768 0.850969
1.000000 0.775827 0.894623
1.000000 0.925438 0.904518
0.000000 0.615736 0.897733
0.000000 0.619482 0.901345
0.000000 0.623127 0.902976
0.000000 0.629934 0.911373
0.000000 0.657516 0.922140
0.673141 0.702730 0.937481
1.000000 0.749541 0.933081
1.000000 0.849670 0.914538
1.000000 0.933621 0.908298
0.000000 0.925234 0.961938
0.000000 0.925084 0.962817
0.000000 0.926351 0.962668
0.000000 0.928513 0.964099
0.000000 0.934149 0.968709
0.694227 0.940431 0.971722
0.944655 0.957668 0.973016
1.000000 0.952774 0.943385
1.000000 0.959870 0.920527
0.701405 0.995341 0.978841
0.705209 0.995184 0.978829
0.708976 0.995028 0.978816
0.720438 0.995039 0.978751
0.759313 0.994285 0.979101
0.844404 0.994195 0.978591
0.950677 0.995962 0.976457
0.997540 0.993243 0.959608
1.000000 0.991786 0.943204
0.948352 1.000000 0.982355
0.948352 1.000000 0.982355
0.948382 1.000000 0.982391
0.949280 1.000000 0.982389
0.951949 1.000000 0.981957
0.957852 1.000000 0.981126
0.974484 1.000000 0.976505
0.996971 1.000000 0.966039
1.000000 1.000000 0.951871
0.397421 0.000000 0.234805
0.409068 0.000000 0.232254
0.433189 0.000000 0.231835
0.488554 0.000000 0.224015
0.599065 0.000000 0.212595
0.867125 0.000000 0.203991
1.000000 0.000000 0.217091
1.000000 0.288960 0.867820
1.000000 0.907836 0.968022
0.397421 0.000000 0.234805
0.412059 0.000000 0.232201
0.433189 0.000000 0.231835
0.487993 0.000000 0.221753
0.599065 0.000000 0.212595
0.867125 0.000000 0.203991
1.000000 0.000000 0.217091
1.000000 0.304366 0.871840
1.000000 0.907836 0.968022
0.400388 0.000000 0.234752
0.412059 0.000000 0.232201
0.436242 0.000000 0.231783
0.487993 0.000000 0.221753
0.602698 0.000000 0.210432
0.871585 0.000000 0.204076
1.000000 0.000000 0.217091
1.000000 0.325740 0.877694
1.000000 0.909045 0.967944
0.406349 0.000000 0.234648
0.424082 0.000000 0.231992
0.441903 0.000000 0.229357
0.494613 0.000000 0.221658
0.606661 0.000000 0.210438
0.871585 0.000000 0.204076
1.000000 0.000000 0.677292
1.000000 0.384422 0.897862
1.000000 0.910224 0.968601
0.000000 0.247914 0.814932
0.000000 0.249710 0.817866
0.000000 0.251423 0.820747
0.000000 0.248945 0.832217
0.257084 0.245190 0.836873
0.626648 0.239708 0.877297
1.000000 0.236957 0.909576
1.000000 0.499641 0.929876
1.000000 0.915011 0.970455
0.000000 0.557719 0.933088
0.000000 0.561427 0.935851
0.000000 0.561253 0.937296
0.000000 0.568145 0.941103
0.000000 0.584469 0.946609
0.480502 0.610580 0.961570
0.971445 0.647107 0.970903
1.000000 0.702060 0.961578
1.000000 0.926250 0.973164
0.000000 0.857964 0.977157
0.000000 0.857831 0.977924
0.000000 0.857605 0.977901
0.000000 0.861670 0.979764
0.000000 0.870999 0.981542
0.333714 0.882678 0.985356
0.886629 0.898803 0.990026
1.000000 0.920236 0.988320
1.000000 0.954702 0.980336
0.263200 0.991396 0.998642
0.277843 0.991236 0.998628
0.298385 0.992364 0.998494
0.345512 0.991706 0.998753
0.464307 0.991382 0.999013
0.679383 0.989581 0.999509
0.898622 0.990139 1.000000
0.991082 0.995546 1.000000
1.000000 0.994251 0.992350
0.902519 1.000000 1.000000
0.903894 1.000000 1.000000
0.903894 1.000000 1.000000
0.905369 1.000000 1.000000
0.910851 1.000000 1.000000
0.925830 1.000000 1.000000
0.955846 1.000000 1.000000
0.993454 1.000000 1.000000
1.000000 1.000000 0.996679
0.680628 0.000000 0.277891
0.684583 0.000000 0.277900
0.688155 0.000000 0.275488
0.708229 0.000000 0.275550
0.767793 0.000000 0.271080
0.922266 0.000000 0.268585
1.000000 0.000000 0.272018
1.000000 0.000000 0.314966
1.000000 0.667904 0.968510
0.680628 0.000000 0.277891
0.684583 0.000000 0.277900
0.692145 0.000000 0.275499
0.712280 0.000000 0.275565
0.767793 0.000000 0.271080
0.922266 0.000000 0.268585
1.000000 0.000000 0.272018
1.000000 0.000000 0.314966
1.000000 0.674382 0.969096
0.680628 0.000000 0.277891
0.684583 0.000000 0.277900
0.692145 0.000000 0.275499
0.712280 0.000000 0.275565
0.767793 0.000000 0.271080
0.922266 0.000000 0.268585
1.000000 0.000000 0.272018
1.000000 0.000000 0.316072
1.000000 0.676144 0.970756
0.684583 0.000000 0.277900
0.688155 0.000000 0.275488
0.692145 0.000000 0.275499
0.712280 0.000000 0.275565
0.767797 0.000000 0.271079
0.926158 0.000000 0.268691
1.000000 0.000000 0.272018
1.000000 0.000000 0.316072
1.000000 0.691982 0.973353
0.692145 0.000000 0.275499
0.696148 0.000000 0.275511
0.700163 0.000000 0.275523
0.724509 0.000000 0.275613
0.776943 0.000000 0.271144
0.930010 0.000000 0.268801
1.000000 0.000000 0.272018
1.000000 0.000000 0.909077
1.000000 0.729152 0.980778
0.152959 0.469472 0.957292
0.169018 0.469261 0.957268
0.190429 0.472561 0.958327
0.252508 0.474939 0.959266
0.371910 0.482159 0.963200
0.583729 0.466031 0.965629
0.905646 0.511872 0.979909
1.000000 0.626247 0.990038
1.000000 0.801886 0.989538
0.000000 0.824074 0.992881
0.000000 0.823943 0.992867
0.000000 0.823810 0.992854
0.000000 0.823291 0.993400
0.000000 0.829588 0.994917
0.389242 0.831295 0.996888
0.785610 0.842998 1.000000
1.000000 0.875104 1.000000
1.000000 0.898086 0.998711
0.106101 0.965108 1.000000
0.148830 0.964939 1.000000
0.179185 0.964768 1.000000
0.246348 0.965250 1.000000
0.369664 0.964589 1.000000
0.556766 0.964966 1.000000
0.785831 0.965624 1.000000
0.969783 0.971641 1.000000
1.000000 0.982705 1.000000
0.774287 1.000000 1.000000
0.774287 1.000000 1.000000
0.776778 1.000000 1.000000
0.781802 1.000000 1.000000
0.791992 1.000000 1.000000
0.823794 1.000000 1.000000
0.893256 1.000000 1.000000
0.977017 1.000000 1.000000
1.000000 1.000000 1.000000
