Assets/Lutify-Free-LUTs-Pack/Lutify Free LUTs Pack/Commercial Pro - Claire/Lutify.me-Claire-DJIDlog-to-Rec709.cube
# Created with: fylm.ai - Colour Grading and Collaboration Software in Cloud 
# Website: https://fylm.ai 
# META
# Option: Gamut compress
# Block 1: IDT | DJI D-Gamut D-Log
# Block 2: colourMatch | Blending Mode: Normal | {"ColorSpace":0,"CrossCovarianceLimit":50,"ReshapingIterations":1,"PercentSaturationShift":100,"PercentShadingShift":100,"ExtraShading":true,"PercentTint":100,"PercentModified":100}
# Block 3: HSL | Blending Mode: Normal | {"hue":{"Reds":0,"Yellows":0,"Greens":0,"Cyans":0,"Blues":0,"Magentas":0},"saturation":{"Reds":1,"Yellows":1,"Greens":1,"Cyans":1,"Blues":1,"Magentas":1},"luminance":{"Reds":0.9,"Yellows":0.9,"Greens":0.9,"Cyans":0.8,"Blues":0.8,"Magentas":0.9},"lum_sat":{"Blacks":1,"Shadows":1,"Midtones":1,"Highlights":1,"Whites":1},"sat_sat":{"10":1,"20":1,"30":1,"40":1,"50":1}}
# Block 4: subtractiveColour | Blending Mode: Normal | {"sliders":{"gainY":0.1,"C":0.05,"M":0.05,"Y":0.05}}
# Block 5: logPrimaries | Blending Mode: Normal | {"wheels":{"shadows":{"Y":"0","R":"1","G":"1","B":"1"},"midtones":{"Y":"0","R":"1","G":"1","B":"1"},"highlights":{"Y":"0","R":"1","G":"1","B":"1"},"offset":{"Y":"0","R":"1","G":"1","B":"1"}},"sliders":{"shadows":{"Y":0,"R":-0.05,"G":0,"B":0.1},"midtones":{"Y":0,"R":0,"G":0,"B":0},"highlights":{"Y":0,"R":0,"G":0,"B":0},"offset":{"Y":0,"R":0,"G":0,"B":0}}}
# Block 6: LUT | Filmic Curve Response: Standard Contrast 1 (100%)
# Block 7: LUT | Illuminant: D93 (100%)
# Block 8: LUT | Neutral Tint: Teal Tint 4 (100%)
# Block 9: ODT | Rec709
TITLE "Lutify.me-Claire-DJIDlog-to-Rec709" 
LUT_3D_SIZE 5
0.000000 0.000000 0.000000
0.354103 0.000000 0.000000
0.636198 0.000000 0.000000
1.000000 0.344040 0.177117
1.000000 0.884153 0.708663
0.000000 0.173046 0.000000
0.275869 0.109470 0.000000
0.650516 0.000000 0.000000
1.000000 0.369988 0.176047
1.000000 0.885541 0.708809
0.000000 0.483371 0.000000
0.000000 0.472599 0.000000
0.770533 0.386615 0.000000
1.000000 0.540656 0.156648
1.000000 0.892348 0.712179
0.181609 0.930048 0.224336
0.306838 0.928763 0.212956
0.650468 0.919624 0.113055
0.992309 0.895260 0.000000
1.000000 0.937046 0.737597
0.921202 1.000000 0.859799
0.922535 1.000000 0.859840
0.926718 1.000000 0.855921
0.967942 1.000000 0.834504
1.000000 0.998570 0.778224
0.000000 0.000000 0.206330
0.238292 0.000000 0.054474
0.599152 0.000000 0.071589
1.000000 0.347774 0.218573
1.000000 0.885518 0.713986
0.000000 0.133955 0.226245
0.125391 0.165025 0.229634
0.595080 0.000000 0.081988
1.000000 0.369935 0.219481
1.000000 0.885518 0.713986
0.000000 0.527707 0.217715
0.000000 0.548450 0.128777
0.635960 0.516515 0.000000
1.000000 0.540682 0.213387
1.000000 0.892326 0.717297
0.184589 0.932637 0.363513
0.295677 0.931547 0.352752
0.633763 0.924486 0.283754
0.988344 0.901521 0.063003
1.000000 0.937026 0.742065
0.920954 1.000000 0.863788
0.922287 1.000000 0.863826
0.926386 1.000000 0.861300
0.967621 1.000000 0.839330
1.000000 0.998548 0.783032
0.000000 0.000000 0.257075
0.122822 0.000000 0.144577
0.612842 0.000000 0.121548
1.000000 0.346799 0.390712
1.000000 0.885400 0.739274
0.000000 0.080814 0.329898
0.000000 0.091067 0.338162
0.549202 0.000000 0.331389
1.000000 0.372848 0.396454
1.000000 0.888154 0.739483
0.000000 0.426857 0.622024
0.000000 0.475177 0.662371
0.505069 0.580006 0.695948
1.000000 0.539550 0.428536
1.000000 0.892211 0.742272
0.000000 0.947171 0.723794
0.000000 0.947553 0.714431
0.567293 0.941510 0.671746
0.972053 0.922581 0.487648
1.000000 0.938886 0.771141
0.919554 1.000000 0.888239
0.920880 1.000000 0.888262
0.926226 1.000000 0.886037
0.965877 1.000000 0.867849
1.000000 0.999322 0.807911
0.000000 0.049528 0.431687
0.000000 0.041778 0.448727
0.387375 0.000000 0.503219
1.000000 0.000000 0.595147
1.000000 0.888871 0.858718
0.000000 0.138407 0.578707
0.000000 0.143265 0.593757
0.324447 0.114392 0.638052
1.000000 0.000000 0.669614
1.000000 0.888859 0.860497
0.000000 0.344713 0.778847
0.000000 0.353013 0.792099
0.000000 0.380641 0.835251
1.000000 0.333750 0.833908
1.000000 0.894445 0.862287
0.000000 0.898115 0.951748
0.000000 0.901586 0.951391
0.000000 0.917005 0.959251
0.929067 0.944876 0.963175
1.000000 0.938360 0.883505
0.906419 1.000000 0.973660
0.907898 1.000000 0.973684
0.914563 1.000000 0.973104
0.957483 1.000000 0.965444
1.000000 1.000000 0.922599
0.224428 0.360266 0.926988
0.264033 0.358922 0.926846
0.392786 0.355515 0.927690
0.918494 0.353344 0.953894
1.000000 0.636261 0.963297
0.188058 0.391324 0.935375
0.235748 0.390179 0.936785
0.383301 0.387373 0.937507
0.909378 0.390570 0.960375
1.000000 0.648612 0.964643
0.000000 0.511815 0.958078
0.000000 0.514815 0.959041
0.284398 0.522197 0.964006
0.864058 0.524063 0.976302
1.000000 0.701710 0.973542
0.000000 0.833183 0.989946
0.000000 0.835351 0.990351
0.000000 0.840707 0.991426
0.747368 0.854093 0.997334
1.000000 0.880378 0.994530
0.653788 1.000000 1.000000
0.662107 1.000000 1.000000
0.687381 1.000000 1.000000
0.842824 1.000000 1.000000
1.000000 1.000000 1.000000
