Assets/Lutify-Free-LUTs-Pack/Lutify Free LUTs Pack/Commercial Pro - Claire/Lutify.me-Claire-SLog3-to-Rec709.cube
# Created with: fylm.ai - Colour Grading and Collaboration Software in Cloud 
# Website: https://fylm.ai 
# META
# Option: Gamut compress
# Block 1: IDT | Sony S-Log3 S-Gamut3
# Block 2: colourMatch | Blending Mode: Normal | {"ColorSpace":0,"CrossCovarianceLimit":50,"ReshapingIterations":1,"PercentSaturationShift":100,"PercentShadingShift":100,"ExtraShading":true,"PercentTint":100,"PercentModified":100}
# Block 3: HSL | Blending Mode: Normal | {"hue":{"Reds":0,"Yellows":0,"Greens":0,"Cyans":0,"Blues":0,"Magentas":0},"saturation":{"Reds":1,"Yellows":1,"Greens":1,"Cyans":1,"Blues":1,"Magentas":1},"luminance":{"Reds":0.9,"Yellows":0.9,"Greens":0.9,"Cyans":0.8,"Blues":0.8,"Magentas":0.9},"lum_sat":{"Blacks":1,"Shadows":1,"Midtones":1,"Highlights":1,"Whites":1},"sat_sat":{"10":1,"20":1,"30":1,"40":1,"50":1}}
# Block 4: subtractiveColour | Blending Mode: Normal | {"sliders":{"gainY":0.1,"C":0.05,"M":0.05,"Y":0.05}}
# Block 5: logPrimaries | Blending Mode: Normal | {"wheels":{"shadows":{"Y":"0","R":"1","G":"1","B":"1"},"midtones":{"Y":"0","R":"1","G":"1","B":"1"},"highlights":{"Y":"0","R":"1","G":"1","B":"1"},"offset":{"Y":"0","R":"1","G":"1","B":"1"}},"sliders":{"shadows":{"Y":0,"R":-0.05,"G":0,"B":0.1},"midtones":{"Y":0,"R":0,"G":0,"B":0},"highlights":{"Y":0,"R":0,"G":0,"B":0},"offset":{"Y":0,"R":0,"G":0,"B":0}}}
# Block 6: LUT | Filmic Curve Response: Standard Contrast 1 (100%)
# Block 7: LUT | Illuminant: D93 (100%)
# Block 8: LUT | Neutral Tint: Teal Tint 4 (100%)
# Block 9: ODT | Rec709
TITLE "Lutify.me-Claire-SLog3-to-Rec709" 
LUT_3D_SIZE 5
0.000000 0.000000 0.000000
0.315694 0.000000 0.000000
0.644530 0.000000 0.000000
1.000000 0.254225 0.193914
1.000000 0.856849 0.712170
0.000000 0.143203 0.000000
0.195624 0.097557 0.000000
0.628264 0.000000 0.000000
1.000000 0.279187 0.196410
1.000000 0.860131 0.712284
0.000000 0.449445 0.124485
0.000000 0.498403 0.000000
0.624209 0.456382 0.000000
1.000000 0.442332 0.212944
1.000000 0.866815 0.718524
0.000000 0.916245 0.663450
0.000000 0.925464 0.657047
0.000000 0.942132 0.613709
0.974690 0.904829 0.362272
1.000000 0.914446 0.757016
0.733584 1.000000 0.961852
0.740283 1.000000 0.961133
0.781101 1.000000 0.961138
0.910057 1.000000 0.955858
1.000000 1.000000 0.893512
0.000000 0.000000 0.141989
0.215682 0.000000 0.043419
0.602841 0.000000 0.044009
1.000000 0.254126 0.216118
1.000000 0.856836 0.714811
0.000000 0.115488 0.190124
0.092535 0.127881 0.182988
0.590653 0.000000 0.060292
1.000000 0.283937 0.218838
1.000000 0.860118 0.714919
0.000000 0.395040 0.323429
0.000000 0.494834 0.264311
0.596436 0.484948 0.000000
1.000000 0.442312 0.240098
1.000000 0.866802 0.721114
0.000000 0.910725 0.688779
0.000000 0.920564 0.685872
0.000000 0.942174 0.643250
0.973303 0.906256 0.404584
1.000000 0.914436 0.759265
0.733584 1.000000 0.961852
0.737390 1.000000 0.961869
0.778515 1.000000 0.961146
0.908633 1.000000 0.956599
1.000000 1.000000 0.894787
0.000000 0.000000 0.229372
0.089808 0.000000 0.178497
0.651058 0.000000 0.098554
1.000000 0.247706 0.343321
1.000000 0.860014 0.735615
0.000000 0.081215 0.321618
0.000000 0.087152 0.324223
0.547226 0.000000 0.266150
1.000000 0.278796 0.351737
1.000000 0.860014 0.735615
0.000000 0.371548 0.551835
0.000000 0.426864 0.618164
0.477095 0.555018 0.668911
1.000000 0.453310 0.396832
1.000000 0.866372 0.740817
0.000000 0.892845 0.801844
0.000000 0.900587 0.801486
0.000000 0.933459 0.789851
0.961969 0.917362 0.592639
1.000000 0.914365 0.774612
0.725598 1.000000 0.966056
0.729515 1.000000 0.966064
0.767003 1.000000 0.964692
0.907052 1.000000 0.960963
1.000000 1.000000 0.902128
0.000000 0.193196 0.634880
0.000000 0.196251 0.646277
0.334446 0.161186 0.675814
1.000000 0.000000 0.478658
1.000000 0.861012 0.838731
0.000000 0.222974 0.668800
0.000000 0.226234 0.680227
0.303973 0.206185 0.717344
1.000000 0.000000 0.569760
1.000000 0.861012 0.838731
0.000000 0.375229 0.784466
0.000000 0.377998 0.794369
0.000000 0.411271 0.836576
1.000000 0.254291 0.789792
1.000000 0.869187 0.842646
0.000000 0.830783 0.913099
0.000000 0.849134 0.925059
0.000000 0.899690 0.949424
0.926587 0.939860 0.959502
1.000000 0.918504 0.869319
0.638337 1.000000 0.983495
0.647279 1.000000 0.983457
0.689989 1.000000 0.983756
0.881528 1.000000 0.983015
1.000000 1.000000 0.951445
0.000000 0.636227 0.971333
0.000000 0.635598 0.972250
0.284832 0.636425 0.976448
0.871038 0.618147 0.981553
1.000000 0.551462 0.932216
0.000000 0.640151 0.972108
0.000000 0.643349 0.971812
0.267435 0.640600 0.977183
0.869729 0.622360 0.982186
1.000000 0.565750 0.934362
0.000000 0.683229 0.977193
0.000000 0.686680 0.977809
0.127481 0.691702 0.978786
0.847991 0.677197 0.986573
1.000000 0.628457 0.954506
0.000000 0.853609 0.990414
0.000000 0.853411 0.991005
0.000000 0.858315 0.992565
0.754434 0.872997 0.997234
1.000000 0.860821 0.988962
0.000000 1.000000 1.000000
0.000000 1.000000 1.000000
0.000000 1.000000 1.000000
0.690299 1.000000 1.000000
1.000000 1.000000 1.000000
