Assets/Lutify-Free-LUTs-Pack/Lutify Free LUTs Pack/Commercial Pro - Claire/Lutify.me-Claire-Cineon-to-Rec709.cube
# Created with: fylm.ai - Colour Grading and Collaboration Software in Cloud 
# Website: https://fylm.ai 
# META
# Option: Gamut compress
# Block 1: IDT | ADX10
# Block 2: colourMatch | Blending Mode: Normal | {"ColorSpace":0,"CrossCovarianceLimit":50,"ReshapingIterations":1,"PercentSaturationShift":100,"PercentShadingShift":100,"ExtraShading":true,"PercentTint":100,"PercentModified":100}
# Block 3: HSL | Blending Mode: Normal | {"hue":{"Reds":0,"Yellows":0,"Greens":0,"Cyans":0,"Blues":0,"Magentas":0},"saturation":{"Reds":1,"Yellows":1,"Greens":1,"Cyans":1,"Blues":1,"Magentas":1},"luminance":{"Reds":0.9,"Yellows":0.9,"Greens":0.9,"Cyans":0.8,"Blues":0.8,"Magentas":0.9},"lum_sat":{"Blacks":1,"Shadows":1,"Midtones":1,"Highlights":1,"Whites":1},"sat_sat":{"10":1,"20":1,"30":1,"40":1,"50":1}}
# Block 4: subtractiveColour | Blending Mode: Normal | {"sliders":{"gainY":0.1,"C":0.05,"M":0.05,"Y":0.05}}
# Block 5: logPrimaries | Blending Mode: Normal | {"wheels":{"shadows":{"Y":"0","R":"1","G":"1","B":"1"},"midtones":{"Y":"0","R":"1","G":"1","B":"1"},"highlights":{"Y":"0","R":"1","G":"1","B":"1"},"offset":{"Y":"0","R":"1","G":"1","B":"1"}},"sliders":{"shadows":{"Y":0,"R":-0.05,"G":0,"B":0.1},"midtones":{"Y":0,"R":0,"G":0,"B":0},"highlights":{"Y":0,"R":0,"G":0,"B":0},"offset":{"Y":0,"R":0,"G":0,"B":0}}}
# Block 6: LUT | Filmic Curve Response: Standard Contrast 1 (100%)
# Block 7: LUT | Illuminant: D93 (100%)
# Block 8: LUT | Neutral Tint: Teal Tint 4 (100%)
# Block 9: ODT | Rec709
TITLE "Lutify.me-Claire-Cineon-to-Rec709" 
LUT_3D_SIZE 5
0.000000 0.000000 0.014579
0.132660 0.000000 0.000000
0.344684 0.000000 0.000000
0.666817 0.000000 0.026706
1.000000 0.322287 0.196566
0.000000 0.098445 0.033287
0.134297 0.106241 0.000000
0.397219 0.081826 0.000000
0.792069 0.040130 0.073030
1.000000 0.476829 0.289065
0.000000 0.322898 0.211423
0.000000 0.404312 0.155375
0.468234 0.431949 0.032416
0.909377 0.464597 0.154128
1.000000 0.677922 0.407094
0.000000 0.774173 0.614504
0.000000 0.815247 0.643908
0.000000 0.887962 0.632282
0.908528 0.885713 0.531843
1.000000 0.904515 0.659841
0.000000 0.989088 0.934373
0.291935 0.994853 0.943405
0.596872 0.997423 0.951107
0.887729 0.999584 0.955783
0.998700 0.997030 0.934189
0.000000 0.000000 0.072192
0.086371 0.000000 0.076010
0.312794 0.000000 0.083755
0.670810 0.000000 0.111856
1.000000 0.349531 0.251418
0.000000 0.093304 0.146996
0.088903 0.123795 0.177360
0.377072 0.118996 0.135525
0.800322 0.101205 0.148657
1.000000 0.498020 0.329128
0.000000 0.304988 0.306549
0.000000 0.394034 0.311811
0.465705 0.442482 0.254103
0.916965 0.464257 0.233499
1.000000 0.690358 0.446956
0.000000 0.756143 0.627232
0.000000 0.806179 0.655985
0.000000 0.883072 0.651317
0.913909 0.881655 0.560230
1.000000 0.903132 0.676075
0.000000 0.986832 0.929957
0.222407 0.992251 0.939465
0.581919 0.995766 0.948467
0.898109 0.998391 0.953315
1.000000 0.996210 0.930241
0.000000 0.047761 0.178484
0.000000 0.062036 0.228639
0.279533 0.033386 0.293461
0.673238 0.000000 0.345000
1.000000 0.392672 0.426730
0.000000 0.103186 0.255496
0.000000 0.133504 0.325741
0.367248 0.158505 0.394449
0.801020 0.190885 0.401940
1.000000 0.542370 0.482191
0.000000 0.314177 0.445105
0.000000 0.370954 0.533323
0.407370 0.483776 0.599581
0.902775 0.514318 0.515104
1.000000 0.713125 0.562892
0.000000 0.733092 0.716376
0.000000 0.789805 0.758300
0.000000 0.869822 0.785153
0.908408 0.889427 0.753047
1.000000 0.904423 0.744754
0.000000 0.984498 0.928955
0.000000 0.990284 0.940676
0.552760 0.993757 0.951304
0.904375 0.997346 0.957228
1.000000 0.995297 0.936567
0.000000 0.150926 0.412921
0.000000 0.192346 0.506870
0.000000 0.249343 0.609663
0.635104 0.304248 0.740606
1.000000 0.479782 0.793425
0.000000 0.189377 0.467365
0.000000 0.231382 0.564798
0.153728 0.300703 0.676963
0.772042 0.373967 0.788573
1.000000 0.618505 0.832248
0.000000 0.352562 0.629237
0.000000 0.404878 0.711869
0.000000 0.491731 0.806954
0.888003 0.598016 0.863564
1.000000 0.768756 0.861950
0.000000 0.724992 0.840669
0.000000 0.779809 0.877169
0.000000 0.852597 0.913137
0.886085 0.909534 0.937703
1.000000 0.922234 0.914636
0.000000 0.981286 0.950587
0.000000 0.987788 0.961282
0.501077 0.992566 0.971235
0.888181 0.995493 0.978293
0.999503 0.996595 0.973542
0.000000 0.386916 0.787184
0.000000 0.468451 0.847571
0.000000 0.547266 0.894956
0.313707 0.649846 0.940236
0.917486 0.766899 0.968222
0.000000 0.427076 0.817005
0.000000 0.500299 0.870030
0.000000 0.599310 0.915873
0.508358 0.702875 0.954741
0.977586 0.816407 0.976643
0.000000 0.501356 0.855953
0.000000 0.582597 0.899188
0.000000 0.666537 0.937339
0.712339 0.769704 0.968234
1.000000 0.867043 0.983163
0.000000 0.786017 0.929206
0.000000 0.815986 0.950966
0.000000 0.862114 0.969313
0.793093 0.904018 0.985333
1.000000 0.944652 0.993380
0.000000 0.978795 0.981233
0.000000 0.985355 0.987743
0.292074 0.990362 0.994483
0.846325 0.992595 1.000000
0.996640 0.999636 1.000000
