Assets/Lutify-Free-LUTs-Pack/Lutify Free LUTs Pack/Commercial Pro - Claire/Lutify.me-Claire-NLog-to-Rec709.cube
# Created with: fylm.ai - Colour Grading and Collaboration Software in Cloud 
# Website: https://fylm.ai 
# META
# Option: Gamut compress
# Block 1: IDT | Nikon BT2020 N-Log
# Block 2: colourMatch | Blending Mode: Normal | {"ColorSpace":0,"CrossCovarianceLimit":50,"ReshapingIterations":1,"PercentSaturationShift":100,"PercentShadingShift":100,"ExtraShading":true,"PercentTint":100,"PercentModified":100}
# Block 3: HSL | Blending Mode: Normal | {"hue":{"Reds":0,"Yellows":0,"Greens":0,"Cyans":0,"Blues":0,"Magentas":0},"saturation":{"Reds":1,"Yellows":1,"Greens":1,"Cyans":1,"Blues":1,"Magentas":1},"luminance":{"Reds":0.9,"Yellows":0.9,"Greens":0.9,"Cyans":0.8,"Blues":0.8,"Magentas":0.9},"lum_sat":{"Blacks":1,"Shadows":1,"Midtones":1,"Highlights":1,"Whites":1},"sat_sat":{"10":1,"20":1,"30":1,"40":1,"50":1}}
# Block 4: subtractiveColour | Blending Mode: Normal | {"sliders":{"gainY":0.1,"C":0.05,"M":0.05,"Y":0.05}}
# Block 5: logPrimaries | Blending Mode: Normal | {"wheels":{"shadows":{"Y":"0","R":"1","G":"1","B":"1"},"midtones":{"Y":"0","R":"1","G":"1","B":"1"},"highlights":{"Y":"0","R":"1","G":"1","B":"1"},"offset":{"Y":"0","R":"1","G":"1","B":"1"}},"sliders":{"shadows":{"Y":0,"R":-0.05,"G":0,"B":0.1},"midtones":{"Y":0,"R":0,"G":0,"B":0},"highlights":{"Y":0,"R":0,"G":0,"B":0},"offset":{"Y":0,"R":0,"G":0,"B":0}}}
# Block 6: LUT | Filmic Curve Response: Standard Contrast 1 (100%)
# Block 7: LUT | Illuminant: D93 (100%)
# Block 8: LUT | Neutral Tint: Teal Tint 4 (100%)
# Block 9: ODT | Rec709
TITLE "Lutify.me-Claire-NLog-to-Rec709" 
LUT_3D_SIZE 33
0.000000 0.000000 0.000000
0.000000 0.000000 0.000000
0.000000 0.000000 0.000000
0.083977 0.000000 0.000000
0.000000 0.000000 0.011034
0.073080 0.000000 0.000000
0.169591 0.000000 0.000000
0.245713 0.000000 0.000000
0.310987 0.000000 0.000000
0.359501 0.000000 0.000000
0.393068 0.000000 0.000000
0.430366 0.000000 0.000000
0.471581 0.000000 0.000000
0.505048 0.000000 0.000000
0.544550 0.000000 0.000000
0.581560 0.000000 0.000000
0.636342 0.000000 0.000000
0.683714 0.000000 0.000000
0.736544 0.000000 0.000000
0.788765 0.000000 0.013741
0.854188 0.000000 0.040996
0.908915 0.000000 0.064379
0.956088 0.000000 0.084596
0.999219 0.000000 0.109769
1.000000 0.058892 0.137864
1.000000 0.198589 0.168573
1.000000 0.285538 0.204694
1.000000 0.362082 0.242257
1.000000 0.429231 0.279769
1.000000 0.496230 0.319424
1.000000 0.564774 0.366561
1.000000 0.628420 0.423863
1.000000 0.686624 0.477492
0.000000 0.000000 0.000000
0.000000 0.000000 0.000000
0.000000 0.000000 0.000000
0.085118 0.000000 0.000000
0.000000 0.000000 0.011034
0.073080 0.000000 0.000000
0.169603 0.000000 0.000000
0.245713 0.000000 0.000000
0.310991 0.000000 0.000000
0.359506 0.000000 0.000000
0.393077 0.000000 0.000000
0.430366 0.000000 0.000000
0.468015 0.000000 0.000000
0.505048 0.000000 0.000000
0.544550 0.000000 0.000000
0.581560 0.000000 0.000000
0.636342 0.000000 0.000000
0.683714 0.000000 0.000000
0.736544 0.000000 0.000000
0.788749 0.000000 0.010918
0.854188 0.000000 0.040996
0.908915 0.000000 0.064379
0.956088 0.000000 0.084596
0.999219 0.000000 0.109769
1.000000 0.058892 0.137864
1.000000 0.198589 0.168573
1.000000 0.285538 0.204694
1.000000 0.362082 0.242257
1.000000 0.429231 0.279769
1.000000 0.496230 0.319424
1.000000 0.564774 0.366561
1.000000 0.628420 0.423863
1.000000 0.686624 0.477492
0.000000 0.000000 0.000000
0.000000 0.000000 0.000000
0.000000 0.000000 0.000000
0.066275 0.000000 0.000000
0.000000 0.000000 0.011527
0.072042 0.000000 0.000000
0.168126 0.000000 0.000000
0.243747 0.000000 0.000000
0.308647 0.000000 0.000000
0.356891 0.000000 0.000000
0.390178 0.000000 0.000000
0.427161 0.000000 0.000000
0.468035 0.000000 0.000000
0.505070 0.000000 0.000000
0.540539 0.000000 0.000000
0.581573 0.000000 0.000000
0.636342 0.000000 0.000000
0.683717 0.000000 0.000000
0.736546 0.000000 0.000000
0.788749 0.000000 0.010918
0.854190 0.000000 0.043030
0.908915 0.000000 0.064379
0.959517 0.000000 0.084357
0.999219 0.000000 0.109769
1.000000 0.080203 0.137462
1.000000 0.205046 0.168167
1.000000 0.290342 0.204321
1.000000 0.362082 0.242257
1.000000 0.429231 0.279769
1.000000 0.496230 0.319424
1.000000 0.564774 0.366561
1.000000 0.628420 0.423863
1.000000 0.686624 0.477492
0.000000 0.000000 0.000000
0.000000 0.000000 0.000000
0.000000 0.000000 0.000000
0.000000 0.000000 0.000000
0.000000 0.000000 0.013549
0.069998 0.000000 0.000000
0.165238 0.000000 0.000000
0.237929 0.000000 0.000000
0.299462 0.000000 0.000000
0.349146 0.000000 0.000000
0.384479 0.000000 0.000000
0.420852 0.000000 0.000000
0.464547 0.000000 0.000000
0.505121 0.000000 0.000000
0.540590 0.000000 0.000000
0.581603 0.000000 0.000000
0.636375 0.000000 0.000000
0.683728 0.000000 0.000000
0.736543 0.000000 0.000000
0.788733 0.000000 0.006069
0.854149 0.000000 0.042314
0.908841 0.000000 0.063829
0.959517 0.000000 0.084357
0.999061 0.000000 0.109359
1.000000 0.080203 0.137462
1.000000 0.205046 0.168167
1.000000 0.290342 0.204321
1.000000 0.362082 0.242257
1.000000 0.429231 0.279769
1.000000 0.496230 0.319424
1.000000 0.564774 0.366561
1.000000 0.628420 0.423863
1.000000 0.686624 0.477492
0.000000 0.000000 0.011880
0.000000 0.000000 0.011880
0.000000 0.000000 0.011880
0.000000 0.000000 0.011742
0.000000 0.000000 0.011532
0.064805 0.000000 0.000000
0.152902 0.000000 0.000000
0.221582 0.000000 0.000000
0.284136 0.000000 0.000000
0.333418 0.000000 0.000000
0.373450 0.000000 0.000000
0.408541 0.000000 0.000000
0.457654 0.000000 0.000000
0.501468 0.000000 0.000000
0.540661 0.000000 0.000000
0.577540 0.000000 0.000000
0.632168 0.000000 0.000000
0.679440 0.000000 0.000000
0.736538 0.000000 0.000000
0.788701 0.000000 0.008752
0.854110 0.000000 0.043610
0.908765 0.000000 0.065112
0.959407 0.000000 0.085755
0.999061 0.000000 0.109359
1.000000 0.095851 0.137050
1.000000 0.205038 0.170240
1.000000 0.290342 0.204321
1.000000 0.362082 0.242257
1.000000 0.433196 0.279450
1.000000 0.500044 0.319132
1.000000 0.564774 0.366561
1.000000 0.628420 0.423863
1.000000 0.686624 0.477492
0.000000 0.038606 0.000000
0.000000 0.038614 0.000000
0.000000 0.038581 0.000000
0.000000 0.038393 0.000000
0.000000 0.036529 0.000000
0.035237 0.026356 0.000000
0.120914 0.000000 0.000000
0.193079 0.000000 0.000000
0.264971 0.000000 0.000000
0.316392 0.000000 0.000000
0.357559 0.000000 0.000000
0.402720 0.000000 0.000000
0.451023 0.000000 0.000000
0.494228 0.000000 0.000000
0.540788 0.000000 0.000000
0.577645 0.000000 0.000000
0.628015 0.000000 0.000000
0.679484 0.000000 0.000000
0.736526 0.000000 0.000000
0.788650 0.000000 0.003319
0.853984 0.000000 0.043412
0.908530 0.000000 0.063356
0.959296 0.000000 0.087159
0.998732 0.000000 0.110468
1.000000 0.108783 0.136626
1.000000 0.211339 0.169832
1.000000 0.295103 0.203943
1.000000 0.366322 0.241910
1.000000 0.433196 0.279450
1.000000 0.500044 0.319132
1.000000 0.568425 0.369348
1.000000 0.628420 0.423863
1.000000 0.686624 0.477492
0.000000 0.078978 0.000000
0.000000 0.078978 0.000000
0.000000 0.079903 0.000000
0.000000 0.079801 0.000000
0.000000 0.078566 0.000000
0.000000 0.072915 0.000000
0.095658 0.060135 0.000000
0.169176 0.032552 0.000000
0.240822 0.000000 0.000000
0.298347 0.000000 0.000000
0.345030 0.000000 0.000000
0.388478 0.000000 0.000000
0.437989 0.000000 0.000000
0.490862 0.000000 0.000000
0.529091 0.000000 0.000000
0.573765 0.000000 0.000000
0.628124 0.000000 0.000000
0.683862 0.000000 0.000000
0.736509 0.000000 0.000000
0.793316 0.000000 0.000000
0.853806 0.000000 0.042250
0.908278 0.000000 0.065323
0.959068 0.000000 0.088126
0.998565 0.000000 0.110036
1.000000 0.120061 0.136192
1.000000 0.228527 0.168618
1.000000 0.299817 0.205887
1.000000 0.370546 0.241557
1.000000 0.437156 0.279125
1.000000 0.503859 0.318838
1.000000 0.568425 0.369348
1.000000 0.631973 0.423647
1.000000 0.689732 0.477344
0.000000 0.117610 0.000000
0.000000 0.117610 0.000000
0.000000 0.118973 0.000000
0.000000 0.117444 0.000000
0.000000 0.117235 0.000000
0.000000 0.115214 0.000000
0.075875 0.104775 0.000000
0.162536 0.088226 0.000000
0.236506 0.066830 0.000000
0.287858 0.019040 0.000000
0.338298 0.000000 0.000000
0.381174 0.000000 0.000000
0.435688 0.000000 0.000000
0.484298 0.000000 0.000000
0.525726 0.000000 0.000000
0.570134 0.000000 0.000000
0.628408 0.000000 0.000000
0.683961 0.000000 0.000000
0.736482 0.000000 0.000000
0.793171 0.000000 0.009358
0.853563 0.000000 0.044397
0.907955 0.000000 0.064881
0.958589 0.000000 0.088145
0.998035 0.000000 0.112693
1.000000 0.147748 0.139508
1.000000 0.234040 0.170316
1.000000 0.309686 0.205542
1.000000 0.374751 0.243808
1.000000 0.441112 0.278798
1.000000 0.503842 0.324439
1.000000 0.572087 0.369099
1.000000 0.631973 0.423647
1.000000 0.689732 0.477344
0.000000 0.159973 0.000000
0.000000 0.159973 0.000000
0.000000 0.159972 0.000000
0.000000 0.159971 0.000000
0.000000 0.158095 0.000000
0.000000 0.159297 0.000000
0.000000 0.152955 0.000000
0.143249 0.144148 0.000000
0.230011 0.125837 0.000000
0.287505 0.114368 0.000000
0.334883 0.098790 0.000000
0.383460 0.071307 0.000000
0.428274 0.000000 0.000000
0.479280 0.000000 0.000000
0.523494 0.000000 0.000000
0.571074 0.000000 0.000000
0.628877 0.000000 0.000000
0.684101 0.000000 0.000000
0.741162 0.000000 0.000000
0.792995 0.000000 0.000000
0.853131 0.000000 0.043267
0.911489 0.000000 0.065887
0.958067 0.000000 0.090021
0.997473 0.000000 0.115397
1.000000 0.171217 0.142069
1.000000 0.250149 0.171165
1.000000 0.314283 0.207505
1.000000 0.378942 0.246085
1.000000 0.445826 0.281602
1.000000 0.515283 0.323566
1.000000 0.575750 0.368847
1.000000 0.635500 0.426428
1.000000 0.689721 0.480394
0.000000 0.203648 0.000000
0.000000 0.203648 0.000000
0.000000 0.203647 0.000000
0.000000 0.205756 0.000000
0.000000 0.203655 0.000000
0.000000 0.201250 0.000000
0.000000 0.198222 0.000000
0.099545 0.193728 0.000000
0.213601 0.176773 0.000000
0.282918 0.159943 0.000000
0.334585 0.153179 0.000000
0.385854 0.144502 0.000000
0.431559 0.132251 0.000000
0.485606 0.108740 0.000000
0.526207 0.099847 0.000000
0.572972 0.069448 0.000000
0.629813 0.000000 0.000000
0.684411 0.000000 0.000000
0.741154 0.000000 0.000000
0.792797 0.000000 0.000000
0.852754 0.000000 0.040659
0.910817 0.000000 0.067407
0.957359 0.000000 0.091333
0.996257 0.100758 0.116672
1.000000 0.198488 0.144164
1.000000 0.260572 0.174625
1.000000 0.327906 0.208691
1.000000 0.387964 0.245871
1.000000 0.449756 0.283844
1.000000 0.519089 0.326118
1.000000 0.579406 0.371653
1.000000 0.639021 0.426218
1.000000 0.692812 0.480250
0.000000 0.238395 0.000000
0.000000 0.238395 0.000000
0.000000 0.238396 0.000000
0.000000 0.240378 0.000000
0.000000 0.238339 0.000000
0.000000 0.240178 0.000000
0.000000 0.237479 0.000000
0.000000 0.235355 0.000000
0.174860 0.228779 0.000000
0.263161 0.216158 0.000000
0.328997 0.202298 0.000000
0.385426 0.194040 0.000000
0.433912 0.185423 0.000000
0.489579 0.180934 0.000000
0.533442 0.170215 0.000000
0.579494 0.156130 0.000000
0.635555 0.133279 0.000000
0.689553 0.111423 0.000000
0.741289 0.055829 0.000000
0.792572 0.000000 0.000000
0.856564 0.000000 0.043046
0.910044 0.000000 0.070934
0.956417 0.000000 0.091941
0.997810 0.156231 0.120306
1.000000 0.227954 0.147884
1.000000 0.275735 0.175479
1.000000 0.341292 0.209874
1.000000 0.396253 0.247815
1.000000 0.457618 0.283185
1.000000 0.526714 0.325528
1.000000 0.583071 0.371401
1.000000 0.642527 0.426009
1.000000 0.696015 0.480102
0.000000 0.272084 0.000000
0.000000 0.272084 0.000000
0.000000 0.272079 0.000000
0.000000 0.276611 0.000000
0.000000 0.276574 0.000000
0.000000 0.278774 0.000000
0.000000 0.276018 0.000000
0.000000 0.272463 0.000000
0.121130 0.271730 0.000000
0.234271 0.267067 0.000000
0.312032 0.256377 0.000000
0.376308 0.242162 0.000000
0.436396 0.236775 0.000000
0.491679 0.228173 0.000000
0.536353 0.220300 0.000000
0.582611 0.216817 0.000000
0.637953 0.206962 0.000000
0.690730 0.188179 0.000000
0.746241 0.167647 0.000000
0.801564 0.145895 0.000000
0.855678 0.131336 0.036633
0.908900 0.115862 0.072646
0.954779 0.143761 0.094685
0.996258 0.197305 0.123639
1.000000 0.254484 0.149545
1.000000 0.295206 0.178111
1.000000 0.354472 0.216013
1.000000 0.405143 0.250290
1.000000 0.470139 0.285372
1.000000 0.535125 0.328511
1.000000 0.586729 0.374224
1.000000 0.646007 0.428811
1.000000 0.699317 0.483014
0.000000 0.318638 0.000000
0.000000 0.318635 0.000000
0.000000 0.318636 0.000000
0.000000 0.318628 0.000000
0.000000 0.321277 0.000000
0.000000 0.326620 0.000000
0.000000 0.326348 0.000000
0.000000 0.322816 0.000000
0.000000 0.326342 0.000000
0.178486 0.323169 0.000000
0.277701 0.316126 0.000000
0.351559 0.305384 0.000000
0.428342 0.292296 0.000000
0.489658 0.282439 0.000000
0.537358 0.276147 0.000000
0.584909 0.275447 0.000000
0.640379 0.269657 0.000000
0.696539 0.255470 0.000000
0.746852 0.244247 0.000000
0.801077 0.234356 0.000000
0.853947 0.228088 0.024224
0.910361 0.210659 0.069656
0.959345 0.206565 0.096739
0.993706 0.247131 0.122652
1.000000 0.279674 0.151118
1.000000 0.323439 0.180170
1.000000 0.372248 0.217268
1.000000 0.421505 0.253977
1.000000 0.478062 0.287315
1.000000 0.542720 0.330824
1.000000 0.594058 0.376811
1.000000 0.652936 0.428405
1.000000 0.702609 0.482869
0.000000 0.360120 0.036897
0.000000 0.360118 0.036910
0.000000 0.360117 0.029746
0.000000 0.362980 0.000000
0.000000 0.365847 0.000000
0.000000 0.368682 0.000000
0.000000 0.371415 0.000000
0.000000 0.367917 0.000000
0.000000 0.375473 0.000000
0.055282 0.370131 0.000000
0.222508 0.367202 0.000000
0.322020 0.359827 0.000000
0.409439 0.345072 0.000000
0.489112 0.338162 0.000000
0.536589 0.333225 0.000000
0.587428 0.327278 0.000000
0.644995 0.323149 0.000000
0.697538 0.312081 0.000000
0.747418 0.311357 0.000000
0.809490 0.296591 0.000000
0.856179 0.295686 0.000000
0.907307 0.281446 0.066721
0.955612 0.277065 0.096795
0.991096 0.286548 0.124050
1.000000 0.308352 0.152039
1.000000 0.345964 0.182340
1.000000 0.389747 0.218510
1.000000 0.438346 0.255426
1.000000 0.494553 0.291874
1.000000 0.554116 0.332869
1.000000 0.605064 0.379165
1.000000 0.657112 0.431982
1.000000 0.705867 0.485799
0.000000 0.396050 0.098853
0.000000 0.396050 0.098853
0.000000 0.399214 0.097568
0.000000 0.399202 0.091403
0.000000 0.405602 0.074380
0.000000 0.412037 0.028022
0.000000 0.418441 0.000000
0.000000 0.414730 0.000000
0.000000 0.420314 0.000000
0.000000 0.418823 0.000000
0.157434 0.413307 0.000000
0.279975 0.410329 0.000000
0.383877 0.405694 0.000000
0.464471 0.393565 0.000000
0.539326 0.387344 0.000000
0.580302 0.383419 0.000000
0.642238 0.373176 0.000000
0.696811 0.366732 0.000000
0.751378 0.363597 0.000000
0.808206 0.359801 0.000000
0.853848 0.353395 0.000000
0.903527 0.346406 0.048820
0.950981 0.340408 0.095318
0.989420 0.341371 0.126424
1.000000 0.353612 0.150423
1.000000 0.377068 0.184188
1.000000 0.415365 0.221450
1.000000 0.454465 0.263934
1.000000 0.514230 0.292830
1.000000 0.562446 0.335949
1.000000 0.612394 0.384924
1.000000 0.663900 0.434625
1.000000 0.709104 0.488744
0.000000 0.438971 0.141596
0.000000 0.438971 0.141596
0.000000 0.438963 0.141607
0.000000 0.445837 0.139799
0.000000 0.449264 0.127689
0.000000 0.459628 0.109180
0.000000 0.459504 0.081485
0.000000 0.455684 0.025610
0.000000 0.458451 0.000000
0.000000 0.460643 0.000000
0.000000 0.458967 0.000000
0.233959 0.452764 0.000000
0.341747 0.459907 0.000000
0.443876 0.454954 0.000000
0.524347 0.438779 0.000000
0.584734 0.426523 0.000000
0.645401 0.417078 0.000000
0.693374 0.415851 0.000000
0.758919 0.408616 0.000000
0.811037 0.406481 0.000000
0.855397 0.401350 0.000000
0.903535 0.395913 0.036533
0.949131 0.395647 0.090520
0.984207 0.393384 0.128275
1.000000 0.392748 0.157135
1.000000 0.415876 0.184752
1.000000 0.444721 0.226694
1.000000 0.478798 0.269383
1.000000 0.529928 0.299740
1.000000 0.577601 0.337758
1.000000 0.623412 0.387332
1.000000 0.670616 0.437293
1.000000 0.716179 0.489270
0.000000 0.491531 0.173784
0.000000 0.491531 0.173784
0.000000 0.491518 0.173797
0.000000 0.495083 0.170062
0.000000 0.502223 0.162411
0.000000 0.505748 0.152418
0.000000 0.509241 0.132484
0.000000 0.508944 0.101072
0.000000 0.512045 0.060216
0.000000 0.514709 0.000000
0.000000 0.509551 0.000000
0.126526 0.507402 0.000000
0.299277 0.511635 0.000000
0.409912 0.507621 0.000000
0.489346 0.499818 0.000000
0.566388 0.487238 0.000000
0.644160 0.469682 0.000000
0.694067 0.472767 0.000000
0.754086 0.470891 0.000000
0.816502 0.460748 0.000000
0.855770 0.456953 0.000000
0.901812 0.456826 0.000000
0.945497 0.457771 0.081528
0.979515 0.456226 0.123632
1.000000 0.455982 0.158602
1.000000 0.462074 0.191526
1.000000 0.477758 0.231151
1.000000 0.511598 0.272028
1.000000 0.550672 0.304884
1.000000 0.592745 0.342667
1.000000 0.634411 0.392944
1.000000 0.683831 0.439640
1.000000 0.722468 0.492114
0.000000 0.546481 0.211407
0.000000 0.546481 0.211407
0.000000 0.546475 0.208214
0.000000 0.550194 0.204287
0.000000 0.557658 0.202784
0.000000 0.561331 0.192269
0.000000 0.564948 0.178299
0.000000 0.564631 0.151327
0.000000 0.571741 0.130605
0.000000 0.570930 0.091963
0.000000 0.565850 0.000000
0.000000 0.563947 0.000000
0.227889 0.568866 0.000000
0.368360 0.565395 0.000000
0.455623 0.561996 0.000000
0.538346 0.553944 0.000000
0.621255 0.544763 0.000000
0.693812 0.535327 0.000000
0.754378 0.530178 0.000000
0.814099 0.524890 0.000000
0.857977 0.517137 0.000000
0.905198 0.517651 0.000000
0.946391 0.519491 0.075000
0.978645 0.518550 0.125241
1.000000 0.518692 0.163661
1.000000 0.528396 0.194746
1.000000 0.531023 0.238517
1.000000 0.543675 0.276985
1.000000 0.574030 0.314481
1.000000 0.611669 0.347420
1.000000 0.648873 0.395197
1.000000 0.694198 0.448348
1.000000 0.731723 0.494882
0.000000 0.595343 0.250156
0.000000 0.595343 0.250156
0.000000 0.595332 0.250164
0.000000 0.595312 0.247084
0.000000 0.602846 0.242759
0.000000 0.606537 0.235957
0.000000 0.606370 0.226769
0.000000 0.621384 0.214497
0.000000 0.624740 0.194872
0.000000 0.624159 0.165560
0.000000 0.619242 0.135598
0.000000 0.617521 0.092768
0.000000 0.623059 0.000000
0.306077 0.620036 0.000000
0.413534 0.613158 0.000000
0.502656 0.609554 0.000000
0.595874 0.604675 0.000000
0.672574 0.599775 0.000000
0.740572 0.586868 0.000000
0.810059 0.573286 0.000000
0.854633 0.569728 0.000000
0.898823 0.566651 0.000000
0.937894 0.576857 0.069395
0.970073 0.571958 0.121220
0.997993 0.572097 0.167388
1.000000 0.581622 0.204512
1.000000 0.583893 0.251656
1.000000 0.587494 0.280914
1.000000 0.605097 0.320810
1.000000 0.634347 0.352011
1.000000 0.663603 0.404694
1.000000 0.707878 0.453917
1.000000 0.740748 0.497706
0.000000 0.640842 0.299141
0.000000 0.640842 0.299141
0.000000 0.640842 0.299141
0.000000 0.644627 0.295227
0.000000 0.648391 0.291317
0.000000 0.655939 0.286884
0.000000 0.659606 0.286420
0.000000 0.666971 0.275127
0.000000 0.674229 0.256984
0.000000 0.669897 0.234188
0.000000 0.669053 0.214290
0.000000 0.667433 0.190982
0.000000 0.669506 0.154438
0.220754 0.666939 0.117255
0.358748 0.664298 0.080255
0.461396 0.661103 0.000000
0.568914 0.656478 0.000000
0.653972 0.655725 0.000000
0.726879 0.643187 0.000000
0.796067 0.630262 0.000000
0.850915 0.626180 0.000000
0.889885 0.619541 0.000000
0.932304 0.625470 0.065354
0.963660 0.620688 0.132921
0.990710 0.620826 0.169904
1.000000 0.629991 0.215765
1.000000 0.631880 0.257276
1.000000 0.635193 0.291429
1.000000 0.643691 0.323651
1.000000 0.664264 0.363426
1.000000 0.688203 0.409628
1.000000 0.721139 0.459615
1.000000 0.755718 0.504354
0.000000 0.694109 0.347336
0.000000 0.694109 0.347336
0.000000 0.694109 0.347336
0.000000 0.697894 0.346949
0.000000 0.701795 0.342741
0.000000 0.709926 0.341893
0.000000 0.713797 0.337709
0.000000 0.717575 0.329752
0.000000 0.721240 0.314355
0.000000 0.720698 0.296027
0.000000 0.719990 0.278029
0.000000 0.718841 0.249589
0.000000 0.724937 0.215993
0.000000 0.718704 0.202831
0.294630 0.720289 0.167837
0.416381 0.721368 0.138056
0.530458 0.717449 0.111168
0.636389 0.712573 0.065746
0.714001 0.700239 0.000000
0.789567 0.691279 0.000000
0.841811 0.687695 0.000000
0.881906 0.680930 0.000000
0.921294 0.678775 0.068194
0.957588 0.673507 0.146102
0.983390 0.673512 0.184703
0.999846 0.682296 0.229250
1.000000 0.683702 0.267064
1.000000 0.686091 0.306164
1.000000 0.693293 0.333345
1.000000 0.701024 0.377492
1.000000 0.712837 0.417687
1.000000 0.746710 0.468946
1.000000 0.772082 0.513513
0.000000 0.748966 0.398139
0.000000 0.748966 0.398139
0.000000 0.748966 0.398139
0.000000 0.748906 0.398159
0.000000 0.752609 0.394150
0.000000 0.759887 0.393600
0.000000 0.766951 0.389368
0.000000 0.770284 0.377974
0.000000 0.773435 0.370355
0.000000 0.773026 0.363018
0.000000 0.772204 0.344104
0.000000 0.774786 0.320375
0.000000 0.776755 0.285606
0.000000 0.774659 0.270872
0.206227 0.768911 0.249165
0.361647 0.769917 0.218626
0.479924 0.773473 0.194543
0.599023 0.765565 0.180735
0.683605 0.761470 0.151490
0.763499 0.753478 0.122344
0.823488 0.749698 0.084269
0.872890 0.743008 0.000000
0.914759 0.736932 0.095254
0.946382 0.731901 0.156859
0.971641 0.731383 0.196878
0.990933 0.738636 0.243558
1.000000 0.739309 0.289636
1.000000 0.737231 0.316578
1.000000 0.746390 0.352659
1.000000 0.748910 0.393540
1.000000 0.752288 0.430267
1.000000 0.770800 0.480194
1.000000 0.790163 0.520593
0.000000 0.797563 0.443823
0.000000 0.797563 0.443823
0.000000 0.800786 0.443660
0.000000 0.800751 0.443669
0.000000 0.803860 0.443535
0.000000 0.806897 0.439632
0.000000 0.809799 0.435764
0.000000 0.812590 0.431923
0.000000 0.815237 0.431893
0.000000 0.814696 0.424461
0.000000 0.819919 0.409319
0.000000 0.824849 0.390501
0.000000 0.826465 0.364357
0.000000 0.821638 0.349791
0.000000 0.819486 0.326307
0.310217 0.811514 0.295321
0.448929 0.814133 0.276304
0.550493 0.816381 0.261480
0.643438 0.809832 0.231615
0.732729 0.805366 0.210187
0.797898 0.807144 0.196885
0.851494 0.798343 0.168084
0.905890 0.783365 0.137467
0.938211 0.778548 0.180714
0.961440 0.777609 0.217305
0.982419 0.783124 0.262863
1.000000 0.783266 0.307410
1.000000 0.783823 0.337817
1.000000 0.790503 0.377082
1.000000 0.792111 0.407905
1.000000 0.794177 0.453878
1.000000 0.799273 0.490715
1.000000 0.809453 0.534320
0.000000 0.838104 0.499682
0.000000 0.838104 0.499682
0.000000 0.838057 0.499691
0.000000 0.838057 0.499691
0.000000 0.840597 0.499681
0.000000 0.840507 0.495883
0.000000 0.842960 0.495893
0.000000 0.845210 0.492131
0.000000 0.847320 0.488398
0.000000 0.851890 0.480897
0.000000 0.856209 0.473471
0.000000 0.857732 0.458530
0.000000 0.856682 0.436086
0.000000 0.852722 0.421258
0.000000 0.853230 0.402961
0.243200 0.851139 0.380985
0.422866 0.845624 0.355532
0.532388 0.847274 0.341030
0.629101 0.841210 0.322383
0.720278 0.836983 0.292827
0.786248 0.838312 0.276318
0.841739 0.835070 0.260853
0.895961 0.824373 0.231957
0.927969 0.817447 0.210603
0.951852 0.816157 0.243033
0.972529 0.817822 0.289082
0.990286 0.819927 0.331001
1.000000 0.817595 0.368243
1.000000 0.820703 0.396587
1.000000 0.821751 0.435795
1.000000 0.825443 0.475283
1.000000 0.829448 0.515076
1.000000 0.831505 0.547979
0.000000 0.864780 0.553477
0.000000 0.864780 0.553477
0.000000 0.864780 0.553477
0.000000 0.867188 0.553521
0.000000 0.867124 0.553528
0.000000 0.869367 0.553596
0.000000 0.871588 0.549801
0.000000 0.878306 0.550055
0.000000 0.880230 0.546328
0.000000 0.884334 0.542752
0.000000 0.885822 0.535382
0.000000 0.887193 0.528055
0.000000 0.886051 0.513108
0.000000 0.885038 0.494439
0.000000 0.885577 0.479877
0.150679 0.885874 0.461746
0.389663 0.880812 0.436102
0.513624 0.877678 0.414693
0.606010 0.874504 0.397248
0.700073 0.870484 0.380597
0.769166 0.869189 0.361249
0.825952 0.866083 0.337518
0.885477 0.860389 0.319785
0.918063 0.854027 0.297428
0.942612 0.848114 0.279629
0.963437 0.851476 0.319368
0.983911 0.850639 0.357652
0.998960 0.848168 0.393603
1.000000 0.850547 0.423762
1.000000 0.853122 0.455812
1.000000 0.855998 0.495435
1.000000 0.859028 0.537953
1.000000 0.860315 0.567186
0.000000 0.895595 0.616426
0.000000 0.895595 0.616426
0.000000 0.897590 0.616541
0.000000 0.897590 0.616541
0.000000 0.897512 0.616547
