Assets/Lutify-Free-LUTs-Pack/Lutify Free LUTs Pack/Commercial Pro - Claire/Lutify.me-Claire-NLog-to-Rec709.cube
# Created with: fylm.ai - Colour Grading and Collaboration Software in Cloud 
# Website: https://fylm.ai 
# META
# Option: Gamut compress
# Block 1: IDT | Nikon BT2020 N-Log
# Block 2: colourMatch | Blending Mode: Normal | {"ColorSpace":0,"CrossCovarianceLimit":50,"ReshapingIterations":1,"PercentSaturationShift":100,"PercentShadingShift":100,"ExtraShading":true,"PercentTint":100,"PercentModified":100}
# Block 3: HSL | Blending Mode: Normal | {"hue":{"Reds":0,"Yellows":0,"Greens":0,"Cyans":0,"Blues":0,"Magentas":0},"saturation":{"Reds":1,"Yellows":1,"Greens":1,"Cyans":1,"Blues":1,"Magentas":1},"luminance":{"Reds":0.9,"Yellows":0.9,"Greens":0.9,"Cyans":0.8,"Blues":0.8,"Magentas":0.9},"lum_sat":{"Blacks":1,"Shadows":1,"Midtones":1,"Highlights":1,"Whites":1},"sat_sat":{"10":1,"20":1,"30":1,"40":1,"50":1}}
# Block 4: subtractiveColour | Blending Mode: Normal | {"sliders":{"gainY":0.1,"C":0.05,"M":0.05,"Y":0.05}}
# Block 5: logPrimaries | Blending Mode: Normal | {"wheels":{"shadows":{"Y":"0","R":"1","G":"1","B":"1"},"midtones":{"Y":"0","R":"1","G":"1","B":"1"},"highlights":{"Y":"0","R":"1","G":"1","B":"1"},"offset":{"Y":"0","R":"1","G":"1","B":"1"}},"sliders":{"shadows":{"Y":0,"R":-0.05,"G":0,"B":0.1},"midtones":{"Y":0,"R":0,"G":0,"B":0},"highlights":{"Y":0,"R":0,"G":0,"B":0},"offset":{"Y":0,"R":0,"G":0,"B":0}}}
# Block 6: LUT | Filmic Curve Response: Standard Contrast 1 (100%)
# Block 7: LUT | Illuminant: D93 (100%)
# Block 8: LUT | Neutral Tint: Teal Tint 4 (100%)
# Block 9: ODT | Rec709
TITLE "Lutify.me-Claire-NLog-to-Rec709" 
LUT_3D_SIZE 9
0.000000 0.000000 0.000000
0.000000 0.000000 0.011034
0.310987 0.000000 0.000000
0.471581 0.000000 0.000000
0.636342 0.000000 0.000000
0.854188 0.000000 0.040996
1.000000 0.058892 0.137864
1.000000 0.429231 0.279769
1.000000 0.686624 0.477492
0.000000 0.000000 0.011880
0.000000 0.000000 0.011532
0.284136 0.000000 0.000000
0.457654 0.000000 0.000000
0.632168 0.000000 0.000000
0.854110 0.000000 0.043610
1.000000 0.095851 0.137050
1.000000 0.433196 0.279450
1.000000 0.686624 0.477492
0.000000 0.159973 0.000000
0.000000 0.158095 0.000000
0.230011 0.125837 0.000000
0.428274 0.000000 0.000000
0.628877 0.000000 0.000000
0.853131 0.000000 0.043267
1.000000 0.171217 0.142069
1.000000 0.445826 0.281602
1.000000 0.689721 0.480394
0.000000 0.318638 0.000000
0.000000 0.321277 0.000000
0.000000 0.326342 0.000000
0.428342 0.292296 0.000000
0.640379 0.269657 0.000000
0.853947 0.228088 0.024224
1.000000 0.279674 0.151118
1.000000 0.478062 0.287315
1.000000 0.702609 0.482869
0.000000 0.491531 0.173784
0.000000 0.502223 0.162411
0.000000 0.512045 0.060216
0.299277 0.511635 0.000000
0.644160 0.469682 0.000000
0.855770 0.456953 0.000000
1.000000 0.455982 0.158602
1.000000 0.550672 0.304884
1.000000 0.722468 0.492114
0.000000 0.694109 0.347336
0.000000 0.701795 0.342741
0.000000 0.721240 0.314355
0.000000 0.724937 0.215993
0.530458 0.717449 0.111168
0.841811 0.687695 0.000000
0.983390 0.673512 0.184703
1.000000 0.693293 0.333345
1.000000 0.772082 0.513513
0.000000 0.864780 0.553477
0.000000 0.867124 0.553528
0.000000 0.880230 0.546328
0.000000 0.886051 0.513108
0.389663 0.880812 0.436102
0.769166 0.869189 0.361249
0.942612 0.848114 0.279629
1.000000 0.850547 0.423762
1.000000 0.860315 0.567186
0.000000 0.956544 0.771415
0.000000 0.957638 0.768633
0.000000 0.959052 0.768927
0.000000 0.962308 0.760958
0.459252 0.959488 0.737096
0.719602 0.953098 0.692150
0.902617 0.945032 0.618193
0.990301 0.936888 0.551394
1.000000 0.935629 0.670197
0.536334 0.993606 0.892411
0.542884 0.993418 0.892400
0.563919 0.993996 0.892510
0.611203 0.993644 0.892581
0.666396 0.993364 0.891276
0.771168 0.991657 0.884273
0.881749 0.986219 0.851971
0.965391 0.982031 0.819939
1.000000 0.977238 0.771965
0.000000 0.000000 0.011589
0.000000 0.000000 0.014447
0.290654 0.000000 0.000000
0.447364 0.000000 0.000000
0.632164 0.000000 0.000000
0.849620 0.000000 0.055111
1.000000 0.080161 0.141684
1.000000 0.429231 0.279769
1.000000 0.685840 0.476695
0.000000 0.000000 0.012425
0.000000 0.000000 0.015332
0.266823 0.000000 0.000000
0.437556 0.000000 0.000000
0.627992 0.000000 0.000000
0.854072 0.000000 0.055715
1.000000 0.095802 0.143204
1.000000 0.433196 0.279450
1.000000 0.686613 0.480540
0.000000 0.150149 0.034164
0.000000 0.159983 0.000000
0.211245 0.137285 0.000000
0.422370 0.073000 0.000000
0.620447 0.000000 0.000000
0.853101 0.000000 0.057006
1.000000 0.171206 0.146055
1.000000 0.445819 0.284168
1.000000 0.689721 0.480394
0.000000 0.300305 0.100967
0.000000 0.321143 0.073297
0.000000 0.329495 0.000000
0.418736 0.299142 0.000000
0.640032 0.273156 0.000000
0.853677 0.232767 0.053598
1.000000 0.279675 0.155575
1.000000 0.482016 0.289627
1.000000 0.702598 0.485940
0.000000 0.484381 0.207224
0.000000 0.498610 0.198852
0.000000 0.515760 0.120204
0.288347 0.515601 0.000000
0.641177 0.481330 0.000000
0.855230 0.461036 0.000000
1.000000 0.456048 0.167523
1.000000 0.554568 0.307414
1.000000 0.722468 0.492114
0.000000 0.690289 0.362908
0.000000 0.697839 0.362192
0.000000 0.721241 0.337058
0.000000 0.725043 0.234180
0.530207 0.717437 0.139875
0.840410 0.691860 0.000000
0.983286 0.673522 0.192424
1.000000 0.693292 0.336670
1.000000 0.772082 0.513513
0.000000 0.864814 0.561231
0.000000 0.867097 0.561286
0.000000 0.880285 0.554039
0.000000 0.886027 0.520648
0.386432 0.882943 0.447454
0.764610 0.869421 0.364727
0.941614 0.850418 0.290947
1.000000 0.850539 0.430169
1.000000 0.860315 0.567186
0.000000 0.956544 0.771415
0.000000 0.956411 0.771412
0.000000 0.959052 0.768927
0.000000 0.962293 0.763924
0.458939 0.960552 0.740319
0.719395 0.953085 0.695378
0.902479 0.945020 0.621557
0.990209 0.936879 0.554365
1.000000 0.935629 0.670197
0.536176 0.993596 0.893883
0.542728 0.993409 0.893872
0.556551 0.993607 0.893917
0.611203 0.993644 0.892581
0.666396 0.993364 0.891276
0.771168 0.991657 0.884273
0.881634 0.986209 0.853738
0.965391 0.982031 0.819939
1.000000 0.977238 0.771965
0.000000 0.000000 0.126285
0.000000 0.000000 0.110844
0.224273 0.000000 0.072921
0.410888 0.000000 0.079303
0.616058 0.000000 0.082612
0.845006 0.000000 0.106326
1.000000 0.095474 0.172747
1.000000 0.433950 0.295501
1.000000 0.685807 0.485893
0.000000 0.019491 0.135481
0.000000 0.016564 0.123294
0.204948 0.000000 0.090547
0.407974 0.000000 0.086467
0.611832 0.000000 0.084589
0.844842 0.000000 0.105713
1.000000 0.108476 0.172450
1.000000 0.433950 0.295501
1.000000 0.685807 0.485893
0.000000 0.148574 0.236977
0.000000 0.146806 0.241763
0.132137 0.173750 0.241157
0.382394 0.127008 0.147254
0.603168 0.000000 0.102496
0.848304 0.000000 0.115328
1.000000 0.178555 0.178247
1.000000 0.445773 0.299930
1.000000 0.692779 0.489457
0.000000 0.281676 0.324926
0.000000 0.294064 0.330084
0.000000 0.351052 0.292478
0.376078 0.347190 0.190573
0.622923 0.296765 0.132149
0.847867 0.243552 0.136465
1.000000 0.289396 0.188851
1.000000 0.481978 0.305948
1.000000 0.702576 0.492110
0.000000 0.448891 0.372279
0.000000 0.455816 0.368330
0.000000 0.523096 0.329175
0.215027 0.542755 0.232578
0.611882 0.510505 0.149181
0.848251 0.473960 0.147899
1.000000 0.460337 0.212150
1.000000 0.553400 0.326956
1.000000 0.722447 0.498310
0.000000 0.667183 0.449123
0.000000 0.670939 0.448855
0.000000 0.709097 0.438634
0.000000 0.736697 0.362921
0.512760 0.729429 0.270689
0.832836 0.700327 0.178675
0.979619 0.685807 0.247683
1.000000 0.697009 0.363274
1.000000 0.772054 0.522962
0.000000 0.857544 0.607846
0.000000 0.859863 0.607847
0.000000 0.871046 0.600223
0.000000 0.886070 0.581708
0.378368 0.884897 0.510927
0.760509 0.873596 0.433961
0.938211 0.857119 0.346698
1.000000 0.852643 0.449920
1.000000 0.860279 0.579832
0.000000 0.955515 0.782663
0.000000 0.956614 0.782771
0.000000 0.957937 0.782976
0.000000 0.962401 0.775451
0.447433 0.960677 0.758638
0.718179 0.954108 0.708479
0.901256 0.946042 0.639078
0.989173 0.937938 0.573171
1.000000 0.936650 0.679358
0.529350 0.993774 0.895357
0.536019 0.993587 0.895345
0.556400 0.993598 0.895376
0.604774 0.993250 0.895426
0.666139 0.993346 0.894184
0.770826 0.991631 0.888713
0.879262 0.986296 0.858915
0.964926 0.982538 0.824187
1.000000 0.977766 0.778274
0.000000 0.052880 0.222372
0.000000 0.053174 0.218142
0.155437 0.000000 0.230046
0.387865 0.000000 0.189772
0.580450 0.000000 0.221412
0.846654 0.000000 0.232675
1.000000 0.138269 0.251731
1.000000 0.438539 0.340405
1.000000 0.688860 0.504397
0.000000 0.062123 0.233127
0.000000 0.062162 0.233143
0.146659 0.040158 0.250921
0.388784 0.000000 0.210368
0.584887 0.000000 0.230527
0.846354 0.000000 0.234881
1.000000 0.147041 0.253857
1.000000 0.442479 0.340169
1.000000 0.688860 0.504397
0.000000 0.158518 0.330510
0.000000 0.158365 0.336254
0.000000 0.170922 0.378763
0.376290 0.143014 0.346102
0.589780 0.000000 0.281838
0.834842 0.000000 0.250428
1.000000 0.204369 0.264108
1.000000 0.454249 0.345432
1.000000 0.691955 0.507397
0.000000 0.297983 0.445758
0.000000 0.297861 0.456369
0.000000 0.332694 0.498183
0.298986 0.387936 0.491058
0.585047 0.341722 0.386445
0.842684 0.282273 0.291595
1.000000 0.308173 0.280034
1.000000 0.489757 0.352423
1.000000 0.705766 0.513850
0.000000 0.454958 0.559157
0.000000 0.461932 0.562579
0.000000 0.496867 0.572327
0.000000 0.561837 0.542155
0.553046 0.561598 0.469931
0.834468 0.515729 0.355104
1.000000 0.489777 0.311291
1.000000 0.557216 0.374394
1.000000 0.726086 0.524039
0.000000 0.643668 0.629977
0.000000 0.647409 0.629764
0.000000 0.669805 0.616773
0.000000 0.736765 0.597176
0.457377 0.755931 0.519087
0.811373 0.735466 0.433068
0.972044 0.705605 0.371765
1.000000 0.707978 0.416199
1.000000 0.775003 0.545949
0.000000 0.847688 0.696131
0.000000 0.850128 0.696060
0.000000 0.856613 0.692259
0.000000 0.882187 0.681056
0.344184 0.890872 0.636650
0.752906 0.879518 0.551882
0.934514 0.865403 0.460140
1.000000 0.858797 0.500322
1.000000 0.862090 0.602622
0.000000 0.953343 0.813626
0.000000 0.953221 0.813621
0.000000 0.954969 0.811228
0.000000 0.958484 0.811453
0.423351 0.961937 0.799717
0.722624 0.955598 0.760083
0.897585 0.947933 0.698596
0.986420 0.939946 0.627265
1.000000 0.937608 0.702234
0.512257 0.992939 0.902419
0.519281 0.992750 0.902407
0.540705 0.992771 0.902417
0.597942 0.992833 0.901072
0.660049 0.992379 0.901137
0.766909 0.991746 0.895909
0.878212 0.987283 0.870781
0.962017 0.982606 0.837184
1.000000 0.978783 0.794546
0.000000 0.117264 0.355269
0.000000 0.116881 0.361391
0.000000 0.115434 0.393635
0.352819 0.042892 0.395539
0.591676 0.000000 0.346085
0.818556 0.000000 0.387235
1.000000 0.181154 0.394074
1.000000 0.449041 0.434261
1.000000 0.691777 0.548962
0.000000 0.124234 0.370571
0.000000 0.123987 0.373758
0.000000 0.124592 0.400044
0.354303 0.066744 0.408716
0.588813 0.000000 0.355274
0.818789 0.000000 0.393869
1.000000 0.187979 0.397224
1.000000 0.452992 0.434088
1.000000 0.691777 0.548962
0.000000 0.178056 0.432656
0.000000 0.179830 0.439538
0.000000 0.185858 0.467425
0.333565 0.178428 0.491173
0.593254 0.052906 0.440937
0.822156 0.000000 0.423134
1.000000 0.241354 0.405987
1.000000 0.464799 0.436788
1.000000 0.694985 0.552077
0.000000 0.318634 0.557862
0.000000 0.324285 0.561387
0.000000 0.340815 0.591188
0.191168 0.372420 0.623972
0.579320 0.372168 0.595434
0.832276 0.308445 0.503585
1.000000 0.343331 0.436640
1.000000 0.505155 0.448372
1.000000 0.708844 0.555416
0.000000 0.457860 0.651555
0.000000 0.461301 0.659151
0.000000 0.492781 0.684770
0.000000 0.551055 0.704430
0.521139 0.590771 0.707177
0.803207 0.554416 0.588997
0.994292 0.514509 0.492833
1.000000 0.572072 0.468318
1.000000 0.728412 0.561862
0.000000 0.650825 0.759853
0.000000 0.650761 0.759853
0.000000 0.677071 0.761745
0.000000 0.721334 0.768973
0.368281 0.773751 0.747797
0.776544 0.771586 0.683520
0.955569 0.731810 0.564003
1.000000 0.715514 0.518614
1.000000 0.777451 0.584907
0.000000 0.839720 0.809980
0.000000 0.842249 0.809822
0.000000 0.846729 0.806815
0.000000 0.861564 0.803041
0.192416 0.891557 0.789985
0.728383 0.896082 0.747250
0.921046 0.880601 0.663404
1.000000 0.864584 0.603794
1.000000 0.863947 0.642955
0.000000 0.946212 0.854342
0.000000 0.946100 0.854334
0.000000 0.948063 0.854242
0.000000 0.952064 0.854018
0.323824 0.958912 0.851780
0.716969 0.957318 0.826356
0.893783 0.951527 0.777593
0.981564 0.942783 0.714555
1.000000 0.938513 0.734685
0.477127 0.991820 0.913234
0.484922 0.991629 0.913220
0.509829 0.992270 0.913229
0.558804 0.992133 0.913195
0.648727 0.991524 0.913148
0.762249 0.991806 0.912078
0.878646 0.988077 0.890785
0.960657 0.983024 0.856799
1.000000 0.979204 0.817897
0.000000 0.215249 0.546672
0.000000 0.217109 0.550329
0.000000 0.219473 0.568834
0.236275 0.214815 0.594686
0.566756 0.158436 0.600358
0.818760 0.000000 0.543595
1.000000 0.213936 0.583637
1.000000 0.478454 0.590111
1.000000 0.702617 0.633442
0.000000 0.219144 0.557731
0.000000 0.221109 0.557662
0.000000 0.223575 0.576250
0.229094 0.219662 0.598419
0.565611 0.165393 0.607918
0.818648 0.000000 0.547179
1.000000 0.225227 0.587218
1.000000 0.478454 0.590111
1.000000 0.702617 0.633442
0.000000 0.249180 0.583156
0.000000 0.251306 0.586905
0.000000 0.254563 0.602054
0.203483 0.257921 0.631968
0.556245 0.222048 0.649302
0.823695 0.052772 0.587503
1.000000 0.267422 0.601593
1.000000 0.490477 0.593303
1.000000 0.705860 0.636753
0.000000 0.349012 0.664224
0.000000 0.351848 0.667977
0.000000 0.353993 0.683331
0.000000 0.373541 0.723841
0.499159 0.381177 0.732401
0.832728 0.331728 0.698197
1.000000 0.366025 0.633536
1.000000 0.530854 0.610238
1.000000 0.718667 0.639704
0.000000 0.488936 0.754430
0.000000 0.488841 0.761564
0.000000 0.502789 0.774917
0.000000 0.540653 0.798859
0.390187 0.571381 0.816516
0.805451 0.581208 0.792761
0.983099 0.541004 0.703233
1.000000 0.607633 0.637354
1.000000 0.737117 0.649400
0.000000 0.650702 0.827469
0.000000 0.654487 0.829861
0.000000 0.669432 0.834072
0.000000 0.713969 0.845830
0.105996 0.759055 0.857991
0.738109 0.798997 0.857420
0.935886 0.762485 0.784369
1.000000 0.745139 0.693587
1.000000 0.786793 0.672622
0.000000 0.842339 0.882848
0.000000 0.842269 0.882842
0.000000 0.849324 0.882269
0.000000 0.861959 0.886780
0.000000 0.883134 0.886222
0.681481 0.898829 0.876011
0.905799 0.895473 0.843126
0.990369 0.880667 0.772337
1.000000 0.870928 0.725941
0.000000 0.942597 0.911850
0.000000 0.942607 0.910400
0.000000 0.943141 0.910247
0.000000 0.945524 0.906936
0.000000 0.951276 0.904562
0.658251 0.960082 0.900137
0.883126 0.955952 0.879800
0.972858 0.948201 0.837312
1.000000 0.941269 0.798863
0.398380 0.989218 0.935016
0.398380 0.989218 0.935016
0.426950 0.989372 0.934958
0.495513 0.989839 0.934804
0.598241 0.990674 0.934557
0.730933 0.990290 0.934270
0.873786 0.989948 0.925644
0.959264 0.985170 0.897933
1.000000 0.981022 0.866513
0.000000 0.343676 0.750614
0.000000 0.346490 0.750482
0.000000 0.351320 0.760454
0.000000 0.353513 0.781113
0.429942 0.347657 0.792958
0.784073 0.322077 0.805602
1.000000 0.230533 0.749534
1.000000 0.500861 0.785068
1.000000 0.726184 0.785833
0.000000 0.346597 0.753961
0.000000 0.346450 0.753949
0.000000 0.351320 0.760454
0.000000 0.356623 0.784420
0.422881 0.351463 0.796135
0.783472 0.326378 0.805499
1.000000 0.235837 0.752794
1.000000 0.504954 0.784922
1.000000 0.726184 0.785833
0.000000 0.364624 0.770777
0.000000 0.364484 0.770764
0.000000 0.369668 0.780937
0.000000 0.379064 0.793555
0.411643 0.375848 0.807919
0.777030 0.360365 0.822139
1.000000 0.282851 0.772602
1.000000 0.517082 0.787555
1.000000 0.732345 0.788323
0.000000 0.413773 0.795915
0.000000 0.417069 0.798980
0.000000 0.423152 0.804928
0.000000 0.437726 0.824694
0.384167 0.444382 0.841638
0.771298 0.433843 0.848445
0.996640 0.377860 0.802428
1.000000 0.554101 0.801048
1.000000 0.741405 0.790633
0.000000 0.528090 0.844696
0.000000 0.528028 0.844689
0.000000 0.538686 0.849061
0.000000 0.555685 0.857612
0.268914 0.570486 0.878164
0.720006 0.587608 0.882532
0.980181 0.565685 0.862282
1.000000 0.626671 0.822199
1.000000 0.764724 0.797706
0.000000 0.692152 0.891039
0.000000 0.692097 0.891034
0.000000 0.699439 0.892451
0.000000 0.710196 0.900895
0.000000 0.739486 0.909931
0.640272 0.779350 0.914276
0.925194 0.789882 0.906847
1.000000 0.768498 0.859189
1.000000 0.805469 0.818461
0.000000 0.840017 0.921186
0.000000 0.839961 0.922627
0.000000 0.847201 0.923459
0.000000 0.858114 0.926631
0.000000 0.878400 0.933503
0.575307 0.890084 0.937975
0.886085 0.909534 0.937703
0.976921 0.895109 0.901021
1.000000 0.885103 0.854839
0.000000 0.940482 0.951115
0.000000 0.940393 0.951107
0.000000 0.944111 0.950753
0.000000 0.946346 0.951279
0.000000 0.951400 0.954108
0.591284 0.955907 0.953115
0.860339 0.961055 0.948481
0.964389 0.958537 0.931431
1.000000 0.949350 0.893794
0.305449 0.988950 0.964703
0.318267 0.988778 0.964688
0.344515 0.989131 0.964612
0.424417 0.988423 0.964448
0.515196 0.988385 0.962589
0.675203 0.987616 0.961942
0.854526 0.990177 0.961023
0.951168 0.988337 0.950471
0.995685 0.984968 0.927735
0.000000 0.517647 0.892530
0.000000 0.517460 0.892508
0.000000 0.520638 0.896320
0.000000 0.526290 0.901697
0.309521 0.542984 0.911025
0.648695 0.541441 0.915484
0.963168 0.533241 0.921728
1.000000 0.511099 0.893106
1.000000 0.737594 0.899621
0.000000 0.521409 0.892338
0.000000 0.521235 0.894337
0.000000 0.524412 0.896127
0.000000 0.533899 0.901310
0.309078 0.543004 0.912784
0.647229 0.545497 0.915299
0.962220 0.537566 0.921555
1.000000 0.511099 0.893106
1.000000 0.737594 0.899621
0.000000 0.528973 0.896024
0.000000 0.528973 0.896024
0.000000 0.535793 0.899561
0.000000 0.541574 0.906639
0.296621 0.554681 0.913929
0.648235 0.557277 0.916339
0.959107 0.550570 0.924069
1.000000 0.523610 0.894537
1.000000 0.746619 0.900708
0.000000 0.563178 0.900200
0.000000 0.563009 0.900181
0.000000 0.566223 0.905623
0.000000 0.572146 0.910466
0.266985 0.578136 0.919359
0.632270 0.582098 0.923144
0.950982 0.593251 0.930983
1.000000 0.568813 0.905237
1.000000 0.755303 0.903355
0.000000 0.620631 0.915010
0.000000 0.620552 0.915001
0.000000 0.623820 0.916353
0.000000 0.633938 0.920331
0.132698 0.633160 0.927328
0.607651 0.646477 0.935954
0.930058 0.665153 0.938432
1.000000 0.642562 0.917720
1.000000 0.774905 0.908379
0.000000 0.726293 0.932957
0.000000 0.726225 0.932950
0.000000 0.729550 0.934030
0.000000 0.739809 0.937249
0.000000 0.750944 0.942429
0.535349 0.774277 0.951027
0.883611 0.783905 0.953036
1.000000 0.783376 0.940937
1.000000 0.819340 0.918781
0.000000 0.858137 0.955533
0.000000 0.858137 0.955533
0.000000 0.860047 0.956338
0.000000 0.866014 0.957684
0.000000 0.876562 0.962068
0.461500 0.885812 0.966009
0.837190 0.898417 0.968400
0.973321 0.908500 0.962604
1.000000 0.897771 0.940929
0.000000 0.941338 0.970727
0.000000 0.941262 0.970720
0.000000 0.943738 0.971250
0.000000 0.945026 0.973183
0.000000 0.948147 0.975260
0.462253 0.951732 0.977636
0.819508 0.954851 0.979624
0.956783 0.965645 0.979603
0.997418 0.960160 0.962009
0.162090 0.988586 0.985229
0.162090 0.988586 0.985229
0.211349 0.988263 0.985200
0.314112 0.988663 0.985969
0.457703 0.989620 0.986429
0.633798 0.988340 0.986634
0.823136 0.988104 0.986316
0.943484 0.990160 0.985771
0.990590 0.989746 0.977782
0.000000 0.728514 0.963447
0.000000 0.728514 0.963447
0.000000 0.728041 0.964420
0.000000 0.730860 0.965077
0.301438 0.735768 0.967258
0.546663 0.747047 0.970975
0.841737 0.752152 0.970819
1.000000 0.760018 0.973679
1.000000 0.760980 0.958352
0.000000 0.728545 0.964474
0.000000 0.728545 0.964474
0.000000 0.731900 0.964178
0.000000 0.734690 0.964836
0.301438 0.735768 0.967258
0.546663 0.747047 0.970975
0.841737 0.752152 0.970819
1.000000 0.763165 0.973498
1.000000 0.760800 0.959319
0.000000 0.732401 0.964231
0.000000 0.732401 0.964231
0.000000 0.735755 0.964948
0.000000 0.738515 0.965595
0.295645 0.739541 0.967022
0.544196 0.750668 0.970752
0.840276 0.755630 0.971487
1.000000 0.766299 0.974127
1.000000 0.763742 0.959150
0.000000 0.743657 0.965502
0.000000 0.743657 0.965502
0.000000 0.747043 0.965229
0.000000 0.749528 0.965849
0.270835 0.754350 0.968943
0.536753 0.761352 0.971885
0.837437 0.762423 0.971948
1.000000 0.775385 0.975178
1.000000 0.774861 0.962243
0.000000 0.769141 0.967748
0.000000 0.769141 0.967748
0.000000 0.768667 0.967699
0.000000 0.770957 0.968291
0.245296 0.775145 0.970339
0.531907 0.778053 0.973410
0.826618 0.778880 0.973528
0.998315 0.797808 0.977655
1.000000 0.795866 0.964589
0.000000 0.807843 0.970636
0.000000 0.807693 0.970620
0.000000 0.807250 0.971458
0.000000 0.808894 0.971997
0.153011 0.815333 0.972908
0.505888 0.822213 0.976272
0.813860 0.823360 0.979255
0.981786 0.840456 0.981333
1.000000 0.831551 0.970719
0.000000 0.883405 0.978999
0.000000 0.883268 0.978986
0.000000 0.882989 0.978959
0.000000 0.883788 0.980114
0.000000 0.885980 0.981018
0.459764 0.889859 0.983069
0.777605 0.896947 0.987078
0.953928 0.905312 0.986943
1.000000 0.905530 0.980476
0.000000 0.947297 0.989308
0.000000 0.947297 0.989308
0.000000 0.947020 0.989779
0.000000 0.947305 0.989581
0.000000 0.951336 0.989848
0.456982 0.951850 0.990772
0.766948 0.953607 0.992727
0.931343 0.960013 0.994307
0.996801 0.964763 0.991955
0.000000 0.988875 0.995486
0.000000 0.988733 0.995474
0.000000 0.988446 0.995448
0.000000 0.988269 0.995672
0.311666 0.987909 0.996111
0.550339 0.987806 0.997000
0.780995 0.985713 0.997929
0.922103 0.987871 0.998504
0.987661 0.991904 0.999076
