Assets/Lutify-Free-LUTs-Pack/Lutify Free LUTs Pack/Commercial Pro - Claire/Lutify.me-Claire-FLog2-to-Rec709.cube
# Created with: fylm.ai - Colour Grading and Collaboration Software in Cloud 
# Website: https://fylm.ai 
# META
# Option: Gamut compress
# Block 1: IDT | Fujifilm F-Gamut F-Log2
# Block 2: colourMatch | Blending Mode: Normal | {"ColorSpace":0,"CrossCovarianceLimit":50,"ReshapingIterations":1,"PercentSaturationShift":100,"PercentShadingShift":100,"ExtraShading":true,"PercentTint":100,"PercentModified":100}
# Block 3: HSL | Blending Mode: Normal | {"hue":{"Reds":0,"Yellows":0,"Greens":0,"Cyans":0,"Blues":0,"Magentas":0},"saturation":{"Reds":1,"Yellows":1,"Greens":1,"Cyans":1,"Blues":1,"Magentas":1},"luminance":{"Reds":0.9,"Yellows":0.9,"Greens":0.9,"Cyans":0.8,"Blues":0.8,"Magentas":0.9},"lum_sat":{"Blacks":1,"Shadows":1,"Midtones":1,"Highlights":1,"Whites":1},"sat_sat":{"10":1,"20":1,"30":1,"40":1,"50":1}}
# Block 4: subtractiveColour | Blending Mode: Normal | {"sliders":{"gainY":0.1,"C":0.05,"M":0.05,"Y":0.05}}
# Block 5: logPrimaries | Blending Mode: Normal | {"wheels":{"shadows":{"Y":"0","R":"1","G":"1","B":"1"},"midtones":{"Y":"0","R":"1","G":"1","B":"1"},"highlights":{"Y":"0","R":"1","G":"1","B":"1"},"offset":{"Y":"0","R":"1","G":"1","B":"1"}},"sliders":{"shadows":{"Y":0,"R":-0.05,"G":0,"B":0.1},"midtones":{"Y":0,"R":0,"G":0,"B":0},"highlights":{"Y":0,"R":0,"G":0,"B":0},"offset":{"Y":0,"R":0,"G":0,"B":0}}}
# Block 6: LUT | Filmic Curve Response: Standard Contrast 1 (100%)
# Block 7: LUT | Illuminant: D93 (100%)
# Block 8: LUT | Neutral Tint: Teal Tint 4 (100%)
# Block 9: ODT | Rec709
TITLE "Lutify.me-Claire-FLog2-to-Rec709" 
LUT_3D_SIZE 5
0.000000 0.000000 0.000000
0.283986 0.000000 0.000000
0.653428 0.000000 0.000000
1.000000 0.386655 0.256297
1.000000 0.906002 0.797387
0.000000 0.131941 0.000000
0.192205 0.092056 0.000000
0.645530 0.000000 0.000000
1.000000 0.399716 0.258207
1.000000 0.906002 0.797387
0.000000 0.502294 0.174297
0.000000 0.519788 0.086433
0.659611 0.483603 0.000000
1.000000 0.533996 0.283719
1.000000 0.909522 0.801716
0.000000 0.946117 0.745490
0.000000 0.948036 0.745789
0.455481 0.949478 0.699983
0.985148 0.926822 0.512179
1.000000 0.942658 0.831252
0.876239 1.000000 0.979517
0.878347 1.000000 0.979546
0.888182 1.000000 0.979078
0.951485 1.000000 0.975205
1.000000 1.000000 0.936148
0.000000 0.000000 0.118937
0.195008 0.000000 0.058239
0.636865 0.000000 0.062909
1.000000 0.391479 0.273441
1.000000 0.905991 0.799470
0.000000 0.120754 0.197584
0.103434 0.140166 0.198185
0.632638 0.000000 0.075448
1.000000 0.403741 0.277522
1.000000 0.907179 0.799527
0.000000 0.462942 0.343952
0.000000 0.527108 0.305997
0.633882 0.520481 0.088217
1.000000 0.537938 0.309129
1.000000 0.909511 0.803775
0.000000 0.944921 0.761201
0.000000 0.948100 0.758457
0.443832 0.950817 0.719580
0.984021 0.928013 0.534293
1.000000 0.942649 0.833056
0.876239 1.000000 0.979517
0.877855 1.000000 0.979512
0.888154 1.000000 0.979550
0.951450 1.000000 0.975728
1.000000 1.000000 0.936904
0.000000 0.119854 0.367534
0.000000 0.122899 0.396866
0.608064 0.000000 0.355260
1.000000 0.419164 0.432189
1.000000 0.908306 0.809848
0.000000 0.166731 0.426107
0.000000 0.172663 0.457230
0.607611 0.000000 0.434256
1.000000 0.431323 0.434937
1.000000 0.908306 0.809848
0.000000 0.471899 0.666390
0.000000 0.503727 0.695812
0.541831 0.613019 0.721736
1.000000 0.564435 0.475893
1.000000 0.911945 0.814371
0.000000 0.933272 0.850597
0.000000 0.935527 0.850462
0.297495 0.951187 0.845438
0.975521 0.935697 0.706839
1.000000 0.942597 0.843646
0.874250 1.000000 0.981364
0.875886 1.000000 0.981358
0.884767 1.000000 0.981385
0.951251 1.000000 0.978702
1.000000 1.000000 0.940737
0.000000 0.495840 0.876872
0.000000 0.495222 0.881171
0.347700 0.511638 0.899373
1.000000 0.478374 0.878430
1.000000 0.916025 0.892703
0.000000 0.506955 0.880686
0.000000 0.506350 0.882761
0.334728 0.527122 0.900597
1.000000 0.490874 0.882025
1.000000 0.916025 0.892703
0.000000 0.605749 0.907297
0.000000 0.612865 0.908581
0.182638 0.625068 0.921593
1.000000 0.624801 0.910853
1.000000 0.919607 0.895624
0.000000 0.931558 0.964126
0.000000 0.932704 0.964840
0.000000 0.940202 0.970683
0.947863 0.959142 0.974183
1.000000 0.949977 0.915981
0.845846 1.000000 0.993793
0.845846 1.000000 0.993793
0.857554 1.000000 0.993734
0.942697 1.000000 0.993948
1.000000 1.000000 0.974679
0.670869 0.923405 1.000000
0.676026 0.923188 1.000000
0.713688 0.922940 1.000000
0.895235 0.926651 1.000000
1.000000 0.934092 0.999770
0.670869 0.923405 1.000000
0.676026 0.923188 1.000000
0.713007 0.924342 1.000000
0.894639 0.927928 1.000000
1.000000 0.934058 1.000000
0.669008 0.927601 1.000000
0.674289 0.927392 1.000000
0.707321 0.927309 1.000000
0.893481 0.930468 1.000000
1.000000 0.936977 1.000000
0.679442 0.955658 1.000000
0.679442 0.955658 1.000000
0.705689 0.955554 1.000000
0.879372 0.957173 1.000000
1.000000 0.965735 1.000000
0.772664 1.000000 1.000000
0.772664 1.000000 1.000000
0.789971 1.000000 1.000000
0.890923 1.000000 1.000000
1.000000 1.000000 1.000000
