Assets/Lutify-Free-LUTs-Pack/Lutify Free LUTs Pack/Commercial Pro - Claire/Lutify.me-Claire-SLog3CineVenice-to-Rec709.cube
# Created with: fylm.ai - Colour Grading and Collaboration Software in Cloud 
# Website: https://fylm.ai 
# META
# Option: Gamut compress
# Block 1: IDT | Sony Venice S-Log3 S-Gamut3.Cine
# Block 2: colourMatch | Blending Mode: Normal | {"ColorSpace":0,"CrossCovarianceLimit":50,"ReshapingIterations":1,"PercentSaturationShift":100,"PercentShadingShift":100,"ExtraShading":true,"PercentTint":100,"PercentModified":100}
# Block 3: HSL | Blending Mode: Normal | {"hue":{"Reds":0,"Yellows":0,"Greens":0,"Cyans":0,"Blues":0,"Magentas":0},"saturation":{"Reds":1,"Yellows":1,"Greens":1,"Cyans":1,"Blues":1,"Magentas":1},"luminance":{"Reds":0.9,"Yellows":0.9,"Greens":0.9,"Cyans":0.8,"Blues":0.8,"Magentas":0.9},"lum_sat":{"Blacks":1,"Shadows":1,"Midtones":1,"Highlights":1,"Whites":1},"sat_sat":{"10":1,"20":1,"30":1,"40":1,"50":1}}
# Block 4: subtractiveColour | Blending Mode: Normal | {"sliders":{"gainY":0.1,"C":0.05,"M":0.05,"Y":0.05}}
# Block 5: logPrimaries | Blending Mode: Normal | {"wheels":{"shadows":{"Y":"0","R":"1","G":"1","B":"1"},"midtones":{"Y":"0","R":"1","G":"1","B":"1"},"highlights":{"Y":"0","R":"1","G":"1","B":"1"},"offset":{"Y":"0","R":"1","G":"1","B":"1"}},"sliders":{"shadows":{"Y":0,"R":-0.05,"G":0,"B":0.1},"midtones":{"Y":0,"R":0,"G":0,"B":0},"highlights":{"Y":0,"R":0,"G":0,"B":0},"offset":{"Y":0,"R":0,"G":0,"B":0}}}
# Block 6: LUT | Filmic Curve Response: Standard Contrast 1 (100%)
# Block 7: LUT | Illuminant: D93 (100%)
# Block 8: LUT | Neutral Tint: Teal Tint 4 (100%)
# Block 9: ODT | Rec709
TITLE "Lutify.me-Claire-SLog3CineVenice-to-Rec709" 
LUT_3D_SIZE 9
0.000000 0.000000 0.000000
0.053906 0.000000 0.000000
0.308569 0.000000 0.000000
0.519291 0.000000 0.000000
0.665658 0.000000 0.000000
0.902600 0.000000 0.000000
1.000000 0.000000 0.113365
1.000000 0.522363 0.306681
1.000000 0.806956 0.581426
0.000000 0.052174 0.000000
0.000000 0.041322 0.000000
0.223914 0.000000 0.000000
0.430351 0.000000 0.000000
0.648689 0.000000 0.000000
0.902290 0.000000 0.000000
1.000000 0.051739 0.110687
1.000000 0.525790 0.308778
1.000000 0.808905 0.581459
0.000000 0.154109 0.000000
0.000000 0.141070 0.000000
0.196588 0.105342 0.000000
0.407458 0.000000 0.000000
0.632124 0.000000 0.000000
0.901730 0.000000 0.000000
1.000000 0.129387 0.109586
1.000000 0.532670 0.308183
1.000000 0.808905 0.581459
0.000000 0.285880 0.000000
0.000000 0.280391 0.000000
0.052517 0.271973 0.000000
0.419652 0.210900 0.000000
0.649485 0.136091 0.000000
0.903741 0.000000 0.000000
1.000000 0.229811 0.109797
1.000000 0.555786 0.310917
1.000000 0.812766 0.584198
0.000000 0.516765 0.000000
0.000000 0.512739 0.000000
0.000000 0.515603 0.000000
0.199515 0.499288 0.000000
0.666377 0.425663 0.000000
0.911506 0.402902 0.000000
1.000000 0.381301 0.101016
1.000000 0.605300 0.317653
1.000000 0.822805 0.588322
0.000000 0.800378 0.254900
0.000000 0.800076 0.235380
0.000000 0.796165 0.212217
0.000000 0.800105 0.139628
0.473832 0.783672 0.000000
0.876402 0.735734 0.000000
1.000000 0.718158 0.000000
1.000000 0.710950 0.337411
1.000000 0.845169 0.605081
0.000000 0.945714 0.585101
0.000000 0.946751 0.581962
0.000000 0.946309 0.574714
0.086660 0.946019 0.557304
0.495092 0.938105 0.503915
0.819022 0.923968 0.391074
0.977876 0.901969 0.200442
1.000000 0.896611 0.426782
1.000000 0.893397 0.635234
0.705788 0.995393 0.849647
0.709657 0.995231 0.849648
0.713789 0.995090 0.845977
0.725347 0.994630 0.842247
0.757822 0.992734 0.834340
0.837827 0.989558 0.804513
0.939780 0.983729 0.739113
1.000000 0.974670 0.598006
1.000000 0.970296 0.738533
0.903542 1.000000 0.952221
0.903542 1.000000 0.952221
0.903542 1.000000 0.952221
0.904964 1.000000 0.952221
0.909301 1.000000 0.949885
0.920133 1.000000 0.946801
0.950574 1.000000 0.934148
0.990263 1.000000 0.906396
1.000000 0.999844 0.841819
0.000000 0.000000 0.050147
0.014050 0.000000 0.024505
0.260318 0.000000 0.000000
0.456830 0.000000 0.000000
0.627256 0.000000 0.000000
0.898529 0.000000 0.000000
1.000000 0.000000 0.121920
1.000000 0.522348 0.311481
1.000000 0.806956 0.581426
0.000000 0.031483 0.057162
0.000000 0.020598 0.043298
0.192115 0.000000 0.000000
0.376423 0.000000 0.000000
0.602238 0.000000 0.000000
0.893939 0.000000 0.000000
1.000000 0.000000 0.124299
1.000000 0.525783 0.311192
1.000000 0.808894 0.584124
0.000000 0.120466 0.074586
0.000000 0.142427 0.009418
0.150235 0.121312 0.000000
0.349182 0.000000 0.000000
0.594457 0.000000 0.000000
0.897573 0.000000 0.000000
1.000000 0.118755 0.123888
1.000000 0.532663 0.310604
1.000000 0.808894 0.584124
0.000000 0.269602 0.082136
0.000000 0.295417 0.000000
0.000000 0.288534 0.000000
0.349476 0.257690 0.000000
0.601388 0.184308 0.000000
0.899644 0.000000 0.000000
1.000000 0.235287 0.122289
1.000000 0.555773 0.315839
1.000000 0.812766 0.584198
0.000000 0.524178 0.123409
0.000000 0.527622 0.063393
0.000000 0.526837 0.000000
0.100027 0.514889 0.000000
0.620244 0.471740 0.000000
0.907211 0.411544 0.000000
1.000000 0.380848 0.120995
1.000000 0.605288 0.322830
1.000000 0.822795 0.590989
0.000000 0.803493 0.305513
0.000000 0.803244 0.293796
0.000000 0.802718 0.274419
0.000000 0.803322 0.211506
0.459637 0.790401 0.000000
0.870430 0.743265 0.000000
1.000000 0.718169 0.000000
1.000000 0.714229 0.342959
1.000000 0.845169 0.605081
0.000000 0.946974 0.603891
0.000000 0.946685 0.600254
0.000000 0.946245 0.592977
0.067383 0.945958 0.575422
0.493301 0.939400 0.522131
0.817942 0.925337 0.408425
0.977143 0.903488 0.219669
1.000000 0.898065 0.433137
1.000000 0.893387 0.637885
0.705489 0.995372 0.853254
0.709507 0.995221 0.851460
0.713339 0.995060 0.851461
0.725047 0.994610 0.845985
0.754351 0.993393 0.836573
0.837691 0.989548 0.806641
0.939551 0.983709 0.743727
1.000000 0.974656 0.602067
1.000000 0.970890 0.741159
0.903490 1.000000 0.952988
0.903490 1.000000 0.952988
0.903542 1.000000 0.952221
0.904964 1.000000 0.952221
0.909247 1.000000 0.950670
0.920133 1.000000 0.946801
0.950574 1.000000 0.934148
0.990200 1.000000 0.907436
1.000000 0.999844 0.841819
0.000000 0.000000 0.147109
0.000000 0.000000 0.076490
0.204292 0.000000 0.042036
0.421472 0.000000 0.000000
0.602335 0.000000 0.000000
0.894427 0.000000 0.046930
1.000000 0.000000 0.138784
1.000000 0.525767 0.316074
1.000000 0.806934 0.586770
0.000000 0.000000 0.130886
0.000000 0.000000 0.094990
0.162436 0.000000 0.067991
0.353841 0.000000 0.045842
0.581820 0.000000 0.026441
0.885562 0.000000 0.047240
1.000000 0.000000 0.141507
1.000000 0.525759 0.318543
1.000000 0.808883 0.586800
0.000000 0.118191 0.191898
0.000000 0.118109 0.193849
0.092535 0.127881 0.182988
0.312932 0.040090 0.087198
0.573936 0.000000 0.040286
0.893436 0.000000 0.047070
1.000000 0.117074 0.141051
1.000000 0.532641 0.317978
1.000000 0.808883 0.586800
0.000000 0.242283 0.262270
0.000000 0.262333 0.244521
0.000000 0.305655 0.194632
0.295292 0.287999 0.092063
0.587974 0.200568 0.000000
0.895216 0.000000 0.043525
1.000000 0.229758 0.140346
1.000000 0.555751 0.323363
1.000000 0.812755 0.586872
0.000000 0.502126 0.260501
0.000000 0.523871 0.243462
0.000000 0.541814 0.203097
0.000000 0.530366 0.084060
0.594219 0.492775 0.000000
0.891497 0.425412 0.000000
1.000000 0.385549 0.140621
1.000000 0.605270 0.330737
1.000000 0.822784 0.593666
0.000000 0.806567 0.371884
0.000000 0.806265 0.364454
0.000000 0.805735 0.353326
0.000000 0.809521 0.290052
0.447340 0.793776 0.158847
0.862975 0.754147 0.000000
1.000000 0.721801 0.096561
1.000000 0.714215 0.351660
1.000000 0.845159 0.607758
0.000000 0.947026 0.629589
0.000000 0.948052 0.626354
0.000000 0.947606 0.622724
0.000000 0.947332 0.605036
0.499923 0.939073 0.550469
0.816375 0.926650 0.442378
0.976224 0.904976 0.254735
1.000000 0.898050 0.441473
1.000000 0.893377 0.640545
0.705780 0.995852 0.855262
0.709633 0.995692 0.855262
0.713450 0.995531 0.855262
0.724606 0.994579 0.851466
0.754060 0.993372 0.840399
0.837147 0.989505 0.815027
0.939436 0.983698 0.746017
1.000000 0.974636 0.608246
1.000000 0.970882 0.743006
0.903490 1.000000 0.952988
0.903490 1.000000 0.952988
0.903490 1.000000 0.952988
0.904910 1.000000 0.952988
0.909347 1.000000 0.950754
0.920079 1.000000 0.947605
0.950514 1.000000 0.935044
0.990136 1.000000 0.908471
1.000000 0.999839 0.842804
0.000000 0.000000 0.218559
0.000000 0.000000 0.110743
0.170573 0.000000 0.069620
0.445259 0.000000 0.041667
0.611966 0.000000 0.065676
0.886638 0.000000 0.113157
1.000000 0.000000 0.185044
1.000000 0.525700 0.336368
1.000000 0.806912 0.592155
0.000000 0.000000 0.194589
0.000000 0.000000 0.148997
0.118674 0.000000 0.118133
0.356367 0.000000 0.079212
0.567682 0.000000 0.107676
0.881947 0.000000 0.119826
1.000000 0.037892 0.188006
1.000000 0.525690 0.338994
1.000000 0.808861 0.592183
0.000000 0.073543 0.239668
0.000000 0.074092 0.228388
0.018232 0.066894 0.235061
0.302565 0.000000 0.185934
0.552376 0.000000 0.155082
0.876906 0.000000 0.129720
1.000000 0.126035 0.186659
1.000000 0.535137 0.340480
1.000000 0.808850 0.594889
0.000000 0.231244 0.357354
0.000000 0.245699 0.382812
0.000000 0.265501 0.402388
0.230927 0.298633 0.389929
0.553729 0.211487 0.243412
0.878270 0.000000 0.151293
1.000000 0.234343 0.192693
1.000000 0.555678 0.346988
1.000000 0.812722 0.594954
0.000000 0.462312 0.495472
0.000000 0.479889 0.490868
0.000000 0.493862 0.471864
0.000000 0.564631 0.427851
0.545169 0.541554 0.301832
0.887113 0.442329 0.169891
1.000000 0.385520 0.206279
1.000000 0.605206 0.355496
1.000000 0.822751 0.601759
0.000000 0.783906 0.516905
0.000000 0.790357 0.512781
0.000000 0.796283 0.508745
0.000000 0.818621 0.466228
0.429070 0.805886 0.355529
0.850562 0.774504 0.179804
1.000000 0.732382 0.226661
1.000000 0.717430 0.378126
1.000000 0.845138 0.613143
0.000000 0.947237 0.683661
0.000000 0.946948 0.683672
0.000000 0.947692 0.677036
0.000000 0.948554 0.667245
0.484285 0.941719 0.620217
0.809011 0.929382 0.518002
0.973786 0.907848 0.348683
1.000000 0.899448 0.469451
1.000000 0.894689 0.648968
0.701024 0.995955 0.865520
0.705061 0.995804 0.863853
0.708919 0.995643 0.863852
0.720406 0.995173 0.862168
0.753070 0.993301 0.853281
0.836478 0.989453 0.825214
0.938282 0.984150 0.764524
1.000000 0.975716 0.635379
1.000000 0.970851 0.750362
0.903385 1.000000 0.954505
0.903385 1.000000 0.954505
0.903385 1.000000 0.954505
0.904858 1.000000 0.953749
0.909188 1.000000 0.953065
0.919969 1.000000 0.949196
0.950264 1.000000 0.938673
0.989858 1.000000 0.911794
1.000000 0.999812 0.847947
0.000000 0.000000 0.180725
0.050854 0.000000 0.125951
0.159039 0.000000 0.092754
0.380566 0.000000 0.077011
0.727980 0.000000 0.059141
0.858274 0.000000 0.214390
1.000000 0.000000 0.284356
1.000000 0.528844 0.407041
1.000000 0.809371 0.617974
0.000000 0.000000 0.210423
0.000000 0.000000 0.178949
0.100528 0.000000 0.165517
0.321249 0.000000 0.115811
0.727980 0.000000 0.059141
0.853691 0.000000 0.241607
1.000000 0.000000 0.286433
1.000000 0.532293 0.406846
1.000000 0.809371 0.617974
0.000000 0.057878 0.279107
0.000000 0.058067 0.276804
0.000000 0.053240 0.276760
0.263316 0.000000 0.256472
0.556309 0.000000 0.148798
0.853533 0.000000 0.274062
1.000000 0.031678 0.290607
1.000000 0.542648 0.409274
1.000000 0.811288 0.620779
0.000000 0.186436 0.415209
0.000000 0.194316 0.432135
0.000000 0.195783 0.453034
0.152348 0.190429 0.473993
0.540035 0.000000 0.407413
0.859808 0.000000 0.345684
1.000000 0.217194 0.303744
1.000000 0.559994 0.411307
1.000000 0.815120 0.620832
0.000000 0.423520 0.610583
0.000000 0.440519 0.633006
0.000000 0.461297 0.639774
0.000000 0.490960 0.665383
0.477095 0.555018 0.668911
0.858648 0.453269 0.470338
1.000000 0.393200 0.342515
1.000000 0.607446 0.425497
1.000000 0.826360 0.626657
0.000000 0.740236 0.757892
0.000000 0.743815 0.754174
0.000000 0.751015 0.746640
0.000000 0.778285 0.727676
0.254230 0.829180 0.710793
0.825293 0.804147 0.569578
1.000000 0.739341 0.418656
1.000000 0.719950 0.456461
1.000000 0.846724 0.640843
0.000000 0.938493 0.784443
0.000000 0.940925 0.784537
0.000000 0.941922 0.781775
0.000000 0.944091 0.779113
0.440197 0.945684 0.756055
0.791458 0.935823 0.674868
0.961389 0.920402 0.527310
1.000000 0.902092 0.547195
1.000000 0.896093 0.679756
0.686807 0.995830 0.885974
0.690850 0.995668 0.885969
0.694853 0.995506 0.885963
0.706755 0.995031 0.884456
0.744563 0.994467 0.878586
0.831706 0.990933 0.857700
0.935401 0.985507 0.806713
1.000000 0.977227 0.698482
1.000000 0.971360 0.770817
0.903131 1.000000 0.958189
0.903131 1.000000 0.958189
0.903131 1.000000 0.958189
0.904552 1.000000 0.958188
0.908881 1.000000 0.957526
0.918393 1.000000 0.954654
0.950888 1.000000 0.943698
0.989486 1.000000 0.917797
1.000000 1.000000 0.858685
0.117019 0.000000 0.155111
0.158392 0.000000 0.140913
0.219522 0.000000 0.129373
0.335928 0.000000 0.114139
0.646588 0.000000 0.099805
0.992592 0.000000 0.089162
1.000000 0.000000 0.454964
1.000000 0.504673 0.526593
1.000000 0.810994 0.681328
0.076705 0.000000 0.196038
0.125719 0.000000 0.181868
0.192101 0.000000 0.161284
0.329697 0.000000 0.122698
0.646588 0.000000 0.099805
0.992592 0.000000 0.089162
1.000000 0.000000 0.468192
1.000000 0.508094 0.529698
1.000000 0.810994 0.681328
0.000000 0.039948 0.308889
0.000000 0.033458 0.303697
0.076152 0.008347 0.300869
0.234639 0.000000 0.279660
0.538092 0.000000 0.165492
0.992592 0.000000 0.089162
1.000000 0.000000 0.478325
1.000000 0.515017 0.532669
1.000000 0.812916 0.681322
0.000000 0.155823 0.497023
0.000000 0.157346 0.500603
0.000000 0.156403 0.511510
0.000000 0.155376 0.529539
0.463213 0.000000 0.527611
0.823893 0.000000 0.352642
1.000000 0.000000 0.519404
1.000000 0.539380 0.541469
1.000000 0.816719 0.684179
0.000000 0.364022 0.682967
0.000000 0.370028 0.690456
0.000000 0.375880 0.709405
0.000000 0.380918 0.727669
0.342574 0.398096 0.757073
0.857818 0.268970 0.691814
1.000000 0.353387 0.606353
1.000000 0.596681 0.562713
1.000000 0.828413 0.690684
0.000000 0.689091 0.845434
0.000000 0.696648 0.847371
0.000000 0.704572 0.851621
0.000000 0.727793 0.861495
0.000000 0.776212 0.874328
0.768649 0.818682 0.872613
0.984977 0.752245 0.740168
1.000000 0.719947 0.604147
1.000000 0.851560 0.705680
0.000000 0.924163 0.905715
0.000000 0.923978 0.905700
0.000000 0.925171 0.905567
0.000000 0.926887 0.905254
0.000000 0.931186 0.901268
0.749086 0.944500 0.892616
0.944285 0.931963 0.829818
1.000000 0.905803 0.713050
1.000000 0.899594 0.741269
0.628940 0.992718 0.924364
0.633900 0.992541 0.924352
0.638784 0.992364 0.924340
0.658068 0.992228 0.924319
0.714195 0.993288 0.924367
0.824826 0.992169 0.918619
0.929888 0.987074 0.886115
1.000000 0.980516 0.809657
1.000000 0.974598 0.816734
0.896767 1.000000 0.968341
0.896767 1.000000 0.968341
0.899697 1.000000 0.968334
0.901183 1.000000 0.967704
0.905589 1.000000 0.967105
0.916635 1.000000 0.965304
0.949904 1.000000 0.957860
0.988208 1.000000 0.935706
1.000000 1.000000 0.888242
0.300860 0.000000 0.167436
0.317127 0.000000 0.163534
0.340862 0.000000 0.159530
0.402780 0.000000 0.154933
0.576186 0.000000 0.143707
0.940900 0.000000 0.135981
1.000000 0.000000 0.151368
1.000000 0.374537 0.725921
1.000000 0.797844 0.792669
0.300860 0.000000 0.167436
0.319513 0.000000 0.163473
0.343353 0.000000 0.159470
0.408452 0.000000 0.154839
0.576186 0.000000 0.143707
0.940900 0.000000 0.135981
1.000000 0.000000 0.151368
1.000000 0.385278 0.728975
1.000000 0.799837 0.792586
0.283892 0.000000 0.197918
0.303982 0.000000 0.187621
0.335567 0.000000 0.173728
0.408462 0.000000 0.154839
0.576186 0.000000 0.143707
0.940900 0.000000 0.135981
1.000000 0.000000 0.151368
1.000000 0.397610 0.735439
1.000000 0.799837 0.792586
0.000000 0.135413 0.578548
0.000000 0.133051 0.574751
0.000000 0.128069 0.570982
0.160251 0.110095 0.574464
0.393376 0.000000 0.565504
0.788123 0.000000 0.298588
1.000000 0.000000 0.151368
1.000000 0.429459 0.750518
1.000000 0.804424 0.795164
0.000000 0.317931 0.755197
0.000000 0.317686 0.758619
0.000000 0.320067 0.769021
0.000000 0.321194 0.779394
0.226675 0.315870 0.795490
0.765006 0.220647 0.804879
1.000000 0.000000 0.646951
1.000000 0.512547 0.783025
1.000000 0.816009 0.797071
0.000000 0.619460 0.887428
0.000000 0.623187 0.889212
0.000000 0.626819 0.891017
0.000000 0.626073 0.896920
0.000000 0.646080 0.908148
0.641581 0.667868 0.921335
1.000000 0.589778 0.891759
1.000000 0.697684 0.840728
1.000000 0.847126 0.807772
0.000000 0.898118 0.949620
0.000000 0.899974 0.950522
0.000000 0.901691 0.950345
0.000000 0.906712 0.950886
0.000000 0.916020 0.955658
0.582920 0.923671 0.960844
0.926587 0.939860 0.959502
1.000000 0.914558 0.912085
1.000000 0.899301 0.835526
0.430723 0.990295 0.975578
0.438894 0.990121 0.975564
0.446769 0.989955 0.974908
0.479840 0.989853 0.974799
0.558406 0.989027 0.973887
0.728045 0.988324 0.973056
0.915667 0.990707 0.970644
0.990695 0.985971 0.944999
1.000000 0.975878 0.896685
0.873723 1.000000 0.982619
0.873723 1.000000 0.982619
0.875414 1.000000 0.982613
0.877294 1.000000 0.982614
0.882436 1.000000 0.982605
0.901313 1.000000 0.982122
0.942393 1.000000 0.980815
0.984613 1.000000 0.967156
1.000000 1.000000 0.935631
0.524606 0.000000 0.199866
0.531975 0.000000 0.199859
0.543169 0.000000 0.199852
0.577349 0.000000 0.197794
0.674746 0.000000 0.191969
0.880396 0.000000 0.186337
1.000000 0.000000 0.201867
1.000000 0.000000 0.250938
1.000000 0.717420 0.902063
0.524606 0.000000 0.199866
0.531975 0.000000 0.199859
0.543169 0.000000 0.199852
0.581265 0.000000 0.197796
0.674746 0.000000 0.191969
0.880396 0.000000 0.186337
1.000000 0.000000 0.201867
1.000000 0.000000 0.250938
1.000000 0.717420 0.902063
0.524606 0.000000 0.199866
0.531975 0.000000 0.199859
0.543169 0.000000 0.199852
0.581265 0.000000 0.197796
0.674746 0.000000 0.191969
0.880396 0.000000 0.186337
1.000000 0.000000 0.201867
1.000000 0.000000 0.250938
1.000000 0.723254 0.903354
0.528268 0.000000 0.199862
0.535689 0.000000 0.199856
0.550715 0.000000 0.199849
0.581265 0.000000 0.197796
0.678983 0.000000 0.191988
0.880396 0.000000 0.186337
1.000000 0.000000 0.201867
1.000000 0.000000 0.250938
1.000000 0.732467 0.905861
0.000000 0.286848 0.844351
0.000000 0.286482 0.841660
0.109494 0.282778 0.841671
0.201480 0.277701 0.838871
0.359773 0.264993 0.838147
0.660393 0.171291 0.843951
1.000000 0.000000 0.612830
1.000000 0.000000 0.250938
1.000000 0.753598 0.912143
0.000000 0.552427 0.928517
0.000000 0.552298 0.930043
0.000000 0.551958 0.930001
0.000000 0.554837 0.932725
0.000000 0.562987 0.939065
0.518207 0.558018 0.944287
0.988034 0.519062 0.944713
1.000000 0.344787 0.876778
1.000000 0.804651 0.922995
0.000000 0.852947 0.970045
0.000000 0.855243 0.969852
0.000000 0.855100 0.970703
0.000000 0.856859 0.971316
0.000000 0.861967 0.973082
0.277024 0.872821 0.977998
0.875858 0.875591 0.981855
1.000000 0.848576 0.971959
1.000000 0.891123 0.946578
0.000000 0.984325 0.992750
0.000000 0.984208 0.992739
0.000000 0.984089 0.992728
0.000000 0.984014 0.992993
0.000000 0.984571 0.993438
0.522664 0.983627 0.994258
0.854274 0.983115 0.995983
0.983106 0.988060 0.996403
1.000000 0.979140 0.978346
0.817903 1.000000 1.000000
0.817903 1.000000 1.000000
0.820032 1.000000 1.000000
0.824590 1.000000 1.000000
0.832852 1.000000 1.000000
0.853281 1.000000 1.000000
0.909744 1.000000 0.999876
0.981507 1.000000 0.999741
1.000000 1.000000 0.991238
0.831457 0.000000 0.251181
0.836098 0.000000 0.251237
0.836098 0.000000 0.251237
0.849777 0.000000 0.248938
0.880821 0.000000 0.249445
0.966552 0.000000 0.247106
1.000000 0.000000 0.248783
1.000000 0.000000 0.290134
1.000000 0.413328 0.427199
0.831457 0.000000 0.251181
0.836098 0.000000 0.251237
0.836098 0.000000 0.251237
0.849777 0.000000 0.248938
0.880821 0.000000 0.249445
0.966552 0.000000 0.247106
1.000000 0.000000 0.248783
1.000000 0.000000 0.290134
1.000000 0.413328 0.427199
0.831457 0.000000 0.251181
0.836098 0.000000 0.251237
0.836098 0.000000 0.251237
0.849777 0.000000 0.248938
0.880821 0.000000 0.249445
0.966552 0.000000 0.247106
1.000000 0.000000 0.248783
1.000000 0.000000 0.290134
1.000000 0.413328 0.427199
0.831457 0.000000 0.251181
0.836098 0.000000 0.251237
0.840711 0.000000 0.251295
0.849777 0.000000 0.248938
0.880821 0.000000 0.249445
0.966552 0.000000 0.247106
1.000000 0.000000 0.248783
1.000000 0.000000 0.290134
1.000000 0.413328 0.427199
0.836098 0.000000 0.251237
0.836098 0.000000 0.251237
0.840711 0.000000 0.251295
0.854308 0.000000 0.249003
0.885122 0.000000 0.249528
0.973558 0.000000 0.245042
1.000000 0.000000 0.248783
1.000000 0.000000 0.290134
1.000000 0.413328 0.427199
0.398417 0.525986 0.963215
0.398417 0.525986 0.963215
0.412613 0.525402 0.963153
0.437821 0.516715 0.963417
0.495278 0.502283 0.962497
0.653749 0.483214 0.964093
0.930711 0.439508 0.964227
1.000000 0.000000 0.874007
1.000000 0.413328 0.427199
0.000000 0.806467 0.989074
0.000000 0.806498 0.989736
0.000000 0.806322 0.989719
0.000000 0.805782 0.989664
0.212536 0.807056 0.990590
0.500129 0.812383 0.991724
0.801255 0.809404 0.994156
1.000000 0.809012 0.995830
1.000000 0.698246 0.969450
0.000000 0.961657 1.000000
0.000000 0.961492 1.000000
0.000000 0.961158 1.000000
0.112914 0.960811 1.000000
0.282623 0.961692 1.000000
0.501235 0.960629 1.000000
0.762897 0.958690 1.000000
0.960033 0.960802 1.000000
1.000000 0.951623 0.999659
0.663086 1.000000 1.000000
0.663086 1.000000 1.000000
0.663086 1.000000 1.000000
0.670016 1.000000 1.000000
0.691442 1.000000 1.000000
0.734848 1.000000 1.000000
0.836769 1.000000 1.000000
0.956186 1.000000 1.000000
1.000000 1.000000 1.000000
