Assets/Lutify-Free-LUTs-Pack/Lutify Free LUTs Pack/Commercial Pro - Claire/Lutify.me-Claire-ZLog2-to-Rec709.cube
# Created with: fylm.ai - Colour Grading and Collaboration Software in Cloud 
# Website: https://fylm.ai 
# META
# Option: Gamut compress
# Block 1: IDT | Z-Cam Z-Log2 - BETA
# Block 2: colourMatch | Blending Mode: Normal | {"ColorSpace":0,"CrossCovarianceLimit":50,"ReshapingIterations":1,"PercentSaturationShift":100,"PercentShadingShift":100,"ExtraShading":true,"PercentTint":100,"PercentModified":100}
# Block 3: HSL | Blending Mode: Normal | {"hue":{"Reds":0,"Yellows":0,"Greens":0,"Cyans":0,"Blues":0,"Magentas":0},"saturation":{"Reds":1,"Yellows":1,"Greens":1,"Cyans":1,"Blues":1,"Magentas":1},"luminance":{"Reds":0.9,"Yellows":0.9,"Greens":0.9,"Cyans":0.8,"Blues":0.8,"Magentas":0.9},"lum_sat":{"Blacks":1,"Shadows":1,"Midtones":1,"Highlights":1,"Whites":1},"sat_sat":{"10":1,"20":1,"30":1,"40":1,"50":1}}
# Block 4: subtractiveColour | Blending Mode: Normal | {"sliders":{"gainY":0.1,"C":0.05,"M":0.05,"Y":0.05}}
# Block 5: logPrimaries | Blending Mode: Normal | {"wheels":{"shadows":{"Y":"0","R":"1","G":"1","B":"1"},"midtones":{"Y":"0","R":"1","G":"1","B":"1"},"highlights":{"Y":"0","R":"1","G":"1","B":"1"},"offset":{"Y":"0","R":"1","G":"1","B":"1"}},"sliders":{"shadows":{"Y":0,"R":-0.05,"G":0,"B":0.1},"midtones":{"Y":0,"R":0,"G":0,"B":0},"highlights":{"Y":0,"R":0,"G":0,"B":0},"offset":{"Y":0,"R":0,"G":0,"B":0}}}
# Block 6: LUT | Filmic Curve Response: Standard Contrast 1 (100%)
# Block 7: LUT | Illuminant: D93 (100%)
# Block 8: LUT | Neutral Tint: Teal Tint 4 (100%)
# Block 9: ODT | Rec709
TITLE "Lutify.me-Claire-ZLog2-to-Rec709" 
LUT_3D_SIZE 33
0.000000 0.000000 0.014579
0.000000 0.000000 0.011329
0.000000 0.000000 0.000000
0.035258 0.000000 0.000000
0.053120 0.000000 0.000000
0.074663 0.000000 0.000000
0.097020 0.000000 0.000000
0.118132 0.000000 0.000000
0.138019 0.000000 0.000000
0.159386 0.000000 0.000000
0.180262 0.000000 0.000000
0.200796 0.000000 0.000000
0.222074 0.000000 0.000000
0.246250 0.000000 0.000000
0.266954 0.000000 0.000000
0.286604 0.000000 0.000000
0.309132 0.000000 0.000000
0.326183 0.000000 0.000000
0.347089 0.000000 0.000000
0.365680 0.000000 0.000000
0.382350 0.000000 0.000000
0.402876 0.000000 0.000000
0.431135 0.000000 0.000000
0.465142 0.000000 0.000000
0.490654 0.000000 0.005944
0.513207 0.000000 0.024320
0.545079 0.000000 0.032440
0.573799 0.000000 0.044645
0.611364 0.000000 0.052316
0.658276 0.000000 0.063334
0.697219 0.000000 0.071410
0.737090 0.000000 0.082001
0.775171 0.000000 0.093878
0.000000 0.000000 0.012357
0.000000 0.000000 0.011415
0.000000 0.000000 0.000000
0.027423 0.000000 0.000000
0.049714 0.000000 0.000000
0.071687 0.000000 0.000000
0.094280 0.000000 0.000000
0.116806 0.000000 0.000000
0.136707 0.000000 0.000000
0.156707 0.000000 0.000000
0.178618 0.000000 0.000000
0.197162 0.000000 0.000000
0.218041 0.000000 0.000000
0.240395 0.000000 0.000000
0.262712 0.000000 0.000000
0.282353 0.000000 0.000000
0.304512 0.000000 0.000000
0.323735 0.000000 0.000000
0.344475 0.000000 0.000000
0.360390 0.000000 0.000000
0.379563 0.000000 0.000000
0.402906 0.000000 0.000000
0.427923 0.000000 0.000000
0.465166 0.000000 0.000000
0.486996 0.000000 0.010784
0.513224 0.000000 0.025237
0.545098 0.000000 0.033501
0.573800 0.000000 0.044512
0.611390 0.000000 0.054094
0.658270 0.000000 0.063259
0.692877 0.000000 0.072401
0.732328 0.000000 0.081950
0.770354 0.000000 0.093692
0.000000 0.008777 0.000000
0.000000 0.005916 0.000000
0.000000 0.000887 0.000000
0.014792 0.000000 0.000000
0.042358 0.000000 0.000000
0.065264 0.000000 0.000000
0.085375 0.000000 0.000000
0.109410 0.000000 0.000000
0.131174 0.000000 0.000000
0.152446 0.000000 0.000000
0.172308 0.000000 0.000000
0.191843 0.000000 0.000000
0.212142 0.000000 0.000000
0.234678 0.000000 0.000000
0.258539 0.000000 0.000000
0.278055 0.000000 0.000000
0.299995 0.000000 0.000000
0.321374 0.000000 0.000000
0.339248 0.000000 0.000000
0.357786 0.000000 0.000000
0.376791 0.000000 0.000000
0.402928 0.000000 0.000000
0.427942 0.000000 0.000000
0.458182 0.000000 0.000000
0.487009 0.000000 0.009665
0.513240 0.000000 0.026102
0.545119 0.000000 0.034442
0.573817 0.000000 0.045460
0.611387 0.000000 0.053944
0.658255 0.000000 0.063023
0.692867 0.000000 0.072315
0.732312 0.000000 0.081858
0.770329 0.000000 0.093589
0.000000 0.028406 0.000000
0.000000 0.026155 0.000000
0.000000 0.023021 0.000000
0.000000 0.021316 0.000000
0.035615 0.012058 0.000000
0.057171 0.000000 0.000000
0.077246 0.000000 0.000000
0.099836 0.000000 0.000000
0.122991 0.000000 0.000000
0.142060 0.000000 0.000000
0.163130 0.000000 0.000000
0.183332 0.000000 0.000000
0.202640 0.000000 0.000000
0.230451 0.000000 0.000000
0.254505 0.000000 0.000000
0.275981 0.000000 0.000000
0.297887 0.000000 0.000000
0.314194 0.000000 0.000000
0.334118 0.000000 0.000000
0.355206 0.000000 0.000000
0.376824 0.000000 0.000000
0.399970 0.000000 0.000000
0.427975 0.000000 0.000000
0.458217 0.000000 0.000000
0.487033 0.000000 0.012145
0.513261 0.000000 0.026723
0.541115 0.000000 0.035562
0.573820 0.000000 0.045159
0.615592 0.000000 0.053753
0.658249 0.000000 0.062939
0.692858 0.000000 0.072227
0.732298 0.000000 0.082917
0.770305 0.000000 0.093482
0.000000 0.043797 0.000000
0.000000 0.042136 0.000000
0.000000 0.041056 0.000000
0.000000 0.040036 0.000000
0.028123 0.035414 0.000000
0.051087 0.030749 0.000000
0.068607 0.022910 0.000000
0.092026 0.000000 0.000000
0.114585 0.000000 0.000000
0.135962 0.000000 0.000000
0.155236 0.000000 0.000000
0.176633 0.000000 0.000000
0.195441 0.000000 0.000000
0.222367 0.000000 0.000000
0.246641 0.000000 0.000000
0.269569 0.000000 0.000000
0.289135 0.000000 0.000000
0.311884 0.000000 0.000000
0.329070 0.000000 0.000000
0.350071 0.000000 0.000000
0.371351 0.000000 0.000000
0.400008 0.000000 0.000000
0.424805 0.000000 0.000000
0.454781 0.000000 0.000000
0.483390 0.000000 0.014495
0.509511 0.000000 0.027685
0.541140 0.000000 0.036331
0.573823 0.000000 0.044986
0.615588 0.000000 0.053501
0.658239 0.000000 0.062764
0.692837 0.000000 0.072042
0.732264 0.000000 0.082717
0.770254 0.000000 0.093259
0.000000 0.056131 0.000000
0.000000 0.053934 0.000000
0.000000 0.053742 0.000000
0.000000 0.052186 0.000000
0.014100 0.049556 0.000000
0.045188 0.047152 0.000000
0.063380 0.043189 0.000000
0.083182 0.038092 0.000000
0.108542 0.025531 0.000000
0.130052 0.000000 0.000000
0.150230 0.000000 0.000000
0.170780 0.000000 0.000000
0.191411 0.000000 0.000000
0.216251 0.000000 0.000000
0.242839 0.000000 0.000000
0.265392 0.000000 0.000000
0.284865 0.000000 0.000000
0.304926 0.000000 0.000000
0.324128 0.000000 0.000000
0.347421 0.000000 0.000000
0.368686 0.000000 0.000000
0.394155 0.000000 0.000000
0.424853 0.000000 0.000000
0.454809 0.000000 0.000000
0.483424 0.000000 0.015457
0.509534 0.000000 0.028164
0.541150 0.000000 0.036045
0.573842 0.000000 0.045817
0.615586 0.000000 0.053319
0.658228 0.000000 0.062576
0.692832 0.000000 0.072960
0.732247 0.000000 0.082612
0.770245 0.000000 0.094521
0.000000 0.067296 0.000000
0.000000 0.065579 0.000000
0.000000 0.063932 0.000000
0.000000 0.063658 0.000000
0.000000 0.061501 0.000000
0.039512 0.059223 0.000000
0.060613 0.055968 0.000000
0.081470 0.051816 0.000000
0.104701 0.044332 0.000000
0.126783 0.035520 0.000000
0.146675 0.020092 0.000000
0.167834 0.000000 0.000000
0.188910 0.000000 0.000000
0.214024 0.000000 0.000000
0.240925 0.000000 0.000000
0.261293 0.000000 0.000000
0.282801 0.000000 0.000000
0.302703 0.000000 0.000000
0.324207 0.000000 0.000000
0.344840 0.000000 0.000000
0.366065 0.000000 0.000000
0.391311 0.000000 0.000000
0.421721 0.000000 0.000000
0.451418 0.000000 0.000000
0.479793 0.000000 0.014833
0.505805 0.000000 0.028856
0.541194 0.000000 0.037722
0.573849 0.000000 0.045522
0.615582 0.000000 0.052919
0.653927 0.000000 0.062360
0.692812 0.000000 0.072755
0.732196 0.000000 0.082278
0.770196 0.000000 0.094307
0.000000 0.080733 0.000000
0.000000 0.078663 0.000000
0.000000 0.077531 0.000000
0.000000 0.077225 0.000000
0.000000 0.075775 0.000000
0.026913 0.074213 0.000000
0.055137 0.070596 0.000000
0.077733 0.066425 0.000000
0.101854 0.060471 0.000000
0.122966 0.055279 0.000000
0.143916 0.047356 0.000000
0.164182 0.038794 0.000000
0.186062 0.013657 0.000000
0.211717 0.000000 0.000000
0.237086 0.000000 0.000000
0.259425 0.000000 0.000000
0.278713 0.000000 0.000000
0.300598 0.000000 0.000000
0.321886 0.000000 0.000000
0.344959 0.000000 0.000000
0.366163 0.000000 0.000000
0.388510 0.000000 0.000000
0.418638 0.000000 0.000000
0.451466 0.000000 0.000000
0.479842 0.000000 0.015017
0.505840 0.000000 0.027831
0.541220 0.000000 0.037106
0.573860 0.000000 0.045080
0.615582 0.000000 0.052584
0.653917 0.000000 0.062143
0.688458 0.000000 0.072599
0.727619 0.000000 0.083354
0.770095 0.000000 0.093841
0.000000 0.093250 0.000000
0.000000 0.092003 0.000000
0.000000 0.091887 0.000000
0.000000 0.090480 0.000000
0.000000 0.087906 0.000000
0.000000 0.087495 0.000000
0.048777 0.083611 0.000000
0.077882 0.079206 0.000000
0.101501 0.076324 0.000000
0.122656 0.070712 0.000000
0.144353 0.063833 0.000000
0.165849 0.056431 0.000000
0.188698 0.047329 0.000000
0.213287 0.027733 0.000000
0.239060 0.000000 0.000000
0.257509 0.000000 0.000000
0.276765 0.000000 0.000000
0.298570 0.000000 0.000000
0.317253 0.000000 0.000000
0.339874 0.000000 0.000000
0.363635 0.000000 0.000000
0.388648 0.000000 0.000000
0.415626 0.000000 0.000000
0.448133 0.000000 0.000000
0.476269 0.000000 0.008624
0.502145 0.000000 0.026972
0.541254 0.000000 0.036380
0.573885 0.000000 0.044301
0.611380 0.000000 0.052202
0.653899 0.000000 0.061664
0.688429 0.000000 0.073281
0.727564 0.000000 0.082973
0.765280 0.000000 0.093603
0.000000 0.106253 0.000000
0.000000 0.106187 0.000000
0.000000 0.106023 0.000000
0.000000 0.103245 0.000000
0.000000 0.100481 0.000000
0.000000 0.100148 0.000000
0.037963 0.098374 0.000000
0.077992 0.093555 0.000000
0.101440 0.089761 0.000000
0.123885 0.085416 0.000000
0.147877 0.080001 0.000000
0.168944 0.073913 0.000000
0.191264 0.066103 0.000000
0.216960 0.054457 0.000000
0.243025 0.034673 0.000000
0.259811 0.000000 0.000000
0.276887 0.000000 0.000000
0.296554 0.000000 0.000000
0.315185 0.000000 0.000000
0.337602 0.000000 0.000000
0.361248 0.000000 0.000000
0.385950 0.000000 0.000000
0.415776 0.000000 0.000000
0.444890 0.000000 0.000000
0.476372 0.000000 0.000000
0.502214 0.000000 0.023970
0.533314 0.000000 0.035552
0.573922 0.000000 0.044514
0.611389 0.000000 0.051479
0.649608 0.000000 0.061212
0.688386 0.000000 0.072754
0.727509 0.000000 0.082571
0.765211 0.000000 0.094610
0.000000 0.121136 0.000000
0.000000 0.121024 0.000000
0.000000 0.119435 0.000000
0.000000 0.119230 0.000000
0.000000 0.116163 0.000000
0.000000 0.113069 0.000000
0.025926 0.112500 0.000000
0.073726 0.110184 0.000000
0.102013 0.104834 0.000000
0.126180 0.101783 0.000000
0.149359 0.096792 0.000000
0.172114 0.089622 0.000000
0.193496 0.084536 0.000000
0.218165 0.077566 0.000000
0.242821 0.066712 0.000000
0.264357 0.053052 0.000000
0.279169 0.042483 0.000000
0.296875 0.000000 0.000000
0.322879 0.000000 0.000000
0.338131 0.000000 0.000000
0.361811 0.000000 0.000000
0.380713 0.000000 0.000000
0.412908 0.000000 0.000000
0.438407 0.000000 0.000000
0.472932 0.000000 0.000000
0.502316 0.000000 0.019762
0.533410 0.000000 0.033956
0.569871 0.000000 0.043577
0.603036 0.000000 0.050878
0.649593 0.000000 0.060255
0.688344 0.000000 0.072155
0.727421 0.000000 0.081867
0.765125 0.000000 0.094175
0.000000 0.135615 0.000000
0.000000 0.135529 0.000000
0.000000 0.135401 0.000000
0.000000 0.133801 0.000000
0.000000 0.132172 0.000000
0.000000 0.129063 0.000000
0.000000 0.126999 0.000000
0.070225 0.126133 0.000000
0.099750 0.123559 0.000000
0.124219 0.120712 0.000000
0.149686 0.115711 0.000000
0.174785 0.106939 0.000000
0.197816 0.100635 0.000000
0.221292 0.096615 0.000000
0.246524 0.089487 0.000000
0.266185 0.078002 0.000000
0.285837 0.065396 0.000000
0.301810 0.056435 0.000000
0.318535 0.043441 0.000000
0.341288 0.000000 0.000000
0.362417 0.000000 0.000000
0.384261 0.000000 0.000000
0.413508 0.000000 0.000000
0.445414 0.000000 0.000000
0.476754 0.000000 0.000000
0.502486 0.000000 0.005434
0.533521 0.000000 0.027711
0.569973 0.000000 0.041710
0.603088 0.000000 0.049422
0.649589 0.000000 0.059299
0.688295 0.000000 0.071329
0.727349 0.000000 0.081225
0.765007 0.000000 0.093534
0.000000 0.153990 0.000000
0.000000 0.152264 0.000000
0.000000 0.150535 0.000000
0.000000 0.150401 0.000000
0.000000 0.150224 0.000000
0.000000 0.146743 0.000000
0.000000 0.144595 0.000000
0.061370 0.142376 0.000000
0.096514 0.141456 0.000000
0.125657 0.138642 0.000000
0.148710 0.135681 0.000000
0.175274 0.130427 0.000000
0.203438 0.121114 0.000000
0.228936 0.114333 0.000000
0.251899 0.108392 0.000000
0.271901 0.103592 0.000000
0.290297 0.096465 0.000000
0.309308 0.088034 0.000000
0.326654 0.078635 0.000000
0.347579 0.068178 0.000000
0.365989 0.046636 0.000000
0.390982 0.000000 0.000000
0.417643 0.000000 0.000000
0.449604 0.000000 0.000000
0.477247 0.000000 0.000000
0.506480 0.000000 0.000000
0.533769 0.000000 0.020560
0.570107 0.000000 0.038348
0.611525 0.000000 0.047264
0.653863 0.000000 0.057863
0.692567 0.000000 0.070162
0.727256 0.000000 0.080307
0.764923 0.000000 0.094467
0.000000 0.167568 0.000000
0.000000 0.165700 0.000000
0.000000 0.165592 0.000000
0.000000 0.165465 0.000000
0.000000 0.163518 0.000000
0.000000 0.161432 0.000000
0.000000 0.159141 0.000000
0.060229 0.156827 0.000000
0.100037 0.155892 0.000000
0.128807 0.153069 0.000000
0.154032 0.149983 0.000000
0.177127 0.146635 0.000000
0.206440 0.140510 0.000000
0.232865 0.133799 0.000000
0.258686 0.125789 0.000000
0.277674 0.120140 0.000000
0.299334 0.117066 0.000000
0.314312 0.113311 0.000000
0.335041 0.107475 0.000000
0.356622 0.098059 0.000000
0.372605 0.089486 0.000000
0.395103 0.078706 0.000000
0.422127 0.060229 0.000000
0.454223 0.000000 0.000000
0.481805 0.000000 0.000000
0.510872 0.000000 0.000000
0.542126 0.000000 0.000000
0.574401 0.000000 0.034656
0.611646 0.000000 0.044640
0.653886 0.000000 0.056066
0.692518 0.000000 0.068836
0.731726 0.000000 0.080808
0.764767 0.000000 0.093507
0.000000 0.184290 0.000000
0.000000 0.182275 0.000000
0.000000 0.180226 0.000000
0.000000 0.180086 0.000000
0.000000 0.179848 0.000000
0.000000 0.179502 0.000000
0.000000 0.175190 0.000000
0.056826 0.172748 0.000000
0.103488 0.169953 0.000000
0.131278 0.168969 0.000000
0.158096 0.167665 0.000000
0.183324 0.164186 0.000000
0.208991 0.158052 0.000000
0.237993 0.150715 0.000000
0.263386 0.141224 0.000000
0.283568 0.133772 0.000000
0.306253 0.129108 0.000000
0.324439 0.127048 0.000000
0.340616 0.125263 0.000000
0.365395 0.120888 0.000000
0.381974 0.113575 0.000000
0.405061 0.102970 0.000000
0.429613 0.092360 0.000000
0.459147 0.079167 0.000000
0.486812 0.045966 0.000000
0.511919 0.000000 0.000000
0.546831 0.000000 0.000000
0.574842 0.000000 0.023984
0.616017 0.000000 0.040445
0.658207 0.000000 0.051954
0.692480 0.000000 0.065902
0.731629 0.000000 0.079642
0.769389 0.000000 0.092623
0.000000 0.198172 0.000000
0.000000 0.196026 0.000000
0.000000 0.195898 0.000000
0.000000 0.193645 0.000000
0.000000 0.193344 0.000000
0.000000 0.193017 0.000000
0.000000 0.190583 0.000000
0.065375 0.187930 0.000000
0.109926 0.185034 0.000000
0.140338 0.183986 0.000000
0.167381 0.180378 0.000000
0.196595 0.176104 0.000000
0.224791 0.171336 0.000000
0.248269 0.166574 0.000000
0.269418 0.161682 0.000000
0.294040 0.151662 0.000000
0.315601 0.145602 0.000000
0.337628 0.141106 0.000000
0.357423 0.138943 0.000000
0.374140 0.137321 0.000000
0.394508 0.137066 0.000000
0.415636 0.131353 0.000000
0.434469 0.125863 0.000000
0.464341 0.115183 0.000000
0.492076 0.102564 0.000000
0.517438 0.087536 0.000000
0.551929 0.029767 0.000000
0.579557 0.000000 0.000000
0.616320 0.000000 0.030344
0.658332 0.000000 0.046154
0.696769 0.000000 0.063066
0.736221 0.000000 0.077653
0.769225 0.000000 0.092940
0.000000 0.215010 0.000000
0.000000 0.214844 0.000000
0.000000 0.212536 0.000000
0.000000 0.210141 0.000000
0.000000 0.209724 0.000000
0.000000 0.209277 0.000000
0.000000 0.208601 0.000000
0.077594 0.203626 0.000000
0.119983 0.200379 0.000000
0.147807 0.197109 0.000000
0.179651 0.193148 0.000000
0.210589 0.188667 0.000000
0.235205 0.184234 0.000000
0.256668 0.181849 0.000000
0.276338 0.177282 0.000000
0.304913 0.168875 0.000000
0.330577 0.164612 0.000000
0.354243 0.157897 0.000000
0.371346 0.154390 0.000000
0.388887 0.150550 0.000000
0.407133 0.151348 0.000000
0.426146 0.151983 0.000000
0.445658 0.147130 0.000000
0.473020 0.142348 0.000000
0.497432 0.134582 0.000000
0.522990 0.128427 0.000000
0.557203 0.104103 0.000000
0.584619 0.078921 0.000000
0.621064 0.000000 0.000000
0.662788 0.000000 0.039413
0.696811 0.000000 0.057403
0.736107 0.000000 0.075262
0.773767 0.000000 0.091246
0.000000 0.228452 0.000000
0.000000 0.226286 0.000000
0.000000 0.224031 0.000000
0.000000 0.223749 0.000000
0.000000 0.221368 0.000000
0.000000 0.220865 0.000000
0.054307 0.220169 0.000000
0.103369 0.217362 0.000000
0.130971 0.216454 0.000000
0.164071 0.212801 0.000000
0.194662 0.208778 0.000000
0.218990 0.204775 0.000000
0.245197 0.200239 0.000000
0.265111 0.198193 0.000000
0.288893 0.193194 0.000000
0.313411 0.185395 0.000000
0.340801 0.178900 0.000000
0.367948 0.171785 0.000000
0.388918 0.167699 0.000000
0.401207 0.167706 0.000000
0.420123 0.163642 0.000000
0.439983 0.167218 0.000000
0.464083 0.167153 0.000000
0.481683 0.166037 0.000000
0.503573 0.169492 0.000000
0.528892 0.160090 0.000000
0.563022 0.149114 0.000000
0.590037 0.130592 0.000000
0.630295 0.103413 0.000000
0.667539 0.069044 0.017567
0.701239 0.000000 0.049421
0.740727 0.000000 0.070074
0.773538 0.000000 0.088884
0.000000 0.235563 0.000000
0.000000 0.235273 0.000000
0.000000 0.235033 0.000000
0.000000 0.234634 0.000000
0.000000 0.232140 0.000000
0.065829 0.231492 0.000000
0.101223 0.230838 0.000000
0.133957 0.227889 0.000000
0.160018 0.226814 0.000000
0.187950 0.225357 0.000000
0.214503 0.219629 0.000000
0.241930 0.215457 0.000000
0.262700 0.213566 0.000000
0.287481 0.208952 0.000000
0.306413 0.204677 0.000000
0.331415 0.201456 0.000000
0.357055 0.195588 0.000000
0.382004 0.189031 0.000000
0.401040 0.183040 0.000000
0.423648 0.178578 0.000000
0.437032 0.181229 0.000000
0.461037 0.176014 0.000000
0.482540 0.178754 0.000000
0.500957 0.182566 0.000000
0.515740 0.182426 0.000000
0.538427 0.183069 0.000000
0.568793 0.178065 0.000000
0.595647 0.166951 0.000000
0.635541 0.148915 0.000000
0.668227 0.129456 0.000000
0.710071 0.095507 0.034326
0.740703 0.000000 0.063134
0.778091 0.000000 0.082680
0.000000 0.251307 0.000000
0.000000 0.251036 0.000000
0.000000 0.250736 0.000000
0.000000 0.250223 0.000000
0.074098 0.247556 0.000000
0.110593 0.246868 0.000000
0.144791 0.243750 0.000000
0.175578 0.238278 0.000000
0.196966 0.235060 0.000000
0.221747 0.233502 0.000000
0.240305 0.232164 0.000000
0.259903 0.228446 0.000000
0.285768 0.223906 0.000000
0.311342 0.221208 0.000000
0.331480 0.216642 0.000000
0.357588 0.213243 0.000000
0.377137 0.208167 0.000000
0.400174 0.202222 0.000000
0.423526 0.198164 0.000000
0.444053 0.194289 0.000000
0.468759 0.191739 0.000000
0.490427 0.192248 0.000000
0.505164 0.189197 0.000000
0.516555 0.192349 0.000000
0.536274 0.205141 0.000000
0.551623 0.205324 0.000000
0.574595 0.203496 0.000000
0.601912 0.206263 0.000000
0.641145 0.189347 0.000000
0.673468 0.175434 0.000000
0.710678 0.156892 0.000000
0.745488 0.139883 0.048641
0.777870 0.098708 0.075230
0.000000 0.270621 0.000000
0.000000 0.270301 0.000000
0.000000 0.270039 0.000000
0.018188 0.269655 0.000000
0.087432 0.269120 0.000000
0.127660 0.266037 0.000000
0.158300 0.262837 0.000000
0.180868 0.261948 0.000000
0.210277 0.258252 0.000000
0.236390 0.252165 0.000000
0.259532 0.250541 0.000000
0.280511 0.246586 0.000000
0.304942 0.242085 0.000000
0.329610 0.237250 0.000000
0.357299 0.231712 0.000000
0.381151 0.226255 0.000000
0.405757 0.215503 0.000000
0.426408 0.212167 0.000000
0.443966 0.209127 0.000000
0.469115 0.209568 0.000000
0.498404 0.203891 0.000000
0.524520 0.198490 0.000000
0.540217 0.203597 0.000000
0.552044 0.206910 0.000000
0.560176 0.214216 0.000000
0.572478 0.227031 0.000000
0.584184 0.228399 0.000000
0.607491 0.230079 0.000000
0.647140 0.228017 0.000000
0.678876 0.213423 0.000000
0.715620 0.199233 0.000000
0.750426 0.183411 0.000000
0.782341 0.170681 0.065121
0.000000 0.291528 0.000000
0.000000 0.291255 0.000000
0.000000 0.290860 0.000000
0.082074 0.290425 0.000000
0.106190 0.290071 0.000000
0.141149 0.289316 0.000000
0.168738 0.283579 0.000000
0.196163 0.282524 0.000000
0.223875 0.278762 0.000000
0.246931 0.275012 0.000000
0.273103 0.270839 0.000000
0.295643 0.266678 0.000000
0.318231 0.262289 0.000000
0.343464 0.259885 0.000000
0.365854 0.252510 0.000000
0.391663 0.244420 0.000000
0.424668 0.234868 0.000000
0.454173 0.227718 0.000000
0.483841 0.219969 0.000000
0.506358 0.215957 0.000000
0.528857 0.208794 0.000000
0.559664 0.202112 0.000000
0.583208 0.199519 0.000000
0.583808 0.211653 0.000000
0.588282 0.223093 0.000000
0.596763 0.237262 0.000000
0.605279 0.255276 0.000000
0.621081 0.256317 0.000000
0.652759 0.260543 0.000000
0.688609 0.253506 0.000000
0.720786 0.242850 0.000000
0.750907 0.231661 0.000000
0.786903 0.225895 0.038115
0.000000 0.311304 0.000000
0.024639 0.311092 0.000000
0.091202 0.310637 0.000000
0.124349 0.307483 0.000000
0.151060 0.306875 0.000000
0.172837 0.303630 0.000000
0.194225 0.302889 0.000000
0.216624 0.299355 0.000000
0.245483 0.295327 0.000000
0.264455 0.294248 0.000000
0.288621 0.290070 0.000000
0.311517 0.288407 0.000000
0.335374 0.283817 0.000000
0.353775 0.282173 0.000000
0.376998 0.277223 0.000000
0.405353 0.266051 0.000000
0.432884 0.257229 0.000000
0.464159 0.247374 0.000000
0.491310 0.240585 0.000000
0.518164 0.233391 0.000000
0.560646 0.222600 0.000000
0.595762 0.211982 0.000000
0.627552 0.204174 0.000000
0.639869 0.207625 0.000000
0.636392 0.221843 0.000000
0.637120 0.241776 0.000000
0.637696 0.262099 0.000000
0.646020 0.278320 0.000000
0.665972 0.282385 0.000000
0.693954 0.291674 0.000000
0.726032 0.286074 0.000000
0.756068 0.273092 0.000000
0.791523 0.273264 0.000000
0.106301 0.326647 0.000000
0.133485 0.326185 0.000000
0.145185 0.325941 0.000000
0.164904 0.322680 0.000000
0.184146 0.322117 0.000000
0.197793 0.321663 0.000000
0.226037 0.317789 0.000000
0.242572 0.317044 0.000000
0.258899 0.316233 0.000000
0.283237 0.314881 0.000000
0.309065 0.310428 0.000000
0.330048 0.306110 0.000000
0.349342 0.304593 0.000000
0.369906 0.299993 0.000000
0.393597 0.297768 0.000000
0.414415 0.292768 0.000000
0.439998 0.284174 0.000000
0.473440 0.274437 0.000000
0.501963 0.264797 0.000000
0.529746 0.257745 0.000000
0.569374 0.248186 0.000000
0.608732 0.234431 0.000000
0.648582 0.222308 0.000000
0.676824 0.211665 0.000000
0.693288 0.210755 0.000000
0.681884 0.242344 0.000000
0.678372 0.264473 0.000000
0.674614 0.283319 0.000000
0.686891 0.302719 0.000000
0.706845 0.314046 0.000000
0.734956 0.313280 0.000000
0.761062 0.316510 0.000000
0.800606 0.305995 0.000000
0.153472 0.350817 0.000000
0.165275 0.350552 0.000000
0.179960 0.347357 0.000000
0.190320 0.347065 0.000000
0.210047 0.346444 0.000000
0.226751 0.343026 0.000000
0.240385 0.342484 0.000000
0.264622 0.338586 0.000000
0.282005 0.337709 0.000000
0.303650 0.336504 0.000000
0.320040 0.335506 0.000000
0.337854 0.331479 0.000000
0.358438 0.329992 0.000000
0.381492 0.322409 0.000000
0.403497 0.317538 0.000000
0.429090 0.315290 0.000000
0.459814 0.309187 0.000000
0.490390 0.299602 0.000000
0.515933 0.290236 0.000000
0.545062 0.280019 0.000000
0.581588 0.271324 0.000000
0.621644 0.261266 0.000000
0.657707 0.250983 0.000000
0.685949 0.241432 0.000000
0.718587 0.229944 0.000000
0.757731 0.215250 0.000000
0.731379 0.249465 0.000000
0.723727 0.288332 0.000000
0.715616 0.311615 0.000000
0.727618 0.332440 0.000000
0.744159 0.341553 0.000000
0.770169 0.341682 0.000000
0.809176 0.347738 0.000000
0.194962 0.370223 0.000000
0.205857 0.369913 0.000000
0.211172 0.369754 0.000000
0.224547 0.366319 0.000000
0.244352 0.365606 0.000000
