Assets/Lutify-Free-LUTs-Pack/Lutify Free LUTs Pack/Commercial Pro - Claire/Lutify.me-Claire-CanonLog2-to-Rec709.cube
# Created with: fylm.ai - Colour Grading and Collaboration Software in Cloud 
# Website: https://fylm.ai 
# META
# Option: Gamut compress
# Block 1: IDT | CanonLog2 Cinema Gamut Daylight
# Block 2: colourMatch | Blending Mode: Normal | {"ColorSpace":0,"CrossCovarianceLimit":50,"ReshapingIterations":1,"PercentSaturationShift":100,"PercentShadingShift":100,"ExtraShading":true,"PercentTint":100,"PercentModified":100}
# Block 3: HSL | Blending Mode: Normal | {"hue":{"Reds":0,"Yellows":0,"Greens":0,"Cyans":0,"Blues":0,"Magentas":0},"saturation":{"Reds":1,"Yellows":1,"Greens":1,"Cyans":1,"Blues":1,"Magentas":1},"luminance":{"Reds":0.9,"Yellows":0.9,"Greens":0.9,"Cyans":0.8,"Blues":0.8,"Magentas":0.9},"lum_sat":{"Blacks":1,"Shadows":1,"Midtones":1,"Highlights":1,"Whites":1},"sat_sat":{"10":1,"20":1,"30":1,"40":1,"50":1}}
# Block 4: subtractiveColour | Blending Mode: Normal | {"sliders":{"gainY":0.1,"C":0.05,"M":0.05,"Y":0.05}}
# Block 5: logPrimaries | Blending Mode: Normal | {"wheels":{"shadows":{"Y":"0","R":"1","G":"1","B":"1"},"midtones":{"Y":"0","R":"1","G":"1","B":"1"},"highlights":{"Y":"0","R":"1","G":"1","B":"1"},"offset":{"Y":"0","R":"1","G":"1","B":"1"}},"sliders":{"shadows":{"Y":0,"R":-0.05,"G":0,"B":0.1},"midtones":{"Y":0,"R":0,"G":0,"B":0},"highlights":{"Y":0,"R":0,"G":0,"B":0},"offset":{"Y":0,"R":0,"G":0,"B":0}}}
# Block 6: LUT | Filmic Curve Response: Standard Contrast 1 (100%)
# Block 7: LUT | Illuminant: D93 (100%)
# Block 8: LUT | Neutral Tint: Teal Tint 4 (100%)
# Block 9: ODT | Rec709
TITLE "Lutify.me-Claire-CanonLog2-to-Rec709" 
LUT_3D_SIZE 33
0.000000 0.000000 0.000000
0.000000 0.000000 0.000000
0.060692 0.000000 0.000000
0.000000 0.000000 0.000000
0.068894 0.000000 0.000000
0.138813 0.000000 0.000000
0.212845 0.000000 0.000000
0.277295 0.000000 0.000000
0.338256 0.000000 0.000000
0.398646 0.000000 0.000000
0.453186 0.000000 0.000000
0.492820 0.000000 0.000000
0.523252 0.000000 0.000000
0.555721 0.000000 0.000000
0.580712 0.000000 0.000000
0.627252 0.000000 0.000000
0.687709 0.000000 0.000000
0.755547 0.000000 0.000000
0.836630 0.000000 0.000000
0.906351 0.000000 0.038765
0.975144 0.000000 0.069715
1.000000 0.000000 0.109097
1.000000 0.000000 0.146355
1.000000 0.210555 0.192952
1.000000 0.333752 0.243614
1.000000 0.428067 0.300533
1.000000 0.521635 0.363719
1.000000 0.618144 0.439713
1.000000 0.693019 0.510600
1.000000 0.761015 0.585907
1.000000 0.823784 0.668992
1.000000 0.863340 0.738979
1.000000 0.892010 0.785625
0.000000 0.000000 0.000000
0.000000 0.000000 0.000000
0.017056 0.000000 0.000000
0.000000 0.000000 0.000000
0.061070 0.000000 0.000000
0.128629 0.000000 0.000000
0.192429 0.000000 0.000000
0.255800 0.000000 0.000000
0.308599 0.000000 0.000000
0.370131 0.000000 0.000000
0.417066 0.000000 0.000000
0.456787 0.000000 0.000000
0.496789 0.000000 0.000000
0.539643 0.000000 0.000000
0.572572 0.000000 0.000000
0.618855 0.000000 0.000000
0.687751 0.000000 0.000000
0.760310 0.000000 0.000000
0.836551 0.000000 0.000000
0.906223 0.000000 0.036784
0.974970 0.000000 0.068806
1.000000 0.000000 0.108482
1.000000 0.000000 0.145734
1.000000 0.216708 0.194703
1.000000 0.337984 0.243305
1.000000 0.431801 0.300266
1.000000 0.525170 0.363490
1.000000 0.618144 0.439713
1.000000 0.693019 0.510600
1.000000 0.763439 0.585857
1.000000 0.825648 0.669015
1.000000 0.863340 0.738979
1.000000 0.892010 0.785625
0.000000 0.000000 0.010690
0.000000 0.000000 0.001225
0.000000 0.000000 0.000000
0.000000 0.000000 0.000000
0.054892 0.000000 0.000000
0.116739 0.000000 0.000000
0.180740 0.000000 0.000000
0.237889 0.000000 0.000000
0.294923 0.000000 0.000000
0.351616 0.000000 0.000000
0.392918 0.000000 0.000000
0.433302 0.000000 0.000000
0.482107 0.000000 0.000000
0.531755 0.000000 0.000000
0.568548 0.000000 0.000000
0.614691 0.000000 0.000000
0.683441 0.000000 0.000000
0.755531 0.000000 0.000000
0.836498 0.000000 0.000000
0.906135 0.000000 0.035290
0.974881 0.000000 0.068329
1.000000 0.000000 0.108165
1.000000 0.000000 0.145412
1.000000 0.222748 0.194357
1.000000 0.337984 0.243305
1.000000 0.431801 0.300266
1.000000 0.525170 0.363490
1.000000 0.618144 0.439713
1.000000 0.695841 0.510476
1.000000 0.763439 0.585857
1.000000 0.825648 0.669015
1.000000 0.863340 0.738979
1.000000 0.892010 0.785625
0.000000 0.021397 0.000000
0.000000 0.015637 0.000000
0.000000 0.010642 0.000000
0.000000 0.005212 0.000000
0.035134 0.000000 0.000000
0.097128 0.000000 0.000000
0.161111 0.000000 0.000000
0.223585 0.000000 0.000000
0.279764 0.000000 0.000000
0.338463 0.000000 0.000000
0.384336 0.000000 0.000000
0.423718 0.000000 0.000000
0.471330 0.000000 0.000000
0.523865 0.000000 0.000000
0.568638 0.000000 0.000000
0.614730 0.000000 0.000000
0.679130 0.000000 0.000000
0.755528 0.000000 0.000000
0.831767 0.000000 0.000000
0.906089 0.000000 0.034479
0.974790 0.000000 0.067836
1.000000 0.000000 0.107837
1.000000 0.000000 0.145412
1.000000 0.222748 0.194357
1.000000 0.337984 0.243305
1.000000 0.431801 0.300266
1.000000 0.525170 0.363490
1.000000 0.618144 0.439713
1.000000 0.695841 0.510476
1.000000 0.763439 0.585857
1.000000 0.825648 0.669015
1.000000 0.863340 0.738979
1.000000 0.892010 0.785625
0.000000 0.049268 0.000000
0.000000 0.046766 0.000000
0.000000 0.044844 0.000000
0.000000 0.043633 0.000000
0.000000 0.036316 0.000000
0.074178 0.011126 0.000000
0.140933 0.000000 0.000000
0.198391 0.000000 0.000000
0.262524 0.000000 0.000000
0.325818 0.000000 0.000000
0.376095 0.000000 0.000000
0.417581 0.000000 0.000000
0.464331 0.000000 0.000000
0.516164 0.000000 0.000000
0.568719 0.000000 0.000000
0.610576 0.000000 0.000000
0.679149 0.000000 0.000000
0.755520 0.000000 0.000000
0.831716 0.000000 0.000000
0.905995 0.000000 0.032717
0.974697 0.000000 0.067327
1.000000 0.000000 0.105725
1.000000 0.000000 0.145083
1.000000 0.233907 0.193679
1.000000 0.346392 0.242674
1.000000 0.431801 0.300266
1.000000 0.525170 0.363490
1.000000 0.624881 0.439321
1.000000 0.695841 0.510476
1.000000 0.763439 0.585857
1.000000 0.825648 0.669015
1.000000 0.863340 0.738979
1.000000 0.892010 0.785625
0.000000 0.071848 0.000000
0.000000 0.070894 0.000000
0.000000 0.066695 0.000000
0.000000 0.064272 0.000000
0.000000 0.059655 0.000000
0.062358 0.051615 0.000000
0.127838 0.027374 0.000000
0.184853 0.000000 0.000000
0.244486 0.000000 0.000000
0.307010 0.000000 0.000000
0.365431 0.000000 0.000000
0.414658 0.000000 0.000000
0.464477 0.000000 0.000000
0.524104 0.000000 0.000000
0.568831 0.000000 0.000000
0.610654 0.000000 0.000000
0.679179 0.000000 0.000000
0.750755 0.000000 0.000000
0.831643 0.000000 0.000000
0.905847 0.000000 0.029602
0.974505 0.000000 0.066257
1.000000 0.000000 0.105373
1.000000 0.000000 0.144745
1.000000 0.233907 0.193679
1.000000 0.346392 0.242674
1.000000 0.435532 0.299996
1.000000 0.528709 0.363260
1.000000 0.624881 0.439321
1.000000 0.695841 0.510476
1.000000 0.763439 0.585857
1.000000 0.825648 0.669015
1.000000 0.863340 0.738979
1.000000 0.892010 0.785625
0.000000 0.099381 0.000000
0.000000 0.095721 0.000000
0.000000 0.092215 0.000000
0.000000 0.089938 0.000000
0.000000 0.083413 0.000000
0.050548 0.076849 0.000000
0.120307 0.061919 0.000000
0.181196 0.033197 0.000000
0.242744 0.000000 0.000000
0.300520 0.000000 0.000000
0.355403 0.000000 0.000000
0.408931 0.000000 0.000000
0.457801 0.000000 0.000000
0.524295 0.000000 0.000000
0.568964 0.000000 0.000000
0.614961 0.000000 0.000000
0.679253 0.000000 0.000000
0.750747 0.000000 0.000000
0.831582 0.000000 0.000000
0.905743 0.000000 0.027096
0.974305 0.000000 0.065110
1.000000 0.000000 0.104641
1.000000 0.000000 0.144398
1.000000 0.239325 0.193331
1.000000 0.350571 0.242352
1.000000 0.435532 0.299996
1.000000 0.528709 0.363260
1.000000 0.624881 0.439321
1.000000 0.695841 0.510476
1.000000 0.763439 0.585857
1.000000 0.825648 0.669015
1.000000 0.863340 0.738979
1.000000 0.894480 0.785712
0.000000 0.126454 0.000000
0.000000 0.121943 0.000000
0.000000 0.117584 0.000000
0.000000 0.113380 0.000000
0.000000 0.110597 0.000000
0.000000 0.101847 0.000000
0.119597 0.090305 0.000000
0.184247 0.070186 0.000000
0.242763 0.036442 0.000000
0.305632 0.000000 0.000000
0.358666 0.000000 0.000000
0.409528 0.000000 0.000000
0.468828 0.000000 0.000000
0.520647 0.000000 0.000000
0.569171 0.000000 0.000000
0.619326 0.000000 0.000000
0.683663 0.000000 0.000000
0.745992 0.000000 0.000000
0.831497 0.000000 0.000000
0.909618 0.000000 0.016930
0.977268 0.000000 0.063523
1.000000 0.000000 0.103469
1.000000 0.000000 0.143309
1.000000 0.244657 0.192976
1.000000 0.350571 0.242352
1.000000 0.442992 0.299445
1.000000 0.528709 0.363260
1.000000 0.624881 0.439321
1.000000 0.698650 0.510354
1.000000 0.763439 0.585857
1.000000 0.825648 0.669015
1.000000 0.863340 0.738979
1.000000 0.894480 0.785712
0.000000 0.155335 0.000000
0.000000 0.153651 0.000000
0.000000 0.147196 0.000000
0.000000 0.142568 0.000000
0.000000 0.140949 0.000000
0.000000 0.133010 0.000000
0.109170 0.124371 0.000000
0.177593 0.111021 0.000000
0.244117 0.087810 0.000000
0.308754 0.037889 0.000000
0.367717 0.000000 0.000000
0.419824 0.000000 0.000000
0.473430 0.000000 0.000000
0.533331 0.000000 0.000000
0.577834 0.000000 0.000000
0.619592 0.000000 0.000000
0.688139 0.000000 0.000000
0.750736 0.000000 0.000000
0.831363 0.000000 0.000000
0.909321 0.000000 0.000000
0.976944 0.000000 0.061518
1.000000 0.000000 0.100328
1.000000 0.074782 0.142535
1.000000 0.249905 0.192615
1.000000 0.354734 0.242025
1.000000 0.446718 0.299165
1.000000 0.535797 0.362793
1.000000 0.628254 0.439124
1.000000 0.698650 0.510354
1.000000 0.765842 0.585812
1.000000 0.825648 0.669015
1.000000 0.863340 0.738979
1.000000 0.894480 0.785712
0.000000 0.188226 0.000000
0.000000 0.184268 0.000000
0.000000 0.180395 0.000000
0.000000 0.178482 0.000000
0.000000 0.172749 0.000000
0.000000 0.165106 0.000000
0.077163 0.159746 0.000000
0.169170 0.147073 0.000000
0.239794 0.130779 0.000000
0.309254 0.102238 0.000000
0.372141 0.063998 0.000000
0.434160 0.000000 0.000000
0.496511 0.000000 0.000000
0.554547 0.000000 0.000000
0.595238 0.000000 0.000000
0.637075 0.000000 0.000000
0.692717 0.000000 0.000000
0.750750 0.000000 0.000000
0.835858 0.000000 0.000000
0.908929 0.000000 0.000000
0.976417 0.000000 0.055729
1.000000 0.000000 0.096483
1.000000 0.117839 0.141302
1.000000 0.260175 0.191876
1.000000 0.363015 0.241358
1.000000 0.450444 0.298883
1.000000 0.540462 0.363418
1.000000 0.628254 0.439124
1.000000 0.698650 0.510354
1.000000 0.765842 0.585812
1.000000 0.827501 0.669041
1.000000 0.863340 0.738979
1.000000 0.894480 0.785712
0.000000 0.225974 0.000000
0.000000 0.217736 0.000000
0.000000 0.215495 0.000000
0.000000 0.211049 0.000000
0.000000 0.206629 0.000000
0.000000 0.204242 0.000000
0.000000 0.194583 0.000000
0.153252 0.185039 0.000000
0.229014 0.172751 0.000000
0.307254 0.149203 0.000000
0.373798 0.122535 0.000000
0.436414 0.081930 0.000000
0.520516 0.000000 0.000000
0.579874 0.000000 0.000000
0.621140 0.000000 0.000000
0.659019 0.000000 0.000000
0.697382 0.000000 0.000000
0.755535 0.000000 0.000000
0.835637 0.000000 0.000000
0.908340 0.000000 0.000000
0.975840 0.000000 0.048429
1.000000 0.000000 0.094094
1.000000 0.155578 0.139505
1.000000 0.270188 0.188954
1.000000 0.367136 0.241016
1.000000 0.454169 0.298597
1.000000 0.543999 0.363181
1.000000 0.631606 0.441816
1.000000 0.704230 0.510115
1.000000 0.770589 0.585733
1.000000 0.827501 0.669041
1.000000 0.864875 0.739018
1.000000 0.894480 0.785712
0.000000 0.256044 0.000000
0.000000 0.249658 0.000000
0.000000 0.249556 0.000000
0.000000 0.243269 0.000000
0.000000 0.239056 0.000000
0.000000 0.238729 0.000000
0.000000 0.231562 0.000000
0.114201 0.224643 0.000000
0.218588 0.211400 0.000000
0.299541 0.196425 0.000000
0.373863 0.170636 0.000000
0.439065 0.145122 0.000000
0.523100 0.093167 0.000000
0.613828 0.000000 0.000000
0.668200 0.000000 0.000000
0.681201 0.000000 0.000000
0.719599 0.000000 0.000000
0.760441 0.000000 0.000000
0.839803 0.000000 0.000000
0.911781 0.000000 0.000000
0.977996 0.000000 0.033200
1.000000 0.025139 0.091577
1.000000 0.185866 0.137971
1.000000 0.285538 0.188240
1.000000 0.379424 0.239964
1.000000 0.461615 0.298015
1.000000 0.551072 0.365612
1.000000 0.634957 0.441623
1.000000 0.706987 0.512924
1.000000 0.770589 0.585733
1.000000 0.827501 0.669041
1.000000 0.864875 0.739018
1.000000 0.894480 0.785712
0.000000 0.290065 0.000000
0.000000 0.285166 0.000000
0.000000 0.285056 0.000000
0.000000 0.280203 0.000000
0.000000 0.280062 0.000000
0.000000 0.275041 0.000000
0.000000 0.269556 0.000000
0.000000 0.267892 0.000000
0.198297 0.256623 0.000000
0.288119 0.243640 0.000000
0.371494 0.225189 0.000000
0.444070 0.199199 0.000000
0.526922 0.172675 0.000000
0.620341 0.120811 0.000000
0.711382 0.000000 0.000000
0.742316 0.000000 0.000000
0.756443 0.000000 0.000000
0.784181 0.078399 0.000000
0.843835 0.000000 0.000000
0.910555 0.000000 0.000000
0.976614 0.000000 0.000000
1.000000 0.148781 0.085465
1.000000 0.229184 0.134049
1.000000 0.308898 0.183871
1.000000 0.388464 0.239850
1.000000 0.472779 0.297119
1.000000 0.558177 0.362216
1.000000 0.641625 0.441239
1.000000 0.709743 0.512811
1.000000 0.773583 0.586607
1.000000 0.829343 0.669072
1.000000 0.864875 0.739018
1.000000 0.895706 0.785760
0.000000 0.331631 0.000000
0.000000 0.325988 0.000000
0.000000 0.325848 0.000000
0.000000 0.322982 0.000000
0.000000 0.322798 0.000000
0.000000 0.319708 0.000000
0.000000 0.313638 0.000000
0.000000 0.309926 0.000000
0.139533 0.304549 0.000000
0.277270 0.290828 0.000000
0.362078 0.278712 0.000000
0.452683 0.249082 0.000000
0.529595 0.228522 0.000000
0.635298 0.195416 0.000000
0.712732 0.147983 0.000000
0.793764 0.057587 0.000000
0.835275 0.055007 0.000000
0.825872 0.167801 0.000000
0.855841 0.198152 0.000000
0.912474 0.158127 0.000000
0.977293 0.156130 0.000000
1.000000 0.222781 0.066410
1.000000 0.261199 0.127835
1.000000 0.335855 0.178716
1.000000 0.404579 0.238344
1.000000 0.483975 0.296192
1.000000 0.568840 0.361474
1.000000 0.645953 0.441942
1.000000 0.715559 0.512580
1.000000 0.775888 0.586579
1.000000 0.831174 0.669105
1.000000 0.866397 0.739062
1.000000 0.895706 0.785760
0.000000 0.371113 0.000000
0.000000 0.370945 0.000000
0.000000 0.367793 0.000000
0.000000 0.367629 0.000000
0.000000 0.367390 0.000000
0.000000 0.361256 0.000000
0.000000 0.357800 0.000000
0.000000 0.356843 0.000000
0.000000 0.352197 0.000000
0.242628 0.339582 0.000000
0.352722 0.324708 0.000000
0.447028 0.310477 0.000000
0.532587 0.284903 0.000000
0.637593 0.254957 0.000000
0.714389 0.227278 0.000000
0.812353 0.187899 0.000000
0.902410 0.093786 0.000000
0.901440 0.165248 0.000000
0.875131 0.269150 0.000000
0.916088 0.274956 0.000000
0.972887 0.259934 0.000000
1.000000 0.274724 0.000000
1.000000 0.305488 0.116132
1.000000 0.362555 0.173699
1.000000 0.429340 0.234006
1.000000 0.503802 0.295338
1.000000 0.579526 0.360717
1.000000 0.655766 0.441385
1.000000 0.721421 0.512357
1.000000 0.780432 0.586538
1.000000 0.832993 0.669143
1.000000 0.867904 0.739108
1.000000 0.896925 0.785810
0.000000 0.421273 0.000000
0.000000 0.421032 0.000000
0.000000 0.417484 0.000000
0.000000 0.414023 0.000000
0.000000 0.410506 0.000000
0.000000 0.410237 0.000000
0.000000 0.406461 0.000000
0.000000 0.405486 0.000000
0.000000 0.404262 0.000000
0.175513 0.398997 0.000000
0.329623 0.380854 0.000000
0.430304 0.368122 0.000000
0.536687 0.351984 0.000000
0.641956 0.318794 0.000000
0.719747 0.296089 0.000000
0.812175 0.266298 0.000000
0.899994 0.225633 0.000000
0.970756 0.180578 0.000000
0.951286 0.260627 0.000000
0.929673 0.341796 0.000000
0.974964 0.355162 0.000000
1.000000 0.353441 0.000000
1.000000 0.359648 0.090170
1.000000 0.400593 0.158375
1.000000 0.457722 0.228976
1.000000 0.531028 0.293735
1.000000 0.593809 0.359685
1.000000 0.665458 0.440845
1.000000 0.730076 0.512049
1.000000 0.784904 0.586514
1.000000 0.834798 0.669184
1.000000 0.869396 0.739158
1.000000 0.896925 0.785810
0.000000 0.479857 0.000000
0.000000 0.472503 0.000000
0.000000 0.472291 0.000000
0.000000 0.472114 0.000000
0.000000 0.471871 0.000000
0.000000 0.471538 0.000000
0.000000 0.471133 0.000000
0.000000 0.466896 0.000000
0.000000 0.465860 0.000000
0.133389 0.457323 0.000000
0.277477 0.447500 0.000000
0.414879 0.438112 0.000000
0.518079 0.424061 0.000000
0.643055 0.401521 0.000000
0.726818 0.372938 0.000000
0.815369 0.348996 0.000000
0.900032 0.319128 0.000000
0.970857 0.299678 0.000000
1.000000 0.270863 0.000000
0.991753 0.360519 0.000000
0.980592 0.438942 0.000000
1.000000 0.447268 0.000000
1.000000 0.433044 0.000000
1.000000 0.455028 0.140874
1.000000 0.493313 0.219141
1.000000 0.561877 0.289011
1.000000 0.615303 0.355145
1.000000 0.678183 0.437255
1.000000 0.741337 0.511694
1.000000 0.792085 0.587427
1.000000 0.838813 0.670150
1.000000 0.871174 0.739821
1.000000 0.898139 0.785863
0.000000 0.526409 0.000000
0.000000 0.522349 0.000000
0.000000 0.522134 0.000000
0.000000 0.521844 0.000000
0.000000 0.521629 0.000000
0.000000 0.521334 0.000000
0.000000 0.520864 0.000000
0.000000 0.520232 0.000000
0.000000 0.519374 0.000000
0.096051 0.518096 0.000000
0.259287 0.508508 0.000000
0.375287 0.497461 0.000000
0.514612 0.486435 0.000000
0.633858 0.469862 0.000000
0.720001 0.450199 0.000000
0.825352 0.419076 0.000000
0.906177 0.393619 0.000000
0.967810 0.375013 0.000000
1.000000 0.363994 0.000000
1.000000 0.345557 0.000000
1.000000 0.454076 0.000000
1.000000 0.522505 0.000000
1.000000 0.529022 0.000000
1.000000 0.529605 0.099571
1.000000 0.549605 0.201155
1.000000 0.588115 0.280971
1.000000 0.641128 0.354153
1.000000 0.696904 0.436285
1.000000 0.752942 0.509489
1.000000 0.799111 0.588387
1.000000 0.841895 0.669387
1.000000 0.874069 0.739940
1.000000 0.900546 0.785976
0.000000 0.581682 0.000000
0.000000 0.581328 0.000000
0.000000 0.580996 0.000000
0.000000 0.580778 0.000000
0.000000 0.580625 0.000000
0.000000 0.580212 0.000000
0.000000 0.579848 0.000000
0.000000 0.575309 0.000000
0.000000 0.574518 0.000000
0.143366 0.573320 0.000000
0.257937 0.571700 0.000000
0.370302 0.561162 0.000000
0.482593 0.552665 0.000000
0.629926 0.531937 0.000000
0.722220 0.516517 0.000000
0.818680 0.499494 0.000000
0.900191 0.467627 0.000000
0.960061 0.450885 0.000000
1.000000 0.436923 0.000000
1.000000 0.432130 0.000000
1.000000 0.425252 0.000000
1.000000 0.543438 0.000000
1.000000 0.602210 0.000000
1.000000 0.614160 0.000000
1.000000 0.612899 0.169399
1.000000 0.633710 0.268647
1.000000 0.668774 0.349111
1.000000 0.717008 0.433438
1.000000 0.766549 0.510210
1.000000 0.809668 0.588515
1.000000 0.847084 0.669582
1.000000 0.876904 0.740076
1.000000 0.901740 0.786037
0.000000 0.648837 0.000000
0.000000 0.648568 0.000000
0.000000 0.648293 0.000000
0.000000 0.648101 0.000000
0.000000 0.647901 0.000000
0.000000 0.647584 0.000000
0.000000 0.647248 0.000000
0.000000 0.646512 0.000000
0.000000 0.641942 0.000000
0.187953 0.640701 0.000000
0.294811 0.635214 0.000000
0.371385 0.629488 0.000000
0.476137 0.621936 0.000000
0.597189 0.612010 0.000000
0.704703 0.597049 0.000000
0.817839 0.580051 0.000000
0.896131 0.557685 0.000000
0.960429 0.533818 0.000000
1.000000 0.520909 0.000000
1.000000 0.515634 0.000000
1.000000 0.510822 0.000000
1.000000 0.511099 0.000000
1.000000 0.639128 0.000000
1.000000 0.689180 0.000000
1.000000 0.693306 0.088630
1.000000 0.695970 0.245465
1.000000 0.710421 0.338346
1.000000 0.750226 0.429407
1.000000 0.781778 0.511095
1.000000 0.821930 0.588818
1.000000 0.854441 0.667947
1.000000 0.881045 0.740309
1.000000 0.905490 0.786730
0.000000 0.709314 0.000000
0.000000 0.708945 0.000000
0.000000 0.708688 0.000000
0.000000 0.708423 0.000000
0.000000 0.708287 0.000000
0.000000 0.707867 0.000000
0.000000 0.707430 0.000000
0.000000 0.706815 0.000000
0.168938 0.706167 0.000000
0.257756 0.705125 0.000000
0.326530 0.699842 0.000000
0.417928 0.689303 0.000000
0.504397 0.682260 0.000000
0.597629 0.678006 0.000000
0.687847 0.668996 0.000000
0.799509 0.649477 0.000000
0.885823 0.631185 0.000000
0.948955 0.619831 0.000000
0.997443 0.599111 0.000000
1.000000 0.589545 0.000000
1.000000 0.587563 0.000000
1.000000 0.581130 0.000000
1.000000 0.586929 0.070139
1.000000 0.730168 0.000000
1.000000 0.762239 0.000000
1.000000 0.768328 0.197740
1.000000 0.766670 0.319299
1.000000 0.783726 0.423362
1.000000 0.806970 0.511510
1.000000 0.835613 0.586512
1.000000 0.862843 0.668500
1.000000 0.886458 0.740671
1.000000 0.908957 0.786955
0.000000 0.763603 0.000000
0.000000 0.763282 0.000000
0.000000 0.763118 0.000000
0.098107 0.762953 0.000000
0.134715 0.762785 0.000000
0.183512 0.762438 0.000000
0.219597 0.762081 0.000000
0.262992 0.761530 0.000000
0.310419 0.760761 0.000000
0.351124 0.759956 0.000000
0.404727 0.758677 0.000000
0.478156 0.752947 0.000000
0.548520 0.739439 0.000000
0.626301 0.732187 0.000000
0.701425 0.728136 0.000000
0.788672 0.718876 0.000000
0.873969 0.701360 0.000000
0.936814 0.689722 0.000000
0.980485 0.680598 0.000000
1.000000 0.661643 0.000000
1.000000 0.654837 0.000000
1.000000 0.650788 0.000000
1.000000 0.653886 0.000000
1.000000 0.658318 0.159298
1.000000 0.793583 0.000000
1.000000 0.815674 0.100989
1.000000 0.820554 0.296765
1.000000 0.823722 0.403059
1.000000 0.828943 0.503224
1.000000 0.853113 0.586831
1.000000 0.872653 0.667442
1.000000 0.894365 0.741323
1.000000 0.913656 0.787791
0.329203 0.805764 0.000000
0.339941 0.805561 0.000000
0.350333 0.805357 0.000000
0.360415 0.805150 0.000000
0.379770 0.804729 0.000000
0.389093 0.804516 0.000000
0.398206 0.804300 0.000000
0.424439 0.803639 0.000000
0.449288 0.802957 0.000000
0.473008 0.802256 0.000000
0.503198 0.801288 0.000000
0.539068 0.800028 0.000000
0.595366 0.794790 0.000000
0.658064 0.788864 0.000000
0.725189 0.782231 0.000000
0.787836 0.775368 0.000000
0.859471 0.764274 0.000000
0.927821 0.753347 0.000000
0.970968 0.744809 0.000000
1.000000 0.738197 0.000000
1.000000 0.719735 0.000000
1.000000 0.717282 0.000000
1.000000 0.713856 0.000000
1.000000 0.714857 0.151449
1.000000 0.723543 0.242273
1.000000 0.836809 0.000000
1.000000 0.859271 0.226636
1.000000 0.864853 0.382689
1.000000 0.862255 0.491884
1.000000 0.872048 0.578072
1.000000 0.884372 0.663417
1.000000 0.903590 0.743468
1.000000 0.920182 0.788400
0.505736 0.843905 0.000000
0.513296 0.843661 0.000000
0.528150 0.843168 0.000000
0.528150 0.843168 0.000000
0.535453 0.842919 0.000000
0.535453 0.842919 0.000000
0.542679 0.842667 0.000000
0.549831 0.842414 0.000000
0.564220 0.841889 0.000000
0.579204 0.841322 0.000000
0.601062 0.840458 0.000000
0.628766 0.839298 0.000000
0.668889 0.835022 0.000000
0.711365 0.830435 0.000000
0.749823 0.825861 0.000000
0.804954 0.822689 0.000000
0.860625 0.814070 0.000000
0.912689 0.808115 0.000000
0.962088 0.797365 0.000000
0.996311 0.791133 0.000000
1.000000 0.783781 0.000000
1.000000 0.780623 0.000000
1.000000 0.770787 0.000000
1.000000 0.768738 0.141721
1.000000 0.773066 0.240657
1.000000 0.776781 0.317741
1.000000 0.876127 0.125971
1.000000 0.894388 0.337359
1.000000 0.894267 0.469496
1.000000 0.895929 0.571359
1.000000 0.899448 0.652636
1.000000 0.913200 0.740234
1.000000 0.927570 0.789756
0.644335 0.877945 0.000000
0.656927 0.877403 0.000000
0.656927 0.877403 0.000000
0.656927 0.877403 0.000000
0.663083 0.877133 0.000000
0.663083 0.877133 0.000000
0.669148 0.876864 0.000000
0.675124 0.876595 0.000000
0.681011 0.876327 0.000000
0.693693 0.873629 0.000000
0.704854 0.873098 0.000000
0.720975 0.872311 0.000000
0.742475 0.869080 0.000000
0.771789 0.865351 0.000000
0.801255 0.863714 0.000000
0.839481 0.861480 0.000000
0.877357 0.859160 0.000000
0.910600 0.854849 0.000000
0.945259 0.848210 0.000000
0.981599 0.841811 0.000000
1.000000 0.834354 0.000000
1.000000 0.830822 0.000000
1.000000 0.821586 0.000000
1.000000 0.818528 0.154512
1.000000 0.820113 0.252529
1.000000 0.823086 0.330721
1.000000 0.825904 0.402659
1.000000 0.911515 0.255632
1.000000 0.921125 0.438130
1.000000 0.924143 0.562636
1.000000 0.920674 0.648193
1.000000 0.926672 0.734635
1.000000 0.937423 0.788724
0.753226 0.902673 0.000000
0.757704 0.902445 0.000000
0.758528 0.900754 0.000000
0.762929 0.900528 0.000000
0.762929 0.900528 0.000000
