Assets/Lutify-Free-LUTs-Pack/Lutify Free LUTs Pack/Commercial Pro - Claire/Lutify.me-Claire-SLog3Venice-to-Rec709.cube
# Created with: fylm.ai - Colour Grading and Collaboration Software in Cloud 
# Website: https://fylm.ai 
# META
# Option: Gamut compress
# Block 1: IDT | Sony Venice S-Log3 S-Gamut3
# Block 2: colourMatch | Blending Mode: Normal | {"ColorSpace":0,"CrossCovarianceLimit":50,"ReshapingIterations":1,"PercentSaturationShift":100,"PercentShadingShift":100,"ExtraShading":true,"PercentTint":100,"PercentModified":100}
# Block 3: HSL | Blending Mode: Normal | {"hue":{"Reds":0,"Yellows":0,"Greens":0,"Cyans":0,"Blues":0,"Magentas":0},"saturation":{"Reds":1,"Yellows":1,"Greens":1,"Cyans":1,"Blues":1,"Magentas":1},"luminance":{"Reds":0.9,"Yellows":0.9,"Greens":0.9,"Cyans":0.8,"Blues":0.8,"Magentas":0.9},"lum_sat":{"Blacks":1,"Shadows":1,"Midtones":1,"Highlights":1,"Whites":1},"sat_sat":{"10":1,"20":1,"30":1,"40":1,"50":1}}
# Block 4: subtractiveColour | Blending Mode: Normal | {"sliders":{"gainY":0.1,"C":0.05,"M":0.05,"Y":0.05}}
# Block 5: logPrimaries | Blending Mode: Normal | {"wheels":{"shadows":{"Y":"0","R":"1","G":"1","B":"1"},"midtones":{"Y":"0","R":"1","G":"1","B":"1"},"highlights":{"Y":"0","R":"1","G":"1","B":"1"},"offset":{"Y":"0","R":"1","G":"1","B":"1"}},"sliders":{"shadows":{"Y":0,"R":-0.05,"G":0,"B":0.1},"midtones":{"Y":0,"R":0,"G":0,"B":0},"highlights":{"Y":0,"R":0,"G":0,"B":0},"offset":{"Y":0,"R":0,"G":0,"B":0}}}
# Block 6: LUT | Filmic Curve Response: Standard Contrast 1 (100%)
# Block 7: LUT | Illuminant: D93 (100%)
# Block 8: LUT | Neutral Tint: Teal Tint 4 (100%)
# Block 9: ODT | Rec709
TITLE "Lutify.me-Claire-SLog3Venice-to-Rec709" 
LUT_3D_SIZE 9
0.000000 0.000000 0.000000
0.095063 0.000000 0.000000
0.333084 0.000000 0.000000
0.507908 0.000000 0.000000
0.657384 0.000000 0.000000
0.933134 0.000000 0.036232
1.000000 0.256873 0.186896
1.000000 0.630608 0.420330
1.000000 0.858456 0.704781
0.000000 0.047456 0.000000
0.000000 0.034089 0.000000
0.242167 0.000000 0.000000
0.433776 0.000000 0.000000
0.644710 0.000000 0.000000
0.932755 0.000000 0.035448
1.000000 0.266913 0.188227
1.000000 0.630596 0.423336
1.000000 0.858456 0.704781
0.000000 0.147996 0.000000
0.000000 0.139854 0.000000
0.190570 0.101472 0.000000
0.404534 0.000000 0.000000
0.645186 0.000000 0.000000
0.932012 0.000000 0.023375
1.000000 0.281545 0.189166
1.000000 0.633966 0.423131
1.000000 0.861660 0.704917
0.000000 0.252654 0.000000
0.000000 0.281366 0.000000
0.000000 0.270353 0.000000
0.388465 0.223027 0.000000
0.637535 0.169564 0.000000
0.929293 0.000000 0.000000
1.000000 0.323858 0.190208
1.000000 0.643990 0.425548
1.000000 0.863597 0.708425
0.000000 0.350630 0.233561
0.000000 0.392564 0.202100
0.000000 0.495223 0.091982
0.000000 0.506700 0.000000
0.618435 0.460633 0.000000
0.915611 0.423076 0.000000
1.000000 0.439709 0.199486
1.000000 0.673331 0.432699
1.000000 0.868209 0.711248
0.000000 0.546252 0.450124
0.000000 0.576321 0.466381
0.000000 0.656433 0.438589
0.000000 0.771117 0.370212
0.077719 0.786406 0.186414
0.858462 0.747514 0.000000
1.000000 0.729537 0.227623
1.000000 0.757725 0.459778
1.000000 0.879823 0.719682
0.000000 0.756843 0.685424
0.000000 0.798428 0.712591
0.000000 0.834199 0.721393
0.000000 0.881010 0.698978
0.000000 0.935880 0.669950
0.679135 0.931549 0.533718
0.972486 0.906407 0.368873
1.000000 0.902372 0.551271
1.000000 0.912438 0.748774
0.000000 0.926667 0.877674
0.000000 0.939044 0.882591
0.000000 0.948959 0.889070
0.000000 0.963825 0.893208
0.000000 0.982703 0.887596
0.479365 0.994610 0.880162
0.895880 0.985185 0.817409
1.000000 0.976035 0.713788
1.000000 0.974110 0.817722
0.000000 1.000000 0.961931
0.000000 1.000000 0.962640
0.000000 1.000000 0.964788
0.000000 1.000000 0.966780
0.000000 1.000000 0.967592
0.415047 1.000000 0.965147
0.829948 1.000000 0.964060
0.972644 1.000000 0.940745
1.000000 1.000000 0.895918
0.000000 0.000000 0.044068
0.068267 0.000000 0.000000
0.282110 0.000000 0.000000
0.446737 0.000000 0.000000
0.640416 0.000000 0.000000
0.929309 0.000000 0.057171
1.000000 0.256840 0.195385
1.000000 0.630586 0.426353
1.000000 0.858456 0.704781
0.000000 0.029908 0.056550
0.000000 0.020598 0.043298
0.204859 0.000000 0.000000
0.388016 0.000000 0.000000
0.636342 0.000000 0.000000
0.928921 0.000000 0.057540
1.000000 0.266882 0.196814
1.000000 0.630586 0.426353
1.000000 0.858456 0.704781
0.000000 0.112160 0.081714
0.000000 0.127839 0.055219
0.145877 0.118849 0.000000
0.359837 0.000000 0.000000
0.619824 0.000000 0.000000
0.928242 0.000000 0.059902
1.000000 0.281518 0.197877
1.000000 0.633955 0.426150
1.000000 0.861660 0.704917
0.000000 0.217246 0.147209
0.000000 0.241643 0.117841
0.000000 0.287650 0.000000
0.339451 0.258905 0.000000
0.624838 0.187423 0.000000
0.929229 0.000000 0.055555
1.000000 0.332043 0.200183
1.000000 0.643970 0.431491
1.000000 0.863597 0.708425
0.000000 0.352814 0.278457
0.000000 0.376453 0.270983
0.000000 0.473814 0.206037
0.000000 0.517948 0.000000
0.599276 0.477212 0.000000
0.911532 0.427586 0.000000
1.000000 0.440216 0.215581
1.000000 0.673322 0.435603
1.000000 0.868209 0.711248
0.000000 0.546196 0.464706
0.000000 0.576237 0.488563
0.000000 0.648709 0.461375
0.000000 0.756634 0.408668
0.000000 0.789653 0.238308
0.856981 0.751063 0.000000
1.000000 0.729542 0.240678
1.000000 0.757710 0.465810
1.000000 0.879811 0.722202
0.000000 0.756826 0.689207
0.000000 0.798417 0.716141
0.000000 0.834188 0.724835
0.000000 0.878665 0.706106
0.000000 0.934424 0.684058
0.677824 0.932873 0.548375
0.972125 0.906372 0.387932
1.000000 0.902356 0.557161
1.000000 0.912438 0.748774
0.000000 0.926674 0.877675
0.000000 0.937545 0.882669
0.000000 0.948956 0.890745
0.000000 0.963825 0.893208
0.000000 0.982760 0.889203
0.471879 0.994790 0.880173
0.895757 0.985174 0.819450
1.000000 0.976026 0.716010
1.000000 0.974102 0.819429
0.000000 1.000000 0.961932
0.000000 1.000000 0.962640
0.000000 1.000000 0.964829
0.000000 1.000000 0.966780
0.000000 1.000000 0.967592
0.415167 1.000000 0.966576
0.829948 1.000000 0.964060
0.972644 1.000000 0.940745
1.000000 1.000000 0.895918
0.000000 0.000000 0.133850
0.009094 0.000000 0.069581
0.236117 0.000000 0.040629
0.418598 0.000000 0.018088
0.632290 0.000000 0.036782
0.925526 0.000000 0.084602
1.000000 0.261843 0.208153
1.000000 0.630564 0.432283
1.000000 0.858443 0.707404
0.000000 0.000000 0.133989
0.000000 0.000000 0.096163
0.177275 0.000000 0.068784
0.367083 0.000000 0.053929
0.619707 0.000000 0.045658
0.925129 0.000000 0.086057
1.000000 0.271766 0.209722
1.000000 0.633934 0.432084
1.000000 0.858443 0.707404
0.000000 0.115487 0.190123
0.000000 0.118374 0.188077
0.092535 0.127881 0.182988
0.333246 0.028390 0.087748
0.603103 0.000000 0.054857
0.924432 0.000000 0.089721
1.000000 0.286252 0.210958
1.000000 0.637291 0.431885
1.000000 0.861648 0.707534
0.000000 0.224125 0.252020
0.000000 0.234114 0.255888
0.000000 0.276165 0.235858
0.292322 0.285512 0.119404
0.615191 0.200066 0.053508
0.925384 0.000000 0.094926
1.000000 0.332010 0.214267
1.000000 0.647279 0.434179
1.000000 0.863228 0.707606
0.000000 0.355008 0.323065
0.000000 0.375977 0.340267
0.000000 0.438757 0.310949
0.000000 0.529179 0.196460
0.590118 0.489244 0.000000
0.907053 0.432173 0.079394
1.000000 0.440204 0.228848
1.000000 0.673303 0.441442
1.000000 0.868197 0.713822
0.000000 0.546092 0.490476
0.000000 0.576147 0.510948
0.000000 0.637083 0.503312
0.000000 0.745419 0.450721
0.000000 0.793002 0.296093
0.857552 0.757805 0.000000
1.000000 0.733026 0.263257
1.000000 0.757694 0.471880
1.000000 0.879811 0.722202
0.000000 0.756792 0.696694
0.000000 0.795142 0.719838
0.000000 0.834144 0.734986
0.000000 0.878633 0.719979
0.000000 0.931539 0.694211
0.676727 0.932803 0.569732
0.969608 0.907913 0.407519
1.000000 0.902340 0.563086
1.000000 0.912428 0.751059
0.000000 0.925019 0.877766
0.000000 0.937543 0.884468
0.000000 0.948973 0.890747
0.000000 0.963835 0.894802
0.000000 0.982749 0.890787
0.469828 0.994189 0.883262
0.895634 0.985164 0.821478
1.000000 0.976007 0.720441
1.000000 0.974102 0.819429
0.000000 1.000000 0.961933
0.000000 1.000000 0.962641
0.000000 1.000000 0.964830
0.000000 1.000000 0.966782
0.000000 1.000000 0.967592
0.415167 1.000000 0.966576
0.829948 1.000000 0.964060
0.972590 1.000000 0.941570
1.000000 1.000000 0.896873
0.000000 0.000000 0.190447
0.000000 0.000000 0.109501
0.187890 0.000000 0.078333
0.422299 0.000000 0.058790
0.613694 0.000000 0.111549
0.922036 0.000000 0.142906
1.000000 0.261670 0.240819
1.000000 0.629457 0.442991
1.000000 0.858418 0.712625
0.000000 0.011728 0.200503
0.000000 0.010250 0.155949
0.135515 0.000000 0.133062
0.360010 0.000000 0.099721
0.597249 0.000000 0.138547
0.917654 0.000000 0.149175
1.000000 0.271603 0.242754
1.000000 0.632846 0.442795
1.000000 0.858418 0.712625
0.000000 0.085416 0.253572
0.000000 0.086052 0.239324
0.000000 0.083997 0.255889
0.322523 0.000000 0.203305
0.593531 0.000000 0.168699
0.916613 0.000000 0.156472
1.000000 0.286915 0.244874
1.000000 0.636211 0.445529
1.000000 0.861622 0.712743
0.000000 0.223293 0.348480
0.000000 0.227279 0.351355
0.000000 0.254400 0.392745
0.230927 0.298633 0.389929
0.582427 0.214176 0.245610
0.917199 0.000000 0.175138
1.000000 0.323666 0.252892
1.000000 0.646254 0.447900
1.000000 0.863203 0.712809
0.000000 0.375467 0.438744
0.000000 0.387985 0.452267
0.000000 0.434556 0.496913
0.000000 0.510760 0.460080
0.540723 0.537899 0.325012
0.909931 0.444403 0.210081
1.000000 0.439630 0.270322
1.000000 0.676433 0.459036
1.000000 0.868172 0.718945
0.000000 0.553421 0.531101
0.000000 0.575913 0.563913
0.000000 0.636786 0.583560
0.000000 0.725891 0.550886
0.000000 0.802670 0.452068
0.842318 0.774887 0.268301
1.000000 0.733041 0.323912
1.000000 0.760453 0.487166
1.000000 0.879787 0.727215
0.000000 0.753038 0.704289
0.000000 0.785067 0.730794
0.000000 0.831263 0.762768
0.000000 0.868946 0.754366
0.000000 0.927244 0.730627
0.673050 0.933963 0.624474
0.966016 0.913616 0.463310
1.000000 0.903694 0.581592
1.000000 0.912407 0.755595
0.000000 0.923366 0.875937
0.000000 0.936022 0.888067
0.000000 0.948982 0.894017
0.000000 0.963862 0.899504
0.000000 0.981890 0.893929
0.452507 0.993917 0.887830
0.895028 0.985113 0.831403
1.000000 0.976497 0.734803
1.000000 0.974078 0.824517
0.000000 1.000000 0.961983
0.000000 1.000000 0.963450
0.000000 1.000000 0.964834
0.000000 1.000000 0.968308
0.000000 1.000000 0.968319
0.397007 1.000000 0.967307
0.827852 1.000000 0.964750
0.972536 1.000000 0.942391
1.000000 1.000000 0.897826
0.000000 0.000000 0.194547
0.000000 0.000000 0.171396
0.133806 0.000000 0.153329
0.366574 0.000000 0.113561
0.685478 0.000000 0.087657
0.900461 0.000000 0.286789
1.000000 0.251514 0.333187
1.000000 0.629263 0.487945
1.000000 0.858353 0.725516
0.000000 0.034517 0.247353
0.000000 0.036923 0.233555
0.071335 0.011851 0.228789
0.318755 0.000000 0.189355
0.596950 0.000000 0.147250
0.899978 0.000000 0.299318
1.000000 0.261703 0.335738
1.000000 0.632640 0.490846
1.000000 0.858353 0.725516
0.000000 0.078536 0.308361
0.000000 0.082137 0.303149
0.000000 0.081114 0.316183
0.276306 0.000000 0.314409
0.565842 0.000000 0.252445
0.903174 0.000000 0.317863
1.000000 0.276534 0.338153
1.000000 0.636020 0.490671
1.000000 0.861558 0.725606
0.000000 0.190336 0.425341
0.000000 0.204975 0.435219
0.000000 0.217241 0.462919
0.131051 0.224768 0.505451
0.582462 0.122481 0.437239
0.907060 0.000000 0.367503
1.000000 0.322990 0.354414
1.000000 0.646068 0.493244
1.000000 0.863127 0.728196
0.000000 0.362397 0.552241
0.000000 0.365423 0.552107
0.000000 0.413534 0.584059
0.000000 0.470990 0.658686
0.477095 0.555018 0.668911
0.885019 0.458660 0.473795
1.000000 0.450540 0.388037
1.000000 0.675450 0.501131
1.000000 0.867769 0.730884
0.000000 0.575501 0.645426
0.000000 0.575459 0.653211
0.000000 0.628585 0.704210
0.000000 0.705060 0.756596
0.000000 0.794393 0.729953
0.815945 0.804478 0.607615
1.000000 0.746556 0.465442
1.000000 0.757962 0.535169
1.000000 0.881106 0.742085
0.000000 0.752844 0.746574
0.000000 0.778053 0.759060
0.000000 0.822603 0.803037
0.000000 0.868756 0.823978
0.000000 0.914147 0.808801
0.657064 0.937641 0.749885
0.961265 0.918724 0.596541
1.000000 0.904917 0.638024
1.000000 0.912356 0.766708
0.000000 0.912619 0.870591
0.000000 0.929846 0.890145
0.000000 0.944773 0.900610
0.000000 0.961484 0.910123
0.000000 0.979413 0.906050
0.391993 0.992438 0.900966
0.891135 0.986155 0.857570
1.000000 0.977497 0.767408
1.000000 0.974575 0.836479
0.000000 1.000000 0.962904
0.000000 1.000000 0.964350
0.000000 1.000000 0.965666
0.000000 1.000000 0.969770
0.000000 1.000000 0.970455
0.385139 1.000000 0.969391
0.821040 1.000000 0.967403
0.972210 1.000000 0.946537
1.000000 1.000000 0.904241
0.000000 0.045398 0.322092
0.000000 0.037509 0.322007
0.110612 0.007014 0.318907
0.266410 0.000000 0.298902
0.564764 0.000000 0.219293
0.930124 0.000000 0.169395
1.000000 0.172972 0.538085
1.000000 0.627521 0.600352
1.000000 0.861377 0.760088
0.000000 0.074551 0.384452
0.000000 0.073242 0.387704
0.000000 0.066024 0.377810
0.221499 0.000000 0.390128
0.545175 0.000000 0.314413
0.885082 0.000000 0.254263
1.000000 0.194228 0.544919
1.000000 0.627521 0.600352
1.000000 0.861377 0.760088
0.000000 0.114202 0.437783
0.000000 0.116519 0.448144
0.000000 0.112983 0.455118
0.169662 0.096509 0.461668
0.531604 0.000000 0.435020
0.871015 0.000000 0.350059
1.000000 0.225462 0.548077
1.000000 0.630915 0.603607
1.000000 0.861377 0.760088
0.000000 0.192402 0.528873
0.000000 0.196381 0.536145
0.000000 0.202252 0.547080
0.000000 0.202441 0.580535
0.511191 0.136341 0.597368
0.874748 0.000000 0.507893
1.000000 0.288314 0.579452
1.000000 0.645407 0.606908
1.000000 0.862946 0.762457
0.000000 0.361431 0.652057
0.000000 0.373515 0.670929
0.000000 0.389163 0.693499
0.000000 0.411358 0.733629
0.333358 0.443820 0.783040
0.886617 0.360216 0.715696
1.000000 0.438641 0.631522
1.000000 0.675645 0.619798
1.000000 0.867592 0.764839
0.000000 0.555947 0.758083
0.000000 0.555947 0.758083
0.000000 0.555947 0.758083
0.000000 0.658617 0.832249
0.000000 0.751606 0.868230
0.768649 0.818682 0.872613
0.991860 0.762030 0.750286
1.000000 0.760254 0.655620
1.000000 0.880940 0.774702
0.000000 0.774258 0.829997
0.000000 0.774258 0.829997
0.000000 0.777756 0.829767
0.000000 0.859103 0.889473
0.000000 0.905668 0.908877
0.530305 0.936854 0.899916
0.942078 0.930741 0.848647
1.000000 0.909973 0.751623
1.000000 0.914683 0.799888
0.000000 0.904783 0.884606
0.000000 0.904783 0.884606
0.000000 0.924926 0.901850
0.000000 0.960451 0.930403
0.000000 0.978067 0.936060
0.196983 0.988833 0.933065
0.884461 0.988965 0.916229
0.997406 0.980350 0.849096
1.000000 0.975003 0.861634
0.000000 0.996046 0.960014
0.000000 0.998957 0.964732
0.000000 1.000000 0.969010
0.000000 1.000000 0.972690
0.000000 1.000000 0.975138
0.326603 1.000000 0.974037
0.809924 1.000000 0.972948
0.972104 1.000000 0.957913
1.000000 1.000000 0.918235
0.000000 0.155423 0.604765
0.000000 0.148501 0.600987
0.000000 0.142737 0.600960
0.207437 0.132658 0.608135
0.441885 0.000000 0.614133
0.847114 0.000000 0.508205
1.000000 0.000000 0.410790
1.000000 0.585038 0.796561
1.000000 0.860932 0.831710
0.000000 0.173564 0.627448
0.000000 0.172617 0.631250
0.000000 0.164948 0.627449
0.180369 0.155351 0.630917
0.423348 0.090809 0.644784
0.836672 0.000000 0.555388
1.000000 0.000000 0.469296
1.000000 0.588520 0.796415
1.000000 0.860932 0.831710
0.000000 0.197403 0.657761
0.000000 0.199006 0.657648
0.000000 0.200155 0.665251
0.128434 0.190195 0.665010
0.405965 0.146213 0.679108
0.847633 0.000000 0.611455
1.000000 0.000000 0.531119
1.000000 0.596547 0.799012
1.000000 0.862518 0.831660
0.000000 0.252501 0.714023
0.000000 0.254453 0.717690
0.000000 0.256135 0.717551
0.000000 0.254930 0.732025
0.344771 0.233870 0.741870
0.839384 0.000000 0.724174
1.000000 0.000000 0.643814
1.000000 0.617422 0.806196
1.000000 0.864076 0.833637
0.000000 0.365343 0.791591
0.000000 0.368257 0.794757
0.000000 0.371033 0.797864
0.000000 0.382341 0.809848
0.197233 0.384687 0.837373
0.822256 0.339431 0.848331
1.000000 0.231410 0.780587
1.000000 0.662765 0.824410
1.000000 0.869020 0.835764
0.000000 0.604905 0.869309
0.000000 0.616327 0.873060
0.000000 0.623882 0.879042
0.000000 0.642618 0.890149
0.000000 0.674443 0.910095
0.644235 0.712072 0.928900
1.000000 0.678451 0.900065
1.000000 0.762782 0.853724
1.000000 0.882193 0.843500
0.000000 0.759796 0.886807
0.000000 0.759796 0.886807
0.000000 0.759796 0.886807
0.000000 0.759796 0.886807
0.000000 0.882112 0.941981
0.179805 0.921331 0.958722
0.926587 0.939860 0.959502
1.000000 0.917243 0.912149
1.000000 0.916540 0.861380
0.000000 0.910484 0.923454
0.000000 0.910484 0.923454
0.000000 0.910484 0.923454
0.000000 0.910484 0.923454
0.000000 0.973212 0.967212
0.000000 0.987694 0.976112
0.849781 0.987339 0.973014
0.989995 0.985061 0.952616
1.000000 0.976397 0.911799
0.000000 0.981173 0.954850
0.000000 0.981173 0.954850
0.000000 0.981173 0.954850
0.000000 1.000000 0.974177
0.000000 1.000000 0.983995
0.170258 1.000000 0.986811
0.768386 1.000000 0.984313
0.968973 1.000000 0.979879
1.000000 1.000000 0.952256
0.148072 0.319608 0.860679
0.169357 0.319144 0.860632
0.195486 0.318448 0.860564
0.261716 0.312888 0.860443
0.433608 0.300728 0.859419
0.727787 0.242817 0.873388
1.000000 0.000000 0.802000
1.000000 0.000000 0.726134
1.000000 0.842473 0.927734
0.127717 0.331861 0.862694
0.152997 0.331422 0.862650
0.182393 0.330763 0.862583
0.253278 0.325437 0.862470
0.429087 0.313969 0.863900
0.721103 0.257140 0.877700
1.000000 0.000000 0.816635
1.000000 0.000000 0.739366
1.000000 0.842473 0.927734
0.000000 0.344618 0.867112
0.114926 0.344013 0.867048
0.148562 0.346543 0.869243
0.239952 0.341051 0.869124
0.419906 0.324219 0.868410
0.717624 0.281711 0.883759
1.000000 0.000000 0.835362
1.000000 0.000000 0.758419
1.000000 0.842465 0.928946
0.000000 0.377384 0.884188
0.000000 0.377050 0.884150
0.000000 0.379544 0.886086
0.184741 0.381008 0.887882
0.391666 0.362303 0.887452
0.694441 0.332761 0.895167
1.000000 0.015053 0.868283
1.000000 0.189293 0.801230
1.000000 0.845844 0.929943
0.000000 0.469544 0.904921
0.000000 0.469317 0.904893
0.000000 0.472502 0.908508
0.000000 0.471194 0.912076
0.287220 0.476692 0.919735
0.627512 0.457141 0.924401
1.000000 0.371993 0.918601
1.000000 0.380866 0.874284
1.000000 0.852628 0.931896
0.000000 0.618155 0.938354
0.000000 0.621753 0.938101
0.000000 0.621561 0.938078
0.000000 0.628407 0.940334
0.000000 0.636840 0.946048
0.522137 0.651081 0.955505
0.982923 0.654263 0.959620
1.000000 0.617177 0.930726
1.000000 0.874220 0.939666
0.000000 0.845933 0.960927
0.000000 0.848405 0.961707
0.000000 0.850807 0.963428
0.000000 0.857659 0.966542
0.000000 0.865363 0.971758
0.000000 0.886669 0.978231
0.875479 0.897836 0.985058
1.000000 0.885937 0.973937
1.000000 0.915639 0.953711
0.000000 0.906549 0.955617
0.000000 0.906549 0.955617
0.000000 0.906549 0.955617
0.000000 0.906549 0.955617
0.000000 0.906549 0.955617
0.000000 0.979576 0.990328
0.764086 0.982264 0.995088
0.983106 0.988060 0.996403
1.000000 0.980132 0.978345
0.000000 0.981998 0.975038
0.000000 0.981998 0.975038
0.000000 0.981998 0.975038
0.000000 0.981998 0.975038
0.000000 0.981998 0.975038
0.000000 1.000000 0.999265
0.704156 1.000000 1.000000
0.953686 1.000000 0.999791
1.000000 1.000000 0.993981
0.476800 0.561123 0.970816
0.483409 0.560807 0.970784
0.483409 0.560807 0.970784
0.511353 0.555563 0.970840
0.566952 0.552345 0.969475
0.718081 0.541517 0.971542
0.958202 0.527637 0.976679
1.000000 0.410709 0.952352
1.000000 0.507255 0.910908
0.474465 0.565124 0.971661
0.481118 0.564812 0.971629
0.487714 0.564496 0.971596
0.509326 0.559512 0.970651
0.565114 0.556391 0.970339
0.718081 0.541517 0.971542
0.957270 0.531931 0.976513
1.000000 0.414488 0.953460
1.000000 0.513465 0.912221
0.469768 0.573060 0.972297
0.476510 0.572754 0.972265
0.483191 0.572444 0.972233
0.511455 0.567219 0.972295
0.569299 0.560076 0.971152
0.709646 0.550233 0.972233
0.955303 0.540591 0.977087
1.000000 0.425960 0.956692
1.000000 0.519674 0.915029
0.462337 0.585066 0.974688
0.469223 0.584768 0.974657
0.473653 0.588408 0.974427
0.502716 0.583229 0.974498
0.559852 0.580250 0.974197
0.704085 0.566667 0.973469
0.948357 0.558062 0.978220
1.000000 0.459980 0.961321
1.000000 0.545832 0.924337
0.402373 0.637417 0.978650
0.410415 0.637159 0.978623
0.418288 0.636963 0.979493
0.456181 0.635618 0.979352
0.536647 0.636182 0.980544
0.684098 0.619964 0.979274
0.927950 0.613819 0.981876
1.000000 0.542207 0.970675
1.000000 0.603399 0.940666
0.221917 0.733949 0.983412
0.222017 0.733997 0.984199
0.238746 0.733792 0.984177
0.275612 0.736946 0.983877
0.413393 0.734137 0.985877
0.630614 0.733477 0.988941
0.883546 0.722142 0.989248
1.000000 0.716892 0.987553
1.000000 0.722063 0.967457
0.000000 0.852937 0.992296
0.000000 0.852787 0.992281
0.000000 0.852635 0.992266
0.000000 0.854576 0.992604
0.000000 0.855345 0.993356
0.476801 0.862481 0.994722
0.802688 0.862155 0.997598
1.000000 0.869318 0.999041
1.000000 0.855752 0.987256
0.000000 0.962282 0.998651
0.000000 0.963369 0.998925
0.000000 0.963163 0.998905
0.000000 0.963860 0.999506
0.000000 0.967629 0.999945
0.000000 0.968773 1.000000
0.694256 0.967188 1.000000
0.962740 0.970754 1.000000
1.000000 0.968841 1.000000
0.000000 0.981850 0.990598
0.000000 0.981850 0.990598
0.000000 0.981850 0.990598
0.000000 0.981850 0.990598
0.000000 0.981850 0.990598
0.000000 0.981850 0.990598
0.454605 1.000000 1.000000
0.923886 1.000000 1.000000
1.000000 1.000000 1.000000
