Assets/Lutify-Free-LUTs-Pack/Lutify Free LUTs Pack/Commercial Pro - Claire/Lutify.me-Claire-LogC4-to-Rec709.cube
# Created with: fylm.ai - Colour Grading and Collaboration Software in Cloud 
# Website: https://fylm.ai 
# META
# Option: Gamut compress
# Block 1: IDT | Arri Alexa 35 - LogC4
# Block 2: colourMatch | Blending Mode: Normal | {"ColorSpace":0,"CrossCovarianceLimit":50,"ReshapingIterations":1,"PercentSaturationShift":100,"PercentShadingShift":100,"ExtraShading":true,"PercentTint":100,"PercentModified":100}
# Block 3: HSL | Blending Mode: Normal | {"hue":{"Reds":0,"Yellows":0,"Greens":0,"Cyans":0,"Blues":0,"Magentas":0},"saturation":{"Reds":1,"Yellows":1,"Greens":1,"Cyans":1,"Blues":1,"Magentas":1},"luminance":{"Reds":0.9,"Yellows":0.9,"Greens":0.9,"Cyans":0.8,"Blues":0.8,"Magentas":0.9},"lum_sat":{"Blacks":1,"Shadows":1,"Midtones":1,"Highlights":1,"Whites":1},"sat_sat":{"10":1,"20":1,"30":1,"40":1,"50":1}}
# Block 4: subtractiveColour | Blending Mode: Normal | {"sliders":{"gainY":0.1,"C":0.05,"M":0.05,"Y":0.05}}
# Block 5: logPrimaries | Blending Mode: Normal | {"wheels":{"shadows":{"Y":"0","R":"1","G":"1","B":"1"},"midtones":{"Y":"0","R":"1","G":"1","B":"1"},"highlights":{"Y":"0","R":"1","G":"1","B":"1"},"offset":{"Y":"0","R":"1","G":"1","B":"1"}},"sliders":{"shadows":{"Y":0,"R":-0.05,"G":0,"B":0.1},"midtones":{"Y":0,"R":0,"G":0,"B":0},"highlights":{"Y":0,"R":0,"G":0,"B":0},"offset":{"Y":0,"R":0,"G":0,"B":0}}}
# Block 6: LUT | Filmic Curve Response: Standard Contrast 1 (100%)
# Block 7: LUT | Illuminant: D93 (100%)
# Block 8: LUT | Neutral Tint: Teal Tint 4 (100%)
# Block 9: ODT | Rec709
TITLE "Lutify.me-Claire-LogC4-to-Rec709" 
LUT_3D_SIZE 9
0.000000 0.000000 0.000000
0.188591 0.000000 0.000000
0.531155 0.000000 0.000000
0.718290 0.000000 0.000000
1.000000 0.000000 0.115886
1.000000 0.464648 0.342391
1.000000 0.815040 0.678891
1.000000 0.947071 0.889837
1.000000 0.995034 0.985776
0.000000 0.076738 0.000000
0.078936 0.050722 0.000000
0.424187 0.000000 0.000000
0.696625 0.000000 0.000000
1.000000 0.000000 0.117879
1.000000 0.471814 0.344718
1.000000 0.816969 0.678892
1.000000 0.947071 0.889837
1.000000 0.995034 0.985776
0.000000 0.272228 0.000000
0.000000 0.264555 0.000000
0.406835 0.201172 0.000000
0.698252 0.098859 0.000000
1.000000 0.042575 0.117743
1.000000 0.493379 0.351851
1.000000 0.822677 0.681808
1.000000 0.947823 0.891115
1.000000 0.995034 0.985776
0.000000 0.524459 0.149783
0.000000 0.565336 0.034017
0.000000 0.569435 0.000000
0.703073 0.518845 0.000000
1.000000 0.472632 0.118704
1.000000 0.582259 0.364525
1.000000 0.834231 0.691268
1.000000 0.948579 0.891135
1.000000 0.995032 0.986162
0.000000 0.841827 0.480341
0.000000 0.854177 0.476651
0.000000 0.871795 0.432256
0.439406 0.866843 0.297572
0.936854 0.826954 0.117473
1.000000 0.818336 0.444952
1.000000 0.870352 0.715230
1.000000 0.953713 0.893799
1.000000 0.995496 0.986541
0.000000 0.977572 0.813183
0.000000 0.978156 0.810923
0.000000 0.980097 0.804270
0.474474 0.982005 0.791889
0.850814 0.970300 0.708994
1.000000 0.957216 0.591118
1.000000 0.954082 0.793611
1.000000 0.967049 0.904441
1.000000 0.996813 0.988030
0.695176 1.000000 0.951461
0.700573 1.000000 0.951520
0.720905 1.000000 0.950664
0.774288 1.000000 0.949053
0.859765 1.000000 0.946198
0.966275 1.000000 0.920014
1.000000 0.997523 0.875259
1.000000 0.995882 0.936894
1.000000 1.000000 0.990813
0.914636 1.000000 0.996284
0.914821 1.000000 0.996285
0.915918 1.000000 0.996280
0.921469 1.000000 0.996260
0.937124 1.000000 0.995956
0.968669 1.000000 0.995411
0.998586 1.000000 0.986170
1.000000 1.000000 0.969674
1.000000 1.000000 0.998433
0.982106 1.000000 1.000000
0.982106 1.000000 1.000000
0.982098 1.000000 1.000000
0.982484 1.000000 1.000000
0.983964 1.000000 1.000000
0.987865 1.000000 1.000000
0.998249 1.000000 1.000000
1.000000 1.000000 1.000000
1.000000 1.000000 1.000000
0.000000 0.000000 0.084004
0.109252 0.000000 0.025854
0.450246 0.000000 0.000000
0.709809 0.000000 0.000000
1.000000 0.000000 0.131809
1.000000 0.464609 0.350791
1.000000 0.815040 0.678891
1.000000 0.947064 0.891096
1.000000 0.995034 0.985776
0.000000 0.060676 0.095956
0.036894 0.054624 0.080812
0.360776 0.000000 0.000000
0.688147 0.000000 0.027318
1.000000 0.000000 0.133986
1.000000 0.471776 0.353203
1.000000 0.816969 0.678892
1.000000 0.947064 0.891096
1.000000 0.995034 0.985776
0.000000 0.216736 0.165377
0.000000 0.269309 0.104932
0.325777 0.257801 0.000000
0.689189 0.127090 0.000000
1.000000 0.046848 0.136331
1.000000 0.493367 0.354743
1.000000 0.822677 0.681808
1.000000 0.947823 0.891115
1.000000 0.995034 0.985776
0.000000 0.487985 0.279315
0.000000 0.546524 0.236967
0.000000 0.584877 0.075413
0.685362 0.547785 0.000000
0.997796 0.472698 0.153077
1.000000 0.585911 0.373479
1.000000 0.834231 0.691268
1.000000 0.948572 0.892386
1.000000 0.995032 0.986162
0.000000 0.833819 0.514826
0.000000 0.849133 0.510937
0.000000 0.869331 0.477427
0.425882 0.869319 0.349585
0.933312 0.829561 0.181610
1.000000 0.818326 0.451251
1.000000 0.870352 0.715230
1.000000 0.953713 0.893799
1.000000 0.995496 0.986541
0.000000 0.977660 0.817907
0.000000 0.978130 0.815670
0.000000 0.979315 0.811317
0.474478 0.982743 0.799426
0.850357 0.970263 0.717534
1.000000 0.957180 0.601792
1.000000 0.954074 0.795634
1.000000 0.967043 0.905582
1.000000 0.996813 0.988030
0.695176 1.000000 0.951461
0.698539 1.000000 0.951451
0.720850 1.000000 0.951500
0.774174 1.000000 0.950728
0.859765 1.000000 0.946198
0.966208 1.000000 0.921046
1.000000 0.997517 0.876354
1.000000 0.995882 0.936894
1.000000 1.000000 0.990813
0.914636 1.000000 0.996284
0.914636 1.000000 0.996284
0.915918 1.000000 0.996280
0.920406 1.000000 0.996264
0.937124 1.000000 0.995956
0.968669 1.000000 0.995411
0.998586 1.000000 0.986170
1.000000 1.000000 0.969674
1.000000 1.000000 0.998433
0.982098 1.000000 1.000000
0.982098 1.000000 1.000000
0.982098 1.000000 1.000000
0.982484 1.000000 1.000000
0.983964 1.000000 1.000000
0.987865 1.000000 1.000000
0.998249 1.000000 1.000000
1.000000 1.000000 1.000000
1.000000 1.000000 1.000000
0.000000 0.000000 0.263612
0.000000 0.000000 0.108117
0.412852 0.000000 0.056723
0.677654 0.000000 0.118428
1.000000 0.000000 0.187367
1.000000 0.470472 0.376052
1.000000 0.815010 0.684684
1.000000 0.947064 0.891096
1.000000 0.995034 0.985776
0.000000 0.044296 0.229025
0.000000 0.044449 0.182377
0.321819 0.000000 0.127403
0.669870 0.000000 0.148545
1.000000 0.000000 0.192415
1.000000 0.478834 0.379373
1.000000 0.816924 0.687564
1.000000 0.947064 0.891096
1.000000 0.995034 0.985776
0.000000 0.223453 0.342464
0.000000 0.239446 0.366468
0.228916 0.296041 0.386552
0.664670 0.147669 0.220026
1.000000 0.048533 0.208006
1.000000 0.500548 0.384229
1.000000 0.822634 0.690436
1.000000 0.947816 0.892366
1.000000 0.995034 0.985776
0.000000 0.462434 0.495387
0.000000 0.497915 0.500841
0.000000 0.592806 0.451111
0.640139 0.593696 0.299549
0.997598 0.481292 0.255690
1.000000 0.584996 0.407444
1.000000 0.834189 0.699736
1.000000 0.948572 0.892386
1.000000 0.995032 0.986162
0.000000 0.810520 0.620565
0.000000 0.822101 0.616249
0.000000 0.857350 0.596197
0.397761 0.878271 0.487979
0.925256 0.846711 0.323246
1.000000 0.822883 0.483514
1.000000 0.870314 0.723224
1.000000 0.953699 0.896250
1.000000 0.995496 0.986541
0.000000 0.975052 0.833532
0.000000 0.976518 0.833682
0.000000 0.978592 0.829588
0.454493 0.983017 0.822519
0.846070 0.971098 0.742647
0.999569 0.957919 0.635797
1.000000 0.954056 0.799659
1.000000 0.967645 0.905633
1.000000 0.996813 0.988030
0.690635 1.000000 0.953100
0.695074 1.000000 0.953120
0.716686 1.000000 0.953125
0.767885 1.000000 0.952349
0.859589 1.000000 0.948705
0.966077 1.000000 0.923088
1.000000 0.997733 0.880994
1.000000 0.995878 0.937689
1.000000 1.000000 0.990813
0.914628 1.000000 0.996537
0.914628 1.000000 0.996537
0.915908 1.000000 0.996533
0.920396 1.000000 0.996516
0.937111 1.000000 0.996209
0.968653 1.000000 0.995664
0.998562 1.000000 0.986519
1.000000 1.000000 0.970142
1.000000 1.000000 0.998612
0.981312 1.000000 1.000000
0.982098 1.000000 1.000000
0.982098 1.000000 1.000000
0.982484 1.000000 1.000000
0.983964 1.000000 1.000000
0.987865 1.000000 1.000000
0.998249 1.000000 1.000000
1.000000 1.000000 1.000000
1.000000 1.000000 1.000000
0.000000 0.040356 0.286442
0.000000 0.041456 0.261268
0.264114 0.000000 0.228267
0.716418 0.000000 0.113043
1.000000 0.000000 0.355964
1.000000 0.468684 0.468096
1.000000 0.814316 0.709642
1.000000 0.947049 0.893597
1.000000 0.995032 0.986162
0.000000 0.078285 0.335583
0.000000 0.085381 0.329835
0.218307 0.022616 0.343028
0.640085 0.000000 0.228509
1.000000 0.000000 0.374560
1.000000 0.475928 0.470965
1.000000 0.816257 0.709622
1.000000 0.947049 0.893597
1.000000 0.995032 0.986162
0.000000 0.189852 0.453167
0.000000 0.206639 0.466789
0.000000 0.218561 0.531514
0.641045 0.000000 0.465163
1.000000 0.014243 0.412894
1.000000 0.502600 0.476748
1.000000 0.822513 0.713019
1.000000 0.947809 0.893613
1.000000 0.995032 0.986162
0.000000 0.423570 0.606697
0.000000 0.472138 0.643066
0.000000 0.540188 0.723739
0.556610 0.627683 0.734863
0.975138 0.501901 0.532040
1.000000 0.591240 0.495295
1.000000 0.834073 0.721855
1.000000 0.949300 0.896121
1.000000 0.995032 0.986162
0.000000 0.797441 0.812783
0.000000 0.803606 0.815033
0.000000 0.831953 0.813131
0.000000 0.882222 0.790364
0.905564 0.867980 0.675685
1.000000 0.829328 0.590227
1.000000 0.870214 0.743976
1.000000 0.954401 0.898704
1.000000 0.995496 0.986541
0.000000 0.969998 0.879030
0.000000 0.970664 0.878992
0.000000 0.972366 0.875298
0.314044 0.979350 0.869808
0.844375 0.974243 0.833120
0.993104 0.963271 0.735117
1.000000 0.954790 0.815680
1.000000 0.967677 0.909156
1.000000 0.996813 0.988030
0.677760 1.000000 0.957895
0.682378 1.000000 0.957904
0.697162 1.000000 0.957885
0.755604 1.000000 0.957128
0.857203 1.000000 0.955872
0.966258 1.000000 0.932037
1.000000 0.998151 0.891043
1.000000 0.995866 0.940039
1.000000 1.000000 0.991134
0.912201 1.000000 0.997005
0.913318 1.000000 0.997000
0.914612 1.000000 0.996995
0.919153 1.000000 0.996751
0.935087 1.000000 0.996694
0.968607 1.000000 0.996400
0.998439 1.000000 0.987570
1.000000 1.000000 0.971531
1.000000 1.000000 0.998612
0.981312 1.000000 1.000000
0.981312 1.000000 1.000000
0.982098 1.000000 1.000000
0.982484 1.000000 1.000000
0.983596 1.000000 1.000000
0.987857 1.000000 1.000000
0.998240 1.000000 1.000000
1.000000 1.000000 1.000000
1.000000 1.000000 1.000000
0.000000 0.169538 0.548049
0.000000 0.173094 0.551665
0.000000 0.172458 0.585224
0.534854 0.000000 0.586435
0.966366 0.000000 0.361402
1.000000 0.444823 0.683570
1.000000 0.813901 0.775806
1.000000 0.946976 0.905756
1.000000 0.995022 0.987284
0.000000 0.193596 0.569767
0.000000 0.193090 0.581140
0.000000 0.198242 0.611411
0.518891 0.099034 0.632010
0.964027 0.000000 0.446618
1.000000 0.452273 0.686933
1.000000 0.815846 0.775742
1.000000 0.946976 0.905756
1.000000 0.995022 0.987284
0.000000 0.248919 0.625464
0.000000 0.255453 0.640692
0.000000 0.262714 0.675118
0.478184 0.234059 0.718717
0.970420 0.000000 0.592646
1.000000 0.483070 0.707295
1.000000 0.821601 0.778145
1.000000 0.947737 0.905759
1.000000 0.995022 0.987284
0.000000 0.436150 0.753605
0.000000 0.442923 0.770964
0.000000 0.473868 0.802703
0.303028 0.505814 0.851687
0.969955 0.403001 0.795693
1.000000 0.593813 0.749549
1.000000 0.836414 0.787756
1.000000 0.949236 0.906945
1.000000 0.995261 0.987294
0.000000 0.713446 0.851145
0.000000 0.744819 0.869351
0.000000 0.797204 0.897324
0.000000 0.850471 0.921095
0.864952 0.892378 0.923222
1.000000 0.844278 0.835052
1.000000 0.872987 0.804358
1.000000 0.954339 0.909327
1.000000 0.995490 0.987661
0.000000 0.963813 0.948628
0.000000 0.964691 0.948519
0.000000 0.968156 0.948109
0.000000 0.972321 0.947032
0.799354 0.976272 0.944346
0.983134 0.970291 0.903505
1.000000 0.956182 0.867155
1.000000 0.967669 0.920116
1.000000 0.996808 0.989096
0.620616 1.000000 0.971520
0.629050 1.000000 0.971497
0.651744 1.000000 0.971427
0.714693 1.000000 0.971238
0.834234 1.000000 0.970968
0.962636 1.000000 0.957960
1.000000 0.999286 0.925606
1.000000 0.996062 0.947715
1.000000 1.000000 0.991764
0.907015 1.000000 0.998328
0.907015 1.000000 0.998328
0.909516 1.000000 0.998316
0.914393 1.000000 0.998292
0.931887 1.000000 0.998212
0.966661 1.000000 0.998280
0.998399 1.000000 0.990799
1.000000 1.000000 0.976122
1.000000 1.000000 0.998961
0.980922 1.000000 1.000000
0.981323 1.000000 1.000000
0.981323 1.000000 1.000000
0.982090 1.000000 1.000000
0.983580 1.000000 1.000000
0.987598 1.000000 1.000000
0.998223 1.000000 1.000000
1.000000 1.000000 1.000000
1.000000 1.000000 1.000000
0.000000 0.383584 0.846669
0.000000 0.386614 0.849074
0.000000 0.391641 0.858655
0.216197 0.397347 0.880553
0.907740 0.303126 0.886646
1.000000 0.000000 0.728681
1.000000 0.804227 0.902084
1.000000 0.947572 0.931039
1.000000 0.995244 0.989793
0.000000 0.393491 0.851365
0.000000 0.399996 0.853562
0.000000 0.408709 0.860353
0.196436 0.404649 0.884654
0.905186 0.322378 0.892285
1.000000 0.000000 0.748462
1.000000 0.806256 0.901968
1.000000 0.948329 0.931018
1.000000 0.995244 0.989793
0.000000 0.424204 0.862363
0.000000 0.427456 0.864579
0.000000 0.436658 0.875569
0.092416 0.437247 0.895802
0.891555 0.387220 0.908139
1.000000 0.145038 0.801906
1.000000 0.810276 0.904673
1.000000 0.948329 0.931018
1.000000 0.995244 0.989793
0.000000 0.509976 0.889486
0.000000 0.509785 0.891504
0.000000 0.520043 0.900913
0.000000 0.541559 0.917278
0.845585 0.528069 0.933831
1.000000 0.418855 0.880639
1.000000 0.826367 0.910944
1.000000 0.949822 0.931978
1.000000 0.995474 0.990131
0.000000 0.755776 0.934304
0.000000 0.759332 0.936772
0.000000 0.769615 0.943814
0.000000 0.793568 0.954606
0.722539 0.820631 0.966498
1.000000 0.778481 0.950168
1.000000 0.874703 0.924216
1.000000 0.955056 0.935898
1.000000 0.995704 0.990474
0.000000 0.933946 0.963749
0.000000 0.935338 0.966214
0.000000 0.945006 0.971863
0.000000 0.960120 0.980709
0.615693 0.970178 0.986684
0.969769 0.977551 0.988139
1.000000 0.961138 0.957002
1.000000 0.969826 0.944737
1.000000 0.997007 0.991446
0.472412 1.000000 0.995967
0.478046 1.000000 0.995955
0.502695 1.000000 0.995875
0.583282 1.000000 0.995918
0.750753 1.000000 0.995139
0.948593 1.000000 0.994590
1.000000 1.000000 0.982877
1.000000 0.996872 0.967363
1.000000 1.000000 0.994424
0.890361 1.000000 1.000000
0.890361 1.000000 1.000000
0.891932 1.000000 1.000000
0.897273 1.000000 1.000000
0.917154 1.000000 1.000000
0.957018 1.000000 1.000000
0.997399 1.000000 0.998461
1.000000 1.000000 0.987430
1.000000 1.000000 1.000000
0.979692 1.000000 1.000000
0.979692 1.000000 1.000000
0.979692 1.000000 1.000000
0.980499 1.000000 1.000000
0.982461 1.000000 1.000000
0.986616 1.000000 1.000000
0.997316 1.000000 1.000000
1.000000 1.000000 1.000000
1.000000 1.000000 1.000000
0.000000 0.693518 0.974288
0.000000 0.693311 0.974263
0.000000 0.696348 0.975748
0.000000 0.705108 0.978165
0.629714 0.710487 0.983697
1.000000 0.693363 0.987818
1.000000 0.555479 0.934454
1.000000 0.944202 0.981570
1.000000 0.995187 0.997659
0.000000 0.693619 0.974299
0.000000 0.697283 0.974019
0.000000 0.700458 0.975496
0.000000 0.709147 0.977919
0.627595 0.714442 0.983469
1.000000 0.697198 0.987637
1.000000 0.560612 0.935575
1.000000 0.944202 0.981570
1.000000 0.995187 0.997659
0.000000 0.705715 0.974465
0.000000 0.705558 0.975361
0.000000 0.708635 0.975903
0.000000 0.717175 0.978301
0.630100 0.722068 0.985285
1.000000 0.712572 0.988858
1.000000 0.580399 0.942474
1.000000 0.944984 0.982017
1.000000 0.995421 0.997647
0.000000 0.733761 0.977243
0.000000 0.733572 0.977221
0.000000 0.736488 0.977742
0.000000 0.744541 0.980044
0.604313 0.755801 0.986275
1.000000 0.754654 0.990985
1.000000 0.648400 0.957651
1.000000 0.946540 0.982406
1.000000 0.995421 0.997647
0.000000 0.818660 0.983733
0.000000 0.818412 0.983707
0.000000 0.826028 0.984490
0.000000 0.831206 0.986436
0.526905 0.839518 0.991962
0.974021 0.838969 0.994333
1.000000 0.793372 0.978478
1.000000 0.953540 0.984349
1.000000 0.995876 0.997844
0.000000 0.940779 0.994203
0.000000 0.940508 0.994634
0.000000 0.943974 0.995566
0.000000 0.946900 0.997018
0.407534 0.949512 0.999653
0.924534 0.950830 1.000000
1.000000 0.941609 0.996382
1.000000 0.971058 0.988415
1.000000 0.997162 0.998629
0.000000 1.000000 1.000000
0.000000 1.000000 1.000000
0.000000 1.000000 1.000000
0.000000 1.000000 1.000000
0.465476 1.000000 1.000000
0.891182 1.000000 1.000000
1.000000 1.000000 1.000000
1.000000 0.998592 0.998887
1.000000 1.000000 1.000000
0.849450 1.000000 1.000000
0.849943 1.000000 1.000000
0.851432 1.000000 1.000000
0.857791 1.000000 1.000000
0.881696 1.000000 1.000000
0.933137 1.000000 1.000000
0.993276 1.000000 1.000000
1.000000 1.000000 1.000000
1.000000 1.000000 1.000000
0.973419 1.000000 1.000000
0.973419 1.000000 1.000000
0.973415 1.000000 1.000000
0.973936 1.000000 1.000000
0.975952 1.000000 1.000000
0.982410 1.000000 1.000000
0.994781 1.000000 1.000000
1.000000 1.000000 1.000000
1.000000 1.000000 1.000000
0.443199 0.910248 1.000000
0.452193 0.910028 1.000000
0.460965 0.909807 1.000000
0.512568 0.909973 1.000000
0.673968 0.910382 1.000000
0.885980 0.909996 1.000000
1.000000 0.913424 1.000000
1.000000 0.842500 0.995077
1.000000 0.994010 1.000000
0.443199 0.910248 1.000000
0.452193 0.910028 1.000000
0.460965 0.909807 1.000000
0.512568 0.909973 1.000000
0.673968 0.910382 1.000000
0.885980 0.909996 1.000000
1.000000 0.913424 1.000000
1.000000 0.843702 0.995432
1.000000 0.994010 1.000000
0.442081 0.911840 1.000000
0.442081 0.911840 1.000000
0.459887 0.911400 1.000000
0.511986 0.911565 1.000000
0.673176 0.911922 1.000000
0.884625 0.912890 1.000000
1.000000 0.914724 1.000000
1.000000 0.847477 0.996041
1.000000 0.994018 1.000000
0.431173 0.915203 1.000000
0.440442 0.914986 1.000000
0.458774 0.914557 1.000000
0.510478 0.914693 1.000000
0.671950 0.914980 1.000000
0.883324 0.915760 1.000000
1.000000 0.918543 1.000000
1.000000 0.856747 0.997488
1.000000 0.994261 1.000000
0.416971 0.925945 1.000000
0.426533 0.925733 1.000000
0.444571 0.926755 1.000000
0.505787 0.926599 1.000000
0.667324 0.926570 1.000000
0.877771 0.927904 1.000000
1.000000 0.930395 1.000000
1.000000 0.890619 1.000000
1.000000 0.994737 1.000000
0.397147 0.957924 1.000000
0.397147 0.957924 1.000000
0.425906 0.957344 1.000000
0.486175 0.957001 1.000000
0.643420 0.956201 1.000000
0.859106 0.954832 1.000000
1.000000 0.958682 1.000000
1.000000 0.942107 1.000000
1.000000 0.996338 1.000000
0.430543 1.000000 1.000000
0.430543 1.000000 1.000000
0.451001 1.000000 1.000000
0.508941 1.000000 1.000000
0.634401 0.999235 1.000000
0.840265 0.995929 1.000000
0.985997 0.996079 1.000000
1.000000 0.993584 1.000000
1.000000 1.000000 1.000000
0.525425 1.000000 1.000000
0.527589 1.000000 1.000000
0.542064 1.000000 1.000000
0.586284 1.000000 1.000000
0.695994 1.000000 1.000000
0.840458 1.000000 1.000000
0.976858 1.000000 1.000000
1.000000 1.000000 1.000000
1.000000 1.000000 1.000000
0.950856 1.000000 1.000000
0.950856 1.000000 1.000000
0.950856 1.000000 1.000000
0.951581 1.000000 1.000000
0.955885 1.000000 1.000000
0.967830 1.000000 1.000000
0.986365 1.000000 1.000000
1.000000 1.000000 1.000000
1.000000 1.000000 1.000000
0.865998 0.979075 1.000000
0.865998 0.979075 1.000000
0.865998 0.979075 1.000000
0.872157 0.978732 1.000000
0.885503 0.979186 1.000000
0.922904 0.979332 1.000000
0.982942 0.979492 1.000000
1.000000 0.981398 1.000000
1.000000 0.945091 1.000000
0.865998 0.979075 1.000000
0.865998 0.979075 1.000000
0.865998 0.979075 1.000000
0.872157 0.978732 1.000000
0.885503 0.979186 1.000000
0.922904 0.979332 1.000000
0.982942 0.979492 1.000000
1.000000 0.981398 1.000000
1.000000 0.945091 1.000000
0.865998 0.979075 1.000000
0.865998 0.979075 1.000000
0.865998 0.979075 1.000000
0.872157 0.978732 1.000000
0.885503 0.979186 1.000000
0.922904 0.979332 1.000000
0.982703 0.980008 1.000000
1.000000 0.981398 1.000000
1.000000 0.945879 1.000000
0.865797 0.979689 1.000000
0.865797 0.979689 1.000000
0.865797 0.979689 1.000000
0.871988 0.979349 1.000000
0.885503 0.979186 1.000000
0.922904 0.979332 1.000000
0.982463 0.980519 1.000000
1.000000 0.981845 1.000000
1.000000 0.947516 1.000000
0.865460 0.980894 1.000000
0.865460 0.980894 1.000000
0.867565 0.980781 1.000000
0.871630 0.980555 1.000000
0.884944 0.980965 1.000000
0.922227 0.981025 1.000000
0.981764 0.982016 1.000000
1.000000 0.983167 1.000000
1.000000 0.952623 1.000000
0.860180 0.986148 1.000000
0.860180 0.986148 1.000000
0.864289 0.985922 1.000000
0.868195 0.986219 1.000000
0.883529 0.985871 1.000000
0.919069 0.985779 1.000000
0.980965 0.986561 1.000000
1.000000 0.988733 1.000000
1.000000 0.971131 1.000000
0.851898 0.996923 1.000000
0.853901 0.996815 1.000000
0.853966 0.996813 1.000000
0.857922 0.996600 1.000000
0.875001 0.996432 1.000000
0.913525 0.995709 1.000000
0.974031 0.996289 1.000000
1.000000 0.998993 1.000000
1.000000 0.992433 1.000000
0.849784 1.000000 1.000000
0.851392 1.000000 1.000000
0.851392 1.000000 1.000000
0.856514 1.000000 1.000000
0.871069 1.000000 1.000000
0.905314 1.000000 1.000000
0.967636 1.000000 1.000000
1.000000 1.000000 1.000000
1.000000 1.000000 1.000000
0.791293 1.000000 1.000000
0.791293 1.000000 1.000000
0.792592 1.000000 1.000000
0.798932 1.000000 1.000000
0.822294 1.000000 1.000000
0.884108 1.000000 1.000000
0.958698 1.000000 1.000000
1.000000 1.000000 1.000000
1.000000 1.000000 1.000000
