Assets/Lutify-Free-LUTs-Pack/Lutify Free LUTs Pack/Commercial Pro - Claire/Lutify.me-Claire-VLog-to-Rec709.cube
# Created with: fylm.ai - Colour Grading and Collaboration Software in Cloud 
# Website: https://fylm.ai 
# META
# Option: Gamut compress
# Block 1: IDT | Panasonic V-Gamut V-Log
# Block 2: colourMatch | Blending Mode: Normal | {"ColorSpace":0,"CrossCovarianceLimit":50,"ReshapingIterations":1,"PercentSaturationShift":100,"PercentShadingShift":100,"ExtraShading":true,"PercentTint":100,"PercentModified":100}
# Block 3: HSL | Blending Mode: Normal | {"hue":{"Reds":0,"Yellows":0,"Greens":0,"Cyans":0,"Blues":0,"Magentas":0},"saturation":{"Reds":1,"Yellows":1,"Greens":1,"Cyans":1,"Blues":1,"Magentas":1},"luminance":{"Reds":0.9,"Yellows":0.9,"Greens":0.9,"Cyans":0.8,"Blues":0.8,"Magentas":0.9},"lum_sat":{"Blacks":1,"Shadows":1,"Midtones":1,"Highlights":1,"Whites":1},"sat_sat":{"10":1,"20":1,"30":1,"40":1,"50":1}}
# Block 4: subtractiveColour | Blending Mode: Normal | {"sliders":{"gainY":0.1,"C":0.05,"M":0.05,"Y":0.05}}
# Block 5: logPrimaries | Blending Mode: Normal | {"wheels":{"shadows":{"Y":"0","R":"1","G":"1","B":"1"},"midtones":{"Y":"0","R":"1","G":"1","B":"1"},"highlights":{"Y":"0","R":"1","G":"1","B":"1"},"offset":{"Y":"0","R":"1","G":"1","B":"1"}},"sliders":{"shadows":{"Y":0,"R":-0.05,"G":0,"B":0.1},"midtones":{"Y":0,"R":0,"G":0,"B":0},"highlights":{"Y":0,"R":0,"G":0,"B":0},"offset":{"Y":0,"R":0,"G":0,"B":0}}}
# Block 6: LUT | Filmic Curve Response: Standard Contrast 1 (100%)
# Block 7: LUT | Illuminant: D93 (100%)
# Block 8: LUT | Neutral Tint: Teal Tint 4 (100%)
# Block 9: ODT | Rec709
TITLE "Lutify.me-Claire-VLog-to-Rec709" 
LUT_3D_SIZE 33
0.000000 0.000000 0.000000
0.000000 0.000000 0.000000
0.000000 0.000000 0.000000
0.056994 0.000000 0.000000
0.000000 0.000000 0.000000
0.101093 0.000000 0.000000
0.188487 0.000000 0.000000
0.274976 0.000000 0.000000
0.354054 0.000000 0.000000
0.426483 0.000000 0.000000
0.500197 0.000000 0.000000
0.539129 0.000000 0.000000
0.559515 0.000000 0.000000
0.584361 0.000000 0.000000
0.609666 0.000000 0.000000
0.618324 0.000000 0.000000
0.644218 0.000000 0.000000
0.692015 0.000000 0.000000
0.760272 0.000000 0.000000
0.836513 0.000000 0.000000
0.906081 0.000000 0.022396
0.974697 0.000000 0.063661
1.000000 0.000000 0.102837
1.000000 0.000000 0.143309
1.000000 0.255076 0.192248
1.000000 0.367128 0.243508
1.000000 0.460530 0.299814
1.000000 0.557108 0.367208
1.000000 0.644929 0.443953
1.000000 0.721410 0.515293
1.000000 0.784891 0.589465
1.000000 0.838345 0.675021
1.000000 0.873761 0.744155
0.000000 0.000000 0.000000
0.000000 0.000000 0.000000
0.000000 0.000000 0.000000
0.060622 0.000000 0.000000
0.000000 0.000000 0.000000
0.093426 0.000000 0.000000
0.176969 0.000000 0.000000
0.257645 0.000000 0.000000
0.325471 0.000000 0.000000
0.392710 0.000000 0.000000
0.456609 0.000000 0.000000
0.503993 0.000000 0.000000
0.531153 0.000000 0.000000
0.555546 0.000000 0.000000
0.584567 0.000000 0.000000
0.601555 0.000000 0.000000
0.640015 0.000000 0.000000
0.687706 0.000000 0.000000
0.760268 0.000000 0.000000
0.831765 0.000000 0.000000
0.905990 0.000000 0.023334
0.974505 0.000000 0.064414
1.000000 0.000000 0.102045
1.000000 0.049168 0.142927
1.000000 0.260175 0.191876
1.000000 0.367119 0.246017
1.000000 0.460530 0.299814
1.000000 0.557108 0.367208
1.000000 0.648231 0.443765
1.000000 0.721410 0.515293
1.000000 0.784891 0.589465
1.000000 0.838345 0.675021
1.000000 0.873761 0.744155
0.000000 0.000000 0.000000
0.000000 0.000000 0.000000
0.000000 0.000000 0.000000
0.064381 0.000000 0.000000
0.000000 0.000000 0.000000
0.084701 0.000000 0.000000
0.161968 0.000000 0.000000
0.235668 0.000000 0.000000
0.297108 0.000000 0.000000
0.364668 0.000000 0.000000
0.423339 0.000000 0.000000
0.470808 0.000000 0.000000
0.496609 0.000000 0.000000
0.527345 0.000000 0.000000
0.568130 0.000000 0.000000
0.593273 0.000000 0.000000
0.635815 0.000000 0.000000
0.683403 0.000000 0.000000
0.755498 0.000000 0.000000
0.831720 0.000000 0.000000
0.905843 0.000000 0.017732
0.974306 0.000000 0.063217
1.000000 0.000000 0.101634
1.000000 0.074782 0.142535
1.000000 0.260175 0.191876
1.000000 0.371227 0.245683
1.000000 0.460530 0.299814
1.000000 0.557108 0.367208
1.000000 0.648231 0.443765
1.000000 0.724314 0.515187
1.000000 0.784891 0.589465
1.000000 0.838345 0.675021
1.000000 0.873761 0.744155
0.000000 0.000000 0.000000
0.000000 0.000000 0.000000
0.000000 0.000000 0.000000
0.000000 0.000000 0.000000
0.000000 0.000000 0.000000
0.077793 0.000000 0.000000
0.149757 0.000000 0.000000
0.217182 0.000000 0.000000
0.275109 0.000000 0.000000
0.333124 0.000000 0.000000
0.389885 0.000000 0.000000
0.436423 0.000000 0.000000
0.470992 0.000000 0.000000
0.508111 0.000000 0.000000
0.551889 0.000000 0.000000
0.585052 0.000000 0.000000
0.631640 0.000000 0.000000
0.683439 0.000000 0.000000
0.755498 0.000000 0.000000
0.831653 0.000000 0.000000
0.905741 0.000000 0.018673
0.974098 0.000000 0.063879
1.000000 0.000000 0.100775
1.000000 0.092057 0.142135
1.000000 0.265201 0.193656
1.000000 0.371227 0.245683
1.000000 0.464258 0.302086
1.000000 0.560672 0.366966
1.000000 0.648231 0.443765
1.000000 0.724302 0.518132
1.000000 0.787111 0.589457
1.000000 0.838345 0.675021
1.000000 0.873761 0.744155
0.000000 0.006213 0.000000
0.000000 0.002466 0.000000
0.000000 0.000000 0.000000
0.000000 0.000000 0.000000
0.000000 0.000000 0.000000
0.061895 0.000000 0.000000
0.128380 0.000000 0.000000
0.191243 0.000000 0.000000
0.253823 0.000000 0.000000
0.308691 0.000000 0.000000
0.367540 0.000000 0.000000
0.414115 0.000000 0.000000
0.446718 0.000000 0.000000
0.489602 0.000000 0.000000
0.543913 0.000000 0.000000
0.581028 0.000000 0.000000
0.627452 0.000000 0.000000
0.683480 0.000000 0.000000
0.750741 0.000000 0.000000
0.831599 0.000000 0.000000
0.905689 0.000000 0.016091
0.973991 0.000000 0.063230
1.000000 0.000000 0.102199
1.000000 0.105890 0.145876
1.000000 0.270174 0.193276
1.000000 0.375324 0.245343
1.000000 0.464258 0.302086
1.000000 0.560672 0.366966
1.000000 0.648221 0.446682
1.000000 0.724302 0.518132
1.000000 0.787111 0.589457
1.000000 0.838345 0.675021
1.000000 0.873761 0.744155
0.000000 0.050934 0.000000
0.000000 0.049666 0.000000
0.000000 0.047786 0.000000
0.000000 0.045950 0.000000
0.000000 0.044146 0.000000
0.038292 0.033151 0.000000
0.096053 0.000000 0.000000
0.159969 0.000000 0.000000
0.215777 0.000000 0.000000
0.275693 0.000000 0.000000
0.338704 0.000000 0.000000
0.390356 0.000000 0.000000
0.433645 0.000000 0.000000
0.482395 0.000000 0.000000
0.540009 0.000000 0.000000
0.577002 0.000000 0.000000
0.619068 0.000000 0.000000
0.683535 0.000000 0.000000
0.750743 0.000000 0.000000
0.831538 0.000000 0.000000
0.905580 0.000000 0.016958
0.973881 0.000000 0.064527
1.000000 0.000000 0.101753
1.000000 0.117810 0.145472
1.000000 0.270174 0.193276
1.000000 0.375324 0.245343
1.000000 0.464258 0.302086
1.000000 0.560672 0.366966
1.000000 0.648221 0.446682
1.000000 0.724302 0.518132
1.000000 0.787111 0.589457
1.000000 0.840113 0.675068
1.000000 0.873761 0.744155
0.000000 0.074518 0.000000
0.000000 0.072622 0.000000
0.000000 0.071659 0.000000
0.000000 0.068998 0.000000
0.000000 0.064943 0.000000
0.000000 0.058327 0.000000
0.083187 0.048682 0.000000
0.145829 0.009278 0.000000
0.197764 0.000000 0.000000
0.258836 0.000000 0.000000
0.316528 0.000000 0.000000
0.376440 0.000000 0.000000
0.424155 0.000000 0.000000
0.475281 0.000000 0.000000
0.532153 0.000000 0.000000
0.573008 0.000000 0.000000
0.619140 0.000000 0.000000
0.683584 0.000000 0.000000
0.745991 0.000000 0.000000
0.831497 0.000000 0.000000
0.905467 0.000000 0.008349
0.973670 0.000000 0.063245
1.000000 0.000000 0.101295
1.000000 0.128436 0.145058
1.000000 0.275089 0.192890
1.000000 0.375324 0.245343
1.000000 0.467993 0.301795
1.000000 0.564230 0.369676
1.000000 0.648221 0.446682
1.000000 0.724302 0.518132
1.000000 0.787111 0.589457
1.000000 0.840113 0.675068
1.000000 0.875193 0.744215
0.000000 0.100599 0.000000
0.000000 0.098134 0.000000
0.000000 0.095689 0.000000
0.000000 0.092205 0.000000
0.000000 0.088814 0.000000
0.000000 0.079966 0.000000
0.077092 0.070614 0.000000
0.138599 0.054343 0.000000
0.192804 0.020084 0.000000
0.255048 0.000000 0.000000
0.307480 0.000000 0.000000
0.363339 0.000000 0.000000
0.415176 0.000000 0.000000
0.464878 0.000000 0.000000
0.524404 0.000000 0.000000
0.569041 0.000000 0.000000
0.619271 0.000000 0.000000
0.683651 0.000000 0.000000
0.745993 0.000000 0.000000
0.831432 0.000000 0.000000
0.905290 0.000000 0.000000
0.973466 0.000000 0.061966
1.000000 0.000000 0.100339
1.000000 0.138120 0.146534
1.000000 0.275082 0.195075
1.000000 0.379402 0.247543
1.000000 0.469042 0.302534
1.000000 0.564230 0.369676
1.000000 0.651510 0.446497
1.000000 0.724302 0.518132
1.000000 0.787111 0.589457
1.000000 0.840113 0.675068
1.000000 0.875193 0.744215
0.000000 0.125033 0.000000
0.000000 0.123490 0.000000
0.000000 0.120510 0.000000
0.000000 0.117608 0.000000
0.000000 0.112018 0.000000
0.000000 0.103852 0.000000
0.060871 0.097358 0.000000
0.135501 0.084941 0.000000
0.190838 0.064197 0.000000
0.249000 0.020590 0.000000
0.307973 0.000000 0.000000
0.358698 0.000000 0.000000
0.406601 0.000000 0.000000
0.465412 0.000000 0.000000
0.520805 0.000000 0.000000
0.569283 0.000000 0.000000
0.615264 0.000000 0.000000
0.683755 0.000000 0.000000
0.745995 0.000000 0.000000
0.831340 0.000000 0.000000
0.905102 0.000000 0.000000
0.973252 0.000000 0.062708
1.000000 0.000000 0.101279
1.000000 0.147113 0.146107
1.000000 0.279945 0.194689
1.000000 0.383477 0.247200
1.000000 0.472763 0.302241
1.000000 0.564230 0.369676
1.000000 0.651510 0.446497
1.000000 0.727187 0.518030
1.000000 0.787111 0.589457
1.000000 0.840113 0.675068
1.000000 0.875193 0.744215
0.000000 0.155460 0.000000
0.000000 0.152119 0.000000
0.000000 0.152080 0.000000
0.000000 0.145682 0.000000
0.000000 0.141067 0.000000
0.000000 0.134932 0.000000
0.000000 0.128336 0.000000
0.124155 0.118890 0.000000
0.182800 0.107214 0.000000
0.246426 0.083564 0.000000
0.304023 0.042931 0.000000
0.357211 0.000000 0.000000
0.404661 0.000000 0.000000
0.456055 0.000000 0.000000
0.517797 0.000000 0.000000
0.565761 0.000000 0.000000
0.611421 0.000000 0.000000
0.683916 0.000000 0.000000
0.750728 0.000000 0.000000
0.831188 0.000000 0.000000
0.904834 0.000000 0.000000
0.972919 0.000000 0.062735
1.000000 0.000000 0.100242
1.000000 0.163532 0.147153
1.000000 0.284758 0.194296
1.000000 0.383477 0.247200
1.000000 0.472755 0.304829
1.000000 0.567801 0.369433
1.000000 0.651510 0.446497
1.000000 0.727187 0.518030
1.000000 0.787111 0.589457
1.000000 0.840113 0.675068
1.000000 0.875193 0.744215
0.000000 0.188374 0.000000
0.000000 0.184394 0.000000
0.000000 0.184353 0.000000
0.000000 0.178548 0.000000
0.000000 0.172912 0.000000
0.000000 0.170888 0.000000
0.000000 0.161357 0.000000
0.100838 0.153997 0.000000
0.172314 0.145135 0.000000
0.240112 0.129016 0.000000
0.304352 0.101731 0.000000
0.358769 0.075429 0.000000
0.403577 0.025395 0.000000
0.457939 0.000000 0.000000
0.519432 0.000000 0.000000
0.563042 0.000000 0.000000
0.612121 0.000000 0.000000
0.679881 0.000000 0.000000
0.750721 0.000000 0.000000
0.831020 0.000000 0.000000
0.908323 0.000000 0.000000
0.975705 0.000000 0.062225
1.000000 0.000000 0.100598
1.000000 0.185502 0.147730
1.000000 0.294243 0.195715
1.000000 0.391589 0.249080
1.000000 0.480196 0.304242
1.000000 0.571374 0.369190
1.000000 0.654786 0.446314
1.000000 0.727187 0.518030
1.000000 0.789322 0.589453
1.000000 0.840113 0.675068
1.000000 0.875193 0.744215
0.000000 0.224338 0.000000
0.000000 0.222392 0.000000
0.000000 0.220129 0.000000
0.000000 0.213374 0.000000
0.000000 0.211136 0.000000
0.000000 0.204516 0.000000
0.000000 0.199923 0.000000
0.000000 0.194531 0.000000
0.150338 0.185216 0.000000
0.224635 0.171274 0.000000
0.296323 0.153242 0.000000
0.362767 0.128020 0.000000
0.408557 0.105363 0.000000
0.460242 0.082188 0.000000
0.521721 0.000000 0.000000
0.568795 0.000000 0.000000
0.617779 0.000000 0.000000
0.676208 0.000000 0.000000
0.750740 0.000000 0.000000
0.830775 0.000000 0.000000
0.907861 0.000000 0.000000
0.974915 0.000000 0.059367
1.000000 0.065739 0.103267
1.000000 0.205382 0.148260
1.000000 0.303568 0.197145
1.000000 0.395636 0.248729
1.000000 0.483953 0.303940
1.000000 0.574940 0.371917
1.000000 0.654786 0.446314
1.000000 0.730053 0.517931
1.000000 0.789322 0.589453
1.000000 0.840113 0.675068
1.000000 0.875193 0.744215
0.000000 0.258517 0.000000
0.000000 0.256306 0.000000
0.000000 0.254112 0.000000
0.000000 0.245691 0.000000
0.000000 0.243482 0.000000
0.000000 0.243239 0.000000
0.000000 0.242842 0.000000
0.000000 0.233756 0.000000
0.066173 0.231523 0.000000
0.198123 0.218789 0.000000
0.268664 0.204580 0.000000
0.345848 0.187563 0.000000
0.413679 0.162297 0.000000
0.466750 0.148442 0.000000
0.528317 0.126944 0.000000
0.571693 0.127842 0.000000
0.619770 0.112796 0.000000
0.677390 0.083432 0.000000
0.750903 0.000000 0.000000
0.830344 0.000000 0.000000
0.907095 0.000000 0.000000
0.974018 0.000000 0.063425
1.000000 0.131603 0.106948
1.000000 0.234357 0.149837
1.000000 0.317297 0.198171
1.000000 0.403697 0.250630
1.000000 0.491499 0.305954
1.000000 0.578517 0.371673
1.000000 0.658038 0.449063
1.000000 0.732888 0.520792
1.000000 0.791522 0.589452
1.000000 0.841856 0.677976
1.000000 0.875181 0.746605
0.000000 0.297988 0.000000
0.000000 0.295384 0.000000
0.000000 0.287955 0.000000
0.000000 0.287835 0.000000
0.000000 0.285299 0.000000
0.000000 0.285102 0.000000
0.000000 0.284811 0.000000
0.000000 0.281882 0.000000
0.000000 0.278204 0.000000
0.121504 0.270838 0.000000
0.239389 0.258889 0.000000
0.313715 0.245939 0.000000
0.394123 0.229323 0.000000
0.469121 0.209589 0.000000
0.536084 0.198843 0.000000
0.578725 0.191824 0.000000
0.622821 0.196515 0.000000
0.683335 0.179055 0.000000
0.756041 0.158604 0.000000
0.834305 0.093119 0.000000
0.905967 0.015968 0.000000
0.972291 0.093801 0.060195
1.000000 0.192872 0.108154
1.000000 0.256005 0.152335
1.000000 0.340225 0.198803
1.000000 0.416550 0.252793
1.000000 0.499046 0.307991
1.000000 0.583049 0.375253
1.000000 0.664520 0.448709
1.000000 0.735714 0.520701
1.000000 0.794239 0.593317
1.000000 0.841856 0.677976
1.000000 0.876598 0.746665
0.000000 0.349122 0.000000
0.000000 0.346343 0.000000
0.000000 0.340718 0.000000
0.000000 0.340567 0.000000
0.000000 0.337547 0.000000
0.000000 0.337325 0.000000
0.000000 0.337090 0.000000
0.000000 0.333915 0.000000
0.000000 0.333256 0.000000
0.000000 0.328803 0.000000
0.159423 0.320282 0.000000
0.263502 0.316172 0.000000
0.354692 0.301480 0.000000
0.440192 0.284275 0.000000
0.533647 0.263267 0.000000
0.589384 0.254316 0.000000
0.629700 0.267257 0.000000
0.694172 0.266506 0.000000
0.756928 0.253325 0.000000
0.833112 0.233900 0.000000
0.907130 0.206393 0.000000
0.972636 0.197049 0.052960
1.000000 0.244475 0.108359
1.000000 0.290947 0.152688
1.000000 0.358221 0.202208
1.000000 0.436438 0.256342
1.000000 0.517922 0.309115
1.000000 0.590182 0.377763
1.000000 0.667729 0.451479
1.000000 0.738520 0.520615
1.000000 0.796407 0.593323
1.000000 0.843599 0.678029
1.000000 0.876598 0.746665
0.000000 0.393192 0.000000
0.000000 0.396302 0.000000
0.000000 0.396256 0.000000
0.000000 0.396195 0.000000
0.000000 0.392973 0.000000
0.000000 0.392853 0.000000
0.000000 0.392716 0.000000
0.000000 0.392529 0.000000
0.000000 0.395310 0.000000
0.000000 0.394484 0.000000
0.000000 0.392632 0.000000
0.149903 0.386999 0.000000
0.282220 0.380094 0.000000
0.395170 0.367683 0.000000
0.498420 0.349478 0.000000
0.583022 0.330256 0.000000
0.645963 0.325739 0.000000
0.703064 0.332540 0.000000
0.761820 0.327585 0.000000
0.835761 0.319497 0.000000
0.903139 0.303767 0.000000
0.968267 0.279746 0.031773
1.000000 0.299098 0.103168
1.000000 0.332768 0.151524
1.000000 0.384336 0.204728
1.000000 0.456936 0.257476
1.000000 0.533875 0.311314
1.000000 0.600905 0.380046
1.000000 0.677275 0.456899
1.000000 0.744057 0.523419
1.000000 0.798563 0.593334
1.000000 0.845329 0.678086
1.000000 0.878000 0.746730
0.000000 0.456403 0.000000
0.000000 0.459861 0.000000
0.000000 0.463328 0.000000
0.000000 0.463274 0.000000
0.000000 0.459706 0.000000
0.000000 0.459620 0.000000
0.000000 0.459529 0.000000
0.000000 0.455872 0.000000
0.000000 0.462655 0.000000
0.000000 0.469306 0.000000
0.000000 0.461309 0.000000
0.000000 0.459934 0.000000
0.157745 0.454159 0.000000
0.305475 0.450709 0.000000
0.438983 0.444517 0.000000
0.543693 0.422648 0.000000
0.635172 0.399278 0.000000
0.699792 0.403767 0.000000
0.773670 0.402930 0.000000
0.845272 0.398336 0.000000
0.901310 0.391894 0.000000
0.960057 0.382090 0.000000
1.000000 0.371080 0.099525
1.000000 0.386165 0.148963
1.000000 0.426421 0.205172
1.000000 0.486022 0.263368
1.000000 0.553509 0.316006
1.000000 0.618821 0.381855
1.000000 0.690571 0.460107
1.000000 0.752192 0.529168
1.000000 0.802818 0.599278
1.000000 0.847032 0.680988
1.000000 0.879385 0.746799
0.000000 0.531841 0.000000
0.000000 0.535507 0.000000
0.000000 0.542917 0.000000
0.000000 0.546596 0.000000
0.000000 0.546531 0.000000
0.000000 0.546449 0.000000
0.000000 0.546373 0.000000
0.000000 0.546234 0.000000
0.000000 0.542268 0.000000
0.000000 0.541972 0.000000
0.000000 0.548921 0.000000
0.000000 0.548084 0.000000
0.000000 0.542735 0.000000
0.143645 0.540261 0.000000
0.342411 0.543739 0.000000
0.471868 0.534696 0.000000
0.582417 0.512789 0.000000
0.686697 0.488970 0.000000
0.771875 0.484901 0.000000
0.843627 0.486048 0.000000
0.907698 0.476578 0.000000
0.961067 0.477562 0.000000
1.000000 0.468404 0.086932
1.000000 0.462039 0.149742
1.000000 0.479674 0.208409
1.000000 0.525440 0.269546
1.000000 0.576042 0.322591
1.000000 0.636717 0.389845
1.000000 0.700118 0.462639
1.000000 0.763346 0.532882
1.000000 0.807521 0.603178
1.000000 0.850518 0.683950
1.000000 0.880760 0.746871
0.000000 0.603198 0.124575
0.000000 0.610765 0.111764
0.000000 0.618322 0.096917
0.000000 0.622074 0.081817
0.000000 0.621983 0.057226
0.000000 0.618050 0.000000
0.000000 0.617956 0.000000
0.000000 0.617828 0.000000
0.000000 0.617652 0.000000
0.000000 0.621201 0.000000
0.000000 0.624643 0.000000
0.000000 0.623979 0.000000
0.000000 0.619152 0.000000
0.000000 0.617248 0.000000
0.220159 0.621679 0.000000
0.393992 0.613874 0.000000
0.529383 0.604463 0.000000
0.649285 0.593553 0.000000
0.755774 0.569786 0.000000
0.837678 0.562982 0.000000
0.897495 0.562579 0.000000
0.955674 0.555792 0.000000
0.994980 0.555474 0.052704
1.000000 0.557342 0.148116
1.000000 0.553446 0.215590
1.000000 0.569109 0.273562
1.000000 0.610526 0.332267
1.000000 0.657739 0.394689
1.000000 0.716247 0.467943
1.000000 0.770947 0.535771
1.000000 0.815787 0.606276
1.000000 0.854009 0.684097
1.000000 0.883479 0.749385
0.000000 0.679325 0.211240
0.000000 0.683048 0.206958
0.000000 0.682962 0.200056
0.000000 0.682863 0.193105
0.000000 0.690444 0.183862
0.000000 0.694181 0.175382
0.000000 0.694106 0.166831
0.000000 0.693995 0.158078
0.000000 0.697647 0.142758
0.000000 0.697427 0.122387
0.000000 0.697172 0.091136
0.000000 0.692893 0.043084
0.000000 0.692015 0.000000
0.000000 0.690460 0.000000
0.000000 0.695861 0.000000
0.315362 0.688171 0.000000
0.468654 0.687838 0.000000
0.615979 0.677332 0.000000
0.730676 0.662635 0.000000
0.829764 0.635738 0.000000
0.886658 0.639752 0.000000
0.941726 0.637090 0.000000
0.982753 0.632659 0.000000
1.000000 0.638038 0.145546
1.000000 0.637424 0.224464
1.000000 0.635224 0.280326
1.000000 0.651430 0.338055
1.000000 0.689016 0.406269
1.000000 0.734817 0.476351
1.000000 0.783560 0.542574
1.000000 0.823847 0.609443
1.000000 0.861096 0.690822
1.000000 0.886400 0.752435
0.000000 0.756860 0.290770
0.000000 0.756758 0.287048
0.000000 0.760321 0.286620
0.000000 0.767494 0.281912
0.000000 0.767411 0.278157
0.000000 0.770927 0.273901
0.000000 0.774371 0.269654
0.000000 0.774268 0.269704
0.000000 0.777626 0.265469
0.000000 0.777439 0.254089
0.000000 0.773644 0.235644
0.000000 0.773235 0.220371
0.000000 0.769071 0.201729
0.000000 0.771445 0.176676
0.000000 0.772933 0.125928
0.000000 0.770062 0.055841
0.378568 0.766295 0.000000
0.557434 0.764072 0.000000
0.694445 0.754113 0.000000
0.799672 0.737080 0.000000
0.869703 0.725100 0.000000
0.928971 0.717900 0.000000
0.969374 0.712936 0.000000
0.996590 0.720802 0.147334
1.000000 0.715123 0.231963
1.000000 0.714986 0.288966
1.000000 0.713205 0.347216
1.000000 0.726341 0.413917
1.000000 0.764544 0.486516
1.000000 0.798291 0.550384
1.000000 0.833956 0.616630
1.000000 0.865979 0.693880
1.000000 0.891690 0.755085
0.000000 0.822319 0.389833
0.000000 0.827990 0.385906
0.000000 0.827932 0.378378
0.000000 0.830665 0.374556
0.000000 0.830552 0.370819
0.000000 0.833234 0.367011
0.000000 0.833153 0.363261
0.000000 0.833021 0.359526
0.000000 0.835545 0.355764
0.000000 0.835337 0.352049
0.000000 0.835057 0.344286
0.000000 0.834676 0.336353
0.000000 0.834053 0.316340
0.000000 0.835613 0.288515
0.000000 0.836738 0.264919
0.000000 0.831776 0.245711
0.278504 0.825994 0.197316
0.497235 0.823724 0.147864
0.646439 0.817972 0.088186
0.764035 0.814605 0.000000
0.843866 0.801733 0.000000
0.915114 0.791661 0.000000
0.955085 0.783797 0.000000
0.983093 0.791577 0.155687
1.000000 0.789029 0.245387
1.000000 0.790434 0.315758
1.000000 0.784994 0.374622
1.000000 0.783301 0.434483
1.000000 0.795748 0.497498
1.000000 0.815887 0.562795
1.000000 0.845215 0.626255
1.000000 0.873771 0.699922
1.000000 0.895578 0.757650
0.000000 0.870463 0.469641
0.000000 0.872770 0.469761
0.000000 0.872727 0.465990
0.000000 0.872567 0.462245
0.000000 0.872519 0.458479
0.000000 0.872459 0.458492
0.000000 0.872355 0.450968
0.000000 0.872302 0.447209
0.000000 0.876787 0.443757
0.000000 0.876590 0.440037
0.000000 0.878575 0.432749
0.000000 0.880394 0.433014
0.000000 0.881873 0.422121
0.000000 0.881074 0.411069
0.000000 0.879701 0.388974
0.000000 0.875654 0.359317
0.177694 0.870851 0.336325
0.461340 0.870823 0.290368
0.615382 0.865705 0.264665
0.738478 0.862370 0.224765
0.824612 0.857673 0.189639
0.893441 0.846627 0.135377
0.941830 0.831658 0.071050
0.972132 0.835089 0.177563
0.995900 0.834490 0.267354
1.000000 0.834863 0.341020
1.000000 0.833762 0.405135
1.000000 0.833524 0.463325
1.000000 0.834139 0.521575
1.000000 0.838729 0.576765
1.000000 0.861563 0.636579
1.000000 0.882551 0.706131
1.000000 0.902077 0.763167
0.000000 0.909785 0.552368
0.000000 0.909648 0.548572
0.000000 0.911436 0.548820
0.000000 0.911290 0.545051
0.000000 0.911209 0.545060
0.000000 0.911139 0.541323
0.000000 0.914613 0.541870
0.000000 0.914540 0.538144
0.000000 0.915962 0.538471
0.000000 0.915695 0.534776
0.000000 0.917188 0.523955
0.000000 0.916793 0.520293
0.000000 0.916152 0.516667
0.000000 0.915220 0.509384
0.000000 0.914196 0.498441
0.000000 0.914652 0.476940
0.000000 0.914615 0.444839
0.430672 0.908622 0.427193
0.582233 0.902577 0.388349
0.701089 0.899519 0.362352
0.796435 0.896530 0.325889
0.878169 0.890163 0.299515
0.925879 0.885558 0.264740
0.963078 0.876163 0.231906
0.989503 0.873011 0.291889
1.000000 0.874438 0.368644
1.000000 0.874643 0.427108
1.000000 0.873583 0.485608
1.000000 0.874921 0.552424
1.000000 0.873976 0.599490
1.000000 0.878074 0.651398
1.000000 0.895182 0.718775
1.000000 0.909533 0.768719
0.000000 0.938463 0.637211
0.000000 0.939804 0.637533
0.000000 0.939598 0.637547
0.000000 0.939598 0.637547
0.000000 0.939493 0.637553
0.000000 0.939402 0.633827
0.000000 0.939295 0.633835
0.000000 0.939295 0.633835
0.000000 0.938978 0.630125
0.000000 0.938865 0.630133
0.000000 0.940077 0.626759
0.000000 0.939735 0.623061
0.000000 0.939253 0.619376
0.000000 0.942689 0.613145
0.000000 0.943084 0.606249
0.000000 0.943238 0.595755
0.258259 0.939505 0.573563
0.439799 0.936572 0.548587
0.558915 0.934746 0.524852
0.686739 0.930036 0.498180
0.783258 0.924214 0.465465
0.864519 0.919857 0.433179
0.906291 0.918860 0.403422
0.945886 0.913712 0.380310
0.979313 0.904616 0.348766
1.000000 0.903571 0.398298
1.000000 0.903207 0.459737
1.000000 0.901947 0.513701
1.000000 0.905314 0.575841
1.000000 0.906503 0.624698
1.000000 0.902506 0.674872
1.000000 0.908393 0.734494
1.000000 0.920112 0.777158
0.000000 0.961808 0.719948
0.000000 0.961808 0.719948
0.000000 0.961682 0.719950
0.000000 0.961553 0.719952
0.000000 0.962701 0.720246
