Assets/Lutify-Free-LUTs-Pack/Lutify Free LUTs Pack/Commercial Pro - Claire/Lutify.me-Claire-LogC4-to-Rec709.cube
# Created with: fylm.ai - Colour Grading and Collaboration Software in Cloud 
# Website: https://fylm.ai 
# META
# Option: Gamut compress
# Block 1: IDT | Arri Alexa 35 - LogC4
# Block 2: colourMatch | Blending Mode: Normal | {"ColorSpace":0,"CrossCovarianceLimit":50,"ReshapingIterations":1,"PercentSaturationShift":100,"PercentShadingShift":100,"ExtraShading":true,"PercentTint":100,"PercentModified":100}
# Block 3: HSL | Blending Mode: Normal | {"hue":{"Reds":0,"Yellows":0,"Greens":0,"Cyans":0,"Blues":0,"Magentas":0},"saturation":{"Reds":1,"Yellows":1,"Greens":1,"Cyans":1,"Blues":1,"Magentas":1},"luminance":{"Reds":0.9,"Yellows":0.9,"Greens":0.9,"Cyans":0.8,"Blues":0.8,"Magentas":0.9},"lum_sat":{"Blacks":1,"Shadows":1,"Midtones":1,"Highlights":1,"Whites":1},"sat_sat":{"10":1,"20":1,"30":1,"40":1,"50":1}}
# Block 4: subtractiveColour | Blending Mode: Normal | {"sliders":{"gainY":0.1,"C":0.05,"M":0.05,"Y":0.05}}
# Block 5: logPrimaries | Blending Mode: Normal | {"wheels":{"shadows":{"Y":"0","R":"1","G":"1","B":"1"},"midtones":{"Y":"0","R":"1","G":"1","B":"1"},"highlights":{"Y":"0","R":"1","G":"1","B":"1"},"offset":{"Y":"0","R":"1","G":"1","B":"1"}},"sliders":{"shadows":{"Y":0,"R":-0.05,"G":0,"B":0.1},"midtones":{"Y":0,"R":0,"G":0,"B":0},"highlights":{"Y":0,"R":0,"G":0,"B":0},"offset":{"Y":0,"R":0,"G":0,"B":0}}}
# Block 6: LUT | Filmic Curve Response: Standard Contrast 1 (100%)
# Block 7: LUT | Illuminant: D93 (100%)
# Block 8: LUT | Neutral Tint: Teal Tint 4 (100%)
# Block 9: ODT | Rec709
TITLE "Lutify.me-Claire-LogC4-to-Rec709" 
LUT_3D_SIZE 5
0.000000 0.000000 0.000000
0.531155 0.000000 0.000000
1.000000 0.000000 0.115886
1.000000 0.815040 0.678891
1.000000 0.995034 0.985776
0.000000 0.272228 0.000000
0.406835 0.201172 0.000000
1.000000 0.042575 0.117743
1.000000 0.822677 0.681808
1.000000 0.995034 0.985776
0.000000 0.841827 0.480341
0.000000 0.871795 0.432256
0.936854 0.826954 0.117473
1.000000 0.870352 0.715230
1.000000 0.995496 0.986541
0.695176 1.000000 0.951461
0.720905 1.000000 0.950664
0.859765 1.000000 0.946198
1.000000 0.997523 0.875259
1.000000 1.000000 0.990813
0.982106 1.000000 1.000000
0.982098 1.000000 1.000000
0.983964 1.000000 1.000000
0.998249 1.000000 1.000000
1.000000 1.000000 1.000000
0.000000 0.000000 0.263612
0.412852 0.000000 0.056723
1.000000 0.000000 0.187367
1.000000 0.815010 0.684684
1.000000 0.995034 0.985776
0.000000 0.223453 0.342464
0.228916 0.296041 0.386552
1.000000 0.048533 0.208006
1.000000 0.822634 0.690436
1.000000 0.995034 0.985776
0.000000 0.810520 0.620565
0.000000 0.857350 0.596197
0.925256 0.846711 0.323246
1.000000 0.870314 0.723224
1.000000 0.995496 0.986541
0.690635 1.000000 0.953100
0.716686 1.000000 0.953125
0.859589 1.000000 0.948705
1.000000 0.997733 0.880994
1.000000 1.000000 0.990813
0.981312 1.000000 1.000000
0.982098 1.000000 1.000000
0.983964 1.000000 1.000000
0.998249 1.000000 1.000000
1.000000 1.000000 1.000000
0.000000 0.169538 0.548049
0.000000 0.172458 0.585224
0.966366 0.000000 0.361402
1.000000 0.813901 0.775806
1.000000 0.995022 0.987284
0.000000 0.248919 0.625464
0.000000 0.262714 0.675118
0.970420 0.000000 0.592646
1.000000 0.821601 0.778145
1.000000 0.995022 0.987284
0.000000 0.713446 0.851145
0.000000 0.797204 0.897324
0.864952 0.892378 0.923222
1.000000 0.872987 0.804358
1.000000 0.995490 0.987661
0.620616 1.000000 0.971520
0.651744 1.000000 0.971427
0.834234 1.000000 0.970968
1.000000 0.999286 0.925606
1.000000 1.000000 0.991764
0.980922 1.000000 1.000000
0.981323 1.000000 1.000000
0.983580 1.000000 1.000000
0.998223 1.000000 1.000000
1.000000 1.000000 1.000000
0.000000 0.693518 0.974288
0.000000 0.696348 0.975748
0.629714 0.710487 0.983697
1.000000 0.555479 0.934454
1.000000 0.995187 0.997659
0.000000 0.705715 0.974465
0.000000 0.708635 0.975903
0.630100 0.722068 0.985285
1.000000 0.580399 0.942474
1.000000 0.995421 0.997647
0.000000 0.818660 0.983733
0.000000 0.826028 0.984490
0.526905 0.839518 0.991962
1.000000 0.793372 0.978478
1.000000 0.995876 0.997844
0.000000 1.000000 1.000000
0.000000 1.000000 1.000000
0.465476 1.000000 1.000000
1.000000 1.000000 1.000000
1.000000 1.000000 1.000000
0.973419 1.000000 1.000000
0.973415 1.000000 1.000000
0.975952 1.000000 1.000000
0.994781 1.000000 1.000000
1.000000 1.000000 1.000000
0.865998 0.979075 1.000000
0.865998 0.979075 1.000000
0.885503 0.979186 1.000000
0.982942 0.979492 1.000000
1.000000 0.945091 1.000000
0.865998 0.979075 1.000000
0.865998 0.979075 1.000000
0.885503 0.979186 1.000000
0.982703 0.980008 1.000000
1.000000 0.945879 1.000000
0.865460 0.980894 1.000000
0.867565 0.980781 1.000000
0.884944 0.980965 1.000000
0.981764 0.982016 1.000000
1.000000 0.952623 1.000000
0.851898 0.996923 1.000000
0.853966 0.996813 1.000000
0.875001 0.996432 1.000000
0.974031 0.996289 1.000000
1.000000 0.992433 1.000000
0.791293 1.000000 1.000000
0.792592 1.000000 1.000000
0.822294 1.000000 1.000000
0.958698 1.000000 1.000000
1.000000 1.000000 1.000000
