Assets/Lutify-Free-LUTs-Pack/Lutify Free LUTs Pack/Commercial Pro - Claire/Lutify.me-Claire-SLog1-to-Rec709.cube
# Created with: fylm.ai - Colour Grading and Collaboration Software in Cloud 
# Website: https://fylm.ai 
# META
# Option: Gamut compress
# Block 1: IDT | Sony S-Log S-Gamut 10-bit
# Block 2: colourMatch | Blending Mode: Normal | {"ColorSpace":0,"CrossCovarianceLimit":50,"ReshapingIterations":1,"PercentSaturationShift":100,"PercentShadingShift":100,"ExtraShading":true,"PercentTint":100,"PercentModified":100}
# Block 3: HSL | Blending Mode: Normal | {"hue":{"Reds":0,"Yellows":0,"Greens":0,"Cyans":0,"Blues":0,"Magentas":0},"saturation":{"Reds":1,"Yellows":1,"Greens":1,"Cyans":1,"Blues":1,"Magentas":1},"luminance":{"Reds":0.9,"Yellows":0.9,"Greens":0.9,"Cyans":0.8,"Blues":0.8,"Magentas":0.9},"lum_sat":{"Blacks":1,"Shadows":1,"Midtones":1,"Highlights":1,"Whites":1},"sat_sat":{"10":1,"20":1,"30":1,"40":1,"50":1}}
# Block 4: subtractiveColour | Blending Mode: Normal | {"sliders":{"gainY":0.1,"C":0.05,"M":0.05,"Y":0.05}}
# Block 5: logPrimaries | Blending Mode: Normal | {"wheels":{"shadows":{"Y":"0","R":"1","G":"1","B":"1"},"midtones":{"Y":"0","R":"1","G":"1","B":"1"},"highlights":{"Y":"0","R":"1","G":"1","B":"1"},"offset":{"Y":"0","R":"1","G":"1","B":"1"}},"sliders":{"shadows":{"Y":0,"R":-0.05,"G":0,"B":0.1},"midtones":{"Y":0,"R":0,"G":0,"B":0},"highlights":{"Y":0,"R":0,"G":0,"B":0},"offset":{"Y":0,"R":0,"G":0,"B":0}}}
# Block 6: LUT | Filmic Curve Response: Standard Contrast 1 (100%)
# Block 7: LUT | Illuminant: D93 (100%)
# Block 8: LUT | Neutral Tint: Teal Tint 4 (100%)
# Block 9: ODT | Rec709
TITLE "Lutify.me-Claire-SLog1-to-Rec709" 
LUT_3D_SIZE 9
0.000000 0.000000 0.000000
0.152194 0.000000 0.000000
0.453150 0.000000 0.000000
0.555601 0.000000 0.000000
0.644404 0.000000 0.000000
0.836491 0.000000 0.000000
1.000000 0.000000 0.092334
1.000000 0.289664 0.210674
1.000000 0.548944 0.360982
0.000000 0.063623 0.000000
0.054635 0.046313 0.000000
0.316424 0.000000 0.000000
0.486310 0.000000 0.000000
0.627708 0.000000 0.000000
0.831525 0.000000 0.000000
1.000000 0.000000 0.091591
1.000000 0.303548 0.211874
1.000000 0.552507 0.363667
0.000000 0.194645 0.000000
0.000000 0.180386 0.000000
0.286721 0.123482 0.000000
0.462127 0.000000 0.000000
0.620699 0.000000 0.000000
0.830952 0.000000 0.000000
1.000000 0.000000 0.093175
1.000000 0.321585 0.215027
1.000000 0.563231 0.365879
0.000000 0.308345 0.000000
0.000000 0.310525 0.000000
0.151295 0.296790 0.000000
0.464481 0.244755 0.000000
0.636069 0.226686 0.000000
0.833862 0.156344 0.000000
1.000000 0.182506 0.098056
1.000000 0.365676 0.221240
1.000000 0.577568 0.367857
0.000000 0.408932 0.123461
0.000000 0.480965 0.000000
0.000000 0.490707 0.000000
0.267250 0.480051 0.000000
0.623092 0.441534 0.000000
0.844004 0.422294 0.000000
0.990071 0.393049 0.079956
1.000000 0.449924 0.229526
1.000000 0.614386 0.378231
0.000000 0.607034 0.293065
0.000000 0.656542 0.256076
0.000000 0.694079 0.204454
0.000000 0.691563 0.060786
0.447517 0.688558 0.000000
0.815705 0.640761 0.000000
0.969321 0.632604 0.000000
1.000000 0.630652 0.251586
1.000000 0.680835 0.398732
0.000000 0.808053 0.488728
0.000000 0.819867 0.476917
0.000000 0.846534 0.465227
0.000000 0.862069 0.420544
0.000000 0.858240 0.334690
0.712066 0.844893 0.212937
0.927922 0.820083 0.000000
1.000000 0.817559 0.294062
1.000000 0.814990 0.450323
0.000000 0.920021 0.692819
0.000000 0.923062 0.689536
0.000000 0.930140 0.686791
0.000000 0.941374 0.674550
0.000000 0.948263 0.648365
0.568130 0.940828 0.570407
0.873856 0.927263 0.472221
0.977910 0.913165 0.399441
1.000000 0.910265 0.519629
0.000000 0.979494 0.844624
0.000000 0.980885 0.844761
0.000000 0.982031 0.838599
0.000000 0.984955 0.836968
0.233693 0.986373 0.833512
0.579217 0.986410 0.824342
0.811063 0.978633 0.774550
0.941423 0.973110 0.709543
1.000000 0.964073 0.635504
0.000000 0.000000 0.066383
0.091081 0.000000 0.010742
0.357021 0.000000 0.000000
0.489629 0.000000 0.000000
0.614973 0.000000 0.000000
0.827175 0.000000 0.044282
1.000000 0.000000 0.113296
1.000000 0.294298 0.219468
1.000000 0.548914 0.369798
0.000000 0.048151 0.079284
0.024118 0.043746 0.063881
0.257574 0.000000 0.000000
0.418419 0.000000 0.000000
0.602664 0.000000 0.000000
0.822073 0.000000 0.045506
1.000000 0.000000 0.113267
1.000000 0.303497 0.225838
1.000000 0.552487 0.369561
0.000000 0.148446 0.117847
0.000000 0.181526 0.079039
0.208848 0.174458 0.000000
0.395492 0.115697 0.000000
0.595506 0.000000 0.000000
0.826141 0.000000 0.044262
1.000000 0.000000 0.112598
1.000000 0.325990 0.226546
1.000000 0.563211 0.371813
0.000000 0.242600 0.176124
0.000000 0.307829 0.115994
0.000000 0.323883 0.000000
0.383685 0.299743 0.000000
0.603804 0.262779 0.000000
0.828755 0.169731 0.015342
1.000000 0.183143 0.123123
1.000000 0.369888 0.230816
1.000000 0.577540 0.376842
0.000000 0.370530 0.263809
0.000000 0.452783 0.206597
0.000000 0.501602 0.115449
0.189063 0.499429 0.000000
0.598786 0.462294 0.000000
0.830457 0.431797 0.000000
0.989350 0.397370 0.119330
1.000000 0.449908 0.243178
1.000000 0.617138 0.383287
0.000000 0.587874 0.372108
0.000000 0.637321 0.338215
0.000000 0.694099 0.299236
0.000000 0.699490 0.217851
0.432156 0.697173 0.000000
0.800177 0.661703 0.000000
0.965729 0.636708 0.083466
1.000000 0.630656 0.263453
1.000000 0.680821 0.405095
0.000000 0.798505 0.515941
0.000000 0.813879 0.507695
0.000000 0.841357 0.495711
0.000000 0.862044 0.458270
0.000000 0.860658 0.373341
0.705755 0.845115 0.265235
0.924232 0.822755 0.136048
1.000000 0.817550 0.311267
1.000000 0.817297 0.456666
0.000000 0.918225 0.703228
0.000000 0.921376 0.699967
0.000000 0.928668 0.697163
0.000000 0.940062 0.691910
0.000000 0.948203 0.662848
0.573598 0.941829 0.588982
0.873158 0.927202 0.495393
0.977021 0.914546 0.416015
1.000000 0.910236 0.531322
0.000000 0.978650 0.848688
0.000000 0.980184 0.846760
0.000000 0.981229 0.844814
0.000000 0.985046 0.843261
0.212299 0.986516 0.837732
0.578778 0.986387 0.828617
0.810745 0.978609 0.779542
0.941175 0.973088 0.714837
1.000000 0.964054 0.640728
0.000000 0.000000 0.229272
0.033750 0.000000 0.079107
0.303156 0.000000 0.045363
0.455381 0.000000 0.042181
0.599186 0.000000 0.066071
0.822704 0.000000 0.089038
1.000000 0.000000 0.142668
1.000000 0.290457 0.239287
1.000000 0.548869 0.381717
0.000000 0.028793 0.176906
0.000000 0.024435 0.129160
0.225593 0.000000 0.096117
0.386967 0.000000 0.090105
0.586985 0.000000 0.083474
0.812729 0.000000 0.095228
1.000000 0.000000 0.145091
1.000000 0.304297 0.240874
1.000000 0.552443 0.381491
0.000000 0.152833 0.251142
0.000000 0.157570 0.257827
0.142533 0.186630 0.257240
0.363762 0.140956 0.164412
0.578403 0.000000 0.106449
0.816675 0.000000 0.103521
1.000000 0.000000 0.148318
1.000000 0.322282 0.244688
1.000000 0.563170 0.383820
0.000000 0.258579 0.306617
0.000000 0.279224 0.325077
0.000000 0.337025 0.293550
0.335380 0.335120 0.206840
0.586034 0.275749 0.134069
0.818396 0.184336 0.119710
0.999518 0.183781 0.156664
1.000000 0.369840 0.248939
1.000000 0.577489 0.392046
0.000000 0.375845 0.369851
0.000000 0.418128 0.367336
0.000000 0.490816 0.325464
0.000000 0.526277 0.224050
0.558756 0.491470 0.129701
0.814980 0.445436 0.115063
0.991596 0.397375 0.168626
1.000000 0.449874 0.266360
1.000000 0.617084 0.401930
0.000000 0.564942 0.456238
0.000000 0.610375 0.442150
0.000000 0.659603 0.409285
0.000000 0.711729 0.346029
0.402714 0.709907 0.223223
0.795210 0.674252 0.101962
0.966404 0.640822 0.172462
1.000000 0.630663 0.290786
1.000000 0.684253 0.417415
0.000000 0.788468 0.566740
0.000000 0.801358 0.558348
0.000000 0.830630 0.549588
0.000000 0.859523 0.518980
0.000000 0.865571 0.437139
0.696000 0.850303 0.332580
0.921764 0.827726 0.221895
1.000000 0.819966 0.342662
1.000000 0.817267 0.472278
0.000000 0.916454 0.720159
0.000000 0.919612 0.720302
0.000000 0.925591 0.717342
0.000000 0.937365 0.708575
0.000000 0.947063 0.690555
0.571267 0.941710 0.621492
0.871537 0.928459 0.526259
0.975363 0.917275 0.441701
1.000000 0.911550 0.546830
0.000000 0.977779 0.854675
0.000000 0.979344 0.852779
0.000000 0.980526 0.850870
0.000000 0.984182 0.849264
0.180555 0.985870 0.845798
0.579475 0.987698 0.835293
0.809967 0.979244 0.789546
0.940430 0.973020 0.730425
1.000000 0.964773 0.654979
0.000000 0.000000 0.238201
0.000000 0.000000 0.118926
0.251769 0.000000 0.084997
0.469637 0.000000 0.063540
0.579964 0.000000 0.121585
0.805584 0.000000 0.167625
1.000000 0.000000 0.198116
1.000000 0.289309 0.277915
1.000000 0.548757 0.409234
0.000000 0.034064 0.233584
0.000000 0.036848 0.188329
0.189060 0.000000 0.172106
0.381568 0.000000 0.132331
0.565566 0.000000 0.176397
0.814587 0.000000 0.183891
0.999988 0.000000 0.203608
1.000000 0.303223 0.279669
1.000000 0.552319 0.412146
0.000000 0.135097 0.312071
0.000000 0.141333 0.306587
0.000000 0.149713 0.342203
0.354825 0.098624 0.299487
0.563919 0.000000 0.237305
0.803630 0.000000 0.204947
0.998320 0.000000 0.210958
1.000000 0.322102 0.281628
1.000000 0.563049 0.414658
0.000000 0.252283 0.392746
0.000000 0.268331 0.405518
0.000000 0.307791 0.456090
0.276575 0.348245 0.453456
0.554184 0.293486 0.329802
0.798025 0.182511 0.240252
0.995913 0.190649 0.230399
1.000000 0.370393 0.286853
1.000000 0.580979 0.419781
0.000000 0.381539 0.466882
0.000000 0.424207 0.512154
0.000000 0.458339 0.532790
0.000000 0.526616 0.495762
0.511025 0.532916 0.408632
0.809453 0.462184 0.294255
0.985629 0.414605 0.255025
1.000000 0.449250 0.303405
1.000000 0.620629 0.423439
0.000000 0.568237 0.575983
0.000000 0.590901 0.574702
0.000000 0.628687 0.560913
0.000000 0.695739 0.533866
0.341586 0.730080 0.445231
0.773299 0.699991 0.343105
0.956468 0.665390 0.296803
1.000000 0.634316 0.338213
1.000000 0.691309 0.447954
0.000000 0.767387 0.657843
0.000000 0.784667 0.649137
0.000000 0.810124 0.636254
0.000000 0.839722 0.623678
0.000000 0.875055 0.577666
0.672018 0.864868 0.467260
0.914044 0.842585 0.361548
1.000000 0.822331 0.404640
1.000000 0.819350 0.493957
0.000000 0.907185 0.756731
0.000000 0.910678 0.756713
0.000000 0.920679 0.753534
0.000000 0.931705 0.750699
0.000000 0.945667 0.735894
0.565777 0.944040 0.679372
0.868766 0.929601 0.585066
0.970928 0.921306 0.495677
1.000000 0.914140 0.575243
0.000000 0.976191 0.864261
0.000000 0.977719 0.864297
0.000000 0.978867 0.862451
0.000000 0.981944 0.860736
0.081721 0.985342 0.859293
0.565393 0.987997 0.851130
0.808175 0.980468 0.812972
0.937495 0.973692 0.753227
1.000000 0.965432 0.682043
0.000000 0.000000 0.231577
0.000000 0.000000 0.178942
0.170103 0.000000 0.159764
0.386645 0.000000 0.124543
0.646757 0.000000 0.097330
0.770090 0.000000 0.264121
0.998608 0.000000 0.312221
1.000000 0.288705 0.344832
1.000000 0.554658 0.457070
0.000000 0.052724 0.283909
0.000000 0.054801 0.263295
0.096184 0.039270 0.269553
0.343638 0.000000 0.235978
0.555664 0.000000 0.187902
0.775345 0.000000 0.290624
1.000000 0.000000 0.322962
1.000000 0.302628 0.350302
1.000000 0.558256 0.456886
0.000000 0.111803 0.349371
0.000000 0.119209 0.349202
0.000000 0.122364 0.376934
0.307345 0.077782 0.385675
0.554863 0.000000 0.325587
0.776099 0.000000 0.339660
1.000000 0.000000 0.333820
1.000000 0.321505 0.359172
1.000000 0.565443 0.459627
0.000000 0.238297 0.458601
0.000000 0.258189 0.475699
0.000000 0.276333 0.522363
0.165776 0.294881 0.562102
0.546597 0.262971 0.516831
0.785962 0.156923 0.409008
0.995224 0.194304 0.365433
1.000000 0.369170 0.376357
1.000000 0.579844 0.465142
0.000000 0.359493 0.541161
0.000000 0.393626 0.569651
0.000000 0.440507 0.625273
0.000000 0.486838 0.657798
0.469070 0.547904 0.662206
0.773154 0.485550 0.527882
0.979883 0.414397 0.422378
1.000000 0.464673 0.398845
1.000000 0.620429 0.476314
0.000000 0.560249 0.665709
0.000000 0.590325 0.698855
0.000000 0.620504 0.719390
0.000000 0.668850 0.723719
0.137332 0.738608 0.697325
0.725386 0.740698 0.626249
0.945138 0.682443 0.494707
1.000000 0.653730 0.445505
1.000000 0.694710 0.492543
0.000000 0.770640 0.766286
0.000000 0.784343 0.768767
0.000000 0.797204 0.767975
0.000000 0.817671 0.753279
0.000000 0.864230 0.733612
0.654073 0.875228 0.678455
0.902567 0.856132 0.570694
0.995537 0.834260 0.511596
1.000000 0.819224 0.549394
0.000000 0.897273 0.812216
0.000000 0.903120 0.809353
0.000000 0.910267 0.809045
0.000000 0.922511 0.808587
0.000000 0.938532 0.800606
0.533924 0.946830 0.768541
0.855272 0.935911 0.694264
0.967313 0.924855 0.604441
1.000000 0.917861 0.636389
0.000000 0.973561 0.880793
0.000000 0.975292 0.880764
0.000000 0.976464 0.880709
0.000000 0.978878 0.880648
0.000000 0.983304 0.875454
0.547681 0.986221 0.872417
0.805553 0.982241 0.846521
0.936619 0.974776 0.787685
0.998476 0.968190 0.725283
0.000000 0.053092 0.314051
0.000000 0.052031 0.316673
0.099868 0.033875 0.313591
0.290434 0.000000 0.296033
0.535048 0.000000 0.237920
0.796704 0.000000 0.183195
0.978744 0.000000 0.436497
1.000000 0.277633 0.489074
1.000000 0.550526 0.537758
0.000000 0.090606 0.374506
0.000000 0.091164 0.377705
0.000000 0.085848 0.390799
0.252456 0.018269 0.406411
0.529138 0.000000 0.346302
0.750284 0.000000 0.288173
0.977597 0.000000 0.449753
1.000000 0.291914 0.499039
1.000000 0.557712 0.540772
0.000000 0.135978 0.433798
0.000000 0.141765 0.447573
0.000000 0.141495 0.468651
0.198905 0.131976 0.478660
0.514724 0.000000 0.469737
0.764916 0.000000 0.404309
0.975347 0.000000 0.476739
1.000000 0.320435 0.508981
1.000000 0.564908 0.543793
0.000000 0.218604 0.513315
0.000000 0.226390 0.535180
0.000000 0.236079 0.564662
0.000000 0.244297 0.590574
0.488667 0.212807 0.611798
0.781930 0.000000 0.532542
0.973419 0.141916 0.535928
1.000000 0.373685 0.528733
1.000000 0.586574 0.549526
0.000000 0.373998 0.624417
0.000000 0.396098 0.662184
0.000000 0.419207 0.699868
0.000000 0.445084 0.728383
0.349215 0.483157 0.763904
0.770537 0.455689 0.716912
0.967894 0.389931 0.617109
1.000000 0.462170 0.561787
1.000000 0.627252 0.558259
0.000000 0.507746 0.699393
0.000000 0.548589 0.726906
0.000000 0.593666 0.780271
0.000000 0.634789 0.806088
0.000000 0.697686 0.826195
0.698188 0.754248 0.828368
0.915381 0.703184 0.734984
1.000000 0.656997 0.631792
1.000000 0.694351 0.583081
0.000000 0.748605 0.831668
0.000000 0.766865 0.837963
0.000000 0.783975 0.846442
0.000000 0.808888 0.858350
0.000000 0.848828 0.861619
0.555005 0.877598 0.853664
0.877837 0.874844 0.804016
0.982327 0.847719 0.710798
1.000000 0.825723 0.652522
0.000000 0.899365 0.882918
0.000000 0.903155 0.884490
0.000000 0.906618 0.884204
0.000000 0.916493 0.885237
0.000000 0.925040 0.876954
0.404254 0.942917 0.869335
0.840689 0.942566 0.837057
0.957721 0.931557 0.782754
1.000000 0.920124 0.722656
0.000000 0.971009 0.909086
0.000000 0.971737 0.909016
0.000000 0.973280 0.908890
0.000000 0.975124 0.905808
0.000000 0.978452 0.905398
0.453433 0.983115 0.900547
0.795908 0.983550 0.892007
0.929043 0.976577 0.852167
0.993587 0.971238 0.797467
0.000000 0.130291 0.497636
0.000000 0.127464 0.508535
0.000000 0.129660 0.515618
0.173331 0.111613 0.518871
0.448263 0.000000 0.527941
0.737001 0.000000 0.451705
0.952608 0.000000 0.370394
1.000000 0.164112 0.635665
1.000000 0.544099 0.683884
0.000000 0.153032 0.526288
0.000000 0.150243 0.537384
0.000000 0.153638 0.548289
0.143442 0.139912 0.551692
0.437109 0.056621 0.572144
0.737820 0.000000 0.518973
0.953852 0.000000 0.439598
1.000000 0.194485 0.642957
1.000000 0.551333 0.687127
0.000000 0.189188 0.569896
0.000000 0.195002 0.581069
0.000000 0.202488 0.596078
0.000000 0.197404 0.618850
0.397302 0.163081 0.636613
0.739201 0.000000 0.592591
0.956417 0.000000 0.519630
1.000000 0.241652 0.664751
1.000000 0.562170 0.693689
0.000000 0.251140 0.625389
0.000000 0.257750 0.636742
0.000000 0.256758 0.656063
0.000000 0.263200 0.678768
0.342670 0.248727 0.708417
0.724793 0.157005 0.694420
0.961807 0.000000 0.618548
1.000000 0.326546 0.693353
1.000000 0.581156 0.706930
0.000000 0.351723 0.710440
0.000000 0.360511 0.721315
0.000000 0.375510 0.738847
0.000000 0.380265 0.766493
0.194583 0.402372 0.798548
0.703002 0.379734 0.807918
0.968723 0.279473 0.738527
1.000000 0.435450 0.733305
1.000000 0.625580 0.725209
0.000000 0.555684 0.804690
0.000000 0.566917 0.821558
0.000000 0.585694 0.839113
0.000000 0.607837 0.855094
0.000000 0.650120 0.874620
0.568908 0.691826 0.887881
0.923254 0.673760 0.868023
1.000000 0.629961 0.802704
1.000000 0.706582 0.746682
0.000000 0.670301 0.828940
0.000000 0.713415 0.855828
0.000000 0.748502 0.875379
0.000000 0.787144 0.894378
0.000000 0.824575 0.909859
0.372337 0.862230 0.917240
0.854782 0.884472 0.917041
0.963655 0.860589 0.870245
1.000000 0.829688 0.805573
0.000000 0.887030 0.919403
0.000000 0.889062 0.920657
0.000000 0.895174 0.924353
0.000000 0.906419 0.926118
0.000000 0.920064 0.932509
0.106072 0.937673 0.938173
0.801869 0.944914 0.928331
0.943226 0.942478 0.908113
1.000000 0.927028 0.855467
0.000000 0.969645 0.948245
0.000000 0.970455 0.948144
0.000000 0.972219 0.947964
0.000000 0.974250 0.947660
0.000000 0.975619 0.947176
0.251493 0.978511 0.945117
0.743615 0.981033 0.942495
0.920885 0.980498 0.927504
0.988080 0.974444 0.893389
0.000000 0.230301 0.695571
0.000000 0.231907 0.699331
0.000000 0.237099 0.706723
0.000000 0.237255 0.725121
0.317529 0.211636 0.728217
0.658554 0.110257 0.743361
0.948788 0.000000 0.672082
1.000000 0.000000 0.585104
1.000000 0.474954 0.800604
0.000000 0.245963 0.710487
0.000000 0.247675 0.717953
0.000000 0.251208 0.717700
0.000000 0.251842 0.739315
0.294433 0.233309 0.742303
0.654186 0.156600 0.767264
0.945563 0.000000 0.702158
1.000000 0.000000 0.611036
1.000000 0.478471 0.806122
0.000000 0.267282 0.728514
0.000000 0.271825 0.731975
0.000000 0.273359 0.739067
0.000000 0.272386 0.756322
0.274207 0.260178 0.762482
0.648138 0.206903 0.790753
0.946865 0.000000 0.734406
1.000000 0.000000 0.666391
1.000000 0.494327 0.811165
0.000000 0.315253 0.755328
0.000000 0.317744 0.762037
0.000000 0.322834 0.772482
0.000000 0.320186 0.789610
0.226244 0.321871 0.801753
0.625309 0.289601 0.820361
0.946267 0.120430 0.791094
1.000000 0.000000 0.731708
1.000000 0.520096 0.823285
0.000000 0.390937 0.806660
0.000000 0.393981 0.812669
0.000000 0.403600 0.818174
0.000000 0.415729 0.834377
0.000000 0.425031 0.848934
0.552781 0.410932 0.861480
0.934056 0.358000 0.856161
1.000000 0.289504 0.807665
1.000000 0.577468 0.840769
0.000000 0.521473 0.855163
0.000000 0.525050 0.859786
0.000000 0.539758 0.868321
0.000000 0.550109 0.878726
0.000000 0.566135 0.891861
0.463256 0.583396 0.909752
0.892763 0.581165 0.912486
1.000000 0.527361 0.878631
1.000000 0.677083 0.865006
0.000000 0.740900 0.909729
0.000000 0.748406 0.912450
0.000000 0.759337 0.917975
0.000000 0.780024 0.925460
0.000000 0.794804 0.935270
0.000000 0.825017 0.944381
0.790750 0.850975 0.948276
0.965956 0.847658 0.939396
1.000000 0.814028 0.901117
0.000000 0.833559 0.915964
0.000000 0.851749 0.924886
0.000000 0.868727 0.934427
0.000000 0.889064 0.943855
0.000000 0.907802 0.953059
0.000000 0.924905 0.962004
0.715042 0.934585 0.963484
0.931329 0.946708 0.964607
0.994005 0.933783 0.937818
0.000000 0.963436 0.966234
0.000000 0.964383 0.966932
0.000000 0.966348 0.967521
0.000000 0.969859 0.968659
0.000000 0.972920 0.972557
0.000000 0.977873 0.974076
0.672082 0.977969 0.975313
0.906573 0.980333 0.973011
0.980930 0.980307 0.960448
0.000000 0.361824 0.859846
0.000000 0.361465 0.859804
0.000000 0.363830 0.862035
0.000000 0.364801 0.868862
0.246304 0.366187 0.877305
0.522217 0.344466 0.880292
0.886741 0.284449 0.887361
1.000000 0.000000 0.849569
1.000000 0.000000 0.781483
0.000000 0.371484 0.859458
0.000000 0.374299 0.861727
0.000000 0.376904 0.863941
0.000000 0.378134 0.873026
0.236211 0.376395 0.881385
0.513402 0.355911 0.884346
0.884810 0.299054 0.893128
1.000000 0.111756 0.854095
1.000000 0.080793 0.793802
0.000000 0.391355 0.865911
0.000000 0.390969 0.865864
0.000000 0.397088 0.872545
0.000000 0.398875 0.876778
0.202774 0.397608 0.889206
0.499472 0.382344 0.889857
0.876279 0.332900 0.900453
1.000000 0.187617 0.862937
1.000000 0.178845 0.808170
0.000000 0.429480 0.878126
0.000000 0.429093 0.878078
0.000000 0.432020 0.882268
0.000000 0.437577 0.886080
0.111747 0.430095 0.900189
0.473092 0.420660 0.902741
0.868170 0.382507 0.915655
1.000000 0.291173 0.887295
1.000000 0.269664 0.843887
0.000000 0.483114 0.896695
0.000000 0.482857 0.896662
0.000000 0.482417 0.900683
0.000000 0.481229 0.904494
0.000000 0.492639 0.912779
0.434861 0.496821 0.921183
0.839063 0.466465 0.929088
1.000000 0.417866 0.915627
1.000000 0.396155 0.879413
0.000000 0.569286 0.916645
0.000000 0.572916 0.918085
0.000000 0.576369 0.921091
0.000000 0.583067 0.923743
0.000000 0.588312 0.930748
0.324677 0.607531 0.938569
0.780609 0.595305 0.943794
1.000000 0.581824 0.942985
1.000000 0.543110 0.916101
0.000000 0.708508 0.937286
0.000000 0.708339 0.939987
0.000000 0.712093 0.941030
0.000000 0.719616 0.944381
0.000000 0.733442 0.950613
0.000000 0.757308 0.957179
0.699564 0.773551 0.966254
0.957416 0.785541 0.966641
1.000000 0.753417 0.948391
0.000000 0.873042 0.962792
0.000000 0.877632 0.963363
0.000000 0.881930 0.964827
0.000000 0.890078 0.967651
0.000000 0.898943 0.971765
0.000000 0.911211 0.976973
0.557672 0.918653 0.981037
0.898116 0.926163 0.983853
0.994313 0.925687 0.979158
0.000000 0.938577 0.966003
0.000000 0.942877 0.968979
0.000000 0.944087 0.972024
0.000000 0.953134 0.977123
0.000000 0.961708 0.981499
0.000000 0.969761 0.986904
0.455280 0.975706 0.989351
0.865332 0.975800 0.990653
0.974032 0.982428 0.991289
