Assets/Lutify-Free-LUTs-Pack/Lutify Free LUTs Pack/Commercial Pro - Claire/Lutify.me-Claire-DWG-to-DWG.cube
# Created with: fylm.ai - Colour Grading and Collaboration Software in Cloud 
# Website: https://fylm.ai 
# META
# Option: Gamut compress
# Block 2: colourMatch | Blending Mode: Normal | {"ColorSpace":0,"CrossCovarianceLimit":50,"ReshapingIterations":1,"PercentSaturationShift":100,"PercentShadingShift":100,"ExtraShading":true,"PercentTint":100,"PercentModified":100}
# Block 3: HSL | Blending Mode: Normal | {"hue":{"Reds":0,"Yellows":0,"Greens":0,"Cyans":0,"Blues":0,"Magentas":0},"saturation":{"Reds":1,"Yellows":1,"Greens":1,"Cyans":1,"Blues":1,"Magentas":1},"luminance":{"Reds":0.9,"Yellows":0.9,"Greens":0.9,"Cyans":0.8,"Blues":0.8,"Magentas":0.9},"lum_sat":{"Blacks":1,"Shadows":1,"Midtones":1,"Highlights":1,"Whites":1},"sat_sat":{"10":1,"20":1,"30":1,"40":1,"50":1}}
# Block 4: subtractiveColour | Blending Mode: Normal | {"sliders":{"gainY":0.1,"C":0.05,"M":0.05,"Y":0.05}}
# Block 5: logPrimaries | Blending Mode: Normal | {"wheels":{"shadows":{"Y":"0","R":"1","G":"1","B":"1"},"midtones":{"Y":"0","R":"1","G":"1","B":"1"},"highlights":{"Y":"0","R":"1","G":"1","B":"1"},"offset":{"Y":"0","R":"1","G":"1","B":"1"}},"sliders":{"shadows":{"Y":0,"R":-0.05,"G":0,"B":0.1},"midtones":{"Y":0,"R":0,"G":0,"B":0},"highlights":{"Y":0,"R":0,"G":0,"B":0},"offset":{"Y":0,"R":0,"G":0,"B":0}}}
# Block 6: LUT | Filmic Curve Response: Standard Contrast 1 (100%)
# Block 7: LUT | Illuminant: D93 (100%)
# Block 8: LUT | Neutral Tint: Teal Tint 4 (100%)
TITLE "dwg" 
LUT_3D_SIZE 33
-0.019141 0.003031 0.023733
0.018938 -0.006713 -0.005667
0.063794 -0.013750 -0.024690
0.112583 -0.014317 -0.025001
0.163665 -0.010418 -0.017677
0.200659 -0.004922 -0.007754
0.235184 0.004612 0.006801
0.262913 0.015449 0.023411
0.289852 0.029118 0.041966
0.310470 0.045491 0.058592
0.332634 0.066784 0.078020
0.356231 0.087318 0.099510
0.377765 0.107337 0.119188
0.399352 0.128531 0.140118
0.423785 0.150678 0.163033
0.445772 0.174326 0.184319
0.468007 0.202237 0.207287
0.493271 0.228509 0.232634
0.517780 0.254146 0.257045
0.544295 0.281800 0.283803
0.570841 0.307586 0.310030
0.595961 0.333854 0.335107
0.624333 0.360908 0.363001
0.652704 0.387142 0.390650
0.677315 0.412855 0.415388
0.706130 0.439812 0.444052
0.733452 0.467093 0.471560
0.759146 0.493593 0.497577
0.784364 0.521473 0.523312
0.808183 0.547934 0.547597
0.830461 0.572697 0.570663
0.855951 0.600607 0.596355
0.875161 0.626095 0.616795
-0.014877 0.024730 0.015645
0.004638 0.018607 0.002229
0.052301 0.006952 -0.020879
0.095080 0.001600 -0.023509
0.147718 0.000463 -0.018922
0.189566 0.003361 -0.009635
0.224932 0.010991 0.003393
0.256266 0.019920 0.020029
0.284406 0.034985 0.039195
0.306619 0.052899 0.056336
0.328715 0.070308 0.075475
0.353608 0.089809 0.097401
0.376425 0.110115 0.118447
0.400710 0.131185 0.141379
0.423786 0.152457 0.163095
0.445773 0.175839 0.184429
0.468007 0.203012 0.207266
0.493272 0.229254 0.232708
0.520895 0.256252 0.259749
0.544296 0.282585 0.283893
0.570842 0.308391 0.310121
0.595962 0.334673 0.335200
0.624333 0.360908 0.363001
0.652704 0.387142 0.390650
0.677315 0.412855 0.415388
0.706130 0.439812 0.444052
0.733452 0.467093 0.471560
0.759146 0.493593 0.497577
0.784364 0.521473 0.523312
0.808183 0.547934 0.547597
0.830461 0.572697 0.570663
0.855951 0.600607 0.596355
0.875161 0.626095 0.616795
-0.012296 0.052130 0.016507
0.005833 0.046862 -0.001333
0.044641 0.042483 -0.014170
0.084501 0.035262 -0.019571
0.134073 0.031056 -0.016749
0.175799 0.031221 -0.009654
0.215129 0.031259 0.002340
0.250979 0.035835 0.018690
0.278970 0.046744 0.036825
0.302772 0.060040 0.054320
0.327416 0.076388 0.075214
0.353615 0.095312 0.097958
0.376428 0.113676 0.118648
0.400713 0.133329 0.141594
0.423788 0.154436 0.163196
0.445776 0.178115 0.184620
0.468008 0.204431 0.207310
0.493272 0.229977 0.232678
0.520896 0.257084 0.259771
0.544295 0.282565 0.283807
0.570843 0.309196 0.310213
0.595962 0.334673 0.335200
0.624333 0.360908 0.363001
0.652704 0.387142 0.390650
0.677315 0.412855 0.415388
0.706130 0.439812 0.444052
0.733452 0.467093 0.471560
0.759146 0.493593 0.497577
0.784364 0.521473 0.523312
0.808183 0.547934 0.547597
0.830461 0.572697 0.570663
0.855951 0.600607 0.596355
0.875161 0.626095 0.616795
-0.011556 0.080431 0.016779
0.002624 0.077896 0.003066
0.039095 0.075028 -0.008114
0.082221 0.069769 -0.013890
0.127766 0.063638 -0.012216
0.166671 0.062716 -0.006932
0.203707 0.060618 0.002407
0.243092 0.062766 0.018650
0.272340 0.063896 0.035091
0.300223 0.071440 0.054022
0.326123 0.085327 0.075260
0.354933 0.101506 0.099635
0.376432 0.117980 0.118807
0.400716 0.137119 0.141780
0.423790 0.156512 0.163218
0.448738 0.181651 0.187367
0.468008 0.205828 0.207252
0.493272 0.230678 0.232546
0.520897 0.257963 0.259803
0.544296 0.283330 0.283810
0.570843 0.309177 0.310129
0.595962 0.335455 0.335135
0.624334 0.361674 0.363012
0.652705 0.387920 0.390737
0.677315 0.412855 0.415388
0.706131 0.440612 0.444142
0.733452 0.467093 0.471560
0.759146 0.493593 0.497577
0.784364 0.521473 0.523312
0.808183 0.547934 0.547597
0.830461 0.572697 0.570663
0.855951 0.600607 0.596355
0.875161 0.626095 0.616795
-0.007636 0.111176 0.020322
0.003208 0.109057 0.010097
0.038455 0.105781 -0.000866
0.078283 0.103166 -0.006920
0.122873 0.097362 -0.006741
0.164299 0.091601 -0.002083
0.201084 0.091224 0.007422
0.238028 0.090397 0.021527
0.268416 0.090093 0.037023
0.297703 0.093224 0.055605
0.323533 0.098636 0.075102
0.353635 0.109359 0.099348
0.375095 0.123627 0.118302
0.399363 0.140710 0.140663
0.422439 0.160484 0.162445
0.445783 0.184229 0.185112
0.469489 0.208583 0.208570
0.493273 0.232339 0.232634
0.520898 0.258841 0.259834
0.545853 0.284696 0.285144
0.570844 0.309981 0.310220
0.595962 0.335455 0.335135
0.624334 0.361674 0.363012
0.652705 0.387920 0.390737
0.677316 0.413633 0.415393
0.707647 0.441212 0.445468
0.733452 0.467093 0.471560
0.759147 0.494446 0.497568
0.784364 0.521473 0.523312
0.808183 0.547934 0.547597
0.830461 0.572697 0.570663
0.855951 0.600607 0.596355
0.875161 0.626095 0.616795
-0.003569 0.139350 0.024378
0.008785 0.138989 0.018064
0.037301 0.137001 0.008035
0.077178 0.132669 0.000574
0.123378 0.129435 0.001667
0.165922 0.124560 0.006585
0.201272 0.120343 0.013677
0.238147 0.116395 0.026938
0.267179 0.116518 0.041060
0.296483 0.116166 0.058846
0.323577 0.118187 0.078078
0.353659 0.122914 0.101030
0.376450 0.133381 0.119833
0.399370 0.147787 0.140944
0.423801 0.167816 0.163907
0.448747 0.190284 0.187967
0.470969 0.211426 0.209684
0.494761 0.235449 0.233999
0.522456 0.261203 0.261237
0.545854 0.285483 0.285134
0.570845 0.311571 0.310319
0.595963 0.336256 0.335149
0.624334 0.362441 0.363024
0.652706 0.388679 0.390744
0.677316 0.413633 0.415393
0.707646 0.441192 0.445384
0.733451 0.467073 0.471458
0.759147 0.494446 0.497568
0.784364 0.521473 0.523312
0.808183 0.547934 0.547597
0.830463 0.573610 0.570763
0.855951 0.600607 0.596355
0.875161 0.626095 0.616795
0.001375 0.166792 0.031617
0.015014 0.166568 0.026568
0.039575 0.167569 0.019504
0.075585 0.166024 0.012064
0.121459 0.161310 0.012875
0.166415 0.159847 0.018505
0.202944 0.152616 0.023758
0.238332 0.148428 0.034570
0.268642 0.147320 0.048605
0.299149 0.146173 0.066498
0.322335 0.143068 0.081327
0.353710 0.147603 0.104564
0.377819 0.150020 0.122714
0.402097 0.160727 0.144188
0.425167 0.177839 0.165628
0.448755 0.196477 0.188427
0.469495 0.216041 0.208776
0.494762 0.238844 0.233911
0.522459 0.263866 0.261372
0.545855 0.287857 0.285168
0.570848 0.313972 0.310513
0.595964 0.337857 0.335176
0.624334 0.362441 0.363024
0.652707 0.389460 0.390833
0.677317 0.414430 0.415482
0.707646 0.441192 0.445384
0.733452 0.467875 0.471548
0.759147 0.494446 0.497568
0.784364 0.521473 0.523312
0.808183 0.547934 0.547597
0.830463 0.573610 0.570763
0.855951 0.600607 0.596355
0.875161 0.626095 0.616795
0.010974 0.195270 0.042887
0.026274 0.193617 0.036626
0.043971 0.192003 0.029219
0.077689 0.191991 0.024997
0.118384 0.189646 0.025043
0.164341 0.186442 0.030044
0.203336 0.183608 0.036774
0.241110 0.176185 0.044804
0.272769 0.172145 0.057962
0.301817 0.171440 0.073910
0.326345 0.171261 0.089636
0.357735 0.174406 0.111983
0.380555 0.174119 0.128233
0.404837 0.178805 0.148515
0.428062 0.187962 0.168714
0.453201 0.204685 0.192650
0.472460 0.222301 0.211630
0.494765 0.243139 0.233859
0.524019 0.267992 0.262859
0.545858 0.290257 0.285324
0.570850 0.315558 0.310536
0.595967 0.340163 0.335360
0.624334 0.363192 0.362959
0.652707 0.390226 0.390843
0.677316 0.414410 0.415398
0.706132 0.441394 0.444146
0.733452 0.467875 0.471548
0.759147 0.494446 0.497568
0.784364 0.521473 0.523312
0.808183 0.547934 0.547597
0.830463 0.573610 0.570763
0.855951 0.600607 0.596355
0.875162 0.627018 0.616897
0.025079 0.219181 0.052637
0.037091 0.219023 0.048419
0.055083 0.217616 0.042700
0.079065 0.216329 0.038787
0.120631 0.215215 0.039381
0.161194 0.214359 0.043837
0.203792 0.211125 0.050230
0.242679 0.204128 0.057399
0.276937 0.199228 0.069388
0.305776 0.195196 0.082253
0.331652 0.194422 0.097995
0.361819 0.194103 0.118385
0.384641 0.196111 0.135117
0.407588 0.200047 0.153589
0.431030 0.204540 0.173179
0.456167 0.213508 0.195516
0.475432 0.229438 0.214508
0.497740 0.249534 0.236604
0.525580 0.272455 0.264305
0.545859 0.292618 0.285295
0.572414 0.318592 0.312082
0.595967 0.341662 0.335304
0.624335 0.364727 0.363011
0.652707 0.390977 0.390776
0.678830 0.415767 0.416644
0.706132 0.442176 0.444151
0.733452 0.467875 0.471548
0.759148 0.495319 0.497666
0.784364 0.522325 0.523302
0.808183 0.547934 0.547597
0.830463 0.573610 0.570763
0.855951 0.600607 0.596355
0.875162 0.627018 0.616897
0.039302 0.240973 0.061684
0.053281 0.239628 0.058903
0.068926 0.239516 0.054735
0.087421 0.238174 0.051370
0.120343 0.237106 0.052477
0.160680 0.237594 0.057268
0.201500 0.233153 0.061106
0.244300 0.229309 0.069794
0.277169 0.224687 0.079502
0.309775 0.219185 0.092522
0.339577 0.216734 0.108878
0.368602 0.216533 0.128000
0.391419 0.217845 0.144578
0.413053 0.220937 0.161013
0.438439 0.224501 0.181733
0.460630 0.232034 0.200933
0.481382 0.239522 0.220143
0.502221 0.257434 0.240768
0.527140 0.277738 0.265737
0.547417 0.297121 0.286509
0.572416 0.321815 0.312132
0.595969 0.343186 0.335360
0.624338 0.367044 0.363165
0.652708 0.392509 0.390797
0.678832 0.417365 0.416824
0.706133 0.442977 0.444241
0.733453 0.468659 0.471561
0.759147 0.495299 0.497560
0.784364 0.522325 0.523302
0.808184 0.548806 0.547693
0.830462 0.573587 0.570667
0.855951 0.600607 0.596355
0.875162 0.627018 0.616897
0.058968 0.264608 0.074552
0.068652 0.263244 0.071538
0.083545 0.263250 0.070360
0.100608 0.261951 0.068257
0.126768 0.262117 0.069657
0.161591 0.261125 0.071980
0.200786 0.259054 0.075820
0.244740 0.254906 0.083443
0.278803 0.251020 0.092590
0.311277 0.246438 0.104189
0.346227 0.239385 0.120534
0.379399 0.233947 0.139595
0.403634 0.237694 0.157799
0.425292 0.241347 0.174207
0.451788 0.246309 0.195654
0.472496 0.252533 0.213457
0.488831 0.258367 0.228034
0.505337 0.267100 0.243956
0.528699 0.283837 0.266841
0.550537 0.303911 0.289493
0.572416 0.324182 0.311950
0.595971 0.346236 0.335488
0.624339 0.368568 0.363176
0.652711 0.394838 0.390995
0.678834 0.419733 0.416931
0.706134 0.443759 0.444246
0.733454 0.469442 0.471575
0.760547 0.496728 0.498867
0.784364 0.522325 0.523302
0.808183 0.548788 0.547599
0.830462 0.573587 0.570667
0.855952 0.601522 0.596456
0.875162 0.627018 0.616897
0.082173 0.287354 0.088835
0.091891 0.287364 0.088324
0.102810 0.286097 0.086490
0.119965 0.286163 0.086621
0.140608 0.283729 0.085980
0.163874 0.283908 0.087783
0.201592 0.283016 0.091798
0.244008 0.281118 0.098754
0.281831 0.276890 0.107151
0.311515 0.270304 0.114994
0.347685 0.263716 0.129766
0.391575 0.257328 0.154592
0.417222 0.256311 0.171612
0.444430 0.257752 0.192149
0.468088 0.264150 0.211813
0.487365 0.269794 0.228087
0.502239 0.277025 0.241400
0.520905 0.285504 0.258613
0.539610 0.296969 0.276877
0.555217 0.312268 0.293611
0.577103 0.331561 0.316114
0.597547 0.349876 0.336863
0.625915 0.372258 0.364653
0.654287 0.397007 0.392450
0.678834 0.420517 0.416939
0.706137 0.446145 0.444430
0.733454 0.470226 0.471588
0.760548 0.497581 0.498858
0.784365 0.523180 0.523293
0.808185 0.549663 0.547697
0.830463 0.574500 0.570767
0.855952 0.601502 0.596366
0.875162 0.627018 0.616897
0.103710 0.305291 0.101308
0.114217 0.305321 0.101286
0.126295 0.305355 0.101217
0.141061 0.306728 0.102978
0.157740 0.305544 0.103313
0.176093 0.304384 0.103788
0.202385 0.303356 0.105637
0.244538 0.302714 0.112518
0.280916 0.301034 0.120617
0.314366 0.294707 0.128183
0.349176 0.285323 0.139679
0.391676 0.277435 0.160822
0.415960 0.277886 0.176578
0.445979 0.279983 0.198281
0.481460 0.281567 0.225552
0.510017 0.284920 0.249115
0.527141 0.292914 0.264512
0.541165 0.301846 0.277509
0.550522 0.310389 0.287011
0.563024 0.322942 0.300446
0.580228 0.338452 0.318633
0.602275 0.357209 0.341234
0.625918 0.376097 0.364701
0.654290 0.400120 0.392639
0.680351 0.423501 0.418454
0.706137 0.447693 0.444357
0.733455 0.471010 0.471602
0.760550 0.499328 0.499054
0.785764 0.524592 0.524494
0.808185 0.549663 0.547697
0.830463 0.574500 0.570767
0.855952 0.601502 0.596366
0.875162 0.627018 0.616897
0.135714 0.327481 0.119270
0.142852 0.327511 0.119582
0.151478 0.327559 0.120064
0.164207 0.326329 0.119840
0.177539 0.326428 0.121094
0.192942 0.325246 0.121460
0.215607 0.325458 0.123756
0.245235 0.323259 0.126479
0.280086 0.321349 0.132894
0.317303 0.319833 0.143328
0.352003 0.308749 0.151774
0.391822 0.300519 0.168925
0.417412 0.299329 0.183706
0.446058 0.300598 0.203485
0.481519 0.302970 0.229868
0.510061 0.304794 0.252479
0.541177 0.308417 0.278477
0.570806 0.316833 0.304854
0.577063 0.325895 0.311311
0.577080 0.334346 0.312874
0.586515 0.348244 0.324267
0.607002 0.364807 0.345411
0.629068 0.382700 0.367509
0.654293 0.403267 0.392785
0.680353 0.426641 0.418530
0.706139 0.450076 0.444465
0.733456 0.473340 0.471549
0.760551 0.501035 0.499055
0.785764 0.525447 0.524485
0.808185 0.550534 0.547703
0.830464 0.575394 0.570773
0.855953 0.602422 0.596469
0.875164 0.627984 0.617012
0.166386 0.351146 0.139791
0.172334 0.351181 0.140255
0.177089 0.351208 0.140596
0.186801 0.349933 0.140200
0.198492 0.350024 0.141492
0.214167 0.350141 0.142923
0.234017 0.349021 0.144292
0.253743 0.346620 0.144974
0.282032 0.345757 0.149843
0.315195 0.342600 0.156359
0.353608 0.333766 0.165015
0.396062 0.328593 0.182752
0.421617 0.324477 0.195268
0.449110 0.323604 0.212170
0.481589 0.324404 0.234842
0.513222 0.327765 0.259341
0.544335 0.330899 0.284602
0.573959 0.335980 0.310033
0.606948 0.345634 0.339748
0.610105 0.351572 0.343193
0.605402 0.361991 0.340852
0.611730 0.374162 0.349549
0.635373 0.392664 0.373522
0.659022 0.410634 0.397019
0.680356 0.429785 0.418601
0.707655 0.453026 0.445735
0.734973 0.475543 0.472896
0.761953 0.504178 0.500430
0.785765 0.526302 0.524477
0.808186 0.551432 0.547712
0.830465 0.576312 0.570876
0.855953 0.602422 0.596469
0.875163 0.627966 0.616924
0.193922 0.372672 0.159518
0.198989 0.372699 0.159890
0.204054 0.372726 0.160260
0.211644 0.371440 0.159797
0.223796 0.371535 0.161121
0.237553 0.370303 0.161385
0.251029 0.369113 0.162211
0.268687 0.367958 0.163319
0.291955 0.365655 0.165973
0.318198 0.362212 0.169986
0.355284 0.358017 0.179429
0.396255 0.349519 0.192247
0.421800 0.348653 0.205048
0.453646 0.344055 0.221891
0.484636 0.344100 0.242436
0.514835 0.346377 0.264766
0.544381 0.349856 0.288048
0.573992 0.353959 0.312657
0.606969 0.359782 0.341429
0.635311 0.367830 0.367192
0.651071 0.377718 0.382166
0.629050 0.387437 0.364582
0.638525 0.399887 0.376162
0.663683 0.417224 0.400931
0.683385 0.434917 0.421206
0.709171 0.456745 0.446955
0.736490 0.479571 0.474211
0.761955 0.506745 0.500494
0.785767 0.528889 0.524559
0.809587 0.553805 0.549035
0.830465 0.577212 0.570884
0.855953 0.603324 0.596483
0.875165 0.629027 0.617067
0.229378 0.393024 0.179421
0.234344 0.393063 0.179980
0.237932 0.393089 0.180303
0.243826 0.391789 0.179840
0.248608 0.391821 0.180175
0.255925 0.390525 0.179694
0.267148 0.387956 0.179067
0.283572 0.386791 0.180491
0.303882 0.384408 0.182397
0.326333 0.382129 0.185801
0.356916 0.377594 0.191753
0.399206 0.371366 0.204672
0.426027 0.370159 0.216565
0.453798 0.368207 0.230627
0.484733 0.364931 0.248652
0.514904 0.365198 0.269524
0.545990 0.368116 0.293207
0.577155 0.372646 0.318556
0.610148 0.377828 0.346700
0.638486 0.385673 0.372053
0.666650 0.392664 0.397605
0.695432 0.405437 0.424673
0.655851 0.413344 0.391102
0.666717 0.426318 0.403944
0.687933 0.443434 0.425508
0.710691 0.462906 0.448487
0.738009 0.484465 0.475573
0.763354 0.508995 0.501628
0.785769 0.530620 0.524648
0.809589 0.555622 0.549147
0.830466 0.578111 0.570894
0.855956 0.605164 0.596689
0.875166 0.630071 0.617122
0.259053 0.417462 0.202701
0.261439 0.416134 0.201832
0.263916 0.416150 0.202032
0.268876 0.416186 0.202545
0.273647 0.413530 0.200783
0.281049 0.412247 0.200498
0.292644 0.412367 0.202169
0.304896 0.409810 0.201722
0.319661 0.408671 0.203542
0.339762 0.406314 0.205956
0.363979 0.400206 0.208616
0.399560 0.396000 0.218394
0.426305 0.394518 0.228920
0.458413 0.392452 0.243732
0.487856 0.392116 0.260320
0.518114 0.389050 0.278597
0.547612 0.389398 0.299292
0.578766 0.392697 0.323657
0.611762 0.398237 0.351229
0.640092 0.404607 0.375982
0.668188 0.411084 0.401055
0.698480 0.419672 0.428794
0.727297 0.432511 0.456025
0.683368 0.440555 0.418482
0.689454 0.452063 0.427014
0.712215 0.471061 0.450198
0.739529 0.490255 0.477119
0.763355 0.512424 0.501581
0.785771 0.534037 0.524659
0.810989 0.557979 0.550377
0.831679 0.580393 0.571961
0.855958 0.607003 0.596894
0.877317 0.632868 0.619220
0.289081 0.438064 0.223286
0.291621 0.438083 0.223574
0.294158 0.438100 0.223808
0.297907 0.438127 0.224205
0.301388 0.436683 0.223299
0.307416 0.435281 0.222989
0.313520 0.435342 0.223756
0.323184 0.432516 0.222886
0.335598 0.431202 0.223905
0.354459 0.428584 0.225999
0.377642 0.421797 0.227345
0.406622 0.418545 0.234609
0.427983 0.416611 0.241328
0.457174 0.415350 0.253770
0.489504 0.414766 0.270371
0.521361 0.414899 0.289382
0.550816 0.412138 0.308014
0.581950 0.413281 0.330796
0.613380 0.417129 0.355947
0.641695 0.420853 0.379681
0.669727 0.427802 0.404521
0.698501 0.436144 0.430594
0.730347 0.447657 0.460189
0.759056 0.460543 0.487397
0.707642 0.466104 0.442945
0.715254 0.479927 0.453116
0.740947 0.498385 0.478631
0.763360 0.518879 0.501723
0.787173 0.538929 0.526093
0.809592 0.561020 0.549201
0.831684 0.584046 0.572278
0.855960 0.608873 0.596936
0.877318 0.633911 0.619275
0.317413 0.460311 0.245208
0.319802 0.460328 0.245452
0.320999 0.460336 0.245578
0.323293 0.458880 0.244586
0.327018 0.458918 0.245106
0.330671 0.457491 0.244414
0.338055 0.456104 0.244353
0.346685 0.454732 0.244540
0.357876 0.453407 0.245436
0.374584 0.450755 0.247046
0.399187 0.442535 0.247717
0.418976 0.438696 0.251273
0.437070 0.439284 0.258449
0.460389 0.438736 0.267483
0.491175 0.437411 0.281241
0.523047 0.436741 0.298370
0.550940 0.436620 0.315782
0.583597 0.434107 0.337309
0.616575 0.435058 0.362183
0.644884 0.439114 0.385544
0.672782 0.444558 0.409533
0.701554 0.451980 0.435127
0.731881 0.462532 0.463057
0.759070 0.473492 0.488570
0.784266 0.484271 0.512422
0.728902 0.493092 0.465060
0.743753 0.508186 0.481390
0.764763 0.525218 0.502926
0.787175 0.542813 0.525965
0.810996 0.566501 0.550555
0.832897 0.587484 0.573253
0.855966 0.613045 0.597317
0.877320 0.635998 0.619385
0.349374 0.482684 0.268101
0.350617 0.482697 0.268286
0.351782 0.481238 0.267209
0.354267 0.481264 0.267579
0.356755 0.481289 0.267932
0.360412 0.479856 0.267257
0.366690 0.478453 0.267079
0.375560 0.477079 0.267385
0.384514 0.474285 0.267093
0.400017 0.471605 0.268577
0.415654 0.466088 0.268777
0.433192 0.463582 0.272279
0.450551 0.461215 0.276858
0.469481 0.461829 0.284324
0.492909 0.460013 0.293631
0.526332 0.459088 0.309987
0.555727 0.458550 0.326675
0.585273 0.458746 0.345567
0.618212 0.455571 0.368105
0.646504 0.458189 0.390402
0.674331 0.462451 0.413750
0.703098 0.468607 0.438796
0.734934 0.477895 0.467529
0.763284 0.488076 0.493772
0.788478 0.498347 0.517477
0.813356 0.511444 0.541305
0.756345 0.520058 0.492426
0.767567 0.533996 0.505427
0.788580 0.551520 0.527314
0.812259 0.572055 0.551767
0.834110 0.591950 0.574118
0.857183 0.617561 0.598532
0.877326 0.640189 0.619693
0.382051 0.503979 0.290657
0.383328 0.503993 0.290861
0.384604 0.504005 0.291039
0.385880 0.504018 0.291218
0.388275 0.500961 0.289079
0.390831 0.500988 0.289502
0.398426 0.499530 0.289582
0.403585 0.498074 0.289522
0.412639 0.495199 0.289280
0.423009 0.492440 0.289506
0.438166 0.489835 0.291754
0.451095 0.487224 0.293731
0.464085 0.486097 0.297015
0.480097 0.485178 0.302480
0.499083 0.484383 0.309236
0.526562 0.482821 0.321129
0.559002 0.482045 0.338025
0.588529 0.480445 0.355228
0.621459 0.481514 0.377609
0.649727 0.483110 0.398549
0.678918 0.483798 0.421329
0.706162 0.486987 0.444124
0.734959 0.493871 0.469607
0.763303 0.502579 0.495415
0.788494 0.511756 0.518782
0.813366 0.521858 0.542186
0.838842 0.534846 0.566596
0.778764 0.546853 0.515447
0.792784 0.562186 0.531128
0.814692 0.581116 0.554092
0.835330 0.598585 0.575575
0.858398 0.623156 0.599649
0.877330 0.643319 0.619858
0.412886 0.530520 0.317316
0.414094 0.528991 0.316230
0.415382 0.529004 0.316444
0.416669 0.529018 0.316652
0.419167 0.527503 0.315817
0.421742 0.527531 0.316240
0.426837 0.526051 0.315931
0.432186 0.524600 0.316006
0.439186 0.521642 0.315334
0.449131 0.520266 0.316553
0.466183 0.512978 0.316031
0.473371 0.511618 0.317247
0.484963 0.511880 0.320864
0.498103 0.512287 0.325864
0.516203 0.512874 0.333073
0.534604 0.510617 0.339531
0.559251 0.510272 0.350783
0.587152 0.507714 0.364849
0.621592 0.507863 0.386014
0.654541 0.509084 0.408917
0.682011 0.507186 0.428820
0.709244 0.510275 0.450833
0.739544 0.515617 0.476635
0.767529 0.522454 0.501540
0.792715 0.530381 0.524587
0.817024 0.538614 0.547099
0.842493 0.549162 0.571119
0.864329 0.560828 0.592094
0.801186 0.575245 0.538693
0.817123 0.590166 0.556126
0.836550 0.608335 0.576939
0.858403 0.628379 0.599818
0.878407 0.647836 0.620837
0.446103 0.552497 0.340890
0.446024 0.550951 0.339609
0.447429 0.550966 0.339847
0.448834 0.550981 0.340094
0.453040 0.549502 0.339823
0.457325 0.549570 0.340824
0.461555 0.548098 0.340637
0.465786 0.546627 0.340471
0.472821 0.543665 0.339841
0.484242 0.540816 0.340724
0.494317 0.537995 0.341734
0.500080 0.536601 0.342465
0.510483 0.535315 0.344697
0.522731 0.535712 0.349554
0.534992 0.536109 0.354395
0.550289 0.533643 0.358977
0.567248 0.532941 0.366446
0.592051 0.532787 0.378634
0.624874 0.532193 0.396862
0.653076 0.531996 0.414669
0.682104 0.532961 0.435316
0.709311 0.533481 0.455794
0.739590 0.536087 0.480263
0.767560 0.539975 0.504076
0.792735 0.544769 0.526297
0.817043 0.552626 0.548626
0.842508 0.562488 0.572407
0.865553 0.572506 0.594177
0.885787 0.583237 0.613615
0.823191 0.602587 0.561501
0.837773 0.619491 0.578322
0.859620 0.636066 0.600824
0.878413 0.654131 0.621119
0.483900 0.573064 0.364832
0.485334 0.573087 0.365171
0.486768 0.573109 0.365504
0.488202 0.573132 0.365843
0.489580 0.571614 0.364976
0.492448 0.571659 0.365653
0.495261 0.570165 0.365145
0.500942 0.568716 0.365327
0.508217 0.565793 0.365137
0.523289 0.561551 0.366678
0.527812 0.560125 0.367033
0.532375 0.560229 0.368458
0.536924 0.558836 0.369094
0.547628 0.557671 0.372429
0.556828 0.557970 0.376096
0.567579 0.558318 0.380357
0.582992 0.557490 0.386747
0.603212 0.556937 0.395854
0.628187 0.555577 0.408653
0.657918 0.555079 0.426080
0.685218 0.555068 0.443900
0.712416 0.557257 0.463804
0.742460 0.559900 0.487313
0.770404 0.562449 0.510217
0.795568 0.564820 0.531587
0.819491 0.569399 0.552731
0.844952 0.577834 0.576198
0.867993 0.586847 0.597759
0.887949 0.595212 0.616584
0.907312 0.605349 0.635175
0.846261 0.630823 0.585466
0.860837 0.644197 0.601741
0.880566 0.662389 0.622957
0.521281 0.596894 0.391547
0.524288 0.596941 0.392270
0.524288 0.596941 0.392270
0.527295 0.596989 0.392992
0.528743 0.595460 0.392157
0.531750 0.595508 0.392879
0.536228 0.592524 0.392097
