Assets/Lutify-Free-LUTs-Pack/Lutify Free LUTs Pack/Commercial Pro - Claire/Lutify.me-Claire-RWG-to-RWG.cube
# Created with: fylm.ai - Colour Grading and Collaboration Software in Cloud 
# Website: https://fylm.ai 
# META
# Option: Gamut compress
# Block 1: colourMatch | Blending Mode: Normal | {"ColorSpace":0,"CrossCovarianceLimit":50,"ReshapingIterations":1,"PercentSaturationShift":100,"PercentShadingShift":100,"ExtraShading":true,"PercentTint":100,"PercentModified":100}
# Block 2: HSL | Blending Mode: Normal | {"hue":{"Reds":0,"Yellows":0,"Greens":0,"Cyans":0,"Blues":0,"Magentas":0},"saturation":{"Reds":1,"Yellows":1,"Greens":1,"Cyans":1,"Blues":1,"Magentas":1},"luminance":{"Reds":0.9,"Yellows":0.9,"Greens":0.9,"Cyans":0.8,"Blues":0.8,"Magentas":0.9},"lum_sat":{"Blacks":1,"Shadows":1,"Midtones":1,"Highlights":1,"Whites":1},"sat_sat":{"10":1,"20":1,"30":1,"40":1,"50":1}}
# Block 3: subtractiveColour | Blending Mode: Normal | {"sliders":{"gainY":0.1,"C":0.05,"M":0.05,"Y":0.05}}
# Block 4: logPrimaries | Blending Mode: Normal | {"wheels":{"shadows":{"Y":"0","R":"1","G":"1","B":"1"},"midtones":{"Y":"0","R":"1","G":"1","B":"1"},"highlights":{"Y":"0","R":"1","G":"1","B":"1"},"offset":{"Y":"0","R":"1","G":"1","B":"1"}},"sliders":{"shadows":{"Y":0,"R":-0.05,"G":0,"B":0.1},"midtones":{"Y":0,"R":0,"G":0,"B":0},"highlights":{"Y":0,"R":0,"G":0,"B":0},"offset":{"Y":0,"R":0,"G":0,"B":0}}}
# Block 5: LUT | Filmic Curve Response: Standard Contrast 1 (100%)
# Block 6: LUT | Illuminant: D93 (100%)
# Block 7: LUT | Neutral Tint: Teal Tint 4 (100%)
TITLE "ipp2" 
LUT_3D_SIZE 33
0.053831 0.077263 0.086370
0.053831 0.077263 0.086370
0.149960 0.064869 0.064065
0.097749 0.082174 0.078591
0.150381 0.074784 0.067858
0.211882 0.078888 0.076801
0.253274 0.084908 0.087742
0.289350 0.092923 0.100347
0.313739 0.100692 0.110841
0.332124 0.109933 0.120137
0.347111 0.120064 0.129002
0.365120 0.135400 0.140756
0.381945 0.149609 0.152764
0.397875 0.166939 0.166272
0.418130 0.184722 0.182540
0.439670 0.207858 0.202736
0.461281 0.232385 0.223398
0.487444 0.258543 0.248222
0.514523 0.284158 0.272538
0.538835 0.308681 0.296288
0.564740 0.335599 0.321110
0.593655 0.360444 0.348067
0.621161 0.385165 0.374318
0.647820 0.413943 0.401856
0.677097 0.439346 0.429574
0.706947 0.466107 0.457871
0.728916 0.493813 0.482290
0.752153 0.520314 0.506642
0.777067 0.548159 0.532126
0.800550 0.573117 0.556520
0.821668 0.603302 0.581025
0.841544 0.628607 0.603332
0.863413 0.656503 0.627549
0.053699 0.077271 0.085947
0.053742 0.077166 0.086000
0.145516 0.064547 0.063438
0.094670 0.083967 0.081015
0.145989 0.075576 0.067526
0.208692 0.079383 0.076281
0.249966 0.085309 0.086949
0.284679 0.093012 0.098825
0.310397 0.101269 0.109655
0.326415 0.110781 0.118068
0.345962 0.121138 0.128705
0.365131 0.136949 0.141047
0.381957 0.151221 0.153031
0.399097 0.168036 0.166943
0.419475 0.186146 0.183555
0.439678 0.209091 0.202727
0.461285 0.233017 0.223474
0.487443 0.258523 0.248117
0.514523 0.284137 0.272435
0.538841 0.309385 0.296382
0.564740 0.335599 0.321110
0.593655 0.360444 0.348067
0.621167 0.385889 0.374512
0.647820 0.413943 0.401856
0.677097 0.439346 0.429574
0.706947 0.466107 0.457871
0.728916 0.493813 0.482290
0.752153 0.520314 0.506642
0.777067 0.548159 0.532126
0.800550 0.573117 0.556520
0.821668 0.603302 0.581025
0.841544 0.628607 0.603332
0.863413 0.656503 0.627549
0.067825 0.085545 0.066370
0.068539 0.084592 0.065071
0.075984 0.080120 0.065663
0.090085 0.086195 0.084616
0.140996 0.078010 0.067702
0.202342 0.080360 0.075406
0.243736 0.086003 0.085487
0.278918 0.094326 0.097232
0.304905 0.103572 0.108095
0.322999 0.112460 0.117069
0.343706 0.124969 0.128541
0.365146 0.138797 0.141450
0.381975 0.153495 0.153456
0.400325 0.169870 0.167737
0.420822 0.187998 0.184540
0.439687 0.210389 0.202869
0.459940 0.233126 0.222502
0.487449 0.259288 0.248230
0.514529 0.284828 0.272626
0.538841 0.309385 0.296382
0.564740 0.335599 0.321110
0.593659 0.361146 0.348114
0.621167 0.385889 0.374512
0.647820 0.413943 0.401856
0.677102 0.440074 0.429626
0.706947 0.466107 0.457871
0.728914 0.493781 0.482113
0.752153 0.520314 0.506642
0.777067 0.548159 0.532126
0.800550 0.573117 0.556520
0.821668 0.603302 0.581025
0.841544 0.628607 0.603332
0.863413 0.656503 0.627549
0.078067 0.102172 0.088524
0.078887 0.101623 0.087442
0.079831 0.100907 0.086749
0.089400 0.097421 0.079815
0.130177 0.088236 0.069813
0.187584 0.087879 0.074900
0.234579 0.091696 0.084728
0.271214 0.099095 0.096006
0.299438 0.107085 0.106863
0.319616 0.116599 0.116672
0.341457 0.129046 0.128505
0.365179 0.142363 0.142335
0.383213 0.156557 0.154691
0.401552 0.171772 0.168450
0.420831 0.189476 0.184648
0.441043 0.213456 0.204133
0.461299 0.234961 0.223578
0.487455 0.260034 0.248239
0.514535 0.285539 0.272822
0.538846 0.310090 0.296477
0.564745 0.336285 0.321186
0.593659 0.361146 0.348114
0.621167 0.385889 0.374512
0.647819 0.413912 0.401704
0.677102 0.440074 0.429626
0.706954 0.466938 0.458095
0.728914 0.493781 0.482113
0.752153 0.520314 0.506642
0.777067 0.548159 0.532126
0.800550 0.573117 0.556520
0.821668 0.603302 0.581025
0.841544 0.628607 0.603332
0.863413 0.656503 0.627549
0.079293 0.128067 0.087689
0.080332 0.127447 0.086731
0.082148 0.126801 0.085498
0.089529 0.125151 0.083623
0.122743 0.120290 0.079538
0.171107 0.113197 0.080238
0.215923 0.112495 0.086676
0.258200 0.114111 0.096370
0.294080 0.117758 0.107774
0.318567 0.124928 0.118279
0.341507 0.134345 0.129778
0.365223 0.147543 0.143549
0.385675 0.160648 0.156835
0.404000 0.174739 0.170146
0.420849 0.191793 0.184860
0.441055 0.215357 0.204109
0.462658 0.236812 0.224639
0.488869 0.261209 0.249122
0.514540 0.286249 0.272938
0.538856 0.311487 0.296577
0.564745 0.336285 0.321186
0.593659 0.361146 0.348114
0.621166 0.385855 0.374345
0.647819 0.413912 0.401704
0.677102 0.440074 0.429626
0.706954 0.466938 0.458095
0.728914 0.493781 0.482113
0.752153 0.520314 0.506642
0.777067 0.548159 0.532126
0.800550 0.573117 0.556520
0.821668 0.603302 0.581025
0.841544 0.628607 0.603332
0.863413 0.656503 0.627549
0.084005 0.155209 0.095116
0.085208 0.155124 0.094244
0.088162 0.153369 0.093016
0.094475 0.150734 0.090998
0.122029 0.145617 0.088542
0.169090 0.140057 0.089588
0.212540 0.136189 0.093957
0.255356 0.134589 0.101884
0.289978 0.136399 0.111733
0.318746 0.138977 0.122079
0.343894 0.143787 0.133179
0.367665 0.153767 0.146238
0.389355 0.165219 0.159852
0.406451 0.177830 0.171959
0.424888 0.196642 0.187800
0.445072 0.217923 0.206370
0.464030 0.240110 0.225976
0.488887 0.263493 0.249353
0.514546 0.286947 0.272989
0.538867 0.312911 0.296788
0.564750 0.336972 0.321266
0.593664 0.361848 0.348160
0.621172 0.386590 0.374543
0.647825 0.414661 0.401905
0.677102 0.440074 0.429626
0.706954 0.466938 0.458095
0.728921 0.494617 0.482338
0.752153 0.520314 0.506642
0.777067 0.548159 0.532126
0.800550 0.573117 0.556520
0.821668 0.603302 0.581025
0.841544 0.628607 0.603332
0.863413 0.656503 0.627549
0.090045 0.181275 0.104276
0.091558 0.179428 0.103113
0.095794 0.178436 0.102459
0.100960 0.175397 0.100849
0.123506 0.171643 0.099731
0.170749 0.163553 0.099556
0.216613 0.158052 0.103027
0.255889 0.153869 0.108766
0.292549 0.155333 0.118535
0.322389 0.154963 0.128027
0.348685 0.158508 0.139208
0.373701 0.161997 0.151282
0.393051 0.171952 0.163390
0.411510 0.183818 0.176099
0.430267 0.202560 0.191733
0.446433 0.221879 0.207593
0.465392 0.242591 0.226694
0.488910 0.266546 0.249615
0.515979 0.289528 0.274228
0.538878 0.314340 0.296911
0.564755 0.337637 0.321237
0.593669 0.362551 0.348211
0.621177 0.387307 0.374593
0.649210 0.415123 0.402735
0.677101 0.440043 0.429475
0.706953 0.466910 0.457960
0.728921 0.494617 0.482338
0.752153 0.520314 0.506642
0.777067 0.548159 0.532126
0.800550 0.573117 0.556520
0.821668 0.603302 0.581025
0.841544 0.628607 0.603332
0.863413 0.656503 0.627549
0.097323 0.205328 0.116714
0.100309 0.205350 0.116711
0.103744 0.203277 0.115491
0.109960 0.200208 0.113976
0.126212 0.196264 0.112622
0.168530 0.192966 0.113793
0.214225 0.188729 0.116470
0.254668 0.180793 0.119358
0.292051 0.180128 0.127588
0.318296 0.179532 0.134979
0.348956 0.178314 0.145353
0.381055 0.182410 0.160365
0.405310 0.186006 0.173346
0.418190 0.193565 0.182238
0.439650 0.208845 0.198244
0.450459 0.225565 0.209924
0.466757 0.245748 0.227162
0.490340 0.269218 0.250446
0.516001 0.292376 0.274607
0.541738 0.316777 0.299070
0.566204 0.339511 0.322421
0.595111 0.363723 0.349107
0.621181 0.388023 0.374644
0.649209 0.415092 0.402584
0.678496 0.441301 0.430674
0.706959 0.467741 0.458183
0.728921 0.494617 0.482338
0.752151 0.520284 0.506474
0.777067 0.548159 0.532126
0.800550 0.573117 0.556520
0.821678 0.604306 0.581333
0.841544 0.628607 0.603332
0.863413 0.656503 0.627549
0.105927 0.228795 0.131331
0.109195 0.228818 0.131384
0.111185 0.225359 0.129246
0.119071 0.223117 0.128031
0.131913 0.219803 0.126577
0.163586 0.216849 0.126719
0.214941 0.211806 0.128528
0.253884 0.209341 0.132721
0.291681 0.203792 0.137632
0.317667 0.201366 0.143380
0.349335 0.201024 0.153539
0.381287 0.201194 0.166340
0.410394 0.204943 0.181325
0.439666 0.210866 0.198770
0.454412 0.218612 0.209457
0.462591 0.232307 0.218093
0.474861 0.251003 0.232203
0.496021 0.273025 0.253588
0.517438 0.295644 0.275712
0.541753 0.318977 0.299329
0.566213 0.340868 0.322417
0.595115 0.364406 0.349077
0.622627 0.389244 0.375699
0.649213 0.415780 0.402485
0.678495 0.441270 0.430522
0.706959 0.467741 0.458183
0.728919 0.494585 0.482161
0.752158 0.521119 0.506698
0.777067 0.548159 0.532126
0.800556 0.573999 0.556758
0.821678 0.604306 0.581333
0.841543 0.628576 0.603160
0.863413 0.656503 0.627549
0.115805 0.250365 0.145975
0.116929 0.248173 0.144448
0.118910 0.244901 0.142229
0.128201 0.244974 0.142494
0.139977 0.241918 0.140937
0.162449 0.240169 0.140994
0.210559 0.237045 0.142735
0.251387 0.232909 0.145125
0.288137 0.228012 0.148834
0.317233 0.224613 0.153779
0.348623 0.222756 0.162123
0.379244 0.222412 0.173128
0.409362 0.224601 0.187092
0.438486 0.227813 0.202890
0.470682 0.234609 0.223450
0.481648 0.242595 0.232308
0.485979 0.256560 0.239031
0.498877 0.277176 0.255079
0.517455 0.298402 0.275565
0.543185 0.320833 0.299926
0.566227 0.342937 0.322612
0.595125 0.365795 0.349131
0.622637 0.390676 0.375801
0.649218 0.416501 0.402540
0.678500 0.441998 0.430574
0.706965 0.468545 0.458272
0.728926 0.495422 0.482385
0.752158 0.521119 0.506698
0.777073 0.549007 0.532194
0.800556 0.573999 0.556758
0.821678 0.604306 0.581333
0.841543 0.628576 0.603160
0.863412 0.656469 0.627362
0.125374 0.270236 0.160182
0.126576 0.268031 0.158521
0.132025 0.268068 0.158682
0.138807 0.265909 0.157247
0.151947 0.264934 0.157115
0.169639 0.262931 0.156567
0.203571 0.259082 0.156250
0.251522 0.258064 0.160419
0.287372 0.255120 0.163902
0.318134 0.248460 0.166233
0.348166 0.247919 0.173721
0.382063 0.246135 0.184054
0.409678 0.246314 0.195252
0.438714 0.248352 0.209679
0.472195 0.254604 0.229965
0.504391 0.260571 0.251460
0.510096 0.266227 0.256578
0.510234 0.283453 0.262216
0.521727 0.303159 0.277744
0.543203 0.323715 0.299873
0.569118 0.345976 0.324569
0.595138 0.367869 0.349078
0.622645 0.392089 0.375751
0.649221 0.417182 0.402327
0.678505 0.442726 0.430626
0.706971 0.469349 0.458360
0.728925 0.495390 0.482208
0.753440 0.521581 0.507590
0.777073 0.549007 0.532194
0.800555 0.573968 0.556589
0.821678 0.604306 0.581333
0.841543 0.628576 0.603160
0.863412 0.656469 0.627362
0.136739 0.289857 0.174984
0.140936 0.289881 0.175058
0.145552 0.289905 0.175138
0.151254 0.285309 0.171933
0.163472 0.285417 0.172528
0.181508 0.285596 0.173526
0.208905 0.281344 0.172157
0.242630 0.281956 0.175381
0.287774 0.277524 0.177832
0.318303 0.274545 0.181273
0.346720 0.269998 0.185012
0.382622 0.269062 0.195059
0.408881 0.268310 0.204257
0.440346 0.270551 0.218800
0.473722 0.272678 0.236638
0.503120 0.278836 0.255729
0.531501 0.285708 0.275775
0.544364 0.293485 0.286422
0.534544 0.310782 0.285834
0.546085 0.329039 0.301796
0.569129 0.348009 0.324201
0.598033 0.371681 0.351265
0.622665 0.394989 0.375985
0.650616 0.419092 0.403165
0.681292 0.445149 0.432570
0.706977 0.470180 0.458583
0.728930 0.496194 0.482256
0.753446 0.522386 0.507647
0.777073 0.549007 0.532194
0.802778 0.574772 0.558139
0.821678 0.604306 0.581333
0.841553 0.629581 0.603469
0.863412 0.656469 0.627362
0.151666 0.308692 0.190011
0.155010 0.308709 0.190065
0.159674 0.307602 0.189324
0.166493 0.305412 0.187856
0.177388 0.304407 0.187524
0.194600 0.304569 0.188466
0.215167 0.301540 0.187355
0.242336 0.300874 0.188877
0.280501 0.299526 0.191692
0.316603 0.297517 0.195543
0.347789 0.293677 0.199220
0.380909 0.289416 0.205285
0.408161 0.288877 0.213855
0.442018 0.291250 0.228329
0.473961 0.292296 0.243847
0.503273 0.295082 0.260910
0.531621 0.301472 0.280194
0.565947 0.310749 0.305630
0.577504 0.318905 0.315730
0.556101 0.335447 0.307604
0.570610 0.353819 0.325387
0.598061 0.375911 0.351523
0.624130 0.399153 0.377309
0.653405 0.422276 0.405223
0.681301 0.446603 0.432564
0.706988 0.471787 0.458760
0.730218 0.497466 0.483267
0.753451 0.523205 0.507707
0.778189 0.550255 0.533033
0.802785 0.575653 0.558376
0.821697 0.606284 0.581779
0.841553 0.629581 0.603469
0.863412 0.656469 0.627362
0.169416 0.328142 0.206036
0.173494 0.328168 0.206185
0.177572 0.327055 0.205405
0.183803 0.327100 0.205676
0.196406 0.326060 0.205345
0.211572 0.326199 0.206179
0.227474 0.322976 0.204575
0.251613 0.322177 0.205626
0.278328 0.322656 0.208350
0.313355 0.320201 0.210786
0.345921 0.318073 0.214613
0.380661 0.313382 0.219142
0.408760 0.310363 0.225378
0.441116 0.311757 0.237557
0.472940 0.313450 0.251994
0.504893 0.314274 0.268495
0.533185 0.318176 0.286275
0.570369 0.327514 0.312955
0.599194 0.337909 0.335801
0.604983 0.342438 0.341063
0.579257 0.359988 0.330498
0.600969 0.380654 0.353531
0.626970 0.402992 0.379095
0.654818 0.426455 0.406541
0.678531 0.447035 0.430425
0.708279 0.473809 0.459601
0.730229 0.499083 0.483446
0.753457 0.524050 0.507774
0.778195 0.551104 0.533101
0.802784 0.575623 0.558208
0.821697 0.606284 0.581779
0.843520 0.630139 0.604753
0.863422 0.657474 0.627671
0.190246 0.347857 0.223122
0.193875 0.347881 0.223272
0.198516 0.347913 0.223472
0.205923 0.347967 0.223804
0.217569 0.348059 0.224377
0.228073 0.346985 0.223991
0.240773 0.343623 0.221935
0.262641 0.343899 0.223595
0.285448 0.344261 0.225736
0.309613 0.341305 0.225897
0.345459 0.341192 0.230647
0.377311 0.338059 0.234220
0.409597 0.334522 0.239712
0.441650 0.333001 0.248880
0.473310 0.333624 0.261482
0.506596 0.336048 0.278097
0.534803 0.337521 0.293869
0.569058 0.343260 0.316700
0.599287 0.352717 0.339603
0.628040 0.362938 0.362712
0.637775 0.370135 0.371606
0.608209 0.388318 0.358592
0.628382 0.407302 0.379958
0.654827 0.428533 0.405856
0.678556 0.450733 0.430769
0.708307 0.477878 0.460090
0.730245 0.501518 0.483726
0.754750 0.526207 0.508815
0.778201 0.551952 0.533170
0.802789 0.576475 0.558276
0.821707 0.607288 0.582088
0.843528 0.631114 0.604890
0.863422 0.657474 0.627671
0.216481 0.368222 0.241298
0.219587 0.368245 0.241445
0.224738 0.368281 0.241677
0.230737 0.368325 0.241959
0.239306 0.368398 0.242421
0.246705 0.366088 0.240805
0.258887 0.363845 0.239594
0.274517 0.364035 0.240770
0.295336 0.364332 0.242590
0.315438 0.364671 0.244646
0.339014 0.361691 0.244983
0.375341 0.359366 0.248805
0.408334 0.357471 0.254332
0.441042 0.354091 0.261070
0.473768 0.352935 0.271747
0.505504 0.354083 0.285768
0.536478 0.357663 0.302734
0.570656 0.360594 0.323391
0.599397 0.367203 0.343833
0.630893 0.376777 0.368238
0.658680 0.388145 0.391330
0.667049 0.395793 0.399365
0.633940 0.412828 0.383193
0.654859 0.433146 0.405727
0.681357 0.455643 0.432530
0.708327 0.481076 0.460153
0.730253 0.503071 0.483429
0.754770 0.528815 0.509393
0.778224 0.554703 0.533798
0.802792 0.577266 0.558008
0.821715 0.608262 0.582224
0.843528 0.631114 0.604890
0.864406 0.657754 0.628314
0.245458 0.390094 0.261370
0.248023 0.390111 0.261483
0.251257 0.388929 0.260612
0.255249 0.387754 0.259788
0.260952 0.386591 0.259048
0.268656 0.385458 0.258484
0.278721 0.385561 0.259144
0.291527 0.385710 0.260082
0.306846 0.385906 0.261330
0.325501 0.386211 0.263207
0.344966 0.385391 0.264509
0.369525 0.381247 0.264348
0.406232 0.380193 0.269792
0.440747 0.378522 0.276515
0.473120 0.376460 0.284836
0.505914 0.374509 0.296008
0.538185 0.377168 0.312017
0.572298 0.380065 0.331390
0.602428 0.385424 0.351531
0.630998 0.391913 0.372421
0.660140 0.400679 0.395410
0.689371 0.413669 0.420296
0.696352 0.420118 0.427042
0.659037 0.437474 0.407768
0.682773 0.460293 0.433024
0.709636 0.485636 0.461175
0.730266 0.505422 0.483115
0.754781 0.530554 0.509409
0.780449 0.556283 0.535304
0.802809 0.579143 0.558401
0.821724 0.609235 0.582361
0.843547 0.633093 0.605336
0.864425 0.659723 0.628919
0.273743 0.408470 0.278743
0.275804 0.408487 0.278851
0.277869 0.408503 0.278961
0.281999 0.408536 0.279181
0.286690 0.408581 0.279476
0.292369 0.408637 0.279839
0.300492 0.408717 0.280363
0.309052 0.408813 0.280982
0.320403 0.407751 0.280861
0.334787 0.407953 0.282152
0.354079 0.408272 0.284162
0.374128 0.403925 0.282865
0.403596 0.404747 0.287708
0.435658 0.402452 0.291907
0.472691 0.401024 0.299990
0.506520 0.399241 0.309770
0.538546 0.397570 0.321884
0.572560 0.400030 0.339655
0.602616 0.404494 0.358238
0.631142 0.409887 0.377943
0.661635 0.417525 0.400865
0.693619 0.428865 0.426944
0.720835 0.441034 0.450414
0.723425 0.445722 0.453430
0.685617 0.469337 0.435765
0.709651 0.488196 0.460239
0.732865 0.510734 0.485390
0.757364 0.534081 0.510952
0.780475 0.559201 0.535782
0.802836 0.582092 0.559028
0.823707 0.611768 0.583972
0.843556 0.634069 0.605477
0.864433 0.660657 0.629034
0.302051 0.428466 0.297802
0.303676 0.428482 0.297907
0.305302 0.428498 0.298013
0.309366 0.428538 0.298278
0.311805 0.428562 0.298436
0.316867 0.428611 0.298760
0.321745 0.428657 0.299071
0.328529 0.428737 0.299588
0.337279 0.428847 0.300305
0.348063 0.428980 0.301178
0.363372 0.429226 0.302745
0.382417 0.428249 0.303786
0.406532 0.424873 0.303972
0.432269 0.425660 0.308619
0.468566 0.423330 0.314217
0.504522 0.421850 0.323135
0.537680 0.420069 0.333767
0.574295 0.418599 0.349152
0.605710 0.422423 0.367283
0.634069 0.427324 0.385803
0.663147 0.434307 0.406820
0.693708 0.443466 0.430671
0.720894 0.452558 0.452974
0.745321 0.463171 0.474121
0.751777 0.471123 0.480845
0.712233 0.492372 0.460857
0.734179 0.515574 0.485910
0.758673 0.538212 0.511674
0.778270 0.560408 0.533960
0.803970 0.585309 0.560094
0.823723 0.613721 0.584146
0.844548 0.635338 0.606285
0.864441 0.661606 0.629174
0.329836 0.451365 0.319794
0.331427 0.451380 0.319896
0.332222 0.451388 0.319947
0.334609 0.451411 0.320101
0.336997 0.451434 0.320255
0.340180 0.451464 0.320461
0.343830 0.450158 0.319490
0.349210 0.450224 0.319924
0.357298 0.450324 0.320580
0.365392 0.450424 0.321244
0.376931 0.450592 0.322336
0.392968 0.450854 0.324030
0.412783 0.449932 0.325441
0.436728 0.447902 0.326981
0.466224 0.446312 0.330806
0.504121 0.444361 0.338141
0.537013 0.444216 0.347973
0.571922 0.441751 0.359825
0.604568 0.441921 0.375176
0.634268 0.444598 0.392506
0.664678 0.450476 0.413198
0.696590 0.458332 0.436945
0.723548 0.467710 0.458722
0.749244 0.477980 0.480381
0.774410 0.488711 0.502213
0.776663 0.494759 0.505262
0.735500 0.521556 0.486078
0.758711 0.542945 0.511559
0.780509 0.563857 0.535246
0.804003 0.589183 0.560534
0.824721 0.615930 0.584804
0.844565 0.637318 0.606618
0.865432 0.662808 0.629786
0.357032 0.473067 0.340863
0.357850 0.473074 0.340915
0.358667 0.473082 0.340967
0.360301 0.473097 0.341072
0.362754 0.473121 0.341228
0.365208 0.473144 0.341386
0.367835 0.473174 0.341589
0.372332 0.473229 0.341958
0.376963 0.473286 0.342335
0.385353 0.473388 0.343018
0.396821 0.473544 0.344053
0.410001 0.473759 0.345450
0.424412 0.474005 0.347052
0.444222 0.473121 0.348697
0.466881 0.469810 0.349323
0.497368 0.468343 0.353893
0.535095 0.466511 0.361903
0.572518 0.465709 0.373575
0.606413 0.465970 0.387697
0.635925 0.466109 0.402370
0.664858 0.468044 0.419584
0.695337 0.474570 0.441102
0.723650 0.482696 0.462885
0.749317 0.490388 0.483453
0.774473 0.501357 0.504997
0.798992 0.512735 0.526528
0.797899 0.516703 0.526520
0.761322 0.550332 0.513057
0.781664 0.569910 0.536008
0.804045 0.594082 0.561046
0.825716 0.618079 0.585153
0.844589 0.640239 0.606800
0.865448 0.664706 0.630067
0.384624 0.499784 0.366739
0.386317 0.499800 0.366847
0.387163 0.499808 0.366901
0.388009 0.499815 0.366955
0.388855 0.499823 0.367009
0.391394 0.499847 0.367170
0.394163 0.499880 0.367391
0.397894 0.499925 0.367697
0.403490 0.499993 0.368156
0.410078 0.500073 0.368695
0.417647 0.500164 0.369312
0.427734 0.500323 0.370354
0.438785 0.500502 0.371534
0.455576 0.498028 0.371191
0.475538 0.497076 0.372817
0.503325 0.496539 0.376825
0.529768 0.494884 0.380913
0.565148 0.494158 0.389474
0.604207 0.492152 0.401396
0.637732 0.491404 0.415480
0.667919 0.492004 0.431178
0.698220 0.496597 0.450586
0.726356 0.501776 0.470449
0.753288 0.509812 0.491509
0.777905 0.518821 0.511785
0.803520 0.528837 0.533524
0.824114 0.538448 0.551637
0.820186 0.541079 0.549148
0.782832 0.577936 0.536820
0.805211 0.601265 0.562405
0.823760 0.619323 0.582999
0.843629 0.642882 0.606342
0.865476 0.667636 0.630141
0.413817 0.524072 0.390677
0.413817 0.524072 0.390677
0.414674 0.524080 0.390732
0.415567 0.524089 0.390795
0.416513 0.524101 0.390872
0.418405 0.524123 0.391027
0.420298 0.524146 0.391181
0.423136 0.524180 0.391413
0.426921 0.524226 0.391721
0.432599 0.524295 0.392187
0.438719 0.524368 0.392690
0.447347 0.524491 0.393510
0.458519 0.524672 0.394703
0.471740 0.523480 0.394891
0.489217 0.521067 0.394953
0.511963 0.520284 0.397565
0.535391 0.519675 0.401087
0.562127 0.518087 0.405540
0.602148 0.515377 0.415261
0.635562 0.515935 0.427929
0.665572 0.516081 0.441349
0.697206 0.518097 0.458759
0.726537 0.520559 0.477085
0.752128 0.525896 0.495431
0.777995 0.532745 0.515522
0.803591 0.541621 0.536600
0.825162 0.551074 0.555195
0.844930 0.560245 0.572583
0.840019 0.564331 0.569644
0.806352 0.606338 0.562038
0.824808 0.626666 0.584404
0.844650 0.647213 0.606892
0.865523 0.671763 0.630645
0.441885 0.547039 0.413513
0.441885 0.547039 0.413513
0.442912 0.547051 0.413597
0.442912 0.547051 0.413597
0.443939 0.547064 0.413682
0.444974 0.547076 0.413766
0.447049 0.547101 0.413936
0.449123 0.547126 0.414105
0.452235 0.547163 0.414360
0.458459 0.547238 0.414869
0.463646 0.547300 0.415294
0.470224 0.547399 0.415958
0.480340 0.547562 0.417041
0.491596 0.547743 0.418247
0.508733 0.548098 0.420545
0.525942 0.545688 0.420637
0.545116 0.542108 0.420806
0.567702 0.541599 0.424810
0.598974 0.539109 0.430532
0.633534 0.538944 0.441174
0.666079 0.539671 0.454224
0.697578 0.541579 0.469823
0.728087 0.543775 0.487196
0.754886 0.546978 0.504530
0.780339 0.549748 0.522147
0.805910 0.557446 0.542341
0.827212 0.565552 0.560194
0.846967 0.573250 0.576995
0.866742 0.582980 0.594530
0.858872 0.587456 0.589363
0.827785 0.631405 0.585155
0.845714 0.654893 0.608382
0.865555 0.674827 0.630636
0.473030 0.574502 0.440806
0.474067 0.574515 0.440891
0.474067 0.574515 0.440891
0.474067 0.574515 0.440891
0.475105 0.574527 0.440976
0.476142 0.574539 0.441061
0.477180 0.574552 0.441147
0.478218 0.574564 0.441232
0.481352 0.574602 0.441489
0.484486 0.574639 0.441745
0.488334 0.573256 0.440754
0.493511 0.571905 0.439972
0.500384 0.572015 0.440711
0.513125 0.570797 0.440809
0.526586 0.571063 0.442539
0.540350 0.571365 0.444496
0.557982 0.569013 0.445039
0.579045 0.569656 0.449005
0.604596 0.567955 0.453059
0.631925 0.566737 0.459270
0.665460 0.566597 0.469991
0.698066 0.566187 0.482799
0.729702 0.567176 0.498497
0.758956 0.568417 0.515270
0.782750 0.571300 0.530986
0.806050 0.576360 0.547984
0.827320 0.582466 0.564724
0.847054 0.588544 0.580751
0.867797 0.596858 0.598366
0.888398 0.606423 0.616520
0.876082 0.611985 0.608301
0.845764 0.659933 0.607740
0.866619 0.682352 0.632353
0.505908 0.599199 0.465794
0.505908 0.599199 0.465794
0.505908 0.599199 0.465794
0.508093 0.599225 0.465973
0.508093 0.599225 0.465973
0.509186 0.599238 0.466063
0.510279 0.599251 0.466152
0.511371 0.599264 0.466242
0.511801 0.596406 0.463648
