Assets/Lutify-Free-LUTs-Pack/Lutify Free LUTs Pack/Commercial Pro - Claire/Lutify.me-Claire-BolexLog-to-Rec709.cube
# Created with: fylm.ai - Colour Grading and Collaboration Software in Cloud 
# Website: https://fylm.ai 
# META
# Option: Gamut compress
# Block 1: IDT | Bolex Wide Gamut RGB Bolex Log
# Block 2: colourMatch | Blending Mode: Normal | {"ColorSpace":0,"CrossCovarianceLimit":50,"ReshapingIterations":1,"PercentSaturationShift":100,"PercentShadingShift":100,"ExtraShading":true,"PercentTint":100,"PercentModified":100}
# Block 3: HSL | Blending Mode: Normal | {"hue":{"Reds":0,"Yellows":0,"Greens":0,"Cyans":0,"Blues":0,"Magentas":0},"saturation":{"Reds":1,"Yellows":1,"Greens":1,"Cyans":1,"Blues":1,"Magentas":1},"luminance":{"Reds":0.9,"Yellows":0.9,"Greens":0.9,"Cyans":0.8,"Blues":0.8,"Magentas":0.9},"lum_sat":{"Blacks":1,"Shadows":1,"Midtones":1,"Highlights":1,"Whites":1},"sat_sat":{"10":1,"20":1,"30":1,"40":1,"50":1}}
# Block 4: subtractiveColour | Blending Mode: Normal | {"sliders":{"gainY":0.1,"C":0.05,"M":0.05,"Y":0.05}}
# Block 5: logPrimaries | Blending Mode: Normal | {"wheels":{"shadows":{"Y":"0","R":"1","G":"1","B":"1"},"midtones":{"Y":"0","R":"1","G":"1","B":"1"},"highlights":{"Y":"0","R":"1","G":"1","B":"1"},"offset":{"Y":"0","R":"1","G":"1","B":"1"}},"sliders":{"shadows":{"Y":0,"R":-0.05,"G":0,"B":0.1},"midtones":{"Y":0,"R":0,"G":0,"B":0},"highlights":{"Y":0,"R":0,"G":0,"B":0},"offset":{"Y":0,"R":0,"G":0,"B":0}}}
# Block 6: LUT | Filmic Curve Response: Standard Contrast 1 (100%)
# Block 7: LUT | Illuminant: D93 (100%)
# Block 8: LUT | Neutral Tint: Teal Tint 4 (100%)
# Block 9: ODT | Rec709
TITLE "Lutify.me-Claire-BolexLog-to-Rec709" 
LUT_3D_SIZE 33
0.000000 0.000000 0.000000
0.000000 0.000000 0.000000
0.000000 0.000000 0.000000
0.041446 0.000000 0.000000
0.104035 0.000000 0.000000
0.151074 0.000000 0.000000
0.195948 0.000000 0.000000
0.241671 0.000000 0.000000
0.281858 0.000000 0.000000
0.328031 0.000000 0.000000
0.367416 0.000000 0.000000
0.401742 0.000000 0.000000
0.426740 0.000000 0.000000
0.457012 0.000000 0.000000
0.489675 0.000000 0.000000
0.524024 0.000000 0.000000
0.564779 0.000000 0.000000
0.614963 0.000000 0.000000
0.679302 0.000000 0.000000
0.746055 0.000000 0.000000
0.812639 0.000000 0.022050
0.876300 0.000000 0.054887
0.946333 0.000000 0.079092
0.997126 0.000000 0.109868
1.000000 0.000000 0.146055
1.000000 0.200371 0.185119
1.000000 0.309478 0.230528
1.000000 0.396415 0.279147
1.000000 0.481894 0.329604
1.000000 0.563819 0.390459
1.000000 0.641515 0.455840
1.000000 0.710047 0.515472
1.000000 0.771039 0.579327
0.000000 0.000000 0.000000
0.000000 0.000000 0.000000
0.000000 0.000000 0.009840
0.045535 0.000000 0.000000
0.103885 0.000000 0.000000
0.147306 0.000000 0.000000
0.187345 0.000000 0.000000
0.225562 0.000000 0.000000
0.264239 0.000000 0.000000
0.306306 0.000000 0.000000
0.346344 0.000000 0.000000
0.375831 0.000000 0.000000
0.408067 0.000000 0.000000
0.436894 0.000000 0.000000
0.475181 0.000000 0.000000
0.520223 0.000000 0.000000
0.560805 0.000000 0.000000
0.615031 0.000000 0.000000
0.675019 0.000000 0.000000
0.741297 0.000000 0.000000
0.812582 0.000000 0.021798
0.880520 0.000000 0.055553
0.946236 0.000000 0.080393
0.996983 0.000000 0.111385
1.000000 0.000000 0.145715
1.000000 0.206795 0.186891
1.000000 0.309478 0.230528
1.000000 0.400442 0.278851
1.000000 0.481894 0.329604
1.000000 0.563808 0.393550
1.000000 0.641504 0.458872
1.000000 0.710047 0.515472
1.000000 0.771039 0.579327
0.000000 0.000000 0.000000
0.000000 0.000000 0.000000
0.000000 0.000000 0.000000
0.038683 0.000000 0.000000
0.091167 0.000000 0.000000
0.133783 0.000000 0.000000
0.173171 0.000000 0.000000
0.207695 0.000000 0.000000
0.245804 0.000000 0.000000
0.288426 0.000000 0.000000
0.325748 0.000000 0.000000
0.359719 0.000000 0.000000
0.387537 0.000000 0.000000
0.420925 0.000000 0.000000
0.471739 0.000000 0.000000
0.512681 0.000000 0.000000
0.556824 0.000000 0.000000
0.610890 0.000000 0.000000
0.675055 0.000000 0.000000
0.741287 0.000000 0.000000
0.812542 0.000000 0.022696
0.880469 0.000000 0.056742
0.946036 0.000000 0.081246
0.996840 0.000000 0.111024
1.000000 0.000000 0.145010
1.000000 0.213079 0.186534
1.000000 0.314035 0.230200
1.000000 0.400442 0.278851
1.000000 0.481894 0.329604
1.000000 0.563808 0.393550
1.000000 0.641504 0.458872
1.000000 0.710047 0.515472
1.000000 0.771039 0.579327
0.000000 0.042474 0.000000
0.000000 0.040738 0.000000
0.000000 0.038228 0.000000
0.000000 0.032187 0.000000
0.067703 0.016087 0.000000
0.109286 0.000000 0.000000
0.147057 0.000000 0.000000
0.184200 0.000000 0.000000
0.221900 0.000000 0.000000
0.269187 0.000000 0.000000
0.306830 0.000000 0.000000
0.344237 0.000000 0.000000
0.376411 0.000000 0.000000
0.414844 0.000000 0.000000
0.464821 0.000000 0.000000
0.509074 0.000000 0.000000
0.556925 0.000000 0.000000
0.610960 0.000000 0.000000
0.670773 0.000000 0.000000
0.741281 0.000000 0.000000
0.817266 0.000000 0.026201
0.880364 0.000000 0.055675
0.945933 0.000000 0.080776
0.996694 0.000000 0.110654
1.000000 0.054834 0.146541
1.000000 0.225111 0.186229
1.000000 0.314025 0.232662
1.000000 0.404463 0.278552
1.000000 0.485699 0.329337
1.000000 0.567432 0.393324
1.000000 0.641504 0.458872
1.000000 0.713151 0.515349
1.000000 0.771039 0.579327
0.000000 0.065120 0.000000
0.000000 0.064193 0.000000
0.000000 0.061766 0.000000
0.000000 0.058499 0.000000
0.058809 0.052133 0.000000
0.095847 0.041670 0.000000
0.134813 0.021664 0.000000
0.169000 0.000000 0.000000
0.205613 0.000000 0.000000
0.254745 0.000000 0.000000
0.291289 0.000000 0.000000
0.331485 0.000000 0.000000
0.368406 0.000000 0.000000
0.411981 0.000000 0.000000
0.458015 0.000000 0.000000
0.505481 0.000000 0.000000
0.552995 0.000000 0.000000
0.602685 0.000000 0.000000
0.670830 0.000000 0.000000
0.741269 0.000000 0.000000
0.817198 0.000000 0.025767
0.880255 0.000000 0.056308
0.945745 0.000000 0.081724
0.996390 0.000000 0.111804
1.000000 0.077708 0.146174
1.000000 0.225102 0.188383
1.000000 0.318552 0.232335
1.000000 0.404463 0.278552
1.000000 0.485699 0.329337
1.000000 0.567432 0.393324
1.000000 0.644915 0.458685
1.000000 0.713151 0.515349
1.000000 0.771039 0.579327
0.000000 0.085461 0.000000
0.000000 0.085239 0.000000
0.000000 0.080924 0.000000
0.000000 0.077571 0.000000
0.048576 0.072349 0.000000
0.090679 0.065832 0.000000
0.127027 0.054962 0.000000
0.165126 0.038952 0.000000
0.200991 0.000000 0.000000
0.246838 0.000000 0.000000
0.285072 0.000000 0.000000
0.324404 0.000000 0.000000
0.363460 0.000000 0.000000
0.406171 0.000000 0.000000
0.451336 0.000000 0.000000
0.501924 0.000000 0.000000
0.553143 0.000000 0.000000
0.598611 0.000000 0.000000
0.670874 0.000000 0.000000
0.741256 0.000000 0.000000
0.817151 0.000000 0.029287
0.880141 0.000000 0.056958
0.945648 0.000000 0.083105
0.999215 0.000000 0.111697
1.000000 0.093954 0.147716
1.000000 0.230691 0.188029
1.000000 0.318552 0.232335
1.000000 0.404454 0.281045
1.000000 0.485699 0.329337
1.000000 0.567432 0.393324
1.000000 0.644915 0.458685
1.000000 0.713151 0.515349
1.000000 0.771039 0.579327
0.000000 0.104980 0.000000
0.000000 0.102303 0.000000
0.000000 0.100890 0.000000
0.000000 0.095734 0.000000
0.027438 0.092460 0.000000
0.087632 0.085847 0.000000
0.125336 0.077916 0.000000
0.163722 0.068117 0.000000
0.201898 0.052946 0.000000
0.249032 0.000000 0.000000
0.281018 0.000000 0.000000
0.317502 0.000000 0.000000
0.361323 0.000000 0.000000
0.394703 0.000000 0.000000
0.451672 0.000000 0.000000
0.498467 0.000000 0.000000
0.553371 0.000000 0.000000
0.602901 0.000000 0.000000
0.675230 0.000000 0.000000
0.741241 0.000000 0.000000
0.817051 0.000000 0.027556
0.879963 0.000000 0.057075
0.945453 0.000000 0.082232
0.999053 0.000000 0.113238
1.000000 0.106635 0.147682
1.000000 0.236195 0.187667
1.000000 0.323048 0.232003
1.000000 0.408467 0.280746
1.000000 0.489504 0.329067
1.000000 0.567432 0.393324
1.000000 0.644915 0.458685
1.000000 0.713126 0.521483
1.000000 0.771039 0.579327
0.000000 0.125719 0.000000
0.000000 0.124026 0.000000
0.000000 0.122426 0.000000
0.000000 0.119110 0.000000
0.000000 0.114133 0.000000
0.079419 0.109829 0.000000
0.123330 0.103224 0.000000
0.161085 0.093782 0.000000
0.201988 0.082567 0.000000
0.244719 0.067475 0.000000
0.281263 0.042569 0.000000
0.323079 0.000000 0.000000
0.362115 0.000000 0.000000
0.395534 0.000000 0.000000
0.448997 0.000000 0.000000
0.498951 0.000000 0.000000
0.549664 0.000000 0.000000
0.603154 0.000000 0.000000
0.675302 0.000000 0.000000
0.741217 0.000000 0.000000
0.816943 0.000000 0.028486
0.879773 0.000000 0.057120
0.945248 0.000000 0.083171
0.998892 0.000000 0.112839
1.000000 0.118241 0.149231
1.000000 0.241614 0.189481
1.000000 0.331955 0.233826
1.000000 0.408467 0.280746
1.000000 0.489494 0.331898
1.000000 0.571058 0.393097
1.000000 0.644915 0.458685
1.000000 0.713126 0.521483
1.000000 0.773481 0.579295
0.000000 0.152914 0.000000
0.000000 0.151060 0.000000
0.000000 0.149294 0.000000
0.000000 0.147355 0.000000
0.000000 0.142123 0.000000
0.058003 0.137918 0.000000
0.111974 0.136228 0.000000
0.157762 0.128833 0.000000
0.199426 0.116745 0.000000
0.245580 0.104048 0.000000
0.283347 0.094151 0.000000
0.316568 0.079889 0.000000
0.360765 0.043926 0.000000
0.396908 0.000000 0.000000
0.440311 0.000000 0.000000
0.496292 0.000000 0.000000
0.546296 0.000000 0.000000
0.603494 0.000000 0.000000
0.675421 0.000000 0.000000
0.741186 0.000000 0.000000
0.816799 0.000000 0.027758
0.879433 0.000000 0.057719
0.944925 0.000000 0.085519
0.998556 0.000000 0.113987
1.000000 0.138152 0.148443
1.000000 0.246972 0.189109
1.000000 0.337036 0.233942
1.000000 0.412473 0.280444
1.000000 0.493299 0.331629
1.000000 0.571047 0.396204
1.000000 0.648310 0.458499
1.000000 0.716210 0.521363
1.000000 0.773481 0.579295
0.000000 0.181328 0.000000
0.000000 0.179229 0.000000
0.000000 0.177072 0.000000
0.000000 0.176768 0.000000
0.000000 0.174432 0.000000
0.000000 0.166217 0.000000
0.092024 0.164957 0.000000
0.146575 0.161035 0.000000
0.195663 0.152230 0.000000
0.242988 0.139187 0.000000
0.284157 0.128027 0.000000
0.319324 0.120033 0.000000
0.362369 0.109867 0.000000
0.404685 0.087473 0.000000
0.448833 0.056262 0.000000
0.494303 0.000000 0.000000
0.547585 0.000000 0.000000
0.604064 0.000000 0.000000
0.679847 0.000000 0.000000
0.745871 0.000000 0.000000
0.816615 0.000000 0.024503
0.879154 0.000000 0.059016
0.947979 0.000000 0.085647
0.998025 0.000000 0.116723
1.000000 0.155289 0.149589
1.000000 0.257474 0.190557
1.000000 0.341415 0.236125
1.000000 0.416473 0.280137
1.000000 0.497103 0.331358
1.000000 0.574675 0.395978
1.000000 0.648310 0.458499
1.000000 0.716210 0.521363
1.000000 0.773481 0.579295
0.000000 0.212089 0.000000
0.000000 0.207555 0.000000
0.000000 0.205165 0.000000
0.000000 0.204855 0.000000
0.000000 0.204349 0.000000
0.000000 0.201667 0.000000
0.046798 0.196478 0.000000
0.127104 0.194504 0.000000
0.183782 0.187163 0.000000
0.232661 0.178640 0.000000
0.281656 0.166236 0.000000
0.323200 0.155135 0.000000
0.362979 0.149465 0.000000
0.406781 0.141426 0.000000
0.451436 0.128238 0.000000
0.496643 0.110458 0.000000
0.553501 0.086703 0.000000
0.605123 0.000000 0.000000
0.680129 0.000000 0.000000
0.745849 0.000000 0.000000
0.821077 0.000000 0.000000
0.882964 0.000000 0.059014
0.947477 0.000000 0.087478
0.997269 0.000000 0.119066
1.000000 0.177885 0.152310
1.000000 0.272713 0.191623
1.000000 0.350127 0.235430
1.000000 0.424454 0.279514
1.000000 0.500897 0.333948
1.000000 0.578305 0.395750
1.000000 0.651680 0.461360
1.000000 0.719272 0.521247
1.000000 0.776435 0.580069
0.000000 0.240353 0.000000
0.000000 0.238196 0.000000
0.000000 0.237938 0.000000
0.000000 0.235558 0.000000
0.000000 0.234907 0.000000
0.000000 0.234285 0.000000
0.000000 0.233289 0.000000
0.087010 0.229670 0.000000
0.157922 0.227340 0.000000
0.214455 0.222043 0.000000
0.266454 0.213567 0.000000
0.317252 0.199198 0.000000
0.364100 0.189959 0.000000
0.410860 0.184407 0.000000
0.453812 0.173004 0.000000
0.503585 0.169444 0.000000
0.555970 0.154587 0.000000
0.614862 0.127370 0.000000
0.681010 0.094592 0.000000
0.745892 0.000000 0.000000
0.820803 0.000000 0.000000
0.882401 0.000000 0.060159
0.946790 0.000000 0.090756
0.996019 0.112475 0.122610
1.000000 0.204505 0.154608
1.000000 0.282580 0.193088
1.000000 0.358756 0.237285
1.000000 0.432405 0.281417
1.000000 0.504700 0.333676
1.000000 0.581926 0.398647
1.000000 0.655045 0.461179
1.000000 0.719272 0.521247
1.000000 0.776423 0.583126
0.000000 0.274277 0.000000
0.000000 0.271917 0.000000
0.000000 0.271749 0.000000
0.000000 0.269176 0.000000
0.000000 0.268813 0.000000
0.000000 0.268317 0.000000
0.000000 0.265354 0.000000
0.000000 0.264075 0.000000
0.137085 0.261998 0.000000
0.200468 0.257195 0.000000
0.251194 0.251776 0.000000
0.309577 0.242236 0.000000
0.361478 0.231746 0.000000
0.412176 0.227369 0.000000
0.465867 0.221570 0.000000
0.509945 0.214113 0.000000
0.562539 0.203336 0.000000
0.621395 0.194904 0.000000
0.686208 0.170766 0.000000
0.750705 0.136831 0.000000
0.820305 0.089425 0.000000
0.881552 0.066113 0.063976
0.945726 0.062178 0.090718
0.997539 0.163725 0.126451
1.000000 0.238600 0.156030
1.000000 0.301748 0.196055
1.000000 0.367313 0.241779
1.000000 0.440336 0.283340
1.000000 0.516963 0.336440
1.000000 0.585560 0.398419
1.000000 0.659218 0.464809
1.000000 0.722302 0.524216
1.000000 0.778801 0.583105
0.000000 0.318548 0.000000
0.000000 0.318443 0.000000
0.000000 0.315611 0.000000
0.000000 0.315385 0.000000
0.000000 0.315113 0.000000
0.000000 0.312134 0.000000
0.000000 0.311595 0.000000
0.000000 0.316064 0.000000
0.000000 0.314786 0.000000
0.148396 0.313114 0.000000
0.211119 0.311106 0.000000
0.280125 0.304912 0.000000
0.344327 0.294745 0.000000
0.403064 0.283535 0.000000
0.466891 0.273340 0.000000
0.514268 0.267267 0.000000
0.569068 0.262098 0.000000
0.624053 0.255887 0.000000
0.692054 0.238546 0.000000
0.755705 0.218455 0.000000
0.823989 0.200911 0.000000
0.888149 0.175705 0.061844
0.947188 0.168404 0.094346
0.995688 0.209493 0.127077
1.000000 0.264643 0.160372
1.000000 0.324876 0.198643
1.000000 0.384841 0.243445
1.000000 0.448251 0.285284
1.000000 0.528328 0.338535
1.000000 0.592821 0.401103
1.000000 0.662537 0.464634
1.000000 0.726037 0.524921
1.000000 0.781155 0.583088
0.000000 0.368628 0.000000
0.000000 0.365598 0.000000
0.000000 0.365448 0.000000
0.000000 0.365291 0.000000
0.000000 0.365070 0.000000
0.000000 0.364776 0.000000
0.000000 0.367287 0.000000
0.000000 0.369691 0.000000
0.000000 0.368876 0.000000
0.000000 0.364496 0.000000
0.158414 0.363014 0.000000
0.233123 0.360895 0.000000
0.312620 0.354287 0.000000
0.379866 0.344150 0.000000
0.452138 0.332299 0.000000
0.516679 0.325848 0.000000
0.571579 0.319444 0.000000
0.628860 0.318567 0.000000
0.697487 0.301566 0.000000
0.756140 0.295129 0.000000
0.827191 0.281258 0.000000
0.889072 0.267890 0.058087
0.943727 0.251264 0.096382
0.992729 0.262197 0.129964
1.000000 0.294193 0.163930
1.000000 0.347640 0.201649
1.000000 0.398537 0.248679
1.000000 0.464731 0.289808
1.000000 0.539693 0.340656
1.000000 0.604554 0.404293
1.000000 0.669114 0.467353
1.000000 0.729006 0.527900
1.000000 0.783460 0.589211
0.000000 0.418440 0.000000
0.000000 0.418333 0.000000
0.000000 0.418203 0.000000
0.000000 0.414736 0.000000
0.000000 0.417819 0.000000
0.000000 0.420906 0.000000
0.000000 0.420578 0.000000
0.000000 0.423578 0.000000
0.000000 0.419603 0.000000
0.000000 0.418822 0.000000
0.000000 0.417814 0.000000
0.187020 0.412803 0.000000
0.269774 0.410673 0.000000
0.352403 0.410745 0.000000
0.435868 0.395609 0.000000
0.511365 0.389815 0.000000
0.571330 0.384307 0.000000
0.633685 0.374137 0.000000
0.701068 0.362473 0.000000
0.760192 0.358608 0.000000
0.829430 0.352860 0.000000
0.885511 0.340629 0.017217
0.942105 0.328473 0.098392
0.990574 0.327982 0.131492
1.000000 0.340393 0.165583
1.000000 0.374522 0.207141
1.000000 0.423845 0.252104
1.000000 0.485280 0.294077
1.000000 0.551838 0.343510
1.000000 0.615441 0.406775
1.000000 0.675623 0.470095
1.000000 0.734900 0.527706
1.000000 0.785779 0.589201
0.000000 0.473397 0.047886
0.000000 0.473271 0.024260
0.000000 0.473119 0.000000
0.000000 0.472991 0.000000
0.000000 0.472813 0.000000
0.000000 0.472641 0.000000
0.000000 0.475916 0.000000
0.000000 0.479102 0.000000
0.000000 0.478651 0.000000
0.000000 0.478104 0.000000
0.000000 0.473606 0.000000
0.000000 0.472405 0.000000
0.218369 0.470578 0.000000
0.316448 0.471463 0.000000
0.409842 0.471141 0.000000
0.492012 0.459201 0.000000
0.570051 0.446136 0.000000
0.643520 0.428434 0.000000
0.700823 0.426404 0.000000
0.771747 0.418727 0.000000
0.827016 0.412530 0.000000
0.885017 0.406049 0.000000
0.939207 0.400640 0.091448
0.986911 0.393273 0.136857
1.000000 0.392967 0.168548
1.000000 0.421488 0.209892
1.000000 0.456397 0.261561
1.000000 0.513588 0.297750
1.000000 0.566947 0.348461
1.000000 0.629966 0.412245
1.000000 0.685984 0.473453
1.000000 0.738460 0.531518
1.000000 0.791314 0.593839
0.000000 0.534638 0.115707
0.000000 0.541999 0.104205
0.000000 0.541907 0.104285
0.000000 0.545491 0.088632
0.000000 0.545343 0.083705
0.000000 0.548894 0.069217
0.000000 0.548737 0.054517
0.000000 0.548426 0.000000
0.000000 0.548065 0.000000
0.000000 0.543814 0.000000
0.000000 0.543070 0.000000
0.000000 0.541823 0.000000
0.124820 0.540390 0.000000
0.269379 0.545684 0.000000
0.380385 0.542419 0.000000
0.460067 0.535263 0.000000
0.547246 0.522785 0.000000
0.638436 0.508575 0.000000
0.707204 0.498866 0.000000
0.773989 0.496649 0.000000
0.834302 0.487040 0.000000
0.889725 0.478192 0.000000
0.939985 0.478752 0.083501
0.982500 0.472887 0.138696
1.000000 0.473092 0.176888
1.000000 0.475866 0.217038
1.000000 0.501720 0.268117
1.000000 0.545027 0.312124
1.000000 0.593397 0.352703
1.000000 0.644357 0.414419
1.000000 0.695813 0.476080
1.000000 0.746984 0.537465
1.000000 0.795813 0.596913
0.000000 0.609565 0.173499
0.000000 0.609460 0.169907
0.000000 0.617001 0.163917
0.000000 0.609201 0.158915
0.000000 0.609078 0.155196
0.000000 0.608946 0.151437
0.000000 0.608809 0.139690
0.000000 0.608554 0.131602
0.000000 0.608210 0.118723
0.000000 0.603838 0.111750
0.000000 0.603105 0.091530
0.000000 0.602133 0.055709
0.000000 0.604828 0.000000
0.204530 0.610513 0.000000
0.335417 0.607956 0.000000
0.431991 0.597232 0.000000
0.523660 0.593159 0.000000
0.614257 0.588003 0.000000
0.700742 0.578074 0.000000
0.771116 0.564529 0.000000
0.837222 0.559044 0.000000
0.888270 0.551181 0.000000
0.938726 0.552480 0.087009
0.976468 0.547389 0.141719
1.000000 0.547773 0.187141
1.000000 0.554166 0.230164
1.000000 0.554146 0.276508
1.000000 0.576868 0.321970
1.000000 0.616675 0.361197
1.000000 0.661932 0.419469
1.000000 0.709132 0.481706
1.000000 0.758582 0.541120
1.000000 0.802902 0.600805
0.000000 0.673919 0.240127
0.000000 0.669989 0.237519
0.000000 0.669897 0.234188
0.000000 0.669801 0.230860
0.000000 0.669591 0.227574
0.000000 0.669538 0.224227
0.000000 0.669366 0.220923
0.000000 0.669182 0.217620
0.000000 0.668772 0.214389
0.000000 0.668224 0.207807
0.000000 0.667620 0.194365
0.000000 0.670690 0.179087
0.000000 0.673375 0.157365
0.078717 0.671801 0.135207
0.288027 0.665870 0.106491
0.397643 0.663219 0.062594
0.487869 0.660088 0.000000
0.598496 0.654960 0.000000
0.684712 0.649919 0.000000
0.770604 0.636115 0.000000
0.831060 0.627634 0.000000
0.883412 0.619947 0.000000
0.930131 0.621551 0.090654
0.969099 0.616621 0.147631
0.997530 0.617005 0.193642
1.000000 0.622946 0.246950
1.000000 0.618237 0.291011
1.000000 0.627452 0.326948
1.000000 0.646600 0.375106
1.000000 0.690255 0.430979
1.000000 0.725790 0.488066
1.000000 0.769641 0.547968
1.000000 0.811544 0.607082
0.000000 0.732161 0.301993
0.000000 0.732041 0.298310
0.000000 0.731915 0.294640
0.000000 0.731784 0.290982
0.000000 0.731647 0.287335
0.000000 0.731574 0.287357
0.000000 0.731349 0.283745
0.000000 0.731196 0.280120
0.000000 0.730878 0.276549
0.000000 0.730538 0.269341
0.000000 0.733881 0.254279
0.000000 0.736888 0.239198
0.000000 0.735752 0.228474
0.000000 0.730411 0.214915
0.243422 0.728737 0.200443
0.361430 0.734193 0.171651
0.480347 0.730796 0.149897
0.580457 0.726834 0.130542
0.682318 0.717843 0.105232
0.764830 0.704983 0.000000
0.829592 0.700641 0.000000
0.875165 0.693598 0.000000
0.919207 0.687057 0.101544
0.962485 0.681672 0.166652
0.988098 0.685895 0.212858
1.000000 0.690943 0.263835
1.000000 0.685455 0.307855
1.000000 0.689520 0.343593
1.000000 0.694540 0.392508
1.000000 0.717903 0.445358
1.000000 0.752976 0.496703
1.000000 0.785003 0.554908
1.000000 0.822387 0.614318
0.000000 0.798646 0.368928
0.000000 0.798495 0.365215
0.000000 0.798413 0.365235
0.000000 0.798337 0.361503
0.000000 0.798173 0.357793
0.000000 0.798092 0.354061
0.000000 0.801101 0.353906
0.000000 0.800919 0.350149
0.000000 0.800526 0.346254
0.000000 0.800221 0.338346
0.000000 0.799669 0.330488
0.000000 0.798946 0.322685
0.000000 0.797883 0.311073
0.000000 0.796697 0.299594
0.211808 0.791796 0.280880
0.343636 0.789879 0.262094
0.453470 0.793470 0.246728
0.549760 0.790274 0.224361
0.644892 0.786227 0.202073
0.739822 0.781282 0.184483
0.807522 0.777256 0.157877
0.860476 0.767512 0.126389
0.914064 0.757644 0.138917
0.949786 0.752602 0.193357
0.978861 0.752093 0.236512
0.996567 0.758885 0.293675
1.000000 0.753479 0.328719
1.000000 0.755868 0.369388
1.000000 0.758611 0.410797
1.000000 0.759436 0.461373
1.000000 0.781005 0.513696
1.000000 0.806018 0.564463
1.000000 0.832441 0.620899
0.000000 0.850391 0.435745
0.000000 0.850296 0.431992
0.000000 0.850190 0.432011
0.000000 0.849972 0.432049
0.000000 0.849870 0.428301
0.000000 0.847238 0.428288
0.000000 0.847017 0.424563
0.000000 0.846908 0.420820
0.000000 0.846676 0.417101
0.000000 0.846184 0.413433
0.000000 0.845798 0.409749
0.000000 0.845114 0.406125
0.000000 0.844244 0.395046
0.000000 0.845648 0.387830
0.214609 0.841723 0.369381
0.363984 0.839568 0.354945
0.457089 0.837395 0.335851
0.547698 0.837054 0.320884
0.634304 0.833668 0.298278
0.724648 0.829381 0.272993
0.791374 0.828227 0.260388
0.855067 0.821909 0.238033
0.904071 0.811155 0.213090
0.938405 0.806526 0.223699
0.965878 0.805283 0.274547
0.986206 0.807422 0.323889
1.000000 0.804997 0.365704
1.000000 0.808471 0.398218
1.000000 0.807789 0.443021
1.000000 0.809834 0.486416
1.000000 0.812743 0.534101
1.000000 0.823875 0.581390
1.000000 0.844173 0.630854
0.000000 0.883610 0.509217
0.000000 0.883479 0.509234
0.000000 0.883357 0.505483
0.000000 0.883357 0.505483
0.000000 0.883233 0.501736
0.000000 0.883096 0.501754
0.000000 0.882969 0.498010
0.000000 0.882829 0.498029
0.000000 0.882698 0.494289
0.000000 0.882417 0.490572
0.000000 0.884326 0.487037
0.000000 0.883566 0.479657
0.000000 0.885091 0.476214
0.046426 0.884068 0.468916
0.294421 0.882410 0.454321
0.389376 0.880803 0.439805
0.474595 0.876641 0.425214
0.562894 0.873905 0.411169
0.653615 0.870378 0.397638
0.716432 0.869704 0.377356
0.782202 0.868493 0.357972
0.848957 0.862556 0.342569
0.895305 0.857590 0.320542
0.928548 0.851157 0.295245
0.955932 0.847352 0.312351
0.976895 0.848632 0.358245
0.997615 0.843689 0.395101
1.000000 0.846189 0.435861
1.000000 0.847007 0.473002
1.000000 0.850190 0.519236
1.000000 0.849806 0.559584
1.000000 0.850543 0.598733
1.000000 0.862977 0.645489
0.000000 0.916136 0.592661
0.000000 0.915981 0.592675
0.000000 0.915995 0.588893
0.000000 0.915838 0.588907
0.000000 0.915838 0.588907
0.000000 0.915694 0.585141
0.000000 0.915694 0.585141
0.000000 0.915548 0.581377
0.000000 0.915386 0.581393
0.000000 0.915236 0.577632
0.000000 0.916589 0.574179
0.000000 0.916090 0.570466
0.143716 0.913551 0.562736
0.276187 0.912431 0.559107
0.367684 0.911049 0.551773
0.457198 0.909138 0.540939
0.525776 0.908963 0.523229
0.588140 0.906947 0.509031
0.659918 0.905856 0.492039
0.716300 0.901734 0.481683
0.772049 0.899046 0.461611
0.835158 0.893975 0.442591
0.885544 0.892722 0.429508
0.918856 0.890750 0.409856
0.947919 0.885641 0.394043
0.973498 0.880734 0.399507
0.991573 0.874543 0.429397
1.000000 0.879615 0.470777
1.000000 0.879769 0.506974
1.000000 0.881886 0.552926
1.000000 0.881028 0.591632
1.000000 0.882497 0.630360
1.000000 0.882758 0.667643
0.139932 0.937144 0.657438
0.173117 0.936962 0.657449
0.173117 0.936962 0.657449
0.199396 0.936778 0.657462
0.199396 0.936778 0.657462
