Assets/Lutify-Free-LUTs-Pack/Lutify Free LUTs Pack/Commercial Pro - Claire/Lutify.me-Claire-DWG-to-DWG.cube
# Created with: fylm.ai - Colour Grading and Collaboration Software in Cloud 
# Website: https://fylm.ai 
# META
# Option: Gamut compress
# Block 2: colourMatch | Blending Mode: Normal | {"ColorSpace":0,"CrossCovarianceLimit":50,"ReshapingIterations":1,"PercentSaturationShift":100,"PercentShadingShift":100,"ExtraShading":true,"PercentTint":100,"PercentModified":100}
# Block 3: HSL | Blending Mode: Normal | {"hue":{"Reds":0,"Yellows":0,"Greens":0,"Cyans":0,"Blues":0,"Magentas":0},"saturation":{"Reds":1,"Yellows":1,"Greens":1,"Cyans":1,"Blues":1,"Magentas":1},"luminance":{"Reds":0.9,"Yellows":0.9,"Greens":0.9,"Cyans":0.8,"Blues":0.8,"Magentas":0.9},"lum_sat":{"Blacks":1,"Shadows":1,"Midtones":1,"Highlights":1,"Whites":1},"sat_sat":{"10":1,"20":1,"30":1,"40":1,"50":1}}
# Block 4: subtractiveColour | Blending Mode: Normal | {"sliders":{"gainY":0.1,"C":0.05,"M":0.05,"Y":0.05}}
# Block 5: logPrimaries | Blending Mode: Normal | {"wheels":{"shadows":{"Y":"0","R":"1","G":"1","B":"1"},"midtones":{"Y":"0","R":"1","G":"1","B":"1"},"highlights":{"Y":"0","R":"1","G":"1","B":"1"},"offset":{"Y":"0","R":"1","G":"1","B":"1"}},"sliders":{"shadows":{"Y":0,"R":-0.05,"G":0,"B":0.1},"midtones":{"Y":0,"R":0,"G":0,"B":0},"highlights":{"Y":0,"R":0,"G":0,"B":0},"offset":{"Y":0,"R":0,"G":0,"B":0}}}
# Block 6: LUT | Filmic Curve Response: Standard Contrast 1 (100%)
# Block 7: LUT | Illuminant: D93 (100%)
# Block 8: LUT | Neutral Tint: Teal Tint 4 (100%)
TITLE "dwg" 
LUT_3D_SIZE 9
-0.019141 0.003031 0.023733
0.163665 -0.010418 -0.017677
0.289852 0.029118 0.041966
0.377765 0.107337 0.119188
0.468007 0.202237 0.207287
0.570841 0.307586 0.310030
0.677315 0.412855 0.415388
0.784364 0.521473 0.523312
0.875161 0.626095 0.616795
-0.007636 0.111176 0.020322
0.122873 0.097362 -0.006741
0.268416 0.090093 0.037023
0.375095 0.123627 0.118302
0.469489 0.208583 0.208570
0.570844 0.309981 0.310220
0.677316 0.413633 0.415393
0.784364 0.521473 0.523312
0.875161 0.626095 0.616795
0.025079 0.219181 0.052637
0.120631 0.215215 0.039381
0.276937 0.199228 0.069388
0.384641 0.196111 0.135117
0.475432 0.229438 0.214508
0.572414 0.318592 0.312082
0.678830 0.415767 0.416644
0.784364 0.522325 0.523302
0.875162 0.627018 0.616897
0.103710 0.305291 0.101308
0.157740 0.305544 0.103313
0.280916 0.301034 0.120617
0.415960 0.277886 0.176578
0.527141 0.292914 0.264512
0.580228 0.338452 0.318633
0.680351 0.423501 0.418454
0.785764 0.524592 0.524494
0.875162 0.627018 0.616897
0.229378 0.393024 0.179421
0.248608 0.391821 0.180175
0.303882 0.384408 0.182397
0.426027 0.370159 0.216565
0.545990 0.368116 0.293207
0.666650 0.392664 0.397605
0.687933 0.443434 0.425508
0.785769 0.530620 0.524648
0.875166 0.630071 0.617122
0.349374 0.482684 0.268101
0.356755 0.481289 0.267932
0.384514 0.474285 0.267093
0.450551 0.461215 0.276858
0.555727 0.458550 0.326675
0.674331 0.462451 0.413750
0.788478 0.498347 0.517477
0.788580 0.551520 0.527314
0.877326 0.640189 0.619693
0.483900 0.573064 0.364832
0.489580 0.571614 0.364976
0.508217 0.565793 0.365137
0.536924 0.558836 0.369094
0.582992 0.557490 0.386747
0.685218 0.555068 0.443900
0.795568 0.564820 0.531587
0.887949 0.595212 0.616584
0.880566 0.662389 0.622957
0.646602 0.656802 0.471072
0.646602 0.656802 0.471072
0.648152 0.656852 0.471690
0.654351 0.657053 0.474158
0.671079 0.656099 0.480090
0.711529 0.655090 0.498897
0.806999 0.655688 0.559308
0.896650 0.667605 0.632803
0.971133 0.686986 0.700555
0.768864 0.752126 0.576776
0.768864 0.752126 0.576776
0.768864 0.752126 0.576776
0.771633 0.752254 0.578134
0.777153 0.751175 0.580132
0.792363 0.750544 0.586895
0.828654 0.748836 0.605475
0.905465 0.750752 0.656721
0.978830 0.759853 0.716496
-0.013028 0.030306 0.104054
0.124884 0.012313 0.077041
0.270108 0.032238 0.071455
0.359086 0.104482 0.120293
0.459193 0.203153 0.207156
0.567735 0.308362 0.309227
0.677320 0.412993 0.415978
0.784366 0.521525 0.523530
0.875162 0.626117 0.616886
0.001598 0.118833 0.158203
0.104195 0.122035 0.148365
0.245419 0.093999 0.082769
0.357780 0.124459 0.121728
0.459204 0.211407 0.207863
0.567737 0.310740 0.309384
0.677320 0.413770 0.415983
0.784366 0.521525 0.523530
0.875163 0.627038 0.616987
0.029612 0.209708 0.177553
0.100897 0.226178 0.135610
0.246063 0.217317 0.095774
0.357994 0.210127 0.133363
0.462183 0.234901 0.210928
0.570866 0.319135 0.312421
0.677323 0.416142 0.416165
0.784367 0.522396 0.523625
0.875163 0.627038 0.616987
0.098100 0.316849 0.168401
0.138400 0.317442 0.153209
0.248117 0.316315 0.140807
0.386443 0.295399 0.164432
0.485979 0.302818 0.234799
0.574009 0.339600 0.316021
0.680356 0.423611 0.419030
0.784367 0.524077 0.523497
0.875163 0.627038 0.616987
0.211348 0.406976 0.208369
0.230246 0.405648 0.205942
0.273295 0.401700 0.199441
0.395483 0.390652 0.214450
0.545990 0.368116 0.293207
0.666650 0.392664 0.397605
0.686425 0.443975 0.424814
0.785770 0.530641 0.524755
0.875167 0.630088 0.617211
0.325831 0.503662 0.288632
0.330200 0.500568 0.285525
0.354036 0.496069 0.282628
0.416050 0.480644 0.279253
0.555727 0.458550 0.326675
0.674331 0.462451 0.413750
0.788478 0.498347 0.517477
0.788584 0.552626 0.527720
0.877327 0.640206 0.619781
0.447357 0.597591 0.379862
0.451354 0.596053 0.378870
0.466396 0.591507 0.376879
0.514439 0.572045 0.371368
0.582992 0.557490 0.386747
0.685218 0.555068 0.443900
0.795568 0.564820 0.531587
0.887949 0.595212 0.616584
0.880567 0.662409 0.623084
0.608679 0.678115 0.473910
0.613185 0.676692 0.473833
0.626870 0.671073 0.473950
0.654351 0.657053 0.474158
0.671079 0.656099 0.480090
0.711529 0.655090 0.498897
0.806999 0.655688 0.559308
0.896650 0.667605 0.632803
0.971133 0.686986 0.700555
0.768864 0.752126 0.576776
0.768864 0.752126 0.576776
0.768864 0.752126 0.576776
0.771633 0.752254 0.578134
0.777153 0.751175 0.580132
0.792363 0.750544 0.586895
0.828654 0.748836 0.605475
0.905465 0.750752 0.656721
0.978830 0.759853 0.716496
-0.000694 0.063673 0.164619
0.075906 0.043888 0.133387
0.257962 0.037714 0.121509
0.350488 0.104412 0.163461
0.451981 0.204235 0.220202
0.564665 0.310830 0.312654
0.675825 0.413677 0.416935
0.784372 0.522566 0.524337
0.875165 0.627088 0.617231
0.008960 0.103770 0.191290
0.064894 0.096924 0.180175
0.234157 0.083292 0.163073
0.346927 0.132256 0.179636
0.452006 0.214812 0.221968
0.564670 0.313996 0.312992
0.675825 0.414442 0.416901
0.784372 0.522566 0.524337
0.875165 0.627088 0.617231
0.059508 0.225620 0.271076
0.100983 0.236815 0.281011
0.238077 0.255658 0.284026
0.346654 0.225481 0.217436
0.453549 0.241394 0.227272
0.564679 0.321225 0.313619
0.677341 0.417388 0.418340
0.784373 0.523414 0.524337
0.875165 0.627088 0.617231
0.120351 0.312467 0.312604
0.141208 0.318472 0.306453
0.238411 0.341785 0.285733
0.352314 0.331339 0.225173
0.458211 0.322436 0.242008
0.567832 0.344106 0.318047
0.678862 0.425060 0.420072
0.784374 0.525111 0.524336
0.875167 0.628048 0.617343
0.207620 0.421187 0.309745
0.225161 0.422143 0.304688
0.260244 0.423686 0.287138
0.354123 0.421406 0.257980
0.487901 0.395927 0.263584
0.583557 0.412918 0.336349
0.683419 0.446140 0.424569
0.785779 0.532559 0.525800
0.875168 0.630122 0.617387
0.317753 0.518641 0.333544
0.322025 0.518591 0.331744
0.336464 0.520029 0.328840
0.374827 0.516831 0.318766
0.500783 0.497399 0.319025
0.674331 0.462451 0.413750
0.788478 0.498347 0.517477
0.788593 0.553828 0.528705
0.877328 0.640241 0.619958
0.427793 0.619617 0.405928
0.428979 0.619616 0.405770
0.436164 0.619626 0.405380
0.451757 0.616521 0.401490
0.530079 0.589319 0.388475
0.685218 0.555068 0.443900
0.795568 0.564820 0.531587
0.887949 0.595212 0.616584
0.880572 0.663634 0.623542
0.554443 0.718026 0.498907
0.555884 0.718035 0.499040
0.557206 0.716534 0.497696
0.565520 0.712067 0.494392
0.654585 0.670314 0.482451
0.711529 0.655090 0.498897
0.806999 0.655688 0.559308
0.896650 0.667605 0.632803
0.971133 0.686986 0.700555
0.705318 0.787305 0.580126
0.708194 0.785971 0.579737
0.715309 0.780567 0.577172
0.752560 0.765093 0.578291
0.777153 0.751175 0.580132
0.792363 0.750544 0.586895
0.828654 0.748836 0.605475
0.905465 0.750752 0.656721
0.978830 0.759853 0.716496
0.016701 0.084104 0.202651
0.067607 0.061040 0.168747
0.228396 0.045832 0.145535
0.383600 0.082773 0.170443
0.442479 0.202911 0.271415
0.558642 0.312993 0.329918
0.675894 0.418570 0.424967
0.784394 0.523974 0.526929
0.875175 0.628248 0.618346
0.029573 0.118426 0.229264
0.064225 0.107908 0.211229
0.199816 0.096711 0.197549
0.350901 0.094324 0.186756
0.439692 0.214558 0.277303
0.558647 0.316009 0.330194
0.675897 0.420126 0.425127
0.784394 0.523974 0.526929
0.875175 0.628248 0.618346
0.068912 0.200113 0.287440
0.095050 0.205295 0.290522
0.187377 0.214548 0.304035
0.327194 0.203102 0.289943
0.443058 0.251020 0.297249
0.560224 0.323806 0.332803
0.675900 0.422460 0.425367
0.784396 0.524839 0.527021
0.875175 0.628248 0.618346
0.126891 0.312927 0.357141
0.147372 0.322886 0.367789
0.216049 0.342837 0.388238
0.348325 0.366506 0.393497
0.454307 0.340433 0.335929
0.561853 0.350313 0.338552
0.677421 0.430074 0.427117
0.784397 0.528241 0.527003
0.875176 0.629277 0.618359
0.214299 0.409396 0.414742
0.224345 0.413373 0.414037
0.256166 0.420701 0.412938
0.353815 0.450609 0.398989
0.463649 0.440018 0.348936
0.572982 0.429795 0.358141
0.681981 0.451657 0.431770
0.784399 0.534181 0.526877
0.877325 0.632033 0.620269
0.316035 0.529576 0.423004
0.323340 0.532530 0.424046
0.338933 0.539497 0.420643
0.373593 0.540209 0.407854
0.465715 0.537908 0.382697
0.591925 0.512645 0.373868
0.694208 0.527414 0.447484
0.788619 0.557405 0.531574
0.877333 0.640362 0.620577
0.427712 0.639569 0.457055
0.428774 0.639555 0.456648
0.434447 0.641074 0.456508
0.448495 0.639423 0.451787
0.488653 0.637756 0.443289
0.602622 0.618864 0.433623
0.795568 0.564820 0.531587
0.887949 0.595212 0.616584
0.880582 0.664949 0.624596
0.546927 0.736150 0.524711
0.548298 0.736154 0.524682
0.551047 0.736160 0.524630
0.555013 0.734768 0.522996
0.568823 0.731871 0.518979
0.629603 0.709839 0.504013
0.806999 0.655688 0.559308
0.896650 0.667605 0.632803
0.971133 0.686986 0.700555
0.663872 0.819358 0.602372
0.663869 0.819356 0.602317
0.665323 0.819365 0.602398
0.668139 0.818176 0.601476
0.676380 0.815803 0.599465
0.786908 0.756969 0.587770
0.828654 0.748836 0.605475
0.905465 0.750752 0.656721
0.977945 0.759638 0.715732
0.047395 0.075229 0.201403
0.105861 0.058867 0.178487
0.217963 0.046336 0.155565
0.353260 0.077790 0.175848
0.491897 0.160443 0.247518
0.550112 0.312845 0.378848
0.676095 0.423778 0.445767
0.783059 0.527631 0.533029
0.875201 0.631888 0.621148
0.050326 0.103096 0.228974
0.090085 0.086452 0.205404
0.195008 0.074327 0.187566
0.348204 0.080355 0.180664
0.491897 0.160443 0.247518
0.548637 0.317287 0.381650
0.676102 0.425381 0.446328
0.783059 0.527631 0.533029
0.875201 0.631888 0.621148
0.093251 0.201274 0.311087
0.113735 0.203191 0.311361
0.163925 0.206564 0.316125
0.300105 0.204889 0.318102
0.431094 0.178400 0.281544
0.550310 0.328814 0.389051
0.676105 0.427625 0.446533
0.783061 0.529341 0.533205
0.875203 0.632942 0.621286
0.140434 0.291681 0.372035
0.157396 0.298541 0.377516
0.195636 0.310556 0.392294
0.300751 0.326827 0.411368
0.430731 0.318445 0.399526
0.556808 0.361492 0.405826
0.676130 0.434676 0.448422
0.783062 0.531005 0.533201
0.875203 0.633971 0.621297
0.200521 0.392259 0.440222
0.212420 0.402866 0.447381
0.250007 0.423400 0.471416
0.330960 0.446783 0.494483
0.465623 0.480027 0.505309
0.570119 0.450866 0.446047
0.677709 0.460436 0.454090
0.783070 0.537815 0.533568
0.875207 0.636079 0.621574
0.321603 0.515790 0.520415
0.326460 0.517294 0.521944
0.336522 0.520884 0.522412
0.365670 0.532672 0.519060
0.463270 0.569132 0.516246
0.583141 0.558140 0.464352
0.687008 0.543481 0.472871
0.790096 0.564496 0.541649
0.878437 0.645420 0.624816
0.425616 0.647087 0.537931
0.428631 0.648579 0.538434
0.436553 0.651483 0.538460
0.453527 0.658845 0.538622
0.488815 0.660903 0.524635
0.586835 0.660269 0.501719
0.705394 0.634349 0.491295
0.798634 0.644200 0.556099
0.879542 0.669813 0.627155
0.545629 0.755352 0.573753
0.545629 0.755352 0.573753
0.546848 0.755337 0.573301
0.552011 0.755306 0.572082
0.568988 0.753840 0.567652
0.606168 0.753687 0.559434
0.714265 0.736866 0.549457
0.896648 0.666529 0.632648
0.971132 0.686195 0.700478
0.664466 0.836574 0.629411
0.664466 0.836574 0.629411
0.664452 0.836568 0.629215
0.665886 0.836573 0.629184
0.672904 0.835388 0.627768
0.689268 0.833001 0.624151
0.734244 0.817709 0.611280
0.905465 0.750752 0.656721
0.977945 0.759638 0.715732
0.133510 0.089599 0.216390
0.165457 0.086765 0.212037
0.230073 0.077560 0.198105
0.319185 0.086283 0.197937
0.453657 0.143619 0.241269
0.592797 0.248514 0.334382
0.664725 0.421076 0.487896
0.783256 0.534192 0.553161
0.875266 0.635353 0.628408
0.132548 0.089544 0.216357
0.165457 0.086765 0.212037
0.228864 0.077404 0.197994
0.319185 0.086283 0.197937
0.453657 0.143619 0.241269
0.592797 0.248514 0.334382
0.664727 0.422170 0.487959
0.783256 0.534192 0.553161
0.875266 0.635353 0.628408
0.118318 0.108344 0.235919
0.148790 0.106911 0.233945
0.219280 0.092827 0.214042
0.319185 0.086283 0.197937
0.453657 0.143619 0.241269
0.592797 0.248514 0.334382
0.664763 0.426349 0.489798
0.783262 0.535122 0.553670
0.875266 0.635353 0.628408
0.178705 0.297506 0.399222
0.187401 0.300463 0.403290
0.212108 0.307526 0.410272
0.273193 0.318202 0.424377
0.399974 0.325148 0.434899
0.527605 0.289198 0.395684
0.667876 0.437368 0.497108
0.784666 0.539032 0.555288
0.875268 0.636384 0.628532
0.229114 0.383863 0.463381
0.237952 0.388741 0.469278
0.258441 0.397171 0.481075
0.305494 0.414216 0.500563
0.408509 0.432699 0.521274
0.547682 0.429649 0.511229
0.674242 0.472888 0.517833
0.786088 0.547522 0.558198
0.875278 0.640604 0.629297
0.278852 0.471939 0.523049
0.291231 0.483262 0.533543
0.319732 0.504100 0.556785
0.360012 0.527528 0.581824
0.442226 0.560083 0.609430
0.586588 0.601248 0.623266
0.690176 0.570419 0.560476
0.787552 0.574309 0.563631
0.875295 0.650007 0.630485
0.435400 0.633152 0.638327
0.436372 0.633157 0.638338
0.438942 0.634394 0.638488
0.447398 0.637416 0.636070
0.477983 0.651607 0.636887
0.589937 0.692026 0.635836
0.705941 0.681461 0.584317
0.800388 0.665810 0.587067
0.880708 0.678393 0.637687
0.545002 0.761571 0.657753
0.547084 0.761581 0.657802
0.549482 0.762905 0.658246
0.556267 0.765469 0.658084
0.572050 0.771831 0.657094
0.611633 0.776395 0.645202
0.709306 0.775509 0.618580
0.810434 0.747943 0.600743
0.887330 0.753820 0.651648
0.666162 0.856185 0.686954
0.666162 0.856185 0.686954
0.667516 0.856193 0.687039
0.668802 0.856170 0.686452
0.673945 0.856077 0.684103
0.690776 0.855931 0.679097
0.729859 0.853316 0.666708
0.819091 0.837461 0.652365
0.977945 0.759638 0.715732
0.242929 0.111537 0.240073
0.251024 0.110571 0.238048
0.275623 0.110594 0.236343
0.334340 0.114958 0.234811
0.418181 0.139528 0.250254
0.556952 0.225356 0.319371
0.696966 0.346358 0.431062
0.772835 0.530641 0.598128
0.877656 0.643402 0.654034
0.240593 0.111287 0.239913
0.251024 0.110571 0.238048
0.275623 0.110594 0.236343
0.334340 0.114958 0.234811
0.418181 0.139528 0.250254
0.556952 0.225356 0.319371
0.696966 0.346358 0.431062
0.772837 0.531292 0.598166
0.877656 0.643402 0.654034
0.240593 0.111287 0.239913
0.249795 0.110395 0.237935
0.274361 0.110390 0.236200
0.334340 0.114958 0.234811
0.418181 0.139528 0.250254
0.556952 0.225356 0.319371
0.696966 0.346358 0.431062
0.774222 0.532378 0.598732
0.877656 0.643402 0.654034
0.239424 0.111163 0.239832
0.248594 0.110218 0.237825
0.273117 0.110460 0.236094
0.331809 0.114337 0.234389
0.418181 0.139528 0.250254
0.556952 0.225356 0.319371
0.696966 0.346358 0.431062
0.774280 0.537456 0.601754
0.877659 0.645374 0.654234
0.274453 0.395379 0.499423
0.277958 0.396807 0.500924
0.288186 0.400861 0.504004
0.319085 0.410663 0.516011
0.381753 0.426184 0.537438
0.511100 0.436906 0.550422
0.635834 0.399639 0.504250
0.777200 0.549932 0.610767
0.877678 0.649564 0.655626
0.329607 0.483312 0.567386
0.334907 0.485517 0.571958
0.344629 0.489924 0.578147
0.369311 0.502099 0.592214
0.416984 0.522131 0.614298
0.524546 0.549146 0.643882
0.667262 0.546792 0.632735
0.787256 0.588110 0.631789
0.878778 0.660006 0.658294
0.363403 0.556045 0.609819
0.373550 0.566401 0.619307
0.402485 0.592072 0.646055
0.434681 0.614883 0.672661
0.477680 0.642259 0.700896
0.558352 0.681336 0.728167
0.708745 0.724034 0.745543
0.803647 0.691854 0.681187
0.882077 0.689712 0.665733
0.547129 0.746142 0.752779
0.547129 0.746142 0.752779
0.547981 0.746147 0.752788
0.552624 0.748859 0.754456
0.563572 0.754805 0.755161
0.596930 0.766211 0.755640
0.717376 0.809829 0.762873
0.818933 0.797140 0.703947
0.889943 0.777577 0.689214
0.663605 0.863021 0.774187
0.663605 0.863021 0.774187
0.664658 0.863026 0.774212
0.668061 0.864165 0.774583
0.675083 0.866392 0.774378
0.695019 0.872019 0.774485
0.734124 0.877263 0.762479
0.821618 0.872892 0.730665
0.897626 0.846660 0.694294
0.341029 0.145402 0.273396
0.344772 0.146151 0.273866
0.353578 0.147330 0.274203
0.375382 0.150042 0.274549
0.431074 0.164138 0.280994
0.522992 0.211388 0.316002
0.659054 0.315638 0.405794
0.787066 0.433575 0.517215
0.869500 0.645353 0.712143
0.341029 0.145402 0.273396
0.344772 0.146151 0.273866
0.353578 0.147330 0.274203
0.375382 0.150042 0.274549
0.431074 0.164138 0.280994
0.522992 0.211388 0.316002
0.659054 0.315638 0.405794
0.787066 0.433575 0.517215
0.869500 0.645353 0.712143
0.341029 0.145402 0.273396
0.344772 0.146151 0.273866
0.353578 0.147330 0.274203
0.375382 0.150042 0.274549
0.431074 0.164138 0.280994
0.522992 0.211388 0.316002
0.659054 0.315638 0.405794
0.787066 0.433575 0.517215
0.869502 0.646722 0.712222
0.341029 0.145402 0.273396
0.344772 0.146151 0.273866
0.352312 0.147020 0.273991
0.374081 0.149700 0.274329
0.431074 0.164138 0.280994
0.522992 0.211388 0.316002
0.659054 0.315638 0.405794
0.787066 0.433575 0.517215
0.869503 0.647406 0.712261
0.338534 0.144902 0.273083
0.341029 0.145402 0.273396
0.351046 0.146709 0.273780
0.372780 0.149518 0.274114
0.431074 0.164138 0.280994
0.522992 0.211388 0.316002
0.659054 0.315638 0.405794
0.787066 0.433575 0.517215
0.870778 0.652498 0.716027
0.384118 0.499904 0.610072
0.386193 0.500931 0.611625
0.389558 0.502451 0.613214
0.401836 0.508049 0.619547
0.432418 0.521842 0.635381
0.495507 0.542544 0.659425
0.629698 0.558361 0.678436
0.746066 0.514238 0.623452
0.873390 0.668072 0.725973
0.443887 0.591050 0.683281
0.445822 0.591797 0.684821
0.450187 0.594162 0.687952
0.461327 0.601294 0.695721
0.485406 0.616055 0.710949
0.533005 0.638878 0.735394
0.645628 0.668902 0.764185
0.781727 0.668371 0.753250
0.882523 0.705850 0.748059
0.452864 0.639161 0.700521
0.459328 0.648318 0.706780
0.486349 0.676706 0.732748
0.515682 0.701762 0.759950
0.545984 0.724394 0.784624
0.587609 0.753952 0.812841
0.675997 0.793178 0.840946
0.825635 0.837307 0.861226
0.897804 0.808320 0.798852
0.657208 0.850973 0.859322
0.657208 0.850973 0.859322
0.657779 0.850976 0.859328
0.659017 0.851923 0.859435
0.662539 0.852883 0.859568
0.673332 0.856713 0.860067
0.710150 0.867497 0.861735
0.827998 0.904509 0.873032
0.909190 0.894690 0.817349
0.439077 0.188994 0.312735
0.440524 0.189507 0.313066
0.443385 0.189691 0.312666
0.453560 0.193658 0.315446
0.476836 0.201922 0.320433
0.535664 0.232215 0.342038
0.626125 0.294081 0.391825
0.759103 0.409202 0.495976
0.870385 0.515535 0.598571
0.439077 0.188994 0.312735
0.440524 0.189507 0.313066
0.443385 0.189691 0.312666
0.453560 0.193658 0.315446
0.476836 0.201922 0.320433
0.535664 0.232215 0.342038
0.626125 0.294081 0.391825
0.759103 0.409202 0.495976
0.870385 0.515535 0.598571
0.439077 0.188994 0.312735
0.440524 0.189507 0.313066
0.443385 0.189691 0.312666
0.453560 0.193658 0.315446
0.476836 0.201922 0.320433
0.535664 0.232215 0.342038
0.626125 0.294081 0.391825
0.759103 0.409202 0.495976
0.870385 0.515535 0.598571
0.439077 0.188994 0.312735
0.440524 0.189507 0.313066
0.441938 0.189259 0.312338
0.453560 0.193658 0.315446
0.476836 0.201922 0.320433
0.535664 0.232215 0.342038
0.624554 0.292854 0.390800
0.759103 0.409202 0.495976
0.870385 0.515535 0.598571
0.439077 0.188994 0.312735
0.439077 0.188994 0.312735
0.441938 0.189259 0.312338
0.453560 0.193658 0.315446
0.475373 0.201275 0.319994
0.535664 0.232215 0.342038
0.624554 0.292854 0.390800
0.759103 0.409202 0.495976
0.870385 0.515535 0.598571
0.436185 0.187979 0.312073
0.437630 0.188481 0.312403
0.440524 0.189507 0.313066
0.450646 0.192423 0.314582
0.473915 0.200626 0.319560
0.535664 0.232215 0.342038
0.624554 0.292854 0.390800
0.759103 0.409202 0.495976
0.870385 0.515535 0.598571
0.500744 0.614845 0.729811
0.500978 0.614847 0.729813
0.501446 0.614853 0.729817
0.506026 0.617397 0.732848
0.516507 0.623040 0.738942
0.546764 0.637927 0.755700
0.609772 0.658690 0.776887
0.745906 0.678597 0.798269
0.845597 0.629965 0.743838
0.553969 0.699713 0.793891
0.554208 0.699715 0.793893
0.555894 0.701947 0.795333
0.558369 0.703451 0.796746
0.569747 0.710887 0.805131
0.596036 0.727421 0.823328
0.643641 0.750093 0.845484
0.760360 0.781340 0.871619
0.882064 0.783844 0.863488
0.543435 0.729817 0.791465
0.543435 0.729817 0.791465
0.555176 0.744435 0.802882
0.588581 0.778327 0.835195
0.614083 0.801059 0.858204
0.645533 0.826413 0.883731
0.684784 0.853512 0.906056
0.781795 0.890768 0.931681
0.917682 0.931638 0.952582
