Assets/Lutify-Free-LUTs-Pack/Lutify Free LUTs Pack/Commercial Pro - Claire/Lutify.me-Claire-BMDFilmGen4-to-Rec709.cube
# Created with: fylm.ai - Colour Grading and Collaboration Software in Cloud 
# Website: https://fylm.ai 
# META
# Option: Gamut compress
# Block 1: IDT | BMD Wide Gamut BMDFilm Gen 4
# Block 2: colourMatch | Blending Mode: Normal | {"ColorSpace":0,"CrossCovarianceLimit":50,"ReshapingIterations":1,"PercentSaturationShift":100,"PercentShadingShift":100,"ExtraShading":true,"PercentTint":100,"PercentModified":100}
# Block 3: HSL | Blending Mode: Normal | {"hue":{"Reds":0,"Yellows":0,"Greens":0,"Cyans":0,"Blues":0,"Magentas":0},"saturation":{"Reds":1,"Yellows":1,"Greens":1,"Cyans":1,"Blues":1,"Magentas":1},"luminance":{"Reds":0.9,"Yellows":0.9,"Greens":0.9,"Cyans":0.8,"Blues":0.8,"Magentas":0.9},"lum_sat":{"Blacks":1,"Shadows":1,"Midtones":1,"Highlights":1,"Whites":1},"sat_sat":{"10":1,"20":1,"30":1,"40":1,"50":1}}
# Block 4: subtractiveColour | Blending Mode: Normal | {"sliders":{"gainY":0.1,"C":0.05,"M":0.05,"Y":0.05}}
# Block 5: logPrimaries | Blending Mode: Normal | {"wheels":{"shadows":{"Y":"0","R":"1","G":"1","B":"1"},"midtones":{"Y":"0","R":"1","G":"1","B":"1"},"highlights":{"Y":"0","R":"1","G":"1","B":"1"},"offset":{"Y":"0","R":"1","G":"1","B":"1"}},"sliders":{"shadows":{"Y":0,"R":-0.05,"G":0,"B":0.1},"midtones":{"Y":0,"R":0,"G":0,"B":0},"highlights":{"Y":0,"R":0,"G":0,"B":0},"offset":{"Y":0,"R":0,"G":0,"B":0}}}
# Block 6: LUT | Filmic Curve Response: Standard Contrast 1 (100%)
# Block 7: LUT | Illuminant: D93 (100%)
# Block 8: LUT | Neutral Tint: Teal Tint 4 (100%)
# Block 9: ODT | Rec709
TITLE "Lutify.me-Claire-BMDFilmGen4-to-Rec709" 
LUT_3D_SIZE 33
0.000000 0.000000 0.000000
0.000000 0.000000 0.000000
0.044729 0.000000 0.000000
0.113260 0.000000 0.000000
0.171141 0.000000 0.000000
0.223474 0.000000 0.000000
0.264247 0.000000 0.000000
0.303998 0.000000 0.000000
0.338413 0.000000 0.000000
0.364906 0.000000 0.000000
0.387291 0.000000 0.000000
0.414445 0.000000 0.000000
0.437045 0.000000 0.000000
0.475282 0.000000 0.000000
0.505073 0.000000 0.000000
0.532444 0.000000 0.000000
0.569124 0.000000 0.000000
0.598306 0.000000 0.000000
0.653468 0.000000 0.000000
0.692398 0.000000 0.000000
0.731786 0.000000 0.000000
0.779194 0.000000 0.000000
0.831220 0.000000 0.000000
0.871475 0.000000 0.000000
0.916149 0.000000 0.000000
0.955508 0.000000 0.000000
0.989829 0.000000 0.036409
1.000000 0.103325 0.062727
1.000000 0.191536 0.087001
1.000000 0.255731 0.111294
1.000000 0.308722 0.135541
1.000000 0.366848 0.157047
1.000000 0.420152 0.188173
0.000000 0.000000 0.007005
0.000000 0.000000 0.007743
0.040795 0.000000 0.000000
0.103259 0.000000 0.000000
0.158468 0.000000 0.000000
0.203940 0.000000 0.000000
0.243868 0.000000 0.000000
0.284155 0.000000 0.000000
0.320850 0.000000 0.000000
0.349417 0.000000 0.000000
0.370762 0.000000 0.000000
0.399433 0.000000 0.000000
0.430690 0.000000 0.000000
0.468314 0.000000 0.000000
0.501464 0.000000 0.000000
0.540566 0.000000 0.000000
0.569213 0.000000 0.000000
0.602591 0.000000 0.000000
0.653544 0.000000 0.000000
0.692458 0.000000 0.000000
0.731805 0.000000 0.000000
0.779167 0.000000 0.000000
0.831169 0.000000 0.000000
0.871426 0.000000 0.000000
0.915995 0.000000 0.000000
0.955168 0.000000 0.000000
0.989670 0.000000 0.034168
1.000000 0.113844 0.064799
1.000000 0.198022 0.086504
1.000000 0.255731 0.111294
1.000000 0.313336 0.134797
1.000000 0.367440 0.157677
1.000000 0.420152 0.188173
0.000000 0.037426 0.000000
0.000000 0.036134 0.000000
0.000000 0.031655 0.000000
0.075372 0.000000 0.000000
0.131875 0.000000 0.000000
0.179044 0.000000 0.000000
0.219942 0.000000 0.000000
0.262917 0.000000 0.000000
0.300042 0.000000 0.000000
0.331304 0.000000 0.000000
0.365542 0.000000 0.000000
0.393745 0.000000 0.000000
0.427720 0.000000 0.000000
0.464964 0.000000 0.000000
0.497931 0.000000 0.000000
0.540731 0.000000 0.000000
0.573480 0.000000 0.000000
0.602767 0.000000 0.000000
0.653648 0.000000 0.000000
0.692525 0.000000 0.000000
0.736543 0.000000 0.000000
0.779142 0.000000 0.000000
0.831092 0.000000 0.000000
0.871272 0.000000 0.000000
0.915919 0.000000 0.000000
0.955050 0.000000 0.000000
0.989342 0.000000 0.028722
1.000000 0.124401 0.063482
1.000000 0.204418 0.085413
1.000000 0.261207 0.110988
1.000000 0.313336 0.134797
1.000000 0.371694 0.156988
1.000000 0.420152 0.188173
0.000000 0.070198 0.000000
0.000000 0.067315 0.000000
0.000000 0.064493 0.000000
0.062982 0.057588 0.000000
0.117899 0.044949 0.000000
0.166294 0.014293 0.000000
0.205340 0.000000 0.000000
0.252900 0.000000 0.000000
0.287145 0.000000 0.000000
0.321844 0.000000 0.000000
0.358146 0.000000 0.000000
0.388445 0.000000 0.000000
0.421716 0.000000 0.000000
0.468830 0.000000 0.000000
0.501921 0.000000 0.000000
0.541000 0.000000 0.000000
0.569644 0.000000 0.000000
0.602953 0.000000 0.000000
0.653816 0.000000 0.000000
0.696913 0.000000 0.000000
0.736556 0.000000 0.000000
0.779116 0.000000 0.000000
0.831037 0.000000 0.000000
0.871113 0.000000 0.000000
0.915761 0.000000 0.000000
0.954808 0.000000 0.000000
0.992202 0.000000 0.026437
1.000000 0.134010 0.062098
1.000000 0.210667 0.084278
1.000000 0.266307 0.110105
1.000000 0.317919 0.134038
1.000000 0.371694 0.156988
1.000000 0.424191 0.187578
0.000000 0.098840 0.000000
0.000000 0.096187 0.000000
0.000000 0.092409 0.000000
0.048605 0.087622 0.000000
0.113501 0.076993 0.000000
0.164275 0.064143 0.000000
0.210424 0.047450 0.000000
0.257434 0.000000 0.000000
0.285358 0.000000 0.000000
0.317556 0.000000 0.000000
0.356245 0.000000 0.000000
0.383404 0.000000 0.000000
0.419179 0.000000 0.000000
0.458866 0.000000 0.000000
0.502341 0.000000 0.000000
0.533411 0.000000 0.000000
0.569977 0.000000 0.000000
0.611580 0.000000 0.000000
0.653999 0.000000 0.000000
0.697004 0.000000 0.000000
0.736571 0.000000 0.000000
0.779084 0.000000 0.000000
0.830927 0.000000 0.000000
0.871002 0.000000 0.000000
0.915598 0.000000 0.000000
0.954681 0.000000 0.000000
0.991849 0.000000 0.025858
1.000000 0.151243 0.059095
1.000000 0.222156 0.081998
1.000000 0.271346 0.109199
1.000000 0.327483 0.133074
1.000000 0.375935 0.156286
1.000000 0.428222 0.189386
0.000000 0.125557 0.000000
0.000000 0.123886 0.000000
0.000000 0.122071 0.000000
0.000000 0.115260 0.000000
0.108720 0.109730 0.000000
0.166479 0.095871 0.000000
0.212942 0.083287 0.000000
0.255401 0.069429 0.000000
0.287945 0.052767 0.000000
0.323339 0.000000 0.000000
0.359764 0.000000 0.000000
0.390115 0.000000 0.000000
0.423458 0.000000 0.000000
0.470437 0.000000 0.000000
0.499748 0.000000 0.000000
0.534227 0.000000 0.000000
0.574628 0.000000 0.000000
0.612016 0.000000 0.000000
0.654254 0.000000 0.000000
0.697110 0.000000 0.000000
0.736615 0.000000 0.000000
0.779048 0.000000 0.000000
0.830812 0.000000 0.000000
0.870777 0.000000 0.000000
0.919203 0.000000 0.000000
0.954425 0.000000 0.000000
0.991486 0.000000 0.014823
1.000000 0.166648 0.055718
1.000000 0.233193 0.079544
1.000000 0.276326 0.108269
1.000000 0.331973 0.132270
1.000000 0.380161 0.157896
1.000000 0.428222 0.189386
0.000000 0.154237 0.000000
0.000000 0.152458 0.000000
0.000000 0.148913 0.000000
0.000000 0.144900 0.000000
0.099957 0.139694 0.000000
0.162758 0.132949 0.000000
0.208146 0.120378 0.000000
0.258292 0.106653 0.000000
0.292482 0.097468 0.000000
0.329352 0.084304 0.000000
0.366609 0.064386 0.000000
0.394521 0.025041 0.000000
0.428074 0.000000 0.000000
0.471794 0.000000 0.000000
0.504558 0.000000 0.000000
0.535587 0.000000 0.000000
0.575573 0.000000 0.000000
0.616684 0.000000 0.000000
0.654612 0.000000 0.000000
0.693001 0.000000 0.000000
0.741370 0.000000 0.000000
0.783737 0.000000 0.000000
0.835256 0.000000 0.000000
0.870559 0.000000 0.000000
0.918835 0.000000 0.000000
0.954023 0.000000 0.000000
0.990718 0.091824 0.000000
1.000000 0.180799 0.055556
1.000000 0.238593 0.078238
1.000000 0.281253 0.109881
1.000000 0.336438 0.133739
1.000000 0.384376 0.157184
1.000000 0.432249 0.188784
0.000000 0.180874 0.000000
0.000000 0.178840 0.000000
0.000000 0.176660 0.000000
0.000000 0.174005 0.000000
0.088473 0.164921 0.000000
0.159086 0.160190 0.000000
0.208172 0.152749 0.000000
0.259086 0.138198 0.000000
0.301379 0.124101 0.000000
0.337741 0.112603 0.000000
0.373232 0.103211 0.000000
0.404997 0.092599 0.000000
0.436136 0.074722 0.000000
0.477132 0.043898 0.000000
0.509675 0.000000 0.000000
0.544565 0.000000 0.000000
0.580712 0.000000 0.000000
0.617549 0.000000 0.000000
0.659344 0.000000 0.000000
0.697634 0.000000 0.000000
0.741470 0.000000 0.000000
0.783695 0.000000 0.000000
0.835094 0.000000 0.000000
0.874564 0.000000 0.000000
0.918335 0.000000 0.000000
0.956943 0.000000 0.000000
0.990099 0.125803 0.000000
1.000000 0.200382 0.049246
1.000000 0.249192 0.078479
1.000000 0.290960 0.107961
1.000000 0.340879 0.132919
1.000000 0.388579 0.156459
1.000000 0.436271 0.188173
0.000000 0.207194 0.000000
0.000000 0.204884 0.000000
0.000000 0.202498 0.000000
0.000000 0.199663 0.000000
0.057772 0.194142 0.000000
0.147973 0.189332 0.000000
0.214186 0.180332 0.000000
0.257006 0.171490 0.000000
0.303921 0.156183 0.000000
0.348768 0.145252 0.000000
0.376944 0.136232 0.000000
0.409383 0.127012 0.000000
0.441150 0.118952 0.000000
0.486109 0.106148 0.000000
0.519193 0.096228 0.000000
0.550276 0.085288 0.000000
0.585976 0.055945 0.000000
0.622878 0.053804 0.000000
0.664356 0.000000 0.000000
0.698171 0.000000 0.000000
0.741675 0.000000 0.000000
0.783675 0.000000 0.000000
0.834910 0.000000 0.000000
0.874107 0.000000 0.000000
0.917899 0.000000 0.000000
0.956314 0.064815 0.000000
0.989447 0.151516 0.000000
1.000000 0.212643 0.044030
1.000000 0.259561 0.072379
1.000000 0.300492 0.105936
1.000000 0.349698 0.131226
1.000000 0.392769 0.155720
1.000000 0.444298 0.186925
0.000000 0.231829 0.000000
0.000000 0.229678 0.000000
0.000000 0.229258 0.000000
0.000000 0.226275 0.000000
0.000000 0.222861 0.000000
0.137180 0.214194 0.000000
0.209737 0.207780 0.000000
0.256669 0.199153 0.000000
0.301708 0.187071 0.000000
0.350218 0.174986 0.000000
0.388941 0.160226 0.000000
0.419791 0.153043 0.000000
0.455931 0.143079 0.000000
0.498383 0.135047 0.000000
0.528425 0.130789 0.000000
0.559917 0.133063 0.000000
0.591866 0.131450 0.000000
0.632222 0.115723 0.000000
0.669522 0.112616 0.000000
0.702994 0.100237 0.000000
0.746604 0.080929 0.000000
0.788368 0.077484 0.000000
0.834648 0.000000 0.000000
0.873753 0.040260 0.000000
0.917192 0.086857 0.000000
0.955465 0.126925 0.000000
0.988514 0.180129 0.000000
1.000000 0.234586 0.029459
1.000000 0.269726 0.068993
1.000000 0.309870 0.103795
1.000000 0.358437 0.129456
1.000000 0.401120 0.154202
1.000000 0.448304 0.186286
0.000000 0.253938 0.000000
0.000000 0.253754 0.000000
0.000000 0.253326 0.000000
0.000000 0.250229 0.000000
0.000000 0.249042 0.000000
0.120273 0.240537 0.000000
0.204805 0.232627 0.000000
0.249595 0.225175 0.000000
0.296772 0.218539 0.000000
0.349326 0.207735 0.000000
0.391065 0.194590 0.000000
0.430349 0.184971 0.000000
0.468285 0.179233 0.000000
0.511497 0.168495 0.000000
0.541814 0.162900 0.000000
0.573086 0.159333 0.000000
0.597278 0.164441 0.000000
0.637987 0.167901 0.000000
0.678852 0.156609 0.000000
0.712174 0.150823 0.000000
0.747092 0.153327 0.000000
0.788440 0.147404 0.000000
0.838777 0.128879 0.000000
0.877321 0.130742 0.000000
0.919871 0.154463 0.000000
0.954331 0.171944 0.000000
0.990478 0.204589 0.000000
1.000000 0.250231 0.000000
1.000000 0.284553 0.063204
1.000000 0.323689 0.100345
1.000000 0.367105 0.127607
1.000000 0.413571 0.151816
1.000000 0.456920 0.185688
0.000000 0.280497 0.000000
0.000000 0.277930 0.000000
0.000000 0.277459 0.000000
0.000000 0.276696 0.000000
0.000000 0.275552 0.000000
0.102449 0.269031 0.000000
0.195374 0.261418 0.000000
0.247487 0.256090 0.000000
0.292312 0.250279 0.000000
0.345755 0.240232 0.000000
0.390700 0.229813 0.000000
0.436499 0.220447 0.000000
0.487362 0.208701 0.000000
0.528584 0.203285 0.000000
0.563205 0.195472 0.000000
0.590679 0.191697 0.000000
0.611017 0.199185 0.000000
0.647584 0.202849 0.000000
0.684279 0.199949 0.000000
0.729928 0.201560 0.000000
0.756833 0.205786 0.000000
0.793165 0.206719 0.000000
0.838249 0.195532 0.000000
0.876151 0.201532 0.000000
0.918444 0.207882 0.000000
0.959550 0.212015 0.000000
0.988878 0.237613 0.000000
1.000000 0.270058 0.000000
1.000000 0.303676 0.053552
1.000000 0.337254 0.099618
1.000000 0.376137 0.128835
1.000000 0.422331 0.150845
1.000000 0.464920 0.186868
0.000000 0.312557 0.000000
0.000000 0.309723 0.000000
0.000000 0.309309 0.000000
0.000000 0.308623 0.000000
0.000000 0.307661 0.000000
0.059831 0.300789 0.000000
0.177314 0.295900 0.000000
0.237957 0.290689 0.000000
0.291483 0.284765 0.000000
0.337542 0.278435 0.000000
0.387392 0.265533 0.000000
0.440952 0.253496 0.000000
0.495121 0.242834 0.000000
0.545096 0.225672 0.000000
0.576386 0.222458 0.000000
0.604063 0.219658 0.000000
0.636303 0.222161 0.000000
0.661150 0.236948 0.000000
0.689831 0.244997 0.000000
0.735069 0.242345 0.000000
0.766478 0.250872 0.000000
0.802338 0.246293 0.000000
0.841917 0.249017 0.000000
0.879146 0.243932 0.000000
0.920223 0.256234 0.000000
0.957619 0.253007 0.000000
0.987141 0.267638 0.000000
1.000000 0.294382 0.000000
1.000000 0.326852 0.036551
1.000000 0.350857 0.096368
1.000000 0.388918 0.125872
1.000000 0.434640 0.150801
1.000000 0.477016 0.184798
0.000000 0.339791 0.000000
0.000000 0.339551 0.000000
0.000000 0.339182 0.000000
0.000000 0.338631 0.000000
0.000000 0.334733 0.000000
0.030150 0.327444 0.000000
0.157052 0.325843 0.000000
0.226298 0.323534 0.000000
0.286074 0.317682 0.000000
0.335539 0.311488 0.000000
0.380938 0.301931 0.000000
0.434857 0.290633 0.000000
0.497104 0.277400 0.000000
0.545578 0.264434 0.000000
0.597261 0.249464 0.000000
0.621355 0.251479 0.000000
0.653732 0.255394 0.000000
0.674065 0.258493 0.000000
0.706901 0.270227 0.000000
0.740087 0.271524 0.000000
0.775786 0.287171 0.000000
0.811210 0.288162 0.000000
0.845397 0.289329 0.000000
0.877466 0.295513 0.000000
0.918261 0.296693 0.000000
0.955132 0.295335 0.000000
0.984522 0.305668 0.000000
1.000000 0.326820 0.000000
1.000000 0.344842 0.018592
1.000000 0.368373 0.093913
1.000000 0.401592 0.125344
1.000000 0.447857 0.149591
1.000000 0.485061 0.183367
0.000000 0.370748 0.000000
0.000000 0.367525 0.000000
0.000000 0.367153 0.000000
0.000000 0.366603 0.000000
0.000000 0.365643 0.000000
0.000000 0.364376 0.000000
0.119276 0.363106 0.000000
0.203946 0.358312 0.000000
0.266200 0.355939 0.000000
0.330939 0.346554 0.000000
0.384771 0.337012 0.000000
0.430288 0.327339 0.000000
0.491593 0.318304 0.000000
0.543563 0.302740 0.000000
0.597609 0.288562 0.000000
0.654213 0.272416 0.000000
0.678690 0.278660 0.000000
0.695121 0.290048 0.000000
0.719624 0.296517 0.000000
0.753821 0.305529 0.000000
0.780347 0.312613 0.000000
0.819582 0.322048 0.000000
0.848598 0.325383 0.000000
0.887252 0.335888 0.000000
0.919217 0.339764 0.000000
0.954755 0.344068 0.000000
0.983721 0.350304 0.000000
1.000000 0.362298 0.000000
1.000000 0.371211 0.000000
1.000000 0.389909 0.085716
1.000000 0.426668 0.118488
1.000000 0.464160 0.148493
1.000000 0.505647 0.180369
0.000000 0.407857 0.000000
0.000000 0.407620 0.000000
0.000000 0.407225 0.000000
0.000000 0.403432 0.000000
0.000000 0.402563 0.000000
0.000000 0.391869 0.000000
0.060051 0.390856 0.000000
0.184071 0.389249 0.000000
0.261757 0.387109 0.000000
0.316293 0.381654 0.000000
0.374817 0.372025 0.000000
0.431787 0.364862 0.000000
0.488393 0.353521 0.000000
0.547390 0.340895 0.000000
0.595661 0.328461 0.000000
0.654404 0.313612 0.000000
0.695294 0.303791 0.000000
0.719798 0.310561 0.000000
0.745116 0.325077 0.000000
0.767175 0.329437 0.000000
0.788924 0.349911 0.000000
0.827245 0.360656 0.000000
0.859091 0.368477 0.000000
0.892683 0.372301 0.000000
0.920352 0.373156 0.000000
0.951524 0.382610 0.000000
0.979594 0.393363 0.000000
1.000000 0.405265 0.000000
1.000000 0.414079 0.000000
1.000000 0.424202 0.070552
1.000000 0.448057 0.116637
1.000000 0.480979 0.145282
1.000000 0.522124 0.180707
0.000000 0.444797 0.000000
0.000000 0.444532 0.000000
0.000000 0.444188 0.000000
0.000000 0.443719 0.000000
0.000000 0.443305 0.000000
0.000000 0.435680 0.000000
0.000000 0.431367 0.000000
0.138229 0.430008 0.000000
0.238987 0.424688 0.000000
0.293352 0.422981 0.000000
0.351825 0.417105 0.000000
0.413784 0.410274 0.000000
0.479707 0.398729 0.000000
0.538338 0.386679 0.000000
0.594518 0.373875 0.000000
0.647925 0.360455 0.000000
0.690575 0.347637 0.000000
0.740681 0.333047 0.000000
0.767113 0.344510 0.000000
0.788833 0.364980 0.000000
0.814372 0.377576 0.000000
0.834512 0.391261 0.000000
0.861146 0.408313 0.000000
0.896957 0.416546 0.000000
0.926526 0.417838 0.000000
0.953984 0.419879 0.000000
0.980092 0.439281 0.000000
1.000000 0.447214 0.000000
1.000000 0.451992 0.000000
1.000000 0.462210 0.039444
1.000000 0.481494 0.102088
1.000000 0.509833 0.141392
1.000000 0.538514 0.178255
0.000000 0.490281 0.000000
0.000000 0.486472 0.000000
0.000000 0.486118 0.000000
0.000000 0.485862 0.000000
0.000000 0.485395 0.000000
0.000000 0.481314 0.000000
0.000000 0.476890 0.000000
0.000000 0.475762 0.000000
0.188634 0.474338 0.000000
0.257627 0.469331 0.000000
0.329633 0.467061 0.000000
0.414727 0.459695 0.000000
0.468494 0.452984 0.000000
0.528306 0.437901 0.000000
0.579219 0.426346 0.000000
0.641368 0.412957 0.000000
0.686864 0.400520 0.000000
0.739342 0.382854 0.000000
0.802004 0.366802 0.000000
0.818363 0.388430 0.000000
0.834246 0.402505 0.000000
0.848432 0.433083 0.000000
0.866647 0.443587 0.000000
0.893893 0.457141 0.000000
0.925834 0.458690 0.000000
0.958271 0.460894 0.000000
0.981352 0.472573 0.000000
1.000000 0.493335 0.000000
1.000000 0.498224 0.000000
1.000000 0.508084 0.000000
1.000000 0.518716 0.089281
1.000000 0.538444 0.133799
1.000000 0.562239 0.175954
0.000000 0.530154 0.000000
0.000000 0.529983 0.000000
0.000000 0.526020 0.000000
0.000000 0.525757 0.000000
0.000000 0.525391 0.000000
0.000000 0.524968 0.000000
0.000000 0.524228 0.000000
0.000000 0.523439 0.000000
0.080048 0.518516 0.000000
0.202611 0.517263 0.000000
0.291996 0.511618 0.000000
0.392003 0.508120 0.000000
0.455898 0.501337 0.000000
0.511800 0.494310 0.000000
0.567008 0.482957 0.000000
0.624346 0.470833 0.000000
0.674553 0.454854 0.000000
0.730099 0.441529 0.000000
0.791107 0.423082 0.000000
0.854168 0.403787 0.000000
0.852255 0.436118 0.000000
0.862557 0.451285 0.000000
0.882351 0.474095 0.000000
0.896911 0.497592 0.000000
0.924011 0.503913 0.000000
0.958805 0.502222 0.000000
0.978295 0.514089 0.000000
1.000000 0.526508 0.000000
1.000000 0.535504 0.000000
1.000000 0.549284 0.000000
1.000000 0.555276 0.069661
1.000000 0.566481 0.134494
1.000000 0.590242 0.170385
0.000000 0.567269 0.000000
0.000000 0.567123 0.000000
0.000000 0.566914 0.000000
0.000000 0.566685 0.000000
0.000000 0.566437 0.000000
0.000000 0.565870 0.000000
0.000000 0.561485 0.000000
0.000000 0.560692 0.000000
0.000000 0.559917 0.000000
0.131943 0.558867 0.000000
0.260408 0.553277 0.000000
0.355208 0.550694 0.000000
0.429544 0.547845 0.000000
0.493391 0.544750 0.000000
0.539795 0.538256 0.000000
0.608546 0.522064 0.000000
0.662832 0.506120 0.000000
0.722256 0.492969 0.000000
0.782241 0.475170 0.000000
0.839060 0.457305 0.000000
0.888855 0.440234 0.000000
0.885683 0.477273 0.000000
0.886179 0.506055 0.000000
0.906637 0.525284 0.000000
0.926006 0.536429 0.000000
0.956493 0.539227 0.000000
0.975284 0.551117 0.000000
0.996721 0.563514 0.000000
1.000000 0.572311 0.000000
1.000000 0.581964 0.000000
1.000000 0.599807 0.000000
1.000000 0.606592 0.120681
1.000000 0.617661 0.169851
0.000000 0.604785 0.000000
0.000000 0.604614 0.000000
0.000000 0.604369 0.000000
0.000000 0.604171 0.000000
0.000000 0.603886 0.000000
0.000000 0.603493 0.000000
0.000000 0.603055 0.000000
0.000000 0.602374 0.000000
0.000000 0.601497 0.000000
0.065683 0.596605 0.000000
0.225915 0.595211 0.000000
0.334445 0.589116 0.000000
0.396339 0.587153 0.000000
0.471557 0.584105 0.000000
0.532265 0.577224 0.000000
0.586432 0.577911 0.000000
0.645122 0.562266 0.000000
0.710215 0.545394 0.000000
0.773574 0.531920 0.000000
0.829203 0.514746 0.000000
0.877084 0.494205 0.000000
0.918739 0.474385 0.000000
0.910470 0.520244 0.000000
0.909092 0.553280 0.000000
0.933680 0.564518 0.000000
0.953605 0.576001 0.000000
0.971753 0.587861 0.000000
0.990178 0.600152 0.000000
1.000000 0.612936 0.000000
1.000000 0.618197 0.000000
1.000000 0.631715 0.000000
1.000000 0.638159 0.095836
1.000000 0.649053 0.159123
0.000000 0.646350 0.000000
0.000000 0.646151 0.000000
0.000000 0.645938 0.000000
0.000000 0.649564 0.000000
0.000000 0.649323 0.000000
0.000000 0.648887 0.000000
0.000000 0.652290 0.000000
0.000000 0.651789 0.000000
0.000000 0.651116 0.000000
0.000000 0.650081 0.000000
0.172478 0.648722 0.000000
0.287107 0.643273 0.000000
0.373475 0.637376 0.000000
0.443623 0.635072 0.000000
0.503759 0.628791 0.000000
0.569411 0.625566 0.000000
0.620645 0.622622 0.000000
0.678653 0.610997 0.000000
0.743558 0.594306 0.000000
0.810908 0.572776 0.000000
0.854476 0.556986 0.000000
0.898965 0.537263 0.000000
0.943266 0.518158 0.000000
0.928143 0.564139 0.000000
0.936981 0.596607 0.000000
0.955982 0.608347 0.000000
0.969968 0.624312 0.000000
0.986124 0.632488 0.000000
0.998715 0.649024 0.000000
1.000000 0.662035 0.000000
1.000000 0.667425 0.000000
1.000000 0.673281 0.060862
1.000000 0.679773 0.146240
0.000000 0.695695 0.000000
0.000000 0.695545 0.000000
0.000000 0.695227 0.000000
0.000000 0.695061 0.000000
0.000000 0.698820 0.000000
0.000000 0.698554 0.000000
0.000000 0.698173 0.000000
0.000000 0.697652 0.000000
0.000000 0.692803 0.000000
0.000000 0.692000 0.000000
0.123001 0.690654 0.000000
0.243359 0.689481 0.000000
0.331011 0.684096 0.000000
0.411917 0.681972 0.000000
0.468669 0.680081 0.000000
0.542594 0.673242 0.000000
0.602966 0.670310 0.000000
0.669968 0.658720 0.000000
0.725868 0.647171 0.000000
0.785899 0.634846 0.000000
0.833041 0.623206 0.000000
0.878403 0.603646 0.000000
0.919056 0.584814 0.000000
0.967145 0.558337 0.000000
0.953663 0.607873 0.000000
0.958268 0.636406 0.000000
0.972744 0.656382 0.000000
0.981812 0.673150 0.000000
0.995212 0.681719 0.000000
1.000000 0.694417 0.000000
1.000000 0.706949 0.000000
1.000000 0.712026 0.000000
1.000000 0.717385 0.131310
0.000000 0.738863 0.000000
0.000000 0.738693 0.000000
0.000000 0.742353 0.000000
0.000000 0.742170 0.000000
0.000000 0.741882 0.000000
0.000000 0.741470 0.000000
0.000000 0.741139 0.000000
0.000000 0.740666 0.000000
0.000000 0.739766 0.000000
0.000000 0.738918 0.000000
0.038598 0.734136 0.000000
0.216295 0.733132 0.000000
0.293184 0.732034 0.000000
0.383492 0.726299 0.000000
0.438922 0.724741 0.000000
0.509906 0.722300 0.000000
0.577293 0.715609 0.000000
0.650399 0.711984 0.000000
0.707506 0.704767 0.000000
0.764176 0.697160 0.000000
0.811841 0.681494 0.000000
0.855487 0.669940 0.000000
0.895073 0.658840 0.000000
0.941326 0.632335 0.000000
0.984236 0.611264 0.000000
0.968996 0.664312 0.000000
0.969119 0.693386 0.000000
0.979662 0.708986 0.000000
0.992305 0.716765 0.000000
1.000000 0.728231 0.000000
1.000000 0.739467 0.000000
1.000000 0.750438 0.000000
1.000000 0.754743 0.118166
0.000000 0.781212 0.000000
0.000000 0.784396 0.000000
0.000000 0.784287 0.000000
0.000000 0.784065 0.000000
0.000000 0.783835 0.000000
0.000000 0.783479 0.000000
0.000000 0.786340 0.000000
0.000000 0.782583 0.000000
0.000000 0.782030 0.000000
0.000000 0.781295 0.000000
0.000000 0.780510 0.000000
0.172394 0.779664 0.000000
0.289926 0.774957 0.000000
0.363615 0.773558 0.000000
0.432959 0.771820 0.000000
0.493865 0.769932 0.000000
0.547168 0.771354 0.000000
0.614537 0.765123 0.000000
0.681336 0.758383 0.000000
0.744273 0.754838 0.000000
0.784726 0.752361 0.000000
0.833115 0.738579 0.000000
0.867972 0.721397 0.000000
0.910253 0.707175 0.000000
0.951002 0.693359 0.000000
0.989236 0.668361 0.000000
0.974132 0.716303 0.000000
0.975497 0.741770 0.000000
0.986967 0.751983 0.000000
0.998290 0.758731 0.000000
1.000000 0.765563 0.000000
1.000000 0.775187 0.000000
1.000000 0.779080 0.113245
0.000000 0.815108 0.000000
0.000000 0.814868 0.000000
0.000000 0.814745 0.000000
0.000000 0.814495 0.000000
0.000000 0.814367 0.000000
