Assets/Lutify-Free-LUTs-Pack/Lutify Free LUTs Pack/Commercial Pro - Claire/Lutify.me-Claire-RWG-to-RWG.cube
# Created with: fylm.ai - Colour Grading and Collaboration Software in Cloud 
# Website: https://fylm.ai 
# META
# Option: Gamut compress
# Block 1: colourMatch | Blending Mode: Normal | {"ColorSpace":0,"CrossCovarianceLimit":50,"ReshapingIterations":1,"PercentSaturationShift":100,"PercentShadingShift":100,"ExtraShading":true,"PercentTint":100,"PercentModified":100}
# Block 2: HSL | Blending Mode: Normal | {"hue":{"Reds":0,"Yellows":0,"Greens":0,"Cyans":0,"Blues":0,"Magentas":0},"saturation":{"Reds":1,"Yellows":1,"Greens":1,"Cyans":1,"Blues":1,"Magentas":1},"luminance":{"Reds":0.9,"Yellows":0.9,"Greens":0.9,"Cyans":0.8,"Blues":0.8,"Magentas":0.9},"lum_sat":{"Blacks":1,"Shadows":1,"Midtones":1,"Highlights":1,"Whites":1},"sat_sat":{"10":1,"20":1,"30":1,"40":1,"50":1}}
# Block 3: subtractiveColour | Blending Mode: Normal | {"sliders":{"gainY":0.1,"C":0.05,"M":0.05,"Y":0.05}}
# Block 4: logPrimaries | Blending Mode: Normal | {"wheels":{"shadows":{"Y":"0","R":"1","G":"1","B":"1"},"midtones":{"Y":"0","R":"1","G":"1","B":"1"},"highlights":{"Y":"0","R":"1","G":"1","B":"1"},"offset":{"Y":"0","R":"1","G":"1","B":"1"}},"sliders":{"shadows":{"Y":0,"R":-0.05,"G":0,"B":0.1},"midtones":{"Y":0,"R":0,"G":0,"B":0},"highlights":{"Y":0,"R":0,"G":0,"B":0},"offset":{"Y":0,"R":0,"G":0,"B":0}}}
# Block 5: LUT | Filmic Curve Response: Standard Contrast 1 (100%)
# Block 6: LUT | Illuminant: D93 (100%)
# Block 7: LUT | Neutral Tint: Teal Tint 4 (100%)
TITLE "ipp2" 
LUT_3D_SIZE 5
0.053831 0.077263 0.086370
0.313739 0.100692 0.110841
0.461281 0.232385 0.223398
0.677097 0.439346 0.429574
0.863413 0.656503 0.627549
0.105927 0.228795 0.131331
0.291681 0.203792 0.137632
0.474861 0.251003 0.232203
0.678495 0.441270 0.430522
0.863413 0.656503 0.627549
0.245458 0.390094 0.261370
0.306846 0.385906 0.261330
0.538185 0.377168 0.312017
0.682773 0.460293 0.433024
0.864425 0.659723 0.628919
0.473030 0.574502 0.440806
0.481352 0.574602 0.441489
0.557982 0.569013 0.445039
0.782750 0.571300 0.530986
0.866619 0.682352 0.632353
0.726915 0.753251 0.625875
0.728044 0.753276 0.626037
0.736114 0.753488 0.627388
0.797247 0.752052 0.638064
0.917789 0.755037 0.685855
0.089215 0.128411 0.205939
0.269806 0.103783 0.146122
0.449389 0.235598 0.237234
0.677116 0.440475 0.431777
0.863414 0.656536 0.627736
0.121736 0.232117 0.266097
0.239086 0.254292 0.276048
0.452313 0.261607 0.243497
0.677127 0.441962 0.432009
0.863413 0.656503 0.627549
0.236952 0.388825 0.259934
0.301034 0.384629 0.259849
0.536737 0.374923 0.310273
0.682816 0.463521 0.436254
0.864425 0.659723 0.628919
0.473030 0.574502 0.440806
0.481352 0.574602 0.441489
0.557982 0.569013 0.445039
0.781641 0.570979 0.530157
0.866620 0.682376 0.632554
0.726915 0.753251 0.625875
0.728044 0.753276 0.626037
0.736114 0.753488 0.627388
0.797247 0.752052 0.638064
0.917789 0.755037 0.685855
0.152335 0.137492 0.221312
0.238534 0.128802 0.202810
0.487131 0.193653 0.248979
0.674548 0.447624 0.454790
0.864417 0.657218 0.630890
0.162834 0.236279 0.323766
0.204604 0.239973 0.329765
0.427581 0.217739 0.299961
0.674559 0.449075 0.455118
0.864417 0.657218 0.630890
0.232753 0.386541 0.429560
0.255794 0.408078 0.448204
0.463700 0.479207 0.500159
0.681702 0.475194 0.463528
0.864454 0.661121 0.631864
0.463361 0.572957 0.438707
0.470623 0.573044 0.439302
0.552628 0.567447 0.442879
0.781631 0.569958 0.529796
0.866665 0.684837 0.635643
0.725785 0.753226 0.625713
0.726915 0.753251 0.625875
0.734939 0.753453 0.627165
0.797247 0.752052 0.638064
0.917789 0.755037 0.685855
0.362036 0.163828 0.250840
0.370205 0.164766 0.250320
0.448044 0.189611 0.267138
0.689201 0.362213 0.419501
0.866706 0.669816 0.663033
0.316044 0.285498 0.399085
0.325431 0.283700 0.396938
0.402589 0.233759 0.338558
0.689200 0.362164 0.419376
0.866706 0.669816 0.663033
0.348594 0.435639 0.531861
0.353752 0.437748 0.534675
0.410967 0.454842 0.554856
0.644097 0.441205 0.533477
0.866731 0.671765 0.664050
0.390367 0.552764 0.603651
0.390367 0.552764 0.603651
0.472045 0.626125 0.676837
0.709692 0.720228 0.741530
0.870062 0.701943 0.674243
0.714493 0.752979 0.624095
0.715622 0.753004 0.624257
0.724656 0.753202 0.625551
0.793038 0.751857 0.636949
0.917789 0.755037 0.685855
0.564623 0.271957 0.351426
0.566064 0.272900 0.352144
0.577587 0.280406 0.357878
0.655811 0.339000 0.406391
0.852696 0.519677 0.575611
0.564623 0.271957 0.351426
0.566064 0.272900 0.352144
0.577587 0.280406 0.357878
0.655811 0.339000 0.406391
0.852696 0.519677 0.575611
0.518673 0.516111 0.640024
0.519675 0.516144 0.640041
0.530132 0.517313 0.641600
0.612943 0.488677 0.611976
0.852696 0.519677 0.575611
0.568818 0.659314 0.763188
0.569260 0.659319 0.763191
0.575080 0.662059 0.765802
0.641095 0.683630 0.789833
0.842358 0.665386 0.764744
0.565512 0.729266 0.782078
0.565512 0.729266 0.782078
0.565512 0.729266 0.782078
0.671648 0.827217 0.874886
0.903123 0.914518 0.932512
