Assets/Lutify-Free-LUTs-Pack/Lutify Free LUTs Pack/Commercial Pro - Claire/Lutify.me-Claire-CanonLog2-to-Rec709.cube
# Created with: fylm.ai - Colour Grading and Collaboration Software in Cloud 
# Website: https://fylm.ai 
# META
# Option: Gamut compress
# Block 1: IDT | CanonLog2 Cinema Gamut Daylight
# Block 2: colourMatch | Blending Mode: Normal | {"ColorSpace":0,"CrossCovarianceLimit":50,"ReshapingIterations":1,"PercentSaturationShift":100,"PercentShadingShift":100,"ExtraShading":true,"PercentTint":100,"PercentModified":100}
# Block 3: HSL | Blending Mode: Normal | {"hue":{"Reds":0,"Yellows":0,"Greens":0,"Cyans":0,"Blues":0,"Magentas":0},"saturation":{"Reds":1,"Yellows":1,"Greens":1,"Cyans":1,"Blues":1,"Magentas":1},"luminance":{"Reds":0.9,"Yellows":0.9,"Greens":0.9,"Cyans":0.8,"Blues":0.8,"Magentas":0.9},"lum_sat":{"Blacks":1,"Shadows":1,"Midtones":1,"Highlights":1,"Whites":1},"sat_sat":{"10":1,"20":1,"30":1,"40":1,"50":1}}
# Block 4: subtractiveColour | Blending Mode: Normal | {"sliders":{"gainY":0.1,"C":0.05,"M":0.05,"Y":0.05}}
# Block 5: logPrimaries | Blending Mode: Normal | {"wheels":{"shadows":{"Y":"0","R":"1","G":"1","B":"1"},"midtones":{"Y":"0","R":"1","G":"1","B":"1"},"highlights":{"Y":"0","R":"1","G":"1","B":"1"},"offset":{"Y":"0","R":"1","G":"1","B":"1"}},"sliders":{"shadows":{"Y":0,"R":-0.05,"G":0,"B":0.1},"midtones":{"Y":0,"R":0,"G":0,"B":0},"highlights":{"Y":0,"R":0,"G":0,"B":0},"offset":{"Y":0,"R":0,"G":0,"B":0}}}
# Block 6: LUT | Filmic Curve Response: Standard Contrast 1 (100%)
# Block 7: LUT | Illuminant: D93 (100%)
# Block 8: LUT | Neutral Tint: Teal Tint 4 (100%)
# Block 9: ODT | Rec709
TITLE "Lutify.me-Claire-CanonLog2-to-Rec709" 
LUT_3D_SIZE 5
0.000000 0.000000 0.000000
0.338256 0.000000 0.000000
0.687709 0.000000 0.000000
1.000000 0.333752 0.243614
1.000000 0.892010 0.785625
0.000000 0.155335 0.000000
0.244117 0.087810 0.000000
0.688139 0.000000 0.000000
1.000000 0.354734 0.242025
1.000000 0.894480 0.785712
0.000000 0.479857 0.000000
0.000000 0.465860 0.000000
0.900032 0.319128 0.000000
1.000000 0.493313 0.219141
1.000000 0.898139 0.785863
0.644335 0.877945 0.000000
0.681011 0.876327 0.000000
0.877357 0.859160 0.000000
1.000000 0.820113 0.252529
1.000000 0.937423 0.788724
1.000000 0.987627 0.470827
1.000000 0.987583 0.472929
1.000000 0.987457 0.479313
1.000000 0.984561 0.557021
1.000000 0.979794 0.811959
0.000000 0.000000 0.198536
0.221691 0.000000 0.047122
0.662535 0.000000 0.055937
1.000000 0.333661 0.263772
1.000000 0.892010 0.785625
0.000000 0.119512 0.193749
0.095105 0.130575 0.186827
0.649591 0.000000 0.059892
1.000000 0.355675 0.262945
1.000000 0.894480 0.785712
0.000000 0.509280 0.000000
0.000000 0.503909 0.000000
0.835213 0.382121 0.000000
1.000000 0.497892 0.249274
1.000000 0.898117 0.790006
0.631359 0.878488 0.000000
0.681011 0.876327 0.000000
0.874142 0.859360 0.000000
1.000000 0.820113 0.252529
1.000000 0.937414 0.790513
1.000000 0.987627 0.470827
1.000000 0.987627 0.470827
1.000000 0.987457 0.479313
1.000000 0.984561 0.557021
1.000000 0.979794 0.811959
0.000000 0.000000 0.428471
0.117155 0.000000 0.118132
0.780421 0.000000 0.065383
1.000000 0.310702 0.415782
1.000000 0.894401 0.800239
0.000000 0.051473 0.344608
0.000000 0.057866 0.293524
0.614598 0.000000 0.169173
1.000000 0.336609 0.418127
1.000000 0.895627 0.800268
0.000000 0.396814 0.581000
0.000000 0.454450 0.643950
0.527165 0.598379 0.708132
1.000000 0.503963 0.437757
1.000000 0.899489 0.802830
0.000000 0.952084 0.000000
0.000000 0.951130 0.000000
0.516757 0.943830 0.000000
1.000000 0.897596 0.000000
1.000000 0.938230 0.809563
1.000000 0.987627 0.470827
1.000000 0.987627 0.470827
1.000000 0.987457 0.479313
1.000000 0.984561 0.557021
1.000000 0.979794 0.811959
0.000000 0.000000 0.244913
0.170137 0.000000 0.225330
0.538044 0.000000 0.163692
1.000000 0.000000 0.185984
1.000000 0.889834 0.887273
0.000000 0.000000 0.244925
0.168112 0.000000 0.225363
0.534176 0.000000 0.163692
1.000000 0.000000 0.185984
1.000000 0.889834 0.887273
0.000000 0.304958 0.748857
0.000000 0.315722 0.780058
0.000000 0.346946 0.836859
1.000000 0.000000 0.722458
1.000000 0.897485 0.889991
0.000000 0.810382 0.911427
0.000000 0.859299 0.922944
0.000000 0.928319 0.962857
0.945603 0.958448 0.973600
1.000000 0.938557 0.900331
0.904067 1.000000 0.832430
0.904136 1.000000 0.831297
0.912707 1.000000 0.829337
0.960898 1.000000 0.809102
1.000000 1.000000 0.772761
0.520201 0.000000 0.311580
0.538353 0.000000 0.308807
0.671175 0.000000 0.290308
1.000000 0.000000 0.285140
1.000000 0.538524 0.515864
0.520201 0.000000 0.311580
0.538353 0.000000 0.308807
0.671175 0.000000 0.290308
1.000000 0.000000 0.285140
1.000000 0.538524 0.515864
0.516474 0.000000 0.311592
0.534671 0.000000 0.308817
0.671175 0.000000 0.290308
1.000000 0.000000 0.285140
1.000000 0.538524 0.515864
0.000000 0.816068 0.990097
0.000000 0.818829 0.990534
0.000000 0.836287 0.994514
0.735491 0.852798 1.000000
1.000000 0.775454 0.988842
0.000000 0.998713 0.998149
0.000000 0.998713 0.998149
0.000000 1.000000 1.000000
0.726886 1.000000 1.000000
1.000000 1.000000 1.000000
