Assets/Lutify-Free-LUTs-Pack/Lutify Free LUTs Pack/Commercial Pro - Claire/Lutify.me-Claire-CanonLog3-to-Rec709.cube
# Created with: fylm.ai - Colour Grading and Collaboration Software in Cloud 
# Website: https://fylm.ai 
# META
# Option: Gamut compress
# Block 1: IDT | CanonLog3 Cinema Gamut Daylight
# Block 2: colourMatch | Blending Mode: Normal | {"ColorSpace":0,"CrossCovarianceLimit":50,"ReshapingIterations":1,"PercentSaturationShift":100,"PercentShadingShift":100,"ExtraShading":true,"PercentTint":100,"PercentModified":100}
# Block 3: HSL | Blending Mode: Normal | {"hue":{"Reds":0,"Yellows":0,"Greens":0,"Cyans":0,"Blues":0,"Magentas":0},"saturation":{"Reds":1,"Yellows":1,"Greens":1,"Cyans":1,"Blues":1,"Magentas":1},"luminance":{"Reds":0.9,"Yellows":0.9,"Greens":0.9,"Cyans":0.8,"Blues":0.8,"Magentas":0.9},"lum_sat":{"Blacks":1,"Shadows":1,"Midtones":1,"Highlights":1,"Whites":1},"sat_sat":{"10":1,"20":1,"30":1,"40":1,"50":1}}
# Block 4: subtractiveColour | Blending Mode: Normal | {"sliders":{"gainY":0.1,"C":0.05,"M":0.05,"Y":0.05}}
# Block 5: logPrimaries | Blending Mode: Normal | {"wheels":{"shadows":{"Y":"0","R":"1","G":"1","B":"1"},"midtones":{"Y":"0","R":"1","G":"1","B":"1"},"highlights":{"Y":"0","R":"1","G":"1","B":"1"},"offset":{"Y":"0","R":"1","G":"1","B":"1"}},"sliders":{"shadows":{"Y":0,"R":-0.05,"G":0,"B":0.1},"midtones":{"Y":0,"R":0,"G":0,"B":0},"highlights":{"Y":0,"R":0,"G":0,"B":0},"offset":{"Y":0,"R":0,"G":0,"B":0}}}
# Block 6: LUT | Filmic Curve Response: Standard Contrast 1 (100%)
# Block 7: LUT | Illuminant: D93 (100%)
# Block 8: LUT | Neutral Tint: Teal Tint 4 (100%)
# Block 9: ODT | Rec709
TITLE "Lutify.me-Claire-CanonLog3-to-Rec709" 
LUT_3D_SIZE 5
0.000000 0.000000 0.000000
0.788533 0.000000 0.000000
0.979019 0.000000 0.000000
1.000000 0.000000 0.112497
1.000000 0.638281 0.453007
0.000000 0.251912 0.000000
0.388610 0.138007 0.000000
0.942007 0.000000 0.000000
1.000000 0.156514 0.091401
1.000000 0.654358 0.452114
0.000000 0.535314 0.000000
0.286484 0.482518 0.000000
0.941869 0.356118 0.000000
1.000000 0.479824 0.000000
1.000000 0.704750 0.447659
0.000000 0.811375 0.000000
0.508141 0.804076 0.000000
0.906994 0.757916 0.000000
1.000000 0.713856 0.000000
1.000000 0.863917 0.395416
0.902539 0.942334 0.000000
0.917849 0.941398 0.000000
0.954066 0.939121 0.000000
1.000000 0.926064 0.202200
1.000000 0.918197 0.533021
0.000000 0.000000 0.599262
0.361030 0.000000 0.044008
0.903847 0.000000 0.000000
1.000000 0.000000 0.195304
1.000000 0.638167 0.479216
0.000000 0.176571 0.275281
0.173684 0.218080 0.292804
0.688013 0.000000 0.118054
1.000000 0.146710 0.198608
1.000000 0.654239 0.481342
0.000000 0.398746 0.222294
0.000000 0.590063 0.000000
0.735646 0.527851 0.000000
1.000000 0.503815 0.136515
1.000000 0.707819 0.479682
0.000000 0.809037 0.000000
0.488290 0.801776 0.000000
0.897812 0.758484 0.000000
1.000000 0.713856 0.000000
1.000000 0.865627 0.447472
0.902539 0.942334 0.000000
0.917849 0.941398 0.000000
0.954066 0.939121 0.000000
1.000000 0.926065 0.198116
1.000000 0.918197 0.533021
0.000000 0.000000 0.790430
0.220678 0.000000 0.104382
0.837837 0.000000 0.068119
1.000000 0.000000 0.365911
1.000000 0.636627 0.552358
0.000000 0.095502 0.410790
0.000000 0.110161 0.393892
0.634049 0.000000 0.308817
1.000000 0.000000 0.429281
1.000000 0.652816 0.554795
0.000000 0.433819 0.613936
0.000000 0.514928 0.706623
0.567758 0.638690 0.744380
1.000000 0.494222 0.495517
1.000000 0.706712 0.562771
0.000000 0.882569 0.650485
0.000000 0.909275 0.628856
0.416834 0.916649 0.523901
0.955856 0.887056 0.335280
1.000000 0.872310 0.575238
0.895643 0.942750 0.000000
0.909772 0.940767 0.000000
0.947625 0.938403 0.000000
1.000000 0.926068 0.193981
1.000000 0.915989 0.531907
0.000000 0.000000 0.897129
0.210875 0.000000 0.175125
0.617328 0.000000 0.138682
1.000000 0.000000 0.141140
1.000000 0.566319 0.769287
0.000000 0.057785 0.553724
0.000000 0.067827 0.455836
0.494671 0.000000 0.340359
1.000000 0.000000 0.139819
1.000000 0.597722 0.780316
0.000000 0.294547 0.716470
0.000000 0.372402 0.767046
0.171515 0.412569 0.833523
1.000000 0.216345 0.786855
1.000000 0.686304 0.801957
0.000000 0.717477 0.862402
0.000000 0.807153 0.903569
0.000000 0.878637 0.935533
0.900899 0.919740 0.944327
1.000000 0.872771 0.851871
0.355244 0.998583 0.913631
0.432033 0.998340 0.913607
0.639093 0.998880 0.913856
0.881980 0.993061 0.885217
1.000000 0.984143 0.801429
0.115985 0.000000 0.290657
0.308899 0.000000 0.250818
0.579589 0.000000 0.212581
1.000000 0.000000 0.206033
1.000000 0.000000 0.277049
0.104289 0.000000 0.293214
0.308899 0.000000 0.250818
0.579589 0.000000 0.212581
1.000000 0.000000 0.206033
1.000000 0.000000 0.277049
0.000000 0.318045 0.836353
0.000000 0.346731 0.858539
0.000000 0.355178 0.889489
0.875923 0.213501 0.896829
1.000000 0.000000 0.277049
0.000000 0.639834 0.922621
0.000000 0.693543 0.942500
0.000000 0.742871 0.962659
0.691643 0.777501 0.978888
1.000000 0.741093 0.965065
0.000000 0.923017 0.962860
0.000000 0.950211 0.973170
0.000000 0.983510 0.991294
0.626166 0.987928 0.997242
0.987814 0.991566 0.999098
