Assets/Lutify-Free-LUTs-Pack/Lutify Free LUTs Pack/Commercial Pro - Claire/Lutify.me-Claire-LLog-to-Rec709.cube
# Created with: fylm.ai - Colour Grading and Collaboration Software in Cloud 
# Website: https://fylm.ai 
# META
# Option: Gamut compress
# Block 1: IDT | Leica BT2020 L-Log
# Block 2: colourMatch | Blending Mode: Normal | {"ColorSpace":0,"CrossCovarianceLimit":50,"ReshapingIterations":1,"PercentSaturationShift":100,"PercentShadingShift":100,"ExtraShading":true,"PercentTint":100,"PercentModified":100}
# Block 3: HSL | Blending Mode: Normal | {"hue":{"Reds":0,"Yellows":0,"Greens":0,"Cyans":0,"Blues":0,"Magentas":0},"saturation":{"Reds":1,"Yellows":1,"Greens":1,"Cyans":1,"Blues":1,"Magentas":1},"luminance":{"Reds":0.9,"Yellows":0.9,"Greens":0.9,"Cyans":0.8,"Blues":0.8,"Magentas":0.9},"lum_sat":{"Blacks":1,"Shadows":1,"Midtones":1,"Highlights":1,"Whites":1},"sat_sat":{"10":1,"20":1,"30":1,"40":1,"50":1}}
# Block 4: subtractiveColour | Blending Mode: Normal | {"sliders":{"gainY":0.1,"C":0.05,"M":0.05,"Y":0.05}}
# Block 5: logPrimaries | Blending Mode: Normal | {"wheels":{"shadows":{"Y":"0","R":"1","G":"1","B":"1"},"midtones":{"Y":"0","R":"1","G":"1","B":"1"},"highlights":{"Y":"0","R":"1","G":"1","B":"1"},"offset":{"Y":"0","R":"1","G":"1","B":"1"}},"sliders":{"shadows":{"Y":0,"R":-0.05,"G":0,"B":0.1},"midtones":{"Y":0,"R":0,"G":0,"B":0},"highlights":{"Y":0,"R":0,"G":0,"B":0},"offset":{"Y":0,"R":0,"G":0,"B":0}}}
# Block 6: LUT | Filmic Curve Response: Standard Contrast 1 (100%)
# Block 7: LUT | Illuminant: D93 (100%)
# Block 8: LUT | Neutral Tint: Teal Tint 4 (100%)
# Block 9: ODT | Rec709
TITLE "Lutify.me-Claire-LLog-to-Rec709" 
LUT_3D_SIZE 9
0.000000 0.000000 0.000000
0.040302 0.000000 0.000000
0.253737 0.000000 0.000000
0.414038 0.000000 0.000000
0.556564 0.000000 0.000000
0.793525 0.000000 0.000000
1.000000 0.077804 0.138161
1.000000 0.504727 0.325133
1.000000 0.789570 0.585506
0.000000 0.017891 0.000000
0.000000 0.004086 0.000000
0.200161 0.000000 0.000000
0.365347 0.000000 0.000000
0.544705 0.000000 0.000000
0.802929 0.000000 0.000000
1.000000 0.118824 0.136897
1.000000 0.509408 0.328380
1.000000 0.789570 0.585506
0.000000 0.111703 0.000000
0.000000 0.105902 0.000000
0.158476 0.078074 0.000000
0.340491 0.000000 0.000000
0.533510 0.000000 0.000000
0.802698 0.000000 0.000000
1.000000 0.155614 0.141363
1.000000 0.516989 0.327809
1.000000 0.791834 0.585508
0.000000 0.232604 0.000000
0.000000 0.230346 0.000000
0.000000 0.223326 0.000000
0.332037 0.180602 0.000000
0.532915 0.155465 0.000000
0.802050 0.000000 0.000000
1.000000 0.227839 0.148221
1.000000 0.532135 0.332406
1.000000 0.794084 0.585514
0.000000 0.396126 0.064887
0.000000 0.408841 0.000000
0.000000 0.411550 0.000000
0.129540 0.410340 0.000000
0.544823 0.383290 0.000000
0.812733 0.359137 0.000000
1.000000 0.353666 0.151145
1.000000 0.570749 0.339069
1.000000 0.803364 0.595500
0.000000 0.644712 0.295183
0.000000 0.655939 0.286884
0.000000 0.670814 0.271104
0.000000 0.669249 0.214219
0.354682 0.668213 0.055917
0.799587 0.633978 0.000000
0.991967 0.624908 0.173027
1.000000 0.668311 0.367125
1.000000 0.824810 0.608939
0.000000 0.869679 0.557432
0.000000 0.871699 0.557530
0.000000 0.880594 0.554005
0.000000 0.888085 0.543076
0.000000 0.887710 0.483822
0.704275 0.872407 0.384668
0.944968 0.852485 0.285174
1.000000 0.855354 0.461077
1.000000 0.871669 0.650223
0.000000 0.972608 0.815164
0.000000 0.972316 0.812776
0.000000 0.972962 0.812894
0.162794 0.973187 0.813106
0.428666 0.973520 0.804062
0.673086 0.969007 0.774392
0.894311 0.960406 0.696461
0.998137 0.950173 0.621566
1.000000 0.952744 0.748574
0.712802 1.000000 0.934028
0.712802 1.000000 0.934028
0.716319 1.000000 0.934019
0.723957 1.000000 0.933017
0.751820 1.000000 0.933116
0.808779 1.000000 0.930128
0.884929 0.998518 0.918276
0.971077 0.994332 0.886461
1.000000 0.990932 0.850042
0.000000 0.000000 0.038390
0.017756 0.000000 0.014010
0.208170 0.000000 0.000000
0.367839 0.000000 0.000000
0.528645 0.000000 0.000000
0.793500 0.000000 0.045311
1.000000 0.093954 0.147716
1.000000 0.505609 0.331505
1.000000 0.789570 0.585506
0.000000 0.018570 0.050800
0.000000 0.016376 0.041581
0.168590 0.000000 0.000000
0.329031 0.000000 0.000000
0.517056 0.000000 0.000000
0.793400 0.000000 0.047755
1.000000 0.118752 0.148889
1.000000 0.509400 0.331228
1.000000 0.789570 0.585506
0.000000 0.092671 0.071317
0.000000 0.109575 0.046933
0.124906 0.099304 0.000000
0.306106 0.000000 0.000000
0.513792 0.000000 0.000000
0.793146 0.000000 0.046607
1.000000 0.155578 0.151231
1.000000 0.516972 0.333542
1.000000 0.791834 0.585508
0.000000 0.193319 0.107333
0.000000 0.234101 0.058535
0.000000 0.238598 0.000000
0.289190 0.212128 0.000000
0.524470 0.167155 0.000000
0.801845 0.000000 0.043636
1.000000 0.233284 0.156173
1.000000 0.532127 0.335321
1.000000 0.794060 0.591589
0.000000 0.371267 0.185512
0.000000 0.405383 0.159805
0.000000 0.424830 0.110686
0.020502 0.424311 0.000000
0.518604 0.396253 0.000000
0.811752 0.363331 0.000000
1.000000 0.358082 0.162732
1.000000 0.570742 0.342085
1.000000 0.803364 0.595500
0.000000 0.637005 0.338396
0.000000 0.648289 0.326404
0.000000 0.670845 0.313102
0.000000 0.676897 0.256756
0.349346 0.672096 0.144189
0.802747 0.637700 0.000000
0.990907 0.628960 0.190302
1.000000 0.668296 0.376905
1.000000 0.824799 0.612038
0.000000 0.867181 0.572913
0.000000 0.869312 0.569104
0.000000 0.878312 0.569378
0.000000 0.888032 0.558440
0.000000 0.889770 0.502742
0.702437 0.874526 0.406770
0.943933 0.854724 0.300143
1.000000 0.855344 0.467424
1.000000 0.871669 0.650223
0.000000 0.971623 0.817403
0.000000 0.972443 0.817513
0.000000 0.972949 0.815264
0.124042 0.973346 0.815471
0.419039 0.973702 0.806479
0.672872 0.968994 0.777064
0.893874 0.960369 0.705373
0.998030 0.950163 0.624511
1.000000 0.952735 0.750831
0.712802 1.000000 0.934028
0.712802 1.000000 0.934028
0.716319 1.000000 0.934019
0.723879 1.000000 0.934050
0.751744 1.000000 0.934142
0.808626 1.000000 0.932211
0.884929 0.998518 0.918276
0.971077 0.994332 0.886461
1.000000 0.990925 0.851477
0.000000 0.000000 0.108133
0.000000 0.000000 0.075598
0.169952 0.000000 0.053148
0.330140 0.000000 0.038921
0.517270 0.000000 0.041215
0.788759 0.000000 0.075130
1.000000 0.094645 0.163003
1.000000 0.505591 0.337255
1.000000 0.789546 0.591586
0.000000 0.025128 0.114701
0.000000 0.021631 0.099467
0.135233 0.000000 0.083363
0.303651 0.000000 0.060078
0.509825 0.000000 0.050448
0.788604 0.000000 0.077948
1.000000 0.129481 0.164013
1.000000 0.509382 0.336985
1.000000 0.791809 0.591585
0.000000 0.101328 0.169505
0.000000 0.103751 0.174993
0.082512 0.115349 0.166565
0.279501 0.070466 0.093330
0.502524 0.000000 0.059187
0.788302 0.000000 0.079593
1.000000 0.163679 0.164635
1.000000 0.516955 0.339358
1.000000 0.791809 0.591585
0.000000 0.197712 0.231978
0.000000 0.212203 0.235809
0.000000 0.249076 0.196090
0.257041 0.244638 0.123015
0.514962 0.180882 0.065687
0.792078 0.000000 0.086239
1.000000 0.233258 0.173357
1.000000 0.532110 0.341212
1.000000 0.794048 0.594639
0.000000 0.349880 0.284119
0.000000 0.379538 0.260519
0.000000 0.421439 0.235821
0.000000 0.435057 0.153825
0.502960 0.415224 0.026712
0.805882 0.372134 0.092539
1.000000 0.358064 0.182173
1.000000 0.570727 0.348181
1.000000 0.803352 0.598544
0.000000 0.621651 0.390719
0.000000 0.636760 0.378728
0.000000 0.659339 0.369595
0.000000 0.680704 0.323122
0.324401 0.683956 0.221583
0.795222 0.646148 0.094337
0.990496 0.629009 0.217520
1.000000 0.668285 0.383468
1.000000 0.824799 0.612038
0.000000 0.862320 0.596180
0.000000 0.866983 0.592342
0.000000 0.876040 0.592532
0.000000 0.888033 0.585394
0.000000 0.889838 0.532748
0.694892 0.876864 0.432424
0.942652 0.856912 0.329541
1.000000 0.857362 0.477366
1.000000 0.873294 0.653512
0.000000 0.971747 0.822069
0.000000 0.972417 0.822163
0.000000 0.972121 0.819834
0.008558 0.972572 0.817686
0.418307 0.973676 0.811246
0.672380 0.969851 0.782575
0.893437 0.960331 0.714137
0.997310 0.951062 0.634245
1.000000 0.952726 0.753077
0.709176 1.000000 0.935062
0.712725 1.000000 0.935053
0.716242 1.000000 0.935044
0.723879 1.000000 0.934050
0.751239 1.000000 0.934088
0.808551 1.000000 0.933236
0.884850 0.998511 0.919419
0.970917 0.994318 0.889093
1.000000 0.990917 0.852904
0.000000 0.000000 0.166173
0.000000 0.008335 0.142118
0.119721 0.000000 0.127009
0.303139 0.000000 0.102055
0.489714 0.000000 0.132386
0.779741 0.000000 0.141512
1.000000 0.118744 0.204432
1.000000 0.509322 0.354774
1.000000 0.789520 0.597697
0.000000 0.046774 0.188163
0.000000 0.047827 0.176600
0.091112 0.036425 0.183968
0.284245 0.000000 0.151363
0.490243 0.000000 0.151989
0.779384 0.000000 0.147795
1.000000 0.138500 0.206197
1.000000 0.509322 0.354774
1.000000 0.791771 0.600762
0.000000 0.104879 0.245753
0.000000 0.109907 0.252824
0.000000 0.114633 0.272930
0.265700 0.086307 0.246026
0.490203 0.000000 0.175895
0.778866 0.000000 0.153795
1.000000 0.170863 0.209751
1.000000 0.520689 0.357075
1.000000 0.791771 0.600762
0.000000 0.207284 0.322951
0.000000 0.219624 0.336756
0.000000 0.236946 0.363562
0.200282 0.269601 0.345725
0.489367 0.215687 0.241348
0.781401 0.094855 0.170435
1.000000 0.243922 0.218272
1.000000 0.535848 0.359150
1.000000 0.796262 0.600767
0.000000 0.363236 0.439388
0.000000 0.378466 0.442206
0.000000 0.397449 0.437792
0.000000 0.459488 0.406569
0.470676 0.445760 0.308881
0.791543 0.390005 0.213201
1.000000 0.366845 0.238549
1.000000 0.574454 0.369796
1.000000 0.803315 0.607756
0.000000 0.598479 0.505986
0.000000 0.609745 0.501548
0.000000 0.632346 0.492618
0.000000 0.676992 0.470968
0.291423 0.700026 0.381227
0.780696 0.670824 0.267285
0.984088 0.653128 0.284217
1.000000 0.671791 0.403005
1.000000 0.826785 0.621442
0.000000 0.855126 0.650621
0.000000 0.857309 0.650608
0.000000 0.864093 0.646699
0.000000 0.881741 0.635304
0.000000 0.893707 0.609405
0.688593 0.882891 0.506507
0.936081 0.865546 0.394652
1.000000 0.859377 0.504018
1.000000 0.873270 0.659661
0.000000 0.971005 0.831069
0.000000 0.970707 0.831055
0.000000 0.971405 0.828889
0.000000 0.972064 0.829022
0.405355 0.972885 0.827186
0.670749 0.969750 0.802404
0.894291 0.961024 0.731753
0.996518 0.950985 0.654960
1.000000 0.952698 0.759737
0.707731 1.000000 0.935991
0.707731 1.000000 0.935991
0.712650 1.000000 0.936067
0.723727 1.000000 0.936085
0.747894 1.000000 0.936119
0.805826 1.000000 0.935258
0.884693 0.998828 0.921772
0.970614 0.994630 0.891888
1.000000 0.991270 0.856115
0.000000 0.075719 0.278759
0.000000 0.078309 0.283448
0.000000 0.078323 0.293055
0.246779 0.000000 0.299072
0.483272 0.000000 0.259508
0.764475 0.000000 0.303025
1.000000 0.169037 0.306202
1.000000 0.516663 0.414141
1.000000 0.791676 0.622708
0.000000 0.094983 0.302815
0.000000 0.098297 0.307928
0.000000 0.097839 0.323946
0.228860 0.072377 0.336894
0.484235 0.000000 0.288187
0.768812 0.000000 0.313658
1.000000 0.190164 0.311232
1.000000 0.520446 0.417029
1.000000 0.791676 0.622708
0.000000 0.127015 0.337254
0.000000 0.129411 0.345960
0.000000 0.132874 0.354830
0.204994 0.123067 0.389360
0.486629 0.000000 0.334328
0.772353 0.000000 0.324473
1.000000 0.220969 0.316273
1.000000 0.524244 0.416825
1.000000 0.793928 0.622701
0.000000 0.228024 0.434449
0.000000 0.234110 0.444718
0.000000 0.237844 0.465782
0.000000 0.260364 0.500778
0.479190 0.235904 0.471141
0.778949 0.147127 0.369154
1.000000 0.273875 0.329042
1.000000 0.539406 0.422225
1.000000 0.796168 0.622697
0.000000 0.371595 0.544374
0.000000 0.383913 0.566334
0.000000 0.396619 0.577242
0.000000 0.435137 0.606182
0.410707 0.487229 0.603234
0.771820 0.439098 0.464230
1.000000 0.392570 0.361810
1.000000 0.581113 0.435713
1.000000 0.805399 0.629780
0.000000 0.605318 0.694261
0.000000 0.616649 0.693634
0.000000 0.624074 0.693220
0.000000 0.649766 0.691738
0.000000 0.720987 0.664160
0.753409 0.716073 0.564369
0.975807 0.669785 0.439717
1.000000 0.682874 0.467070
1.000000 0.828703 0.643537
0.000000 0.845100 0.748485
0.000000 0.847388 0.748373
0.000000 0.851961 0.748157
0.000000 0.860393 0.747758
0.000000 0.890411 0.726568
0.676169 0.890232 0.657275
0.934881 0.872949 0.550204
1.000000 0.863135 0.566951
1.000000 0.874790 0.684057
0.000000 0.967466 0.858146
0.000000 0.967182 0.858128
0.000000 0.967951 0.856171
0.000000 0.968940 0.856173
0.316718 0.970391 0.854234
0.667586 0.972150 0.838782
0.892454 0.963287 0.783692
0.992356 0.955289 0.712067
1.000000 0.953457 0.779580
0.698687 1.000000 0.940885
0.699382 1.000000 0.940914
0.703060 1.000000 0.940904
0.714522 1.000000 0.940905
0.740609 1.000000 0.940977
0.800219 1.000000 0.940132
0.884171 0.999105 0.929412
0.970067 0.994580 0.900752
1.000000 0.991916 0.866348
0.000000 0.182337 0.499902
0.000000 0.185970 0.507056
0.000000 0.189253 0.517885
0.000000 0.188765 0.539658
0.427321 0.157381 0.563976
0.767585 0.000000 0.493369
1.000000 0.221752 0.539966
1.000000 0.542393 0.550729
1.000000 0.796359 0.680766
0.000000 0.192483 0.510521
0.000000 0.196243 0.521386
0.000000 0.204244 0.528467
0.000000 0.202545 0.546736
0.423244 0.177717 0.578734
0.772414 0.000000 0.507514
1.000000 0.238338 0.543330
1.000000 0.546208 0.550567
1.000000 0.796359 0.680766
0.000000 0.211833 0.531964
0.000000 0.215492 0.539242
0.000000 0.218919 0.546531
0.000000 0.219454 0.568648
0.417175 0.204079 0.597363
0.773401 0.000000 0.528990
1.000000 0.259542 0.546598
1.000000 0.550022 0.550404
1.000000 0.798563 0.683863
0.000000 0.258760 0.579006
0.000000 0.263183 0.586498
0.000000 0.264997 0.597917
0.000000 0.269827 0.620650
0.386536 0.274460 0.645800
0.770639 0.165957 0.590983
1.000000 0.318130 0.563677
1.000000 0.561378 0.560299
1.000000 0.800770 0.683837
0.000000 0.412501 0.688584
0.000000 0.419185 0.692153
0.000000 0.425738 0.703381
0.000000 0.434861 0.721583
0.250869 0.471891 0.754140
0.768173 0.463896 0.723794
1.000000 0.436433 0.620427
1.000000 0.599394 0.572568
1.000000 0.811559 0.693011
0.000000 0.601110 0.792828
0.000000 0.604828 0.795752
0.000000 0.619935 0.804040
0.000000 0.642059 0.814264
0.000000 0.694466 0.829118
0.705826 0.760632 0.832889
0.951014 0.713623 0.721053
1.000000 0.704764 0.608338
1.000000 0.830417 0.705576
0.000000 0.844899 0.870660
0.000000 0.847263 0.872477
0.000000 0.849495 0.874293
0.000000 0.858142 0.875574
0.000000 0.876346 0.871876
0.611587 0.898389 0.864640
0.909091 0.895430 0.809033
1.000000 0.872215 0.711172
1.000000 0.877729 0.738523
0.000000 0.959620 0.901768
0.000000 0.959493 0.901758
0.000000 0.960267 0.901677
0.000000 0.963683 0.899897
0.125027 0.966662 0.899440
0.619487 0.970825 0.897186
0.883343 0.967156 0.868478
0.985635 0.959123 0.813734
1.000000 0.954974 0.820395
0.667837 1.000000 0.951816
0.671869 1.000000 0.951805
0.676618 1.000000 0.951801
0.689023 1.000000 0.951776
0.716713 1.000000 0.951732
0.787173 1.000000 0.951650
0.881277 1.000000 0.945809
0.967752 0.995168 0.919754
1.000000 0.992418 0.890580
0.000000 0.346549 0.753957
0.000000 0.349295 0.757256
0.000000 0.351806 0.760498
0.000000 0.352934 0.774484
0.238327 0.361383 0.793667
0.715190 0.338376 0.812029
1.000000 0.235037 0.756124
1.000000 0.567368 0.787096
1.000000 0.812698 0.791391
0.000000 0.352504 0.757151
0.000000 0.355250 0.760411
0.000000 0.357834 0.767389
0.000000 0.362233 0.777619
0.230402 0.367950 0.799910
0.712860 0.350613 0.814647
1.000000 0.251237 0.762811
1.000000 0.571193 0.789922
1.000000 0.812698 0.791391
0.000000 0.361511 0.767315
0.000000 0.361278 0.770884
0.000000 0.363899 0.774262
0.000000 0.371628 0.784121
0.211890 0.378246 0.802725
0.709736 0.362765 0.825675
1.000000 0.272483 0.769386
1.000000 0.578958 0.789601
1.000000 0.814825 0.791310
0.000000 0.383514 0.787315
0.000000 0.386582 0.790509
0.000000 0.389446 0.793638
0.000000 0.401469 0.799409
0.143361 0.413196 0.819560
0.686897 0.397014 0.838124
1.000000 0.331611 0.788084
1.000000 0.598238 0.794632
1.000000 0.816920 0.793761
0.000000 0.459006 0.818475
0.000000 0.465985 0.818113
0.000000 0.465622 0.826637
0.000000 0.471608 0.834328
0.000000 0.488692 0.850816
0.669580 0.492312 0.866170
0.993464 0.452857 0.833195
1.000000 0.637712 0.804260
1.000000 0.823131 0.798486
0.000000 0.649934 0.883550
0.000000 0.653645 0.885319
0.000000 0.657200 0.885053
0.000000 0.668003 0.892363
0.000000 0.696139 0.897831
0.565890 0.734679 0.911525
0.941271 0.748644 0.898043
1.000000 0.740038 0.839311
1.000000 0.841574 0.812541
0.000000 0.842593 0.923875
0.000000 0.845054 0.923680
0.000000 0.847346 0.924888
0.000000 0.854098 0.927064
0.000000 0.868421 0.930977
0.450247 0.890075 0.938562
0.888689 0.913650 0.939569
0.993780 0.893251 0.893531
1.000000 0.888080 0.836117
0.000000 0.961557 0.956818
0.000000 0.961446 0.956808
0.000000 0.962357 0.957606
0.000000 0.963768 0.957365
0.000000 0.965426 0.958589
0.488765 0.966986 0.956448
0.862640 0.971364 0.953400
0.975252 0.968511 0.931168
1.000000 0.960218 0.888946
0.617746 0.999557 0.970429
0.622530 0.999391 0.970416
0.627246 0.999227 0.970402
0.641847 0.999188 0.970343
0.672888 0.998968 0.970884
0.745737 0.999090 0.970555
0.868224 0.999254 0.970081
0.964457 0.997061 0.957640
1.000000 0.994012 0.933808
0.000000 0.577269 0.920526
0.000000 0.577056 0.920501
0.000000 0.576858 0.922082
0.000000 0.579903 0.924943
0.083969 0.587896 0.928546
0.529907 0.607663 0.935966
0.943947 0.606462 0.942620
1.000000 0.587512 0.915731
1.000000 0.827002 0.920547
0.000000 0.581106 0.920316
0.000000 0.580918 0.921898
0.000000 0.580698 0.921872
0.000000 0.583753 0.924733
0.041068 0.591808 0.929853
0.527704 0.611650 0.935759
0.942728 0.610711 0.943707
1.000000 0.591298 0.917101
1.000000 0.826975 0.921873
0.000000 0.584969 0.921712
0.000000 0.584759 0.921687
0.000000 0.584565 0.923253
0.000000 0.587629 0.926084
0.000000 0.595879 0.929663
0.527550 0.611679 0.937168
0.941498 0.614953 0.944779
1.000000 0.595092 0.918455
1.000000 0.829017 0.921751
0.000000 0.596424 0.922652
0.000000 0.600193 0.924001
0.000000 0.599873 0.923964
0.000000 0.602954 0.926763
0.000000 0.607618 0.933484
0.513788 0.623995 0.939345
0.936752 0.631737 0.945237
1.000000 0.611480 0.920726
1.000000 0.831042 0.921630
0.000000 0.634996 0.928175
0.000000 0.634845 0.931143
0.000000 0.634640 0.931119
0.000000 0.641612 0.932053
0.000000 0.642534 0.935822
0.495818 0.651912 0.943211
0.920568 0.674456 0.950364
1.000000 0.658457 0.928547
1.000000 0.836996 0.923882
0.000000 0.709397 0.939381
0.000000 0.709333 0.940711
0.000000 0.709063 0.940681
0.000000 0.716446 0.941421
0.000000 0.725460 0.945508
0.429864 0.743445 0.953669
0.887143 0.758927 0.957703
1.000000 0.757034 0.944788
1.000000 0.858940 0.927714
0.000000 0.866922 0.964448
0.000000 0.866840 0.964440
0.000000 0.869072 0.964246
0.000000 0.872977 0.965636
0.000000 0.879624 0.968244
0.248611 0.887753 0.969879
0.827759 0.897365 0.976016
0.986633 0.909214 0.971026
1.000000 0.901365 0.942266
0.000000 0.958333 0.980538
0.000000 0.958150 0.980521
0.000000 0.957957 0.981139
0.000000 0.958354 0.981595
0.000000 0.960897 0.982853
0.302840 0.965502 0.984765
0.809125 0.966062 0.986150
0.967895 0.975980 0.986560
1.000000 0.969085 0.968934
0.557705 1.000000 0.993526
0.559208 1.000000 0.993487
0.564714 1.000000 0.993473
0.577030 1.000000 0.993768
0.623618 1.000000 0.993570
0.703534 0.999369 0.993544
0.828667 0.998183 0.993461
0.956324 0.998568 0.992523
0.999778 0.997213 0.984250
0.191285 0.820714 0.982763
0.191285 0.820714 0.982763
0.233280 0.820330 0.983449
0.296395 0.819495 0.983368
0.386761 0.820471 0.984438
0.559116 0.825771 0.985962
0.795466 0.829630 0.988959
0.993516 0.847071 0.990667
1.000000 0.840345 0.979678
0.191285 0.820714 0.982763
0.191285 0.820714 0.982763
0.233280 0.820330 0.983449
0.296395 0.819495 0.983368
0.386761 0.820471 0.984438
0.559116 0.825771 0.985962
0.794279 0.832100 0.988798
0.993516 0.847071 0.990667
1.000000 0.840345 0.979678
0.183186 0.823432 0.983304
0.183186 0.823432 0.983304
0.226961 0.823028 0.983265
0.291899 0.822196 0.983184
0.383697 0.823143 0.984257
0.559116 0.825771 0.985962
0.794279 0.832100 0.988798
0.992608 0.849293 0.991024
1.000000 0.840345 0.979678
0.174326 0.826094 0.983121
0.220479 0.825692 0.983082
0.220479 0.825692 0.983082
0.287545 0.824883 0.983719
0.380626 0.825792 0.984077
0.557304 0.828359 0.985789
0.793055 0.834631 0.989792
0.991746 0.851465 0.990884
1.000000 0.844687 0.980069
0.144668 0.833968 0.984005
0.200291 0.833571 0.983966
0.221644 0.833369 0.983947
0.273807 0.832752 0.983887
0.371657 0.833620 0.984933
0.550295 0.838497 0.986424
0.790917 0.846791 0.989514
0.986997 0.859954 0.991329
1.000000 0.852616 0.980865
0.173017 0.850841 0.985474
0.173017 0.850841 0.985474
0.198699 0.850643 0.985455
0.273831 0.849828 0.985377
0.359108 0.853262 0.986208
0.536531 0.858087 0.987614
0.786883 0.862720 0.990564
0.980519 0.875443 0.992210
1.000000 0.870971 0.983383
0.000000 0.895567 0.990150
0.000000 0.895383 0.990133
0.000000 0.895197 0.990116
0.148914 0.894634 0.990596
0.290644 0.897062 0.990709
0.515516 0.901116 0.991113
0.759122 0.902771 0.993208
0.965876 0.911799 0.994915
1.000000 0.912843 0.988810
0.000000 0.964238 0.997254
0.063628 0.964067 0.997238
0.127936 0.963895 0.997222
0.217463 0.964392 0.997462
0.330589 0.964113 0.997992
0.528802 0.963796 0.999029
0.745043 0.965781 0.999152
0.942200 0.971308 1.000000
1.000000 0.973862 0.998851
0.468969 1.000000 1.000000
0.482089 1.000000 1.000000
0.488266 1.000000 1.000000
0.500338 1.000000 1.000000
0.540028 1.000000 1.000000
0.635096 0.998700 1.000000
0.776459 0.997415 1.000000
0.933149 0.997390 1.000000
0.996870 0.999819 1.000000
