Assets/Lutify-Free-LUTs-Pack/Lutify Free LUTs Pack/Commercial Pro - Claire/Lutify.me-Claire-VLog-to-Rec709.cube
# Created with: fylm.ai - Colour Grading and Collaboration Software in Cloud 
# Website: https://fylm.ai 
# META
# Option: Gamut compress
# Block 1: IDT | Panasonic V-Gamut V-Log
# Block 2: colourMatch | Blending Mode: Normal | {"ColorSpace":0,"CrossCovarianceLimit":50,"ReshapingIterations":1,"PercentSaturationShift":100,"PercentShadingShift":100,"ExtraShading":true,"PercentTint":100,"PercentModified":100}
# Block 3: HSL | Blending Mode: Normal | {"hue":{"Reds":0,"Yellows":0,"Greens":0,"Cyans":0,"Blues":0,"Magentas":0},"saturation":{"Reds":1,"Yellows":1,"Greens":1,"Cyans":1,"Blues":1,"Magentas":1},"luminance":{"Reds":0.9,"Yellows":0.9,"Greens":0.9,"Cyans":0.8,"Blues":0.8,"Magentas":0.9},"lum_sat":{"Blacks":1,"Shadows":1,"Midtones":1,"Highlights":1,"Whites":1},"sat_sat":{"10":1,"20":1,"30":1,"40":1,"50":1}}
# Block 4: subtractiveColour | Blending Mode: Normal | {"sliders":{"gainY":0.1,"C":0.05,"M":0.05,"Y":0.05}}
# Block 5: logPrimaries | Blending Mode: Normal | {"wheels":{"shadows":{"Y":"0","R":"1","G":"1","B":"1"},"midtones":{"Y":"0","R":"1","G":"1","B":"1"},"highlights":{"Y":"0","R":"1","G":"1","B":"1"},"offset":{"Y":"0","R":"1","G":"1","B":"1"}},"sliders":{"shadows":{"Y":0,"R":-0.05,"G":0,"B":0.1},"midtones":{"Y":0,"R":0,"G":0,"B":0},"highlights":{"Y":0,"R":0,"G":0,"B":0},"offset":{"Y":0,"R":0,"G":0,"B":0}}}
# Block 6: LUT | Filmic Curve Response: Standard Contrast 1 (100%)
# Block 7: LUT | Illuminant: D93 (100%)
# Block 8: LUT | Neutral Tint: Teal Tint 4 (100%)
# Block 9: ODT | Rec709
TITLE "Lutify.me-Claire-VLog-to-Rec709" 
LUT_3D_SIZE 9
0.000000 0.000000 0.000000
0.000000 0.000000 0.000000
0.354054 0.000000 0.000000
0.559515 0.000000 0.000000
0.644218 0.000000 0.000000
0.906081 0.000000 0.022396
1.000000 0.255076 0.192248
1.000000 0.644929 0.443953
1.000000 0.873761 0.744155
0.000000 0.006213 0.000000
0.000000 0.000000 0.000000
0.253823 0.000000 0.000000
0.446718 0.000000 0.000000
0.627452 0.000000 0.000000
0.905689 0.000000 0.016091
1.000000 0.270174 0.193276
1.000000 0.648221 0.446682
1.000000 0.873761 0.744155
0.000000 0.125033 0.000000
0.000000 0.112018 0.000000
0.190838 0.064197 0.000000
0.406601 0.000000 0.000000
0.615264 0.000000 0.000000
0.905102 0.000000 0.000000
1.000000 0.279945 0.194689
1.000000 0.651510 0.446497
1.000000 0.875193 0.744215
0.000000 0.258517 0.000000
0.000000 0.243482 0.000000
0.066173 0.231523 0.000000
0.413679 0.162297 0.000000
0.619770 0.112796 0.000000
0.907095 0.000000 0.000000
1.000000 0.317297 0.198171
1.000000 0.658038 0.449063
1.000000 0.875181 0.746605
0.000000 0.456403 0.000000
0.000000 0.459706 0.000000
0.000000 0.462655 0.000000
0.157745 0.454159 0.000000
0.635172 0.399278 0.000000
0.901310 0.391894 0.000000
1.000000 0.426421 0.205172
1.000000 0.690571 0.460107
1.000000 0.879385 0.746799
0.000000 0.756860 0.290770
0.000000 0.767411 0.278157
0.000000 0.777626 0.265469
0.000000 0.769071 0.201729
0.378568 0.766295 0.000000
0.869703 0.725100 0.000000
1.000000 0.715123 0.231963
1.000000 0.764544 0.486516
1.000000 0.891690 0.755085
0.000000 0.938463 0.637211
0.000000 0.939493 0.637553
0.000000 0.938978 0.630125
0.000000 0.939253 0.619376
0.258259 0.939505 0.573563
0.783258 0.924214 0.465465
0.979313 0.904616 0.348766
1.000000 0.905314 0.575841
1.000000 0.920112 0.777158
0.552982 0.997341 0.877723
0.559248 0.997169 0.876087
0.572303 0.997323 0.876202
0.601259 0.996938 0.876295
0.658552 0.997059 0.871894
0.783588 0.991887 0.851546
0.933126 0.985733 0.796150
1.000000 0.978066 0.717127
1.000000 0.977310 0.843124
0.860353 1.000000 0.966406
0.860353 1.000000 0.966406
0.862123 1.000000 0.966401
0.864172 1.000000 0.966437
0.874657 1.000000 0.966451
0.895699 1.000000 0.964533
0.935282 1.000000 0.958025
0.989292 1.000000 0.935673
1.000000 1.000000 0.902331
0.000000 0.000000 0.010594
0.000000 0.000000 0.014877
0.270713 0.000000 0.000000
0.467309 0.000000 0.000000
0.597897 0.000000 0.000000
0.901976 0.000000 0.053247
1.000000 0.260133 0.202764
1.000000 0.644918 0.446867
1.000000 0.873761 0.744155
0.000000 0.000000 0.007449
0.000000 0.000000 0.014579
0.196965 0.000000 0.000000
0.373536 0.000000 0.000000
0.585741 0.000000 0.000000
0.901517 0.000000 0.055642
1.000000 0.270134 0.204287
1.000000 0.648210 0.449608
1.000000 0.873761 0.744155
0.000000 0.099619 0.044092
0.000000 0.112235 0.000000
0.134347 0.094646 0.000000
0.335306 0.000000 0.000000
0.577957 0.000000 0.000000
0.905099 0.000000 0.056539
1.000000 0.284723 0.205463
1.000000 0.651499 0.449425
1.000000 0.875181 0.746605
0.000000 0.212185 0.077062
0.000000 0.254608 0.000000
0.000000 0.255276 0.000000
0.328559 0.222280 0.000000
0.587546 0.159866 0.000000
0.902922 0.000000 0.055663
1.000000 0.321787 0.209363
1.000000 0.658027 0.452004
1.000000 0.875181 0.746605
0.000000 0.425366 0.176019
0.000000 0.473785 0.119338
0.000000 0.480510 0.000000
0.000000 0.476734 0.000000
0.596273 0.436533 0.000000
0.896903 0.396563 0.000000
1.000000 0.426411 0.218112
1.000000 0.690561 0.463090
1.000000 0.879385 0.746799
0.000000 0.745617 0.357498
0.000000 0.767386 0.347925
0.000000 0.777578 0.323394
0.000000 0.776113 0.269910
0.363856 0.769980 0.121649
0.862280 0.736591 0.000000
1.000000 0.718758 0.247694
1.000000 0.764535 0.489575
1.000000 0.891690 0.755085
0.000000 0.937143 0.651857
0.000000 0.938095 0.652169
0.000000 0.939125 0.648771
0.000000 0.939306 0.637983
0.234045 0.940979 0.595990
0.781760 0.925565 0.490150
0.979041 0.904591 0.364301
1.000000 0.905298 0.581770
1.000000 0.920102 0.779203
0.551708 0.996819 0.877599
0.559075 0.997159 0.877713
0.565073 0.996978 0.877704
0.601100 0.996928 0.877909
0.658402 0.997049 0.873547
0.783446 0.992372 0.855331
0.933010 0.985722 0.798248
1.000000 0.978057 0.719240
1.000000 0.977303 0.844666
0.860311 1.000000 0.967052
0.860311 1.000000 0.967052
0.862081 1.000000 0.967047
0.864131 1.000000 0.967082
0.874614 1.000000 0.967094
0.895815 1.000000 0.965238
0.935234 1.000000 0.958730
0.989292 1.000000 0.935673
1.000000 1.000000 0.903239
0.000000 0.000000 0.212361
0.000000 0.000000 0.081102
0.196978 0.000000 0.035522
0.408891 0.000000 0.000000
0.589988 0.000000 0.019468
0.897907 0.000000 0.079703
1.000000 0.260083 0.213972
1.000000 0.644896 0.452728
1.000000 0.873748 0.746548
0.000000 0.000000 0.137165
0.000000 0.000000 0.092669
0.147768 0.000000 0.060422
0.337806 0.000000 0.041532
0.573749 0.000000 0.039703
0.897433 0.000000 0.083449
1.000000 0.270088 0.215618
1.000000 0.648199 0.452545
1.000000 0.873748 0.746548
0.000000 0.097699 0.169632
0.000000 0.100184 0.162363
0.076587 0.107450 0.156399
0.301524 0.000000 0.075596
0.565806 0.000000 0.046581
0.901039 0.000000 0.085874
1.000000 0.284680 0.216946
1.000000 0.651466 0.458270
1.000000 0.875181 0.746605
0.000000 0.208437 0.221994
0.000000 0.221042 0.225683
0.000000 0.267568 0.179418
0.278222 0.257127 0.087228
0.574366 0.176766 0.037746
0.898678 0.000000 0.090744
1.000000 0.321748 0.223722
1.000000 0.657994 0.460887
1.000000 0.875181 0.746605
0.000000 0.391938 0.277553
0.000000 0.442288 0.248563
0.000000 0.484029 0.219249
0.000000 0.491409 0.113075
0.576228 0.456695 0.000000
0.892246 0.401264 0.072779
1.000000 0.426391 0.236786
1.000000 0.690541 0.469085
1.000000 0.879385 0.746799
0.000000 0.734064 0.414108
0.000000 0.752828 0.401525
0.000000 0.774077 0.381351
0.000000 0.779462 0.343431
0.343373 0.777036 0.205347
0.864150 0.740032 0.000000
1.000000 0.718766 0.267200
1.000000 0.764526 0.492643
1.000000 0.891690 0.755085
0.000000 0.935705 0.666324
0.000000 0.936781 0.666589
0.000000 0.937729 0.663229
0.000000 0.939230 0.656539
0.229452 0.940911 0.614356
0.781133 0.925517 0.507406
0.976563 0.906124 0.389772
1.000000 0.905298 0.581770
1.000000 0.919976 0.778758
0.551364 0.996799 0.880794
0.559075 0.997159 0.877713
0.565073 0.996978 0.877704
0.601100 0.996928 0.877909
0.653808 0.997206 0.875185
0.783316 0.992363 0.857076
0.932894 0.985712 0.800335
1.000000 0.979157 0.724797
1.000000 0.977303 0.844666
0.860311 1.000000 0.967052
0.860311 1.000000 0.967052
0.860311 1.000000 0.967052
0.864131 1.000000 0.967082
0.874614 1.000000 0.967094
0.895815 1.000000 0.965238
0.935234 1.000000 0.958730
0.989239 1.000000 0.936514
1.000000 1.000000 0.903239
0.000000 0.000000 0.325036
0.000000 0.000000 0.129189
0.129059 0.000000 0.075739
0.391757 0.000000 0.053561
0.571738 0.000000 0.095135
0.894149 0.000000 0.139123
1.000000 0.259092 0.244498
1.000000 0.648140 0.467382
1.000000 0.873748 0.746548
0.000000 0.000000 0.229329
0.000000 0.005504 0.159289
0.082969 0.000000 0.136732
0.318823 0.000000 0.094612
0.555904 0.000000 0.128982
0.885125 0.000000 0.145288
1.000000 0.269926 0.246908
1.000000 0.648128 0.470380
1.000000 0.875181 0.746605
0.000000 0.078266 0.246554
0.000000 0.080262 0.226017
0.000000 0.078526 0.237148
0.284700 0.000000 0.198034
0.548417 0.000000 0.159973
0.892724 0.000000 0.152812
1.000000 0.284533 0.248655
1.000000 0.651418 0.470205
1.000000 0.875181 0.746605
0.000000 0.207201 0.325764
0.000000 0.217794 0.331007
0.000000 0.239171 0.369811
0.206038 0.276627 0.354482
0.546632 0.195703 0.229037
0.890082 0.000000 0.165547
1.000000 0.322289 0.254675
1.000000 0.661197 0.472702
1.000000 0.876586 0.749041
0.000000 0.384837 0.445335
0.000000 0.421055 0.461339
0.000000 0.441457 0.456713
0.000000 0.517347 0.409756
0.537016 0.500148 0.293620
0.891614 0.421883 0.195728
1.000000 0.429965 0.269680
1.000000 0.690498 0.481193
1.000000 0.879362 0.751523
0.000000 0.705857 0.517767
0.000000 0.725867 0.512655
0.000000 0.741096 0.504099
0.000000 0.779503 0.486736
0.303966 0.790316 0.366928
0.853023 0.757962 0.218083
1.000000 0.722504 0.321006
1.000000 0.764490 0.505001
1.000000 0.891668 0.759650
0.000000 0.931491 0.704542
0.000000 0.932541 0.704708
0.000000 0.933439 0.704882
0.000000 0.937845 0.702245
0.159189 0.943757 0.666261
0.773795 0.928338 0.560765
0.972753 0.913326 0.437497
1.000000 0.905236 0.602774
1.000000 0.919946 0.785082
0.543313 0.996424 0.885333
0.550869 0.996771 0.885421
0.557179 0.996598 0.883890
0.588556 0.996735 0.884054
0.653234 0.997169 0.881503
0.782817 0.992812 0.865733
0.932103 0.986164 0.811056
1.000000 0.979081 0.735620
1.000000 0.977288 0.847725
0.858488 1.000000 0.967697
0.860269 1.000000 0.967692
0.860269 1.000000 0.967692
0.863797 1.000000 0.967681
0.872905 1.000000 0.967734
0.894242 1.000000 0.966535
0.935139 1.000000 0.960122
0.988713 1.000000 0.937318
1.000000 1.000000 0.905393
0.000000 0.000000 0.272635
0.000000 0.000000 0.204420
0.041928 0.000000 0.188437
0.279278 0.000000 0.154603
0.600010 0.000000 0.102466
0.862080 0.000000 0.288656
1.000000 0.259063 0.334639
1.000000 0.646997 0.503285
1.000000 0.873687 0.758322
0.000000 0.049840 0.291184
0.000000 0.052546 0.263298
0.000000 0.051305 0.261086
0.239460 0.000000 0.254658
0.535023 0.000000 0.176433
0.865937 0.000000 0.303946
1.000000 0.269118 0.337215
1.000000 0.650293 0.506242
1.000000 0.875120 0.758365
0.000000 0.084246 0.329829
0.000000 0.088496 0.313397
0.000000 0.091389 0.318701
0.203718 0.064411 0.337235
0.523776 0.000000 0.270926
0.869669 0.000000 0.322872
1.000000 0.284518 0.342956
1.000000 0.650293 0.506242
1.000000 0.875120 0.758365
0.000000 0.186493 0.411810
0.000000 0.198793 0.418218
0.000000 0.213547 0.445429
0.000000 0.220932 0.491239
0.533808 0.150784 0.444171
0.874865 0.000000 0.357533
1.000000 0.330586 0.356435
1.000000 0.660127 0.508890
1.000000 0.876538 0.758410
0.000000 0.368599 0.537031
0.000000 0.396903 0.569503
0.000000 0.420089 0.606900
0.000000 0.460078 0.639818
0.454146 0.533596 0.648091
0.868387 0.444198 0.463541
1.000000 0.445562 0.387545
1.000000 0.689564 0.520869
1.000000 0.879314 0.760815
0.000000 0.689519 0.729600
0.000000 0.696989 0.736079
0.000000 0.704899 0.735595
0.000000 0.731954 0.727003
0.000000 0.803475 0.704853
0.823819 0.790070 0.573515
1.000000 0.739873 0.458637
1.000000 0.764795 0.549971
1.000000 0.891623 0.768615
0.000000 0.919202 0.787111
0.000000 0.922228 0.787082
0.000000 0.923428 0.787064
0.000000 0.930030 0.781386
0.000000 0.941778 0.776139
0.760352 0.933422 0.696855
0.966670 0.918533 0.573925
1.000000 0.906523 0.647462
1.000000 0.919905 0.793611
0.504063 0.995629 0.898414
0.511118 0.995444 0.898402
0.526192 0.995625 0.898442
0.554432 0.995973 0.898530
0.641131 0.996421 0.897432
0.781475 0.993657 0.887845
0.931761 0.986436 0.838560
1.000000 0.979449 0.766726
1.000000 0.977240 0.855021
0.856252 1.000000 0.969548
0.856252 1.000000 0.969548
0.856252 1.000000 0.969548
0.859843 1.000000 0.969536
0.870843 1.000000 0.969573
0.892574 1.000000 0.969048
0.934989 1.000000 0.962894
0.988793 1.000000 0.942335
1.000000 1.000000 0.909627
0.000000 0.107772 0.420736
0.000000 0.110173 0.427537
0.000000 0.112307 0.437812
0.000000 0.104584 0.448031
0.456135 0.000000 0.445817
0.838778 0.000000 0.315063
1.000000 0.222612 0.561753
1.000000 0.649625 0.617503
1.000000 0.877794 0.785728
0.000000 0.126441 0.447927
0.000000 0.131947 0.458332
0.000000 0.134475 0.465328
0.000000 0.131182 0.486515
0.442822 0.000000 0.491651
0.834934 0.000000 0.378164
1.000000 0.233823 0.568755
1.000000 0.652906 0.620784
1.000000 0.877794 0.785728
0.000000 0.148003 0.472083
0.000000 0.152727 0.482691
0.000000 0.155699 0.493408
0.000000 0.159199 0.522230
0.439419 0.077073 0.542334
0.837439 0.000000 0.438118
1.000000 0.256088 0.575812
1.000000 0.656200 0.620640
1.000000 0.877794 0.785728
0.000000 0.207758 0.528381
0.000000 0.211886 0.543072
0.000000 0.217493 0.557799
0.000000 0.225667 0.587662
0.414411 0.195214 0.632042
0.847761 0.000000 0.536546
1.000000 0.310541 0.593313
1.000000 0.663616 0.624264
1.000000 0.879168 0.788026
0.000000 0.373528 0.670924
0.000000 0.386084 0.682012
0.000000 0.395589 0.704756
0.000000 0.411485 0.730024
0.236402 0.446942 0.779903
0.857476 0.390221 0.736255
1.000000 0.446013 0.642133
1.000000 0.692824 0.633839
1.000000 0.882147 0.790697
0.000000 0.647249 0.808375
0.000000 0.647155 0.822382
0.000000 0.662409 0.832011
0.000000 0.696452 0.847355
0.000000 0.761091 0.869501
0.765578 0.816285 0.870831
0.991860 0.762030 0.750286
1.000000 0.771873 0.669965
1.000000 0.894274 0.800005
0.000000 0.905785 0.905821
0.000000 0.907444 0.905667
0.000000 0.908918 0.907041
0.000000 0.917050 0.904821
0.000000 0.924604 0.905291
0.694890 0.941055 0.892912
0.948860 0.930391 0.842721
1.000000 0.912780 0.761329
1.000000 0.923065 0.818462
0.357986 0.992727 0.931703
0.368331 0.992556 0.931690
0.380866 0.993021 0.929392
0.427810 0.992771 0.929323
0.545736 0.992978 0.929132
0.747752 0.993847 0.927863
0.924050 0.988675 0.901578
1.000000 0.982086 0.848193
1.000000 0.978642 0.876638
0.847553 1.000000 0.974792
0.847553 1.000000 0.974792
0.847553 1.000000 0.974792
0.851622 1.000000 0.974801
0.859250 1.000000 0.974237
0.884116 1.000000 0.974283
0.934469 1.000000 0.971655
0.987587 1.000000 0.951688
1.000000 1.000000 0.921532
0.000000 0.263251 0.713779
0.000000 0.262948 0.717541
0.000000 0.267451 0.721094
0.000000 0.270785 0.735534
0.208462 0.263870 0.755920
0.767011 0.138135 0.779819
1.000000 0.000000 0.647402
1.000000 0.635660 0.825690
1.000000 0.879043 0.850104
0.000000 0.270648 0.717302
0.000000 0.272841 0.720947
0.000000 0.274897 0.728253
0.000000 0.283770 0.742290
0.190903 0.280249 0.769390
0.764502 0.173068 0.789568
1.000000 0.000000 0.669646
1.000000 0.640027 0.825609
1.000000 0.879043 0.850104
0.000000 0.280641 0.728116
0.000000 0.285583 0.731583
0.000000 0.290513 0.735008
0.000000 0.297215 0.748890
0.173318 0.294466 0.779569
0.761756 0.203429 0.798920
1.000000 0.000000 0.688363
1.000000 0.646812 0.827711
1.000000 0.879043 0.850104
0.000000 0.312929 0.748506
0.000000 0.318451 0.751768
0.000000 0.320997 0.758540
0.000000 0.328679 0.775790
0.108144 0.336368 0.801538
0.753412 0.270814 0.824731
1.000000 0.000000 0.731438
1.000000 0.656868 0.832009
1.000000 0.880417 0.850066
0.000000 0.404597 0.802920
0.000000 0.404454 0.806063
0.000000 0.411024 0.811913
0.000000 0.420515 0.826064
0.000000 0.436946 0.851122
0.711677 0.428937 0.874989
1.000000 0.319681 0.815574
1.000000 0.690202 0.839782
1.000000 0.884726 0.851995
0.000000 0.643040 0.888142
0.000000 0.642968 0.890190
0.000000 0.650545 0.893735
0.000000 0.661652 0.900677
0.000000 0.693738 0.913840
0.586851 0.730106 0.930985
0.996835 0.714002 0.911017
1.000000 0.776873 0.867216
1.000000 0.896494 0.860599
0.000000 0.880185 0.940991
0.000000 0.882377 0.942008
0.000000 0.884508 0.943007
0.000000 0.892777 0.946883
0.000000 0.910178 0.951619
0.461558 0.925856 0.961257
0.928407 0.942893 0.961736
1.000000 0.923506 0.917311
1.000000 0.924816 0.875067
0.000000 0.991370 0.977605
0.000000 0.991229 0.977593
0.000000 0.990942 0.977567
0.000000 0.991590 0.977390
0.317623 0.990858 0.977099
0.629028 0.989838 0.975415
0.904611 0.990891 0.973810
0.993423 0.987428 0.952840
1.000000 0.980391 0.919726
0.811691 1.000000 0.985856
0.813837 1.000000 0.985848
0.813837 1.000000 0.985848
0.818502 1.000000 0.985831
0.831236 1.000000 0.985784
0.861374 1.000000 0.985683
0.920415 1.000000 0.985554
0.984673 1.000000 0.975817
1.000000 1.000000 0.952558
0.000000 0.497243 0.915128
0.000000 0.497085 0.916866
0.000000 0.500542 0.916657
0.000000 0.503471 0.919803
0.000000 0.515244 0.926775
0.485976 0.513483 0.939831
1.000000 0.483282 0.941957
1.000000 0.401982 0.889666
1.000000 0.872722 0.945126
0.000000 0.500917 0.916706
0.000000 0.500762 0.918416
0.000000 0.504264 0.918204
0.000000 0.507228 0.921289
0.000000 0.519199 0.928177
0.481884 0.521377 0.940896
1.000000 0.487763 0.943137
1.000000 0.412209 0.893234
1.000000 0.872722 0.945126
0.000000 0.504693 0.918259
0.000000 0.508236 0.918046
0.000000 0.508012 0.919718
0.000000 0.510991 0.922745
0.000000 0.522985 0.927987
0.484234 0.528906 0.940501
0.999592 0.496635 0.944144
1.000000 0.419161 0.894952
1.000000 0.874177 0.945036
0.000000 0.519655 0.920872
0.000000 0.519513 0.922495
0.000000 0.523105 0.923898
0.000000 0.526125 0.925211
0.000000 0.542209 0.931669
0.479732 0.548404 0.943720
0.995042 0.518691 0.947214
1.000000 0.448268 0.903276
1.000000 0.875606 0.945948
0.000000 0.565065 0.928059
0.000000 0.564940 0.929586
0.000000 0.568551 0.930882
0.000000 0.571816 0.935098
0.000000 0.580692 0.939937
0.458925 0.603398 0.950137
0.979891 0.583745 0.956588
1.000000 0.520574 0.920264
1.000000 0.880087 0.947670
0.000000 0.668813 0.945032
0.000000 0.672521 0.944781
0.000000 0.672413 0.946074
0.000000 0.675787 0.948351
0.000000 0.693015 0.956621
0.317936 0.716455 0.964514
0.940153 0.717474 0.970982
1.000000 0.691171 0.949608
1.000000 0.895068 0.950541
0.000000 0.880994 0.972530
0.000000 0.880917 0.973342
0.000000 0.882999 0.973965
0.000000 0.882502 0.974715
0.000000 0.887230 0.978640
0.000000 0.898320 0.982210
0.856256 0.911018 0.987933
1.000000 0.908332 0.980889
1.000000 0.928249 0.961385
0.000000 0.982560 0.991202
0.000000 0.983326 0.991113
0.000000 0.983128 0.991545
0.000000 0.984254 0.992219
0.000000 0.986576 0.993792
0.183890 0.987653 0.995245
0.833356 0.984791 0.997583
0.986062 0.990589 0.998270
1.000000 0.984208 0.981645
0.743266 1.000000 1.000000
0.743266 1.000000 1.000000
0.743266 1.000000 1.000000
0.748651 1.000000 1.000000
0.762500 1.000000 1.000000
0.803630 1.000000 1.000000
0.877829 1.000000 1.000000
0.979561 1.000000 1.000000
1.000000 1.000000 0.995133
0.000000 0.777122 0.988704
0.000000 0.776971 0.988688
0.000000 0.776860 0.989369
0.000000 0.776391 0.989319
0.000000 0.781417 0.990071
0.439980 0.788126 0.991853
0.795857 0.787728 0.994595
1.000000 0.796559 0.996497
1.000000 0.751695 0.976551
0.000000 0.777122 0.988704
0.000000 0.777012 0.989385
0.000000 0.776860 0.989369
0.000000 0.779734 0.989099
0.000000 0.781417 0.990071
0.439980 0.788126 0.991853
0.795857 0.787728 0.994595
1.000000 0.796559 0.996497
1.000000 0.751695 0.976551
0.000000 0.777163 0.989401
0.000000 0.777012 0.989385
0.000000 0.776860 0.989369
0.000000 0.779734 0.989099
0.000000 0.781417 0.990071
0.440110 0.788166 0.992481
0.794496 0.790733 0.994943
1.000000 0.796603 0.996959
1.000000 0.753821 0.977190
0.000000 0.780502 0.989180
0.000000 0.780353 0.989164
0.000000 0.780241 0.989836
0.000000 0.783077 0.989569
0.000000 0.784725 0.990526
0.437129 0.791293 0.992278
0.791825 0.796562 0.995107
1.000000 0.801790 0.997108
1.000000 0.759386 0.977637
0.000000 0.793537 0.989683
0.000000 0.793390 0.989668
0.000000 0.793277 0.990323
0.000000 0.795959 0.990065
0.000000 0.797466 0.991000
0.425584 0.803448 0.992716
0.789405 0.810199 0.995746
1.000000 0.814418 0.998118
1.000000 0.776145 0.980997
0.000000 0.833857 0.991443
0.000000 0.833718 0.991429
0.000000 0.833577 0.991415
0.000000 0.835754 0.991801
0.000000 0.836762 0.992065
0.382654 0.836303 0.995012
0.774671 0.840987 0.998028
1.000000 0.853643 0.999752
1.000000 0.818758 0.986218
0.000000 0.888549 0.996073
0.000000 0.890493 0.995905
0.000000 0.890364 0.995893
0.000000 0.889841 0.996314
0.000000 0.892462 0.996799
0.338980 0.896567 0.998628
0.745792 0.898898 1.000000
0.989300 0.908103 1.000000
1.000000 0.891101 0.995466
0.000000 0.977075 1.000000
0.000000 0.976956 1.000000
0.000000 0.977715 1.000000
0.000000 0.977465 1.000000
0.000000 0.977870 1.000000
0.375237 0.978227 1.000000
0.722743 0.975791 1.000000
0.959571 0.977573 1.000000
1.000000 0.979419 1.000000
0.394327 1.000000 1.000000
0.394327 1.000000 1.000000
0.405338 1.000000 1.000000
0.423574 1.000000 1.000000
0.484986 1.000000 1.000000
0.599397 1.000000 1.000000
0.770522 1.000000 1.000000
0.951627 1.000000 1.000000
1.000000 1.000000 1.000000
