Assets/Lutify-Free-LUTs-Pack/Lutify Free LUTs Pack/Commercial Pro - Claire/Lutify.me-Claire-FLog2-to-Rec709.cube
# Created with: fylm.ai - Colour Grading and Collaboration Software in Cloud 
# Website: https://fylm.ai 
# META
# Option: Gamut compress
# Block 1: IDT | Fujifilm F-Gamut F-Log2
# Block 2: colourMatch | Blending Mode: Normal | {"ColorSpace":0,"CrossCovarianceLimit":50,"ReshapingIterations":1,"PercentSaturationShift":100,"PercentShadingShift":100,"ExtraShading":true,"PercentTint":100,"PercentModified":100}
# Block 3: HSL | Blending Mode: Normal | {"hue":{"Reds":0,"Yellows":0,"Greens":0,"Cyans":0,"Blues":0,"Magentas":0},"saturation":{"Reds":1,"Yellows":1,"Greens":1,"Cyans":1,"Blues":1,"Magentas":1},"luminance":{"Reds":0.9,"Yellows":0.9,"Greens":0.9,"Cyans":0.8,"Blues":0.8,"Magentas":0.9},"lum_sat":{"Blacks":1,"Shadows":1,"Midtones":1,"Highlights":1,"Whites":1},"sat_sat":{"10":1,"20":1,"30":1,"40":1,"50":1}}
# Block 4: subtractiveColour | Blending Mode: Normal | {"sliders":{"gainY":0.1,"C":0.05,"M":0.05,"Y":0.05}}
# Block 5: logPrimaries | Blending Mode: Normal | {"wheels":{"shadows":{"Y":"0","R":"1","G":"1","B":"1"},"midtones":{"Y":"0","R":"1","G":"1","B":"1"},"highlights":{"Y":"0","R":"1","G":"1","B":"1"},"offset":{"Y":"0","R":"1","G":"1","B":"1"}},"sliders":{"shadows":{"Y":0,"R":-0.05,"G":0,"B":0.1},"midtones":{"Y":0,"R":0,"G":0,"B":0},"highlights":{"Y":0,"R":0,"G":0,"B":0},"offset":{"Y":0,"R":0,"G":0,"B":0}}}
# Block 6: LUT | Filmic Curve Response: Standard Contrast 1 (100%)
# Block 7: LUT | Illuminant: D93 (100%)
# Block 8: LUT | Neutral Tint: Teal Tint 4 (100%)
# Block 9: ODT | Rec709
TITLE "Lutify.me-Claire-FLog2-to-Rec709" 
LUT_3D_SIZE 33
0.000000 0.000000 0.000000
0.000000 0.000000 0.000000
0.105105 0.000000 0.000000
0.000000 0.000000 0.008058
0.033421 0.000000 0.000000
0.102816 0.000000 0.000000
0.169438 0.000000 0.000000
0.231735 0.000000 0.000000
0.283986 0.000000 0.000000
0.343579 0.000000 0.000000
0.381312 0.000000 0.000000
0.414094 0.000000 0.000000
0.450172 0.000000 0.000000
0.486108 0.000000 0.000000
0.532210 0.000000 0.000000
0.581454 0.000000 0.000000
0.653428 0.000000 0.000000
0.722871 0.000000 0.000000
0.803058 0.000000 0.000000
0.880362 0.000000 0.050240
0.952707 0.000000 0.079810
1.000000 0.000000 0.113319
1.000000 0.162614 0.154936
1.000000 0.290933 0.202450
1.000000 0.386655 0.256297
1.000000 0.482073 0.310034
1.000000 0.573834 0.376724
1.000000 0.659252 0.455688
1.000000 0.733378 0.523326
1.000000 0.795007 0.596261
1.000000 0.842968 0.679088
1.000000 0.879148 0.745597
1.000000 0.906002 0.797387
0.000000 0.000000 0.000000
0.000000 0.000000 0.000000
0.102523 0.000000 0.000000
0.000000 0.000000 0.010201
0.031924 0.000000 0.000000
0.100181 0.000000 0.000000
0.163591 0.000000 0.000000
0.221297 0.000000 0.000000
0.272912 0.000000 0.000000
0.325556 0.000000 0.000000
0.370248 0.000000 0.000000
0.401939 0.000000 0.000000
0.436866 0.000000 0.000000
0.482521 0.000000 0.000000
0.532285 0.000000 0.000000
0.577363 0.000000 0.000000
0.653455 0.000000 0.000000
0.722875 0.000000 0.000000
0.803022 0.000000 0.000000
0.880309 0.000000 0.049585
0.952608 0.000000 0.079352
1.000000 0.000000 0.112902
1.000000 0.170219 0.156518
1.000000 0.290927 0.204751
1.000000 0.386655 0.256297
1.000000 0.482073 0.310034
1.000000 0.573834 0.376724
1.000000 0.659252 0.455688
1.000000 0.733378 0.523326
1.000000 0.795007 0.596261
1.000000 0.842968 0.679088
1.000000 0.879148 0.745597
1.000000 0.906002 0.797387
0.000000 0.000000 0.000000
0.000000 0.000000 0.000000
0.000000 0.000000 0.000000
0.000000 0.000000 0.012620
0.029273 0.000000 0.000000
0.094917 0.000000 0.000000
0.158037 0.000000 0.000000
0.211413 0.000000 0.000000
0.262135 0.000000 0.000000
0.313411 0.000000 0.000000
0.356930 0.000000 0.000000
0.390215 0.000000 0.000000
0.427206 0.000000 0.000000
0.478944 0.000000 0.000000
0.528373 0.000000 0.000000
0.577429 0.000000 0.000000
0.649201 0.000000 0.000000
0.722879 0.000000 0.000000
0.803005 0.000000 0.000000
0.880255 0.000000 0.050826
0.952507 0.000000 0.078879
1.000000 0.000000 0.114871
1.000000 0.170219 0.156518
1.000000 0.290927 0.204751
1.000000 0.390776 0.255961
1.000000 0.485926 0.309734
1.000000 0.573834 0.376724
1.000000 0.662569 0.455510
1.000000 0.733378 0.523326
1.000000 0.797226 0.596269
1.000000 0.842968 0.679088
1.000000 0.879148 0.745597
1.000000 0.906002 0.797387
0.000000 0.000000 0.011880
0.000000 0.000000 0.012221
0.000000 0.000000 0.012084
0.000000 0.000000 0.011532
0.024608 0.000000 0.000000
0.087073 0.000000 0.000000
0.147511 0.000000 0.000000
0.200198 0.000000 0.000000
0.251824 0.000000 0.000000
0.301808 0.000000 0.000000
0.349218 0.000000 0.000000
0.381787 0.000000 0.000000
0.420934 0.000000 0.000000
0.475406 0.000000 0.000000
0.524492 0.000000 0.000000
0.577476 0.000000 0.000000
0.649235 0.000000 0.000000
0.722882 0.000000 0.000000
0.802968 0.000000 0.000000
0.880199 0.000000 0.050150
0.952403 0.000000 0.080265
1.000000 0.000000 0.114454
1.000000 0.177522 0.156103
1.000000 0.295676 0.204374
1.000000 0.390776 0.255961
1.000000 0.485926 0.309734
1.000000 0.577475 0.376481
1.000000 0.662569 0.455510
1.000000 0.736281 0.523234
1.000000 0.797226 0.596269
1.000000 0.842968 0.679088
1.000000 0.879148 0.745597
1.000000 0.906002 0.797387
0.000000 0.014846 0.000000
0.000000 0.014498 0.000000
0.000000 0.012993 0.000000
0.000000 0.010459 0.000000
0.000000 0.002354 0.000000
0.068621 0.000000 0.000000
0.127687 0.000000 0.000000
0.184313 0.000000 0.000000
0.238072 0.000000 0.000000
0.290706 0.000000 0.000000
0.333596 0.000000 0.000000
0.370801 0.000000 0.000000
0.414783 0.000000 0.000000
0.471942 0.000000 0.000000
0.520623 0.000000 0.000000
0.577540 0.000000 0.000000
0.644998 0.000000 0.000000
0.722885 0.000000 0.000000
0.802930 0.000000 0.000000
0.880142 0.000000 0.051389
0.952403 0.000000 0.080265
1.000000 0.000000 0.114026
1.000000 0.177522 0.156103
1.000000 0.295676 0.204374
1.000000 0.390776 0.255961
1.000000 0.485926 0.309734
1.000000 0.577475 0.376481
1.000000 0.662569 0.455510
1.000000 0.736270 0.526290
1.000000 0.797226 0.596269
1.000000 0.842968 0.679088
1.000000 0.879148 0.745597
1.000000 0.906002 0.797387
0.000000 0.048480 0.000000
0.000000 0.047781 0.000000
0.000000 0.047630 0.000000
0.000000 0.047471 0.000000
0.000000 0.045347 0.000000
0.051830 0.036270 0.000000
0.106692 0.000000 0.000000
0.162396 0.000000 0.000000
0.211850 0.000000 0.000000
0.269413 0.000000 0.000000
0.321295 0.000000 0.000000
0.362880 0.000000 0.000000
0.411873 0.000000 0.000000
0.468526 0.000000 0.000000
0.516847 0.000000 0.000000
0.577631 0.000000 0.000000
0.645049 0.000000 0.000000
0.722889 0.000000 0.000000
0.802890 0.000000 0.000000
0.880026 0.000000 0.049968
0.952296 0.000000 0.081655
1.000000 0.000000 0.114026
1.000000 0.184558 0.155678
1.000000 0.300385 0.203990
1.000000 0.391532 0.256492
1.000000 0.485926 0.309734
1.000000 0.577475 0.376481
1.000000 0.662569 0.455510
1.000000 0.736270 0.526290
1.000000 0.797226 0.596269
1.000000 0.842968 0.679088
1.000000 0.879148 0.745597
1.000000 0.906002 0.797387
0.000000 0.074758 0.000000
0.000000 0.074636 0.000000
0.000000 0.074480 0.000000
0.000000 0.072453 0.000000
0.000000 0.068680 0.000000
0.031135 0.064266 0.000000
0.091275 0.054727 0.000000
0.147764 0.033726 0.000000
0.199399 0.000000 0.000000
0.259163 0.000000 0.000000
0.307406 0.000000 0.000000
0.355397 0.000000 0.000000
0.403080 0.000000 0.000000
0.458215 0.000000 0.000000
0.513254 0.000000 0.000000
0.577799 0.000000 0.000000
0.645137 0.000000 0.000000
0.722896 0.000000 0.000000
0.802829 0.000000 0.000000
0.879905 0.000000 0.050468
0.952082 0.000000 0.080682
1.000000 0.000000 0.115153
1.000000 0.191361 0.157268
1.000000 0.300379 0.206316
1.000000 0.395626 0.258546
1.000000 0.489778 0.309431
1.000000 0.577475 0.376481
1.000000 0.662569 0.455510
1.000000 0.736270 0.526290
1.000000 0.797226 0.596269
1.000000 0.842968 0.679088
1.000000 0.879148 0.745597
1.000000 0.906002 0.797387
0.000000 0.102748 0.000000
0.000000 0.101366 0.000000
0.000000 0.101186 0.000000
0.000000 0.098635 0.000000
0.000000 0.098493 0.000000
0.000000 0.091994 0.000000
0.080099 0.085207 0.000000
0.142143 0.072091 0.000000
0.195653 0.055268 0.000000
0.255322 0.000000 0.000000
0.298724 0.000000 0.000000
0.350973 0.000000 0.000000
0.388959 0.000000 0.000000
0.455219 0.000000 0.000000
0.513606 0.000000 0.000000
0.573929 0.000000 0.000000
0.645275 0.000000 0.000000
0.722905 0.000000 0.000000
0.802720 0.000000 0.000000
0.879647 0.000000 0.051436
0.951857 0.000000 0.081578
1.000000 0.000000 0.116733
1.000000 0.197965 0.158869
1.000000 0.305051 0.205932
1.000000 0.395626 0.258546
1.000000 0.489771 0.312162
1.000000 0.581117 0.376236
1.000000 0.662569 0.455510
1.000000 0.736270 0.526290
1.000000 0.797703 0.597093
1.000000 0.842968 0.679088
1.000000 0.879148 0.745597
1.000000 0.906002 0.797387
0.000000 0.131941 0.000000
0.000000 0.131843 0.000000
0.000000 0.130253 0.000000
0.000000 0.130114 0.000000
0.000000 0.128472 0.000000
0.000000 0.124934 0.000000
0.048874 0.119116 0.000000
0.129700 0.111248 0.000000
0.192205 0.092056 0.000000
0.246684 0.078169 0.000000
0.297064 0.049469 0.000000
0.352016 0.000000 0.000000
0.393068 0.000000 0.000000
0.452866 0.000000 0.000000
0.510536 0.000000 0.000000
0.570338 0.000000 0.000000
0.645530 0.000000 0.000000
0.722914 0.000000 0.000000
0.802602 0.000000 0.000000
0.879373 0.000000 0.050259
0.951504 0.000000 0.081935
1.000000 0.000000 0.117416
1.000000 0.210685 0.160040
1.000000 0.309686 0.205542
1.000000 0.399716 0.258207
1.000000 0.493621 0.311860
1.000000 0.581108 0.379301
1.000000 0.665871 0.455333
1.000000 0.736270 0.526290
1.000000 0.797703 0.597093
1.000000 0.842968 0.679088
1.000000 0.879148 0.745597
1.000000 0.906002 0.797387
0.000000 0.166797 0.000000
0.000000 0.166673 0.000000
0.000000 0.166549 0.000000
0.000000 0.164618 0.000000
0.000000 0.164430 0.000000
0.000000 0.162337 0.000000
0.000000 0.156396 0.000000
0.103211 0.152506 0.000000
0.175961 0.143391 0.000000
0.243182 0.125247 0.000000
0.297030 0.111806 0.000000
0.342969 0.100179 0.000000
0.392339 0.075270 0.000000
0.448313 0.000000 0.000000
0.504938 0.000000 0.000000
0.567208 0.000000 0.000000
0.645819 0.000000 0.000000
0.727260 0.000000 0.000000
0.802431 0.000000 0.000000
0.878969 0.000000 0.049833
0.950998 0.000000 0.083674
1.000000 0.095025 0.119690
1.000000 0.227828 0.160817
1.000000 0.318854 0.207110
1.000000 0.403791 0.260266
1.000000 0.497471 0.311555
1.000000 0.584751 0.379057
1.000000 0.665860 0.458366
1.000000 0.739150 0.526202
1.000000 0.799899 0.597106
1.000000 0.844740 0.679143
1.000000 0.880550 0.745673
1.000000 0.905991 0.799470
0.000000 0.203643 0.000000
0.000000 0.203640 0.000000
0.000000 0.203584 0.000000
0.000000 0.201361 0.000000
0.000000 0.201155 0.000000
0.000000 0.198767 0.000000
0.000000 0.196068 0.000000
0.017843 0.190551 0.000000
0.152952 0.187328 0.000000
0.229601 0.172987 0.000000
0.293961 0.153918 0.000000
0.343181 0.146800 0.000000
0.394508 0.137066 0.000000
0.451005 0.119394 0.000000
0.507229 0.097206 0.000000
0.573172 0.069150 0.000000
0.650702 0.000000 0.000000
0.727316 0.000000 0.000000
0.802225 0.000000 0.000000
0.878529 0.000000 0.051679
0.954011 0.000000 0.085589
1.000000 0.136801 0.122282
1.000000 0.238757 0.162026
1.000000 0.332393 0.208283
1.000000 0.411930 0.259577
1.000000 0.501313 0.314012
1.000000 0.588396 0.378813
1.000000 0.669146 0.458194
1.000000 0.739150 0.526202
1.000000 0.799887 0.600136
1.000000 0.844740 0.679143
1.000000 0.880550 0.745673
1.000000 0.907179 0.799527
0.000000 0.240420 0.000000
0.000000 0.240421 0.000000
0.000000 0.240397 0.000000
0.000000 0.240352 0.000000
0.000000 0.238277 0.000000
0.000000 0.237994 0.000000
0.000000 0.235336 0.000000
0.000000 0.234077 0.000000
0.097486 0.229461 0.000000
0.201531 0.224947 0.000000
0.272457 0.212978 0.000000
0.336244 0.194185 0.000000
0.394916 0.187300 0.000000
0.453949 0.175740 0.000000
0.511272 0.172936 0.000000
0.575651 0.154206 0.000000
0.652082 0.124701 0.000000
0.727654 0.076891 0.000000
0.811387 0.000000 0.000000
0.882082 0.000000 0.051090
0.953096 0.000000 0.088116
1.000000 0.175681 0.126254
1.000000 0.259821 0.162269
1.000000 0.341292 0.209874
1.000000 0.424077 0.260953
1.000000 0.513656 0.313764
1.000000 0.592034 0.381651
1.000000 0.672414 0.458023
1.000000 0.742007 0.526119
1.000000 0.799887 0.600136
1.000000 0.844740 0.679143
1.000000 0.880550 0.745673
1.000000 0.907179 0.799527
0.000000 0.272129 0.000000
0.000000 0.278966 0.000000
0.000000 0.281259 0.000000
0.000000 0.281221 0.000000
0.000000 0.278839 0.000000
0.000000 0.278730 0.000000
0.000000 0.276078 0.000000
0.000000 0.273042 0.000000
0.000000 0.271474 0.000000
0.161102 0.268038 0.000000
0.243184 0.261603 0.000000
0.324574 0.247818 0.000000
0.390651 0.235220 0.000000
0.461983 0.232603 0.000000
0.517872 0.223676 0.000000
0.578818 0.214585 0.000000
0.654233 0.202617 0.000000
0.732693 0.177340 0.000000
0.810914 0.140512 0.000000
0.880982 0.128422 0.051515
0.951347 0.145521 0.085210
1.000000 0.224971 0.126144
1.000000 0.280098 0.165009
1.000000 0.359298 0.216026
1.000000 0.432811 0.263239
1.000000 0.521318 0.315938
1.000000 0.602963 0.387130
1.000000 0.675655 0.460900
1.000000 0.742653 0.530025
1.000000 0.802070 0.600151
1.000000 0.846512 0.682105
1.000000 0.880550 0.745673
1.000000 0.907179 0.799527
0.000000 0.326778 0.000000
0.000000 0.326765 0.000000
0.000000 0.329491 0.000000
0.000000 0.332238 0.000000
0.000000 0.334996 0.000000
0.000000 0.334906 0.000000
0.000000 0.331907 0.000000
0.000000 0.331511 0.000000
0.000000 0.330619 0.000000
0.000000 0.334361 0.000000
0.173473 0.331712 0.000000
0.272463 0.324916 0.000000
0.359864 0.313296 0.000000
0.455778 0.295186 0.000000
0.521050 0.287614 0.000000
0.581117 0.285717 0.000000
0.660815 0.276379 0.000000
0.733727 0.258633 0.000000
0.814631 0.247592 0.000000
0.878369 0.239713 0.042682
0.948719 0.220478 0.089119
1.000000 0.261238 0.128613
1.000000 0.308823 0.168640
1.000000 0.376991 0.217273
1.000000 0.449480 0.269868
1.000000 0.532804 0.320680
1.000000 0.606615 0.386887
1.000000 0.682105 0.460574
1.000000 0.748265 0.529875
1.000000 0.804241 0.600171
1.000000 0.846512 0.682105
1.000000 0.881934 0.748166
1.000000 0.907179 0.799527
0.000000 0.377697 0.030017
0.000000 0.380700 0.000000
0.000000 0.380679 0.000000
0.000000 0.383688 0.000000
0.000000 0.386718 0.000000
0.000000 0.389720 0.000000
0.000000 0.389578 0.000000
0.000000 0.389325 0.000000
0.000000 0.388738 0.000000
0.000000 0.393832 0.000000
0.000000 0.388739 0.000000
0.202469 0.386143 0.000000
0.315460 0.379063 0.000000
0.419500 0.366493 0.000000
0.519282 0.358051 0.000000
0.580940 0.351612 0.000000
0.660935 0.341962 0.000000
0.734296 0.331875 0.000000
0.813433 0.327328 0.000000
0.883151 0.315840 0.000000
0.947157 0.305728 0.092304
0.997358 0.313952 0.129657
1.000000 0.349844 0.168600
1.000000 0.398628 0.220651
1.000000 0.469468 0.273180
1.000000 0.548841 0.325908
1.000000 0.617559 0.392432
1.000000 0.688473 0.463317
1.000000 0.751023 0.532870
1.000000 0.806388 0.603228
1.000000 0.848337 0.682169
1.000000 0.881934 0.748166
1.000000 0.908360 0.799587
0.000000 0.432149 0.121771
0.000000 0.438981 0.113839
0.000000 0.442393 0.103586
0.000000 0.445811 0.095749
0.000000 0.449231 0.083603
0.000000 0.456126 0.059871
0.000000 0.452554 0.013417
0.000000 0.452382 0.000000
0.000000 0.448502 0.000000
0.000000 0.454731 0.000000
0.000000 0.453528 0.000000
0.000000 0.451777 0.000000
0.248135 0.445481 0.000000
0.373967 0.451465 0.000000
0.492156 0.433925 0.000000
0.581855 0.419465 0.000000
0.659862 0.408150 0.000000
0.741272 0.406782 0.000000
0.815492 0.402028 0.000000
0.878859 0.390571 0.000000
0.940491 0.388048 0.080811
0.992898 0.388769 0.132987
1.000000 0.397894 0.169801
1.000000 0.440610 0.224437
1.000000 0.494136 0.279391
1.000000 0.564109 0.330571
1.000000 0.628518 0.394867
1.000000 0.695843 0.466836
1.000000 0.759171 0.535767
1.000000 0.813184 0.607171
1.000000 0.850131 0.685124
1.000000 0.883574 0.748850
1.000000 0.909532 0.799649
0.000000 0.502294 0.174297
0.000000 0.509513 0.169621
0.000000 0.513153 0.165703
0.000000 0.516807 0.158596
0.000000 0.520463 0.154469
0.000000 0.524100 0.143788
0.000000 0.523986 0.133953
0.000000 0.523792 0.112937
0.000000 0.519788 0.086433
0.000000 0.526712 0.049746
0.000000 0.529537 0.000000
0.000000 0.524461 0.000000
0.105763 0.522146 0.000000
0.312018 0.526031 0.000000
0.440477 0.521147 0.000000
0.550082 0.503560 0.000000
0.659611 0.483603 0.000000
0.737575 0.488223 0.000000
0.823588 0.476000 0.000000
0.883708 0.470557 0.000000
0.943614 0.474400 0.065184
0.987814 0.472765 0.133067
1.000000 0.477866 0.178106
1.000000 0.498661 0.231933
1.000000 0.533996 0.283719
1.000000 0.591452 0.335129
1.000000 0.646591 0.400063
1.000000 0.709162 0.472398
1.000000 0.765013 0.539590
1.000000 0.817360 0.607254
1.000000 0.855457 0.685351
1.000000 0.884938 0.751315
1.000000 0.909522 0.801716
0.000000 0.576499 0.232012
0.000000 0.584028 0.230701
0.000000 0.587777 0.227037
0.000000 0.591515 0.223350
0.000000 0.591448 0.220379
0.000000 0.591377 0.211398
0.000000 0.595057 0.201595
0.000000 0.598693 0.190418
0.000000 0.602241 0.171898
0.000000 0.605650 0.156257
0.000000 0.605039 0.128863
0.000000 0.600089 0.087943
0.000000 0.598188 0.000000
0.195979 0.603097 0.000000
0.382334 0.595198 0.000000
0.508297 0.590086 0.000000
0.628531 0.579288 0.000000
0.730395 0.567870 0.000000
0.817519 0.556648 0.000000
0.878433 0.551850 0.000000
0.938309 0.556538 0.055417
0.983325 0.551416 0.134333
1.000000 0.560554 0.186744
1.000000 0.567778 0.248031
1.000000 0.581506 0.293287
1.000000 0.621858 0.341971
1.000000 0.664800 0.409349
1.000000 0.722091 0.478077
1.000000 0.775738 0.543395
1.000000 0.821455 0.613504
1.000000 0.858910 0.688387
1.000000 0.889017 0.751570
1.000000 0.910686 0.801779
0.000000 0.644696 0.295191
0.000000 0.648460 0.294715
0.000000 0.652244 0.290782
0.000000 0.652184 0.290811
0.000000 0.659775 0.286340
0.000000 0.659706 0.286373
0.000000 0.663395 0.282450
0.000000 0.670900 0.277946
0.000000 0.674495 0.267133
0.000000 0.674160 0.250205
0.000000 0.673696 0.230064
0.000000 0.672903 0.213419
0.000000 0.671199 0.186485
0.000000 0.676711 0.142616
0.292372 0.669587 0.091063
0.451623 0.665285 0.000000
0.596443 0.658945 0.000000
0.708274 0.648383 0.000000
0.798369 0.638041 0.000000
0.871795 0.628721 0.000000
0.926088 0.629719 0.024618
0.974657 0.624658 0.142272
1.000000 0.633410 0.195594
1.000000 0.636059 0.257235
1.000000 0.644568 0.305893
1.000000 0.662852 0.354862
1.000000 0.696354 0.416823
1.000000 0.740702 0.486827
1.000000 0.785468 0.549532
1.000000 0.829500 0.616842
1.000000 0.862282 0.694256
1.000000 0.891688 0.754110
1.000000 0.912980 0.803964
0.000000 0.722123 0.363467
0.000000 0.722044 0.363499
0.000000 0.725972 0.363135
0.000000 0.729874 0.359095
0.000000 0.733703 0.358751
0.000000 0.737502 0.358410
0.000000 0.741236 0.358088
0.000000 0.741078 0.354409
0.000000 0.740871 0.346649
0.000000 0.744368 0.338554
0.000000 0.743938 0.323226
0.000000 0.743221 0.296930
0.000000 0.745844 0.274399
0.000000 0.747574 0.237281
0.160791 0.740847 0.212682
0.374851 0.744994 0.172534
0.547153 0.739482 0.141570
0.680714 0.733114 0.095255
0.788093 0.719063 0.000000
0.858998 0.714358 0.000000
0.912544 0.703339 0.062296
0.961304 0.697676 0.154038
0.990708 0.705653 0.221543
1.000000 0.710700 0.274563
1.000000 0.713606 0.320859
1.000000 0.721496 0.371728
1.000000 0.733919 0.431474
1.000000 0.770182 0.494055
1.000000 0.804505 0.559810
1.000000 0.837284 0.623351
1.000000 0.867231 0.697373
1.000000 0.894326 0.756635
1.000000 0.916525 0.804558
0.000000 0.794422 0.436400
0.000000 0.794354 0.436419
0.000000 0.797557 0.432483
0.000000 0.797520 0.432493
0.000000 0.800669 0.432347
0.000000 0.803774 0.432211
0.000000 0.806803 0.428314
0.000000 0.809729 0.428221
0.000000 0.809448 0.424516
0.000000 0.809195 0.417032
0.000000 0.811771 0.413245
0.000000 0.814107 0.398214
0.000000 0.816298 0.371949
0.000000 0.817455 0.349622
0.000000 0.812065 0.326325
0.308510 0.805752 0.283875
0.478639 0.807616 0.261239
0.621979 0.802301 0.223862
0.744879 0.801903 0.194393
0.826753 0.797071 0.165378
0.904107 0.780482 0.112308
0.946855 0.772048 0.183275
0.977510 0.777304 0.239878
1.000000 0.780408 0.303858
1.000000 0.781432 0.347502
1.000000 0.786559 0.400060
1.000000 0.786930 0.458210
1.000000 0.803441 0.514757
1.000000 0.819939 0.572628
1.000000 0.850998 0.634180
1.000000 0.875107 0.703525
1.000000 0.898217 0.761538
1.000000 0.918727 0.806737
0.000000 0.845747 0.514925
0.000000 0.845709 0.511113
0.000000 0.848166 0.511122
0.000000 0.848114 0.511131
0.000000 0.848060 0.511140
0.000000 0.850439 0.507351
0.000000 0.850321 0.507370
0.000000 0.852722 0.503585
0.000000 0.854881 0.503654
0.000000 0.857005 0.499926
0.000000 0.859091 0.492413
0.000000 0.863266 0.488819
0.000000 0.864803 0.473885
0.000000 0.863375 0.447718
0.000000 0.861486 0.429274
0.195879 0.861133 0.403778
0.447969 0.854608 0.363670
0.594396 0.852311 0.342275
0.725317 0.846479 0.309542
0.811332 0.844260 0.278601
0.888558 0.834680 0.254864
0.932403 0.824666 0.220240
0.963428 0.825498 0.280541
0.989643 0.827181 0.335879
1.000000 0.827318 0.385712
1.000000 0.830758 0.431702
1.000000 0.834757 0.483729
1.000000 0.837066 0.538666
1.000000 0.843022 0.590156
1.000000 0.863605 0.647624
1.000000 0.882701 0.713036
1.000000 0.904727 0.767106
1.000000 0.922239 0.809724
0.000000 0.887473 0.592871
0.000000 0.887404 0.592877
0.000000 0.887333 0.592884
0.000000 0.889447 0.592984
0.000000 0.889374 0.592990
0.000000 0.891456 0.593099
0.000000 0.891317 0.589257
0.000000 0.893204 0.589392
0.000000 0.895050 0.589535
0.000000 0.898729 0.586003
0.000000 0.900376 0.582352
0.000000 0.899776 0.578573
0.000000 0.900773 0.571180
0.000000 0.901632 0.560022
0.000000 0.902202 0.537690
0.000000 0.902036 0.515838
0.427604 0.895829 0.490290
0.577815 0.893453 0.451142
0.693917 0.888786 0.430924
0.785116 0.884314 0.404818
0.869615 0.879551 0.378335
0.917970 0.874735 0.354932
0.954435 0.866731 0.328804
0.981983 0.865355 0.375858
1.000000 0.864870 0.420095
1.000000 0.867052 0.465092
1.000000 0.871412 0.519142
1.000000 0.874280 0.566964
1.000000 0.877818 0.616886
1.000000 0.883072 0.662947
1.000000 0.895306 0.727642
1.000000 0.910808 0.774241
1.000000 0.927443 0.816057
0.000000 0.921963 0.679033
0.000000 0.921868 0.679037
0.000000 0.921868 0.679037
0.000000 0.921771 0.679040
0.000000 0.921673 0.679043
0.000000 0.923238 0.671948
0.000000 0.923138 0.671951
0.000000 0.923036 0.671956
0.000000 0.924326 0.672148
0.000000 0.925582 0.672348
0.000000 0.926580 0.672564
0.000000 0.927543 0.669155
0.000000 0.928471 0.662080
0.000000 0.930415 0.655242
0.000000 0.932227 0.640959
0.171214 0.930069 0.622472
0.412041 0.925472 0.603824
0.559960 0.924548 0.579170
0.678068 0.920220 0.550876
0.765324 0.916270 0.523910
0.852147 0.910195 0.495227
0.903911 0.910179 0.473505
0.940560 0.905064 0.447801
0.970573 0.900353 0.424822
0.994445 0.897608 0.461519
1.000000 0.897188 0.501852
1.000000 0.900189 0.553660
1.000000 0.900651 0.603335
1.000000 0.903179 0.643424
1.000000 0.904547 0.689193
1.000000 0.908666 0.740624
1.000000 0.921433 0.785100
1.000000 0.933515 0.820833
0.000000 0.946117 0.745490
0.000000 0.945997 0.745489
0.000000 0.945997 0.745489
0.000000 0.947214 0.745638
0.000000 0.947214 0.745638
0.000000 0.947090 0.745637
0.000000 0.946966 0.745636
0.000000 0.948164 0.745790
0.000000 0.948036 0.745789
0.000000 0.949101 0.742703
0.000000 0.949992 0.742873
0.000000 0.950751 0.736627
0.000000 0.952564 0.733984
0.000000 0.953237 0.724930
0.000000 0.953014 0.718909
0.313433 0.953281 0.713158
0.455481 0.949478 0.699983
0.563975 0.947734 0.687237
0.671621 0.945165 0.660771
0.756539 0.941533 0.633530
0.839041 0.936202 0.603476
0.888289 0.935910 0.583358
0.928277 0.933644 0.557608
0.958797 0.929462 0.535792
0.985148 0.926822 0.512179
1.000000 0.924665 0.544262
1.000000 0.924261 0.594863
1.000000 0.925499 0.637209
1.000000 0.927060 0.676449
1.000000 0.928822 0.720688
1.000000 0.929724 0.762033
1.000000 0.935086 0.798006
1.000000 0.942658 0.831252
0.000000 0.968407 0.802418
0.000000 0.969293 0.802542
0.000000 0.969293 0.802542
0.000000 0.969293 0.802542
0.000000 0.969146 0.802536
