Assets/Lutify-Free-LUTs-Pack/Lutify Free LUTs Pack/Commercial Pro - Claire/Lutify.me-Claire-CanonLog1-to-Rec709.cube
# Created with: fylm.ai - Colour Grading and Collaboration Software in Cloud 
# Website: https://fylm.ai 
# META
# Option: Gamut compress
# Block 1: IDT | CanonLog Cinema Gamut Daylight
# Block 2: colourMatch | Blending Mode: Normal | {"ColorSpace":0,"CrossCovarianceLimit":50,"ReshapingIterations":1,"PercentSaturationShift":100,"PercentShadingShift":100,"ExtraShading":true,"PercentTint":100,"PercentModified":100}
# Block 3: HSL | Blending Mode: Normal | {"hue":{"Reds":0,"Yellows":0,"Greens":0,"Cyans":0,"Blues":0,"Magentas":0},"saturation":{"Reds":1,"Yellows":1,"Greens":1,"Cyans":1,"Blues":1,"Magentas":1},"luminance":{"Reds":0.9,"Yellows":0.9,"Greens":0.9,"Cyans":0.8,"Blues":0.8,"Magentas":0.9},"lum_sat":{"Blacks":1,"Shadows":1,"Midtones":1,"Highlights":1,"Whites":1},"sat_sat":{"10":1,"20":1,"30":1,"40":1,"50":1}}
# Block 4: subtractiveColour | Blending Mode: Normal | {"sliders":{"gainY":0.1,"C":0.05,"M":0.05,"Y":0.05}}
# Block 5: logPrimaries | Blending Mode: Normal | {"wheels":{"shadows":{"Y":"0","R":"1","G":"1","B":"1"},"midtones":{"Y":"0","R":"1","G":"1","B":"1"},"highlights":{"Y":"0","R":"1","G":"1","B":"1"},"offset":{"Y":"0","R":"1","G":"1","B":"1"}},"sliders":{"shadows":{"Y":0,"R":-0.05,"G":0,"B":0.1},"midtones":{"Y":0,"R":0,"G":0,"B":0},"highlights":{"Y":0,"R":0,"G":0,"B":0},"offset":{"Y":0,"R":0,"G":0,"B":0}}}
# Block 6: LUT | Filmic Curve Response: Standard Contrast 1 (100%)
# Block 7: LUT | Illuminant: D93 (100%)
# Block 8: LUT | Neutral Tint: Teal Tint 4 (100%)
# Block 9: ODT | Rec709
TITLE "Lutify.me-Claire-CanonLog1-to-Rec709" 
LUT_3D_SIZE 5
0.000000 0.000000 0.000000
0.817423 0.000000 0.000000
1.000000 0.000000 0.046627
1.000000 0.000000 0.040970
1.000000 0.416916 0.286739
0.000000 0.258273 0.000000
0.397707 0.143140 0.000000
0.906748 0.000000 0.000000
1.000000 0.000000 0.000000
1.000000 0.457940 0.283471
0.000000 0.513096 0.000000
0.328093 0.452765 0.000000
0.909954 0.334694 0.000000
1.000000 0.366759 0.000000
1.000000 0.558172 0.263933
0.000000 0.748940 0.000000
0.418928 0.736506 0.000000
0.885271 0.684436 0.000000
1.000000 0.633245 0.000000
1.000000 0.801253 0.000000
0.728861 0.905500 0.000000
0.799584 0.898575 0.000000
0.903490 0.889031 0.000000
1.000000 0.868912 0.000000
1.000000 0.857345 0.339402
0.000000 0.000000 0.606929
0.369104 0.000000 0.044592
0.899645 0.000000 0.000000
1.000000 0.000000 0.155194
1.000000 0.414293 0.328058
0.000000 0.181961 0.284694
0.180382 0.225843 0.303194
0.649431 0.000000 0.133097
1.000000 0.000000 0.160159
1.000000 0.460010 0.331419
0.000000 0.382660 0.262548
0.000000 0.574939 0.000000
0.678741 0.520888 0.000000
0.993355 0.472604 0.077042
1.000000 0.565548 0.327190
0.000000 0.749816 0.000000
0.377578 0.737604 0.000000
0.879934 0.680646 0.000000
1.000000 0.629403 0.000000
1.000000 0.810705 0.245358
0.723912 0.905739 0.000000
0.791797 0.899000 0.000000
0.900859 0.889195 0.000000
1.000000 0.868895 0.000000
1.000000 0.857345 0.339402
0.000000 0.000000 0.776279
0.239669 0.000000 0.099459
0.790015 0.000000 0.066318
0.979215 0.000000 0.282344
1.000000 0.404674 0.438394
0.000000 0.103913 0.407267
0.000000 0.118766 0.400271
0.601048 0.000000 0.328392
0.985459 0.000000 0.396861
1.000000 0.453287 0.455271
0.000000 0.406754 0.588221
0.000000 0.496744 0.680691
0.534483 0.605695 0.714992
0.969740 0.473068 0.496693
1.000000 0.560516 0.464204
0.000000 0.774474 0.669161
0.000000 0.840305 0.643104
0.346119 0.881120 0.548041
0.915151 0.851753 0.374215
1.000000 0.822153 0.467090
0.698755 0.905304 0.000000
0.771501 0.900082 0.000000
0.892701 0.889704 0.000000
1.000000 0.868881 0.000000
1.000000 0.855555 0.339017
0.000000 0.000000 0.874236
0.212133 0.000000 0.159460
0.616953 0.000000 0.124486
1.000000 0.000000 0.120395
1.000000 0.257758 0.644674
0.000000 0.080483 0.531326
0.000000 0.095243 0.469609
0.459104 0.000000 0.418435
1.000000 0.000000 0.119109
1.000000 0.363059 0.683223
0.000000 0.295138 0.677961
0.000000 0.360390 0.732324
0.208948 0.395111 0.805143
0.956383 0.233132 0.746065
1.000000 0.514570 0.738337
0.000000 0.647255 0.825065
0.000000 0.752267 0.873063
0.000000 0.836597 0.911881
0.854782 0.884472 0.917041
1.000000 0.832625 0.825914
0.000000 0.961984 0.894364
0.000000 0.966957 0.892388
0.155639 0.973489 0.886915
0.832363 0.973137 0.861570
0.987561 0.961739 0.773895
0.000000 0.000000 0.398224
0.260520 0.000000 0.217125
0.536529 0.000000 0.181967
0.983697 0.000000 0.172036
1.000000 0.000000 0.213658
0.000000 0.000000 0.459775
0.189938 0.000000 0.299871
0.536529 0.000000 0.181967
0.983697 0.000000 0.172036
1.000000 0.000000 0.213658
0.000000 0.265446 0.764138
0.000000 0.329768 0.812435
0.000000 0.349808 0.857447
0.816223 0.257629 0.871701
1.000000 0.000000 0.651985
0.000000 0.510705 0.874550
0.000000 0.628000 0.910106
0.000000 0.671921 0.936552
0.650881 0.719825 0.958190
1.000000 0.677021 0.936955
0.000000 0.854365 0.931578
0.000000 0.910277 0.952272
0.000000 0.948894 0.974297
0.529705 0.963754 0.984119
0.965570 0.973152 0.984521
