Assets/Lutify-Free-LUTs-Pack/Lutify Free LUTs Pack/Commercial Pro - Claire/Lutify.me-Claire-FLog-to-Rec709.cube
# Created with: fylm.ai - Colour Grading and Collaboration Software in Cloud 
# Website: https://fylm.ai 
# META
# Option: Gamut compress
# Block 1: IDT | Fujifilm F-Gamut F-Log
# Block 2: colourMatch | Blending Mode: Normal | {"ColorSpace":0,"CrossCovarianceLimit":50,"ReshapingIterations":1,"PercentSaturationShift":100,"PercentShadingShift":100,"ExtraShading":true,"PercentTint":100,"PercentModified":100}
# Block 3: HSL | Blending Mode: Normal | {"hue":{"Reds":0,"Yellows":0,"Greens":0,"Cyans":0,"Blues":0,"Magentas":0},"saturation":{"Reds":1,"Yellows":1,"Greens":1,"Cyans":1,"Blues":1,"Magentas":1},"luminance":{"Reds":0.9,"Yellows":0.9,"Greens":0.9,"Cyans":0.8,"Blues":0.8,"Magentas":0.9},"lum_sat":{"Blacks":1,"Shadows":1,"Midtones":1,"Highlights":1,"Whites":1},"sat_sat":{"10":1,"20":1,"30":1,"40":1,"50":1}}
# Block 4: subtractiveColour | Blending Mode: Normal | {"sliders":{"gainY":0.1,"C":0.05,"M":0.05,"Y":0.05}}
# Block 5: logPrimaries | Blending Mode: Normal | {"wheels":{"shadows":{"Y":"0","R":"1","G":"1","B":"1"},"midtones":{"Y":"0","R":"1","G":"1","B":"1"},"highlights":{"Y":"0","R":"1","G":"1","B":"1"},"offset":{"Y":"0","R":"1","G":"1","B":"1"}},"sliders":{"shadows":{"Y":0,"R":-0.05,"G":0,"B":0.1},"midtones":{"Y":0,"R":0,"G":0,"B":0},"highlights":{"Y":0,"R":0,"G":0,"B":0},"offset":{"Y":0,"R":0,"G":0,"B":0}}}
# Block 6: LUT | Filmic Curve Response: Standard Contrast 1 (100%)
# Block 7: LUT | Illuminant: D93 (100%)
# Block 8: LUT | Neutral Tint: Teal Tint 4 (100%)
# Block 9: ODT | Rec709
TITLE "Lutify.me-Claire-FLog-to-Rec709" 
LUT_3D_SIZE 33
0.000000 0.000000 0.000000
0.000000 0.000000 0.000000
0.105105 0.000000 0.000000
0.000000 0.000000 0.008058
0.032138 0.000000 0.000000
0.095239 0.000000 0.000000
0.155107 0.000000 0.000000
0.207209 0.000000 0.000000
0.255798 0.000000 0.000000
0.297128 0.000000 0.000000
0.343579 0.000000 0.000000
0.372905 0.000000 0.000000
0.401785 0.000000 0.000000
0.420407 0.000000 0.000000
0.453600 0.000000 0.000000
0.478687 0.000000 0.000000
0.508596 0.000000 0.000000
0.544352 0.000000 0.000000
0.577297 0.000000 0.000000
0.627742 0.000000 0.000000
0.675015 0.000000 0.000000
0.727241 0.000000 0.000000
0.779280 0.000000 0.000000
0.840642 0.000000 0.032075
0.896984 0.000000 0.055196
0.949273 0.000000 0.076421
0.990800 0.000000 0.101046
1.000000 0.000000 0.126739
1.000000 0.170278 0.158890
1.000000 0.264094 0.191388
1.000000 0.341437 0.228591
1.000000 0.406057 0.266735
1.000000 0.476473 0.303622
0.000000 0.000000 0.000000
0.000000 0.000000 0.000000
0.103811 0.000000 0.000000
0.000000 0.000000 0.010201
0.030962 0.000000 0.000000
0.091422 0.000000 0.000000
0.149848 0.000000 0.000000
0.199749 0.000000 0.000000
0.245685 0.000000 0.000000
0.286144 0.000000 0.000000
0.328064 0.000000 0.000000
0.362113 0.000000 0.000000
0.387155 0.000000 0.000000
0.411132 0.000000 0.000000
0.443520 0.000000 0.000000
0.467962 0.000000 0.000000
0.504922 0.000000 0.000000
0.544411 0.000000 0.000000
0.573216 0.000000 0.000000
0.627777 0.000000 0.000000
0.675032 0.000000 0.000000
0.727243 0.000000 0.000000
0.779270 0.000000 0.000000
0.845219 0.000000 0.033407
0.901030 0.000000 0.056489
0.949177 0.000000 0.075941
0.990657 0.000000 0.100621
1.000000 0.000000 0.128381
1.000000 0.177589 0.158484
1.000000 0.269137 0.193227
1.000000 0.341437 0.228591
1.000000 0.406057 0.266735
1.000000 0.476473 0.303622
0.000000 0.000000 0.000000
0.000000 0.000000 0.000000
0.000000 0.000000 0.000000
0.000000 0.000000 0.012620
0.029273 0.000000 0.000000
0.088726 0.000000 0.000000
0.143145 0.000000 0.000000
0.192639 0.000000 0.000000
0.235981 0.000000 0.000000
0.275172 0.000000 0.000000
0.313411 0.000000 0.000000
0.349109 0.000000 0.000000
0.375910 0.000000 0.000000
0.402124 0.000000 0.000000
0.427204 0.000000 0.000000
0.464508 0.000000 0.000000
0.501278 0.000000 0.000000
0.540469 0.000000 0.000000
0.573281 0.000000 0.000000
0.619347 0.000000 0.000000
0.675049 0.000000 0.000000
0.727245 0.000000 0.000000
0.779245 0.000000 0.000000
0.845152 0.000000 0.034003
0.900964 0.000000 0.055867
0.949176 0.000000 0.077793
0.990511 0.000000 0.100181
1.000000 0.000000 0.127971
1.000000 0.177589 0.158484
1.000000 0.269137 0.193227
1.000000 0.345803 0.228228
1.000000 0.406057 0.266735
1.000000 0.476473 0.303622
0.000000 0.000000 0.011880
0.000000 0.000000 0.012221
0.000000 0.000000 0.012084
0.000000 0.000000 0.011532
0.023149 0.000000 0.000000
0.082426 0.000000 0.000000
0.133829 0.000000 0.000000
0.182703 0.000000 0.000000
0.223577 0.000000 0.000000
0.264353 0.000000 0.000000
0.304104 0.000000 0.000000
0.335938 0.000000 0.000000
0.367810 0.000000 0.000000
0.390448 0.000000 0.000000
0.420925 0.000000 0.000000
0.457599 0.000000 0.000000
0.497639 0.000000 0.000000
0.532528 0.000000 0.000000
0.573326 0.000000 0.000000
0.619400 0.000000 0.000000
0.670768 0.000000 0.000000
0.727245 0.000000 0.000000
0.779220 0.000000 0.000000
0.845081 0.000000 0.032012
0.900895 0.000000 0.057218
0.949078 0.000000 0.077317
0.990511 0.000000 0.100181
1.000000 0.000000 0.127971
1.000000 0.184635 0.158067
1.000000 0.269137 0.193227
1.000000 0.345796 0.230729
1.000000 0.410098 0.266406
1.000000 0.476473 0.303622
0.000000 0.014846 0.000000
0.000000 0.013211 0.000000
0.000000 0.011746 0.000000
0.000000 0.010459 0.000000
0.000000 0.002354 0.000000
0.064642 0.000000 0.000000
0.116340 0.000000 0.000000
0.163867 0.000000 0.000000
0.205803 0.000000 0.000000
0.251957 0.000000 0.000000
0.290706 0.000000 0.000000
0.325945 0.000000 0.000000
0.354713 0.000000 0.000000
0.381976 0.000000 0.000000
0.414783 0.000000 0.000000
0.454288 0.000000 0.000000
0.497744 0.000000 0.000000
0.528617 0.000000 0.000000
0.573391 0.000000 0.000000
0.619445 0.000000 0.000000
0.670786 0.000000 0.000000
0.727246 0.000000 0.000000
0.779194 0.000000 0.000000
0.845046 0.000000 0.033578
0.900826 0.000000 0.056580
0.948977 0.000000 0.078699
0.990362 0.000000 0.099733
1.000000 0.024049 0.127117
1.000000 0.184628 0.160087
1.000000 0.274127 0.192837
1.000000 0.345796 0.230729
1.000000 0.410098 0.266406
1.000000 0.480351 0.303312
0.000000 0.046610 0.000000
0.000000 0.046526 0.000000
0.000000 0.045724 0.000000
0.000000 0.045557 0.000000
0.000000 0.043326 0.000000
0.048196 0.034831 0.000000
0.093741 0.000000 0.000000
0.144846 0.000000 0.000000
0.185736 0.000000 0.000000
0.226153 0.000000 0.000000
0.271567 0.000000 0.000000
0.309278 0.000000 0.000000
0.344334 0.000000 0.000000
0.373751 0.000000 0.000000
0.411855 0.000000 0.000000
0.451008 0.000000 0.000000
0.494185 0.000000 0.000000
0.528757 0.000000 0.000000
0.569382 0.000000 0.000000
0.615302 0.000000 0.000000
0.670837 0.000000 0.000000
0.727247 0.000000 0.000000
0.779166 0.000000 0.000000
0.844972 0.000000 0.031398
0.900684 0.000000 0.057278
0.948876 0.000000 0.078212
0.990211 0.000000 0.099270
1.000000 0.063288 0.128771
1.000000 0.191444 0.159669
1.000000 0.274127 0.192837
1.000000 0.350141 0.230366
1.000000 0.410098 0.266406
1.000000 0.480343 0.306004
0.000000 0.067698 0.000000
0.000000 0.067541 0.000000
0.000000 0.067460 0.000000
0.000000 0.066468 0.000000
0.000000 0.062437 0.000000
0.030731 0.059780 0.000000
0.080454 0.051474 0.000000
0.132247 0.032489 0.000000
0.175449 0.000000 0.000000
0.215612 0.000000 0.000000
0.261178 0.000000 0.000000
0.298120 0.000000 0.000000
0.331681 0.000000 0.000000
0.368584 0.000000 0.000000
0.405994 0.000000 0.000000
0.444438 0.000000 0.000000
0.490636 0.000000 0.000000
0.520988 0.000000 0.000000
0.569530 0.000000 0.000000
0.615373 0.000000 0.000000
0.670884 0.000000 0.000000
0.727249 0.000000 0.000000
0.779123 0.000000 0.000000
0.844895 0.000000 0.031842
0.900461 0.000000 0.055148
0.948666 0.000000 0.079103
0.993091 0.000000 0.101025
1.000000 0.083073 0.128326
1.000000 0.198061 0.159240
1.000000 0.279061 0.192440
1.000000 0.350141 0.230366
1.000000 0.410098 0.266406
1.000000 0.480343 0.306004
0.000000 0.092177 0.000000
0.000000 0.092013 0.000000
0.000000 0.091825 0.000000
0.000000 0.089471 0.000000
0.000000 0.088239 0.000000
0.000000 0.081227 0.000000
0.071067 0.076222 0.000000
0.123082 0.065950 0.000000
0.165722 0.051970 0.000000
0.210985 0.008586 0.000000
0.255208 0.000000 0.000000
0.287377 0.000000 0.000000
0.327138 0.000000 0.000000
0.361082 0.000000 0.000000
0.394494 0.000000 0.000000
0.438078 0.000000 0.000000
0.483582 0.000000 0.000000
0.521233 0.000000 0.000000
0.569704 0.000000 0.000000
0.615512 0.000000 0.000000
0.670949 0.000000 0.000000
0.727250 0.000000 0.000000
0.783830 0.000000 0.000000
0.844776 0.000000 0.030956
0.900304 0.000000 0.055771
0.948559 0.000000 0.078591
0.992933 0.000000 0.100553
1.000000 0.098044 0.129992
1.000000 0.204501 0.160851
1.000000 0.283938 0.194299
1.000000 0.354467 0.229999
1.000000 0.414117 0.270987
1.000000 0.484221 0.305696
0.000000 0.115848 0.000000
0.000000 0.114325 0.000000
0.000000 0.114156 0.000000
0.000000 0.112686 0.000000
0.000000 0.111192 0.000000
0.000000 0.106729 0.000000
0.050994 0.100349 0.000000
0.115441 0.093368 0.000000
0.163533 0.081187 0.000000
0.205210 0.069496 0.000000
0.253303 0.043295 0.000000
0.285525 0.000000 0.000000
0.325226 0.000000 0.000000
0.361795 0.000000 0.000000
0.392294 0.000000 0.000000
0.432241 0.000000 0.000000
0.484094 0.000000 0.000000
0.521651 0.000000 0.000000
0.565901 0.000000 0.000000
0.615726 0.000000 0.000000
0.671062 0.000000 0.000000
0.727251 0.000000 0.000000
0.783748 0.000000 0.000000
0.844650 0.000000 0.029831
0.900140 0.000000 0.056375
0.948337 0.000000 0.079466
0.992763 0.000000 0.104007
1.000000 0.110577 0.131671
1.000000 0.210793 0.160410
1.000000 0.288773 0.193896
1.000000 0.354461 0.232528
1.000000 0.414117 0.270987
1.000000 0.485069 0.306357
0.000000 0.140622 0.000000
0.000000 0.140527 0.000000
0.000000 0.138872 0.000000
0.000000 0.138718 0.000000
0.000000 0.135673 0.000000
0.000000 0.133848 0.000000
0.000000 0.127244 0.000000
0.099599 0.123517 0.000000
0.153685 0.115273 0.000000
0.201974 0.101433 0.000000
0.248494 0.090582 0.000000
0.285768 0.076333 0.000000
0.323699 0.052656 0.000000
0.362860 0.000000 0.000000
0.393535 0.000000 0.000000
0.430212 0.000000 0.000000
0.481464 0.000000 0.000000
0.518541 0.000000 0.000000
0.562345 0.000000 0.000000
0.616020 0.000000 0.000000
0.675451 0.000000 0.000000
0.731777 0.000000 0.000000
0.783662 0.000000 0.000000
0.844474 0.000000 0.026574
0.899836 0.000000 0.057821
0.947990 0.000000 0.079780
0.992426 0.000000 0.105045
1.000000 0.131536 0.132906
1.000000 0.222354 0.161624
1.000000 0.293558 0.195772
1.000000 0.358770 0.232162
1.000000 0.422164 0.270328
1.000000 0.488932 0.306047
0.000000 0.166797 0.000000
0.000000 0.166673 0.000000
0.000000 0.166549 0.000000
0.000000 0.164618 0.000000
0.000000 0.164430 0.000000
0.000000 0.162371 0.000000
0.000000 0.160088 0.000000
0.062505 0.153547 0.000000
0.138141 0.149294 0.000000
0.191562 0.140319 0.000000
0.245438 0.124833 0.000000
0.285017 0.114770 0.000000
0.319367 0.107687 0.000000
0.356579 0.095172 0.000000
0.392339 0.075270 0.000000
0.431990 0.045187 0.000000
0.475837 0.000000 0.000000
0.516206 0.000000 0.000000
0.563286 0.000000 0.000000
0.616455 0.000000 0.000000
0.675569 0.000000 0.000000
0.731773 0.000000 0.000000
0.783580 0.000000 0.000000
0.844187 0.000000 0.021531
0.899596 0.000000 0.057768
0.947618 0.000000 0.082058
0.991898 0.000000 0.105585
1.000000 0.149256 0.134139
1.000000 0.233456 0.162843
1.000000 0.298306 0.195363
1.000000 0.363062 0.231789
1.000000 0.426171 0.272489
1.000000 0.492787 0.308455
0.000000 0.195385 0.000000
0.000000 0.195384 0.000000
0.000000 0.193222 0.000000
0.000000 0.193095 0.000000
0.000000 0.190872 0.000000
0.000000 0.190576 0.000000
0.000000 0.188118 0.000000
0.000000 0.185137 0.000000
0.111534 0.181301 0.000000
0.177674 0.172341 0.000000
0.235715 0.160577 0.000000
0.282572 0.143764 0.000000
0.318806 0.138829 0.000000
0.357384 0.129912 0.000000
0.394164 0.127053 0.000000
0.433825 0.107823 0.000000
0.477955 0.093568 0.000000
0.517866 0.070244 0.000000
0.564745 0.026746 0.000000
0.617194 0.000000 0.000000
0.675836 0.000000 0.000000
0.731801 0.000000 0.000000
0.783487 0.000000 0.000000
0.843991 0.000000 0.021246
0.899253 0.000000 0.059113
0.947228 0.000000 0.082308
0.991333 0.000000 0.108160
1.000000 0.172350 0.132651
1.000000 0.244247 0.164062
1.000000 0.308149 0.197260
1.000000 0.367939 0.234448
1.000000 0.430911 0.272709
1.000000 0.496648 0.308145
0.000000 0.225021 0.000000
0.000000 0.225013 0.000000
0.000000 0.225005 0.000000
0.000000 0.223049 0.000000
0.000000 0.222798 0.000000
0.000000 0.220393 0.000000
0.000000 0.219764 0.000000
0.000000 0.216602 0.000000
0.045262 0.212556 0.000000
0.148726 0.209705 0.000000
0.216297 0.201026 0.000000
0.269018 0.187060 0.000000
0.315912 0.171789 0.000000
0.356912 0.167084 0.000000
0.395116 0.161921 0.000000
0.435934 0.152422 0.000000
0.480443 0.145721 0.000000
0.520321 0.135916 0.000000
0.566421 0.120725 0.000000
0.618276 0.088199 0.000000
0.676534 0.037373 0.000000
0.731905 0.000000 0.000000
0.783349 0.000000 0.000000
0.843695 0.000000 0.021391
0.898707 0.000000 0.056139
0.946668 0.000000 0.083961
0.990324 0.104697 0.109686
1.000000 0.192852 0.137573
1.000000 0.254781 0.165279
1.000000 0.312774 0.199174
1.000000 0.376422 0.236286
1.000000 0.434897 0.274890
1.000000 0.500508 0.307831
0.000000 0.250566 0.000000
0.000000 0.250563 0.000000
0.000000 0.252617 0.000000
0.000000 0.250491 0.000000
0.000000 0.250410 0.000000
0.000000 0.250287 0.000000
0.000000 0.245711 0.000000
0.000000 0.242787 0.000000
0.000000 0.241430 0.000000
0.111218 0.239128 0.000000
0.193583 0.233668 0.000000
0.250381 0.225449 0.000000
0.304332 0.215901 0.000000
0.353581 0.203074 0.000000
0.394380 0.199115 0.000000
0.440806 0.193368 0.000000
0.482821 0.187410 0.000000
0.523177 0.183966 0.000000
0.572532 0.170882 0.000000
0.619974 0.158509 0.000000
0.681540 0.135733 0.000000
0.732177 0.103075 0.000000
0.783220 0.043774 0.000000
0.847689 0.000000 0.015201
0.898073 0.000000 0.060260
0.949399 0.000000 0.085082
0.989212 0.151591 0.111133
1.000000 0.223014 0.139031
1.000000 0.270148 0.166010
1.000000 0.330983 0.199825
1.000000 0.380646 0.235907
1.000000 0.442868 0.274213
1.000000 0.504360 0.310268
0.000000 0.272129 0.000000
0.000000 0.278966 0.000000
0.000000 0.281259 0.000000
0.000000 0.281221 0.000000
0.000000 0.278839 0.000000
0.000000 0.278745 0.000000
0.000000 0.276176 0.000000
0.000000 0.275687 0.000000
0.000000 0.272556 0.000000
0.000000 0.270857 0.000000
0.161102 0.268038 0.000000
0.226336 0.262650 0.000000
0.284894 0.256182 0.000000
0.345509 0.245595 0.000000
0.390651 0.235220 0.000000
0.443619 0.232821 0.000000
0.488038 0.228530 0.000000
0.525295 0.222335 0.000000
0.574969 0.215411 0.000000
0.626154 0.209908 0.000000
0.682702 0.194383 0.000000
0.737247 0.175590 0.000000
0.787743 0.153219 0.000000
0.847034 0.130277 0.000000
0.901104 0.121831 0.062252
0.948009 0.139611 0.085826
0.987978 0.186764 0.114798
1.000000 0.244484 0.141064
1.000000 0.285161 0.167092
1.000000 0.339926 0.201340
1.000000 0.394399 0.238340
1.000000 0.451511 0.276640
1.000000 0.515925 0.312100
0.000000 0.310801 0.000000
0.000000 0.316029 0.000000
0.000000 0.316005 0.000000
0.000000 0.318632 0.000000
0.000000 0.321266 0.000000
0.000000 0.318497 0.000000
0.000000 0.318325 0.000000
0.000000 0.315342 0.000000
0.000000 0.314752 0.000000
0.000000 0.316333 0.000000
0.000000 0.317322 0.000000
0.173949 0.315100 0.000000
0.247187 0.309478 0.000000
0.315337 0.302519 0.000000
0.370735 0.292358 0.000000
0.434291 0.279931 0.000000
0.490573 0.273354 0.000000
0.529825 0.268052 0.000000
0.577076 0.267086 0.000000
0.628470 0.265002 0.000000
0.684313 0.250877 0.000000
0.737920 0.238733 0.000000
0.787554 0.225598 0.000000
0.845682 0.221373 0.000000
0.899229 0.203929 0.056357
0.946163 0.199121 0.087654
0.988784 0.232567 0.114353
1.000000 0.269900 0.142790
1.000000 0.304295 0.169539
1.000000 0.353592 0.205285
1.000000 0.402698 0.242893
1.000000 0.459425 0.275945
1.000000 0.524389 0.312135
0.000000 0.351726 0.000000
0.000000 0.354513 0.000000
0.000000 0.354488 0.000000
0.000000 0.357285 0.000000
0.000000 0.360084 0.000000
0.000000 0.362882 0.000000
0.000000 0.359878 0.000000
0.000000 0.359655 0.000000
0.000000 0.359282 0.000000
0.000000 0.361382 0.000000
0.000000 0.363163 0.000000
0.081561 0.358346 0.000000
0.194312 0.356325 0.000000
0.274966 0.353283 0.000000
0.341273 0.346627 0.000000
0.413602 0.332577 0.000000
0.483815 0.323118 0.000000
0.530286 0.318052 0.000000
0.576006 0.315666 0.000000
0.629030 0.315185 0.000000
0.685508 0.303465 0.000000
0.738638 0.298206 0.000000
0.787349 0.289281 0.000000
0.848482 0.280833 0.000000
0.896503 0.274924 0.049458
0.943286 0.260712 0.085927
0.986681 0.267817 0.114003
1.000000 0.299054 0.143460
1.000000 0.331943 0.170924
1.000000 0.370973 0.205931
1.000000 0.419760 0.244530
1.000000 0.472028 0.278035
1.000000 0.535911 0.313984
0.000000 0.386793 0.055052
0.000000 0.389877 0.000000
0.000000 0.392966 0.000000
0.000000 0.392935 0.000000
0.000000 0.396032 0.000000
0.000000 0.399141 0.000000
0.000000 0.405458 0.000000
0.000000 0.398870 0.000000
0.000000 0.398583 0.000000
0.000000 0.407686 0.000000
0.000000 0.406737 0.000000
0.000000 0.405450 0.000000
0.090153 0.400771 0.000000
0.222237 0.398685 0.000000
0.309256 0.389119 0.000000
0.385865 0.381862 0.000000
0.466839 0.372794 0.000000
0.530560 0.367150 0.000000
0.578996 0.365729 0.000000
0.635118 0.359451 0.000000
0.689282 0.349133 0.000000
0.738596 0.346257 0.000000
0.791230 0.350411 0.000000
0.846670 0.334163 0.000000
0.897642 0.326203 0.000000
0.942854 0.319617 0.088059
0.982448 0.324127 0.116499
1.000000 0.335856 0.142548
1.000000 0.358832 0.172630
1.000000 0.392737 0.211598
1.000000 0.436646 0.248956
1.000000 0.487967 0.281836
1.000000 0.548124 0.322312
0.000000 0.428748 0.114531
0.000000 0.432136 0.107607
0.000000 0.435525 0.097188
0.000000 0.438931 0.085687
0.000000 0.445783 0.068483
0.000000 0.449186 0.039074
0.000000 0.449115 0.000000
0.000000 0.445529 0.000000
0.000000 0.445310 0.000000
0.000000 0.444914 0.000000
0.000000 0.447741 0.000000
0.000000 0.450332 0.000000
0.000000 0.445760 0.000000
0.139548 0.444041 0.000000
0.257666 0.441767 0.000000
0.348411 0.442056 0.000000
0.443825 0.433564 0.000000
0.509653 0.425471 0.000000
0.574234 0.412873 0.000000
0.633778 0.407138 0.000000
0.686346 0.401569 0.000000
0.746117 0.398588 0.000000
0.798905 0.396177 0.000000
0.844263 0.390709 0.000000
0.893850 0.384750 0.000000
0.937657 0.384140 0.073574
0.977139 0.381035 0.116411
1.000000 0.379770 0.145460
1.000000 0.397896 0.172360
1.000000 0.427051 0.211123
1.000000 0.460986 0.254000
1.000000 0.511796 0.284988
1.000000 0.559608 0.324284
0.000000 0.477342 0.156831
0.000000 0.484415 0.149185
0.000000 0.487953 0.142240
0.000000 0.491476 0.135084
0.000000 0.495027 0.127610
0.000000 0.498560 0.116410
0.000000 0.498462 0.105987
0.000000 0.498367 0.090688
0.000000 0.494579 0.064925
0.000000 0.494255 0.000000
0.000000 0.497404 0.000000
0.000000 0.500235 0.000000
0.000000 0.499318 0.000000
0.000000 0.494309 0.000000
0.184342 0.492382 0.000000
0.300455 0.496973 0.000000
0.402319 0.493178 0.000000
0.480435 0.485470 0.000000
0.561607 0.472666 0.000000
0.632632 0.459393 0.000000
0.688386 0.454224 0.000000
0.741811 0.456605 0.000000
0.809149 0.449706 0.000000
0.845238 0.446078 0.000000
0.893077 0.441457 0.000000
0.934769 0.446107 0.061681
0.972905 0.443973 0.113391
1.000000 0.439119 0.149635
1.000000 0.448676 0.178159
1.000000 0.464313 0.214431
1.000000 0.489546 0.261380
1.000000 0.532133 0.291979
1.000000 0.574909 0.328953
0.000000 0.527928 0.193033
0.000000 0.535323 0.188351
0.000000 0.542749 0.183530
0.000000 0.546460 0.179468
0.000000 0.550164 0.175346
0.000000 0.550091 0.172153
0.000000 0.553756 0.157953
0.000000 0.553630 0.144368
0.000000 0.553425 0.126486
0.000000 0.553188 0.110990
0.000000 0.560347 0.093700
0.000000 0.559777 0.047843
0.000000 0.558972 0.000000
0.000000 0.553977 0.000000
0.000000 0.552413 0.000000
0.227355 0.557683 0.000000
0.358400 0.554442 0.000000
0.445016 0.551095 0.000000
0.527379 0.543090 0.000000
0.611431 0.529965 0.000000
0.684494 0.516495 0.000000
0.741823 0.519404 0.000000
0.807306 0.513486 0.000000
0.851938 0.505551 0.000000
0.897077 0.506022 0.000000
0.936553 0.507651 0.045867
0.972771 0.506269 0.109633
1.000000 0.506108 0.152789
1.000000 0.511249 0.181011
1.000000 0.517923 0.221355
1.000000 0.530020 0.262368
1.000000 0.559703 0.297892
1.000000 0.597843 0.333125
0.000000 0.584058 0.233685
0.000000 0.587797 0.230035
0.000000 0.591546 0.229376
0.000000 0.595282 0.228720
0.000000 0.595230 0.222678
0.000000 0.598962 0.212855
0.000000 0.598856 0.206842
0.000000 0.598732 0.200814
0.000000 0.602376 0.186037
0.000000 0.605958 0.174469
0.000000 0.609429 0.162537
0.000000 0.608997 0.139582
0.000000 0.604565 0.115974
0.000000 0.603453 0.085347
0.000000 0.602031 0.000000
0.046672 0.611603 0.000000
0.295387 0.608932 0.000000
0.405901 0.598199 0.000000
0.494083 0.594601 0.000000
0.586592 0.589705 0.000000
0.662801 0.584770 0.000000
0.734598 0.571492 0.000000
0.798479 0.566241 0.000000
0.849061 0.558092 0.000000
0.891144 0.555013 0.000000
0.931995 0.560869 0.048017
0.967147 0.559755 0.108051
0.996594 0.555628 0.153582
1.000000 0.564764 0.189588
1.000000 0.575105 0.231383
1.000000 0.570514 0.269524
1.000000 0.591092 0.306710
1.000000 0.621297 0.338135
0.000000 0.633300 0.286513
0.000000 0.633260 0.283183
0.000000 0.637044 0.279318
0.000000 0.640786 0.278811
0.000000 0.644543 0.274933
0.000000 0.644484 0.271618
0.000000 0.648230 0.267731
0.000000 0.651923 0.257185
0.000000 0.659423 0.252630
0.000000 0.663011 0.242030
0.000000 0.662741 0.228802
0.000000 0.658575 0.216443
0.000000 0.658026 0.196633
0.000000 0.657092 0.182919
0.000000 0.655873 0.159328
0.000000 0.661906 0.130253
0.192321 0.655953 0.081017
0.347413 0.653197 0.000000
0.450312 0.650043 0.000000
0.551776 0.645746 0.000000
0.637126 0.645047 0.000000
0.714617 0.632236 0.000000
0.790263 0.618774 0.000000
0.838150 0.615120 0.000000
0.885180 0.611801 0.000000
0.926210 0.613651 0.042968
0.957889 0.612699 0.116617
0.986738 0.608577 0.156921
1.000000 0.617443 0.195780
1.000000 0.623309 0.244841
1.000000 0.622191 0.281398
1.000000 0.630132 0.312235
1.000000 0.647724 0.348789
0.000000 0.678911 0.333903
0.000000 0.682689 0.329790
0.000000 0.690312 0.328925
0.000000 0.694074 0.328511
0.000000 0.697844 0.320664
0.000000 0.701756 0.320215
0.000000 0.701646 0.316563
0.000000 0.705631 0.312421
0.000000 0.709588 0.308276
0.000000 0.709392 0.301021
0.000000 0.713212 0.289637
0.000000 0.712909 0.278910
0.000000 0.708300 0.265433
0.000000 0.707720 0.247908
0.000000 0.710684 0.226181
0.000000 0.713170 0.204097
0.000000 0.711113 0.178568
0.270373 0.708941 0.148296
0.404822 0.709975 0.115515
0.519311 0.706102 0.072939
0.625313 0.701256 0.000000
0.700359 0.692992 0.000000
0.779782 0.679573 0.000000
0.829684 0.676103 0.000000
0.878869 0.668563 0.000000
0.915692 0.666500 0.000000
0.949959 0.665282 0.123502
0.980164 0.660877 0.166686
0.999403 0.669888 0.210903
1.000000 0.675257 0.250588
1.000000 0.673599 0.292668
1.000000 0.680656 0.318564
1.000000 0.688504 0.355655
0.000000 0.733806 0.380840
0.000000 0.737636 0.380515
0.000000 0.741408 0.376503
0.000000 0.745169 0.376187
0.000000 0.748906 0.372165
0.000000 0.752598 0.371858
0.000000 0.752445 0.368203
0.000000 0.756060 0.367913
0.000000 0.755918 0.364250
0.000000 0.755729 0.356893
0.000000 0.759188 0.356635
0.000000 0.758845 0.349043
0.000000 0.758397 0.333437
0.000000 0.757788 0.314229
0.000000 0.764196 0.290713
0.000000 0.766472 0.267876
0.000000 0.764547 0.253288
0.159315 0.758919 0.231782
0.336966 0.760114 0.200918
0.466774 0.763753 0.171668
0.586814 0.755777 0.157185
0.677127 0.751420 0.126535
0.758318 0.743211 0.091275
0.820977 0.735598 0.000000
0.866550 0.732631 0.000000
0.907370 0.722739 0.064616
0.940595 0.717412 0.134361
0.970232 0.713008 0.183304
0.990481 0.720704 0.227141
1.000000 0.728549 0.268145
1.000000 0.722776 0.304998
1.000000 0.732356 0.337096
1.000000 0.738271 0.374377
0.000000 0.787817 0.432988
0.000000 0.791094 0.432814
0.000000 0.791060 0.432824
0.000000 0.794302 0.428882
0.000000 0.797493 0.428725
