Assets/Lutify-Free-LUTs-Pack/Lutify Free LUTs Pack/Commercial Pro - Claire/Lutify.me-Claire-BMDFilmGen4-to-Rec709.cube
# Created with: fylm.ai - Colour Grading and Collaboration Software in Cloud 
# Website: https://fylm.ai 
# META
# Option: Gamut compress
# Block 1: IDT | BMD Wide Gamut BMDFilm Gen 4
# Block 2: colourMatch | Blending Mode: Normal | {"ColorSpace":0,"CrossCovarianceLimit":50,"ReshapingIterations":1,"PercentSaturationShift":100,"PercentShadingShift":100,"ExtraShading":true,"PercentTint":100,"PercentModified":100}
# Block 3: HSL | Blending Mode: Normal | {"hue":{"Reds":0,"Yellows":0,"Greens":0,"Cyans":0,"Blues":0,"Magentas":0},"saturation":{"Reds":1,"Yellows":1,"Greens":1,"Cyans":1,"Blues":1,"Magentas":1},"luminance":{"Reds":0.9,"Yellows":0.9,"Greens":0.9,"Cyans":0.8,"Blues":0.8,"Magentas":0.9},"lum_sat":{"Blacks":1,"Shadows":1,"Midtones":1,"Highlights":1,"Whites":1},"sat_sat":{"10":1,"20":1,"30":1,"40":1,"50":1}}
# Block 4: subtractiveColour | Blending Mode: Normal | {"sliders":{"gainY":0.1,"C":0.05,"M":0.05,"Y":0.05}}
# Block 5: logPrimaries | Blending Mode: Normal | {"wheels":{"shadows":{"Y":"0","R":"1","G":"1","B":"1"},"midtones":{"Y":"0","R":"1","G":"1","B":"1"},"highlights":{"Y":"0","R":"1","G":"1","B":"1"},"offset":{"Y":"0","R":"1","G":"1","B":"1"}},"sliders":{"shadows":{"Y":0,"R":-0.05,"G":0,"B":0.1},"midtones":{"Y":0,"R":0,"G":0,"B":0},"highlights":{"Y":0,"R":0,"G":0,"B":0},"offset":{"Y":0,"R":0,"G":0,"B":0}}}
# Block 6: LUT | Filmic Curve Response: Standard Contrast 1 (100%)
# Block 7: LUT | Illuminant: D93 (100%)
# Block 8: LUT | Neutral Tint: Teal Tint 4 (100%)
# Block 9: ODT | Rec709
TITLE "Lutify.me-Claire-BMDFilmGen4-to-Rec709" 
LUT_3D_SIZE 5
0.000000 0.000000 0.000000
0.338413 0.000000 0.000000
0.569124 0.000000 0.000000
0.916149 0.000000 0.000000
1.000000 0.420152 0.188173
0.000000 0.207194 0.000000
0.303921 0.156183 0.000000
0.585976 0.055945 0.000000
0.917899 0.000000 0.000000
1.000000 0.444298 0.186925
0.000000 0.444797 0.000000
0.238987 0.424688 0.000000
0.690575 0.347637 0.000000
0.926526 0.417838 0.000000
1.000000 0.538514 0.178255
0.000000 0.781212 0.000000
0.000000 0.782030 0.000000
0.547168 0.771354 0.000000
0.951002 0.693359 0.000000
1.000000 0.779080 0.113245
0.556918 0.949758 0.286815
0.592363 0.948593 0.280776
0.692813 0.945951 0.252510
0.883619 0.935086 0.144777
1.000000 0.916377 0.000000
0.000000 0.000000 0.145382
0.265042 0.000000 0.071978
0.519487 0.000000 0.098674
0.904044 0.000000 0.110836
1.000000 0.420788 0.235898
0.000000 0.171081 0.273175
0.164487 0.212533 0.287251
0.520983 0.149989 0.148341
0.909599 0.000000 0.113004
1.000000 0.445549 0.236559
0.000000 0.455775 0.303573
0.000000 0.499208 0.220249
0.540647 0.474144 0.000000
0.906548 0.440269 0.049572
1.000000 0.541971 0.233610
0.000000 0.810885 0.214085
0.000000 0.811622 0.171224
0.466987 0.799403 0.000000
0.894293 0.768747 0.000000
1.000000 0.789874 0.208566
0.537132 0.953606 0.401844
0.574011 0.952452 0.399098
0.688503 0.950521 0.374227
0.877996 0.938826 0.284897
1.000000 0.923087 0.154130
0.000000 0.000000 0.176954
0.195463 0.000000 0.132581
0.546790 0.000000 0.117303
0.882087 0.000000 0.317322
1.000000 0.423773 0.348472
0.000000 0.110933 0.334837
0.000000 0.111092 0.373835
0.499409 0.000000 0.349328
0.895179 0.000000 0.351459
1.000000 0.452591 0.350412
0.000000 0.403215 0.599979
0.000000 0.446289 0.625001
0.441261 0.519053 0.636219
0.885143 0.463028 0.438322
1.000000 0.541321 0.371266
0.000000 0.789076 0.672341
0.000000 0.806352 0.667656
0.353601 0.836081 0.600960
0.858082 0.813401 0.444373
1.000000 0.800233 0.403350
0.502627 0.962107 0.664870
0.534975 0.961237 0.658129
0.654052 0.957346 0.627486
0.858412 0.950098 0.546949
0.989841 0.938518 0.422224
0.123042 0.000000 0.199260
0.240505 0.000000 0.187252
0.468765 0.000000 0.182492
0.850180 0.000000 0.267260
1.000000 0.384482 0.638092
0.000000 0.109916 0.458791
0.000000 0.108766 0.465625
0.395114 0.000000 0.506490
0.848079 0.000000 0.483204
1.000000 0.422508 0.644634
0.000000 0.300148 0.673897
0.000000 0.312821 0.696558
0.286082 0.327000 0.732222
0.873126 0.277817 0.713940
1.000000 0.525220 0.689673
0.000000 0.728350 0.868137
0.000000 0.742908 0.875470
0.000000 0.786271 0.885693
0.797918 0.839281 0.888106
0.996845 0.814745 0.774778
0.109521 0.954576 0.898332
0.268219 0.955811 0.896618
0.517459 0.959801 0.894471
0.830071 0.960734 0.878005
0.969630 0.951411 0.809488
0.386315 0.000000 0.181932
0.425578 0.000000 0.183115
0.525234 0.000000 0.204053
0.782250 0.000000 0.325733
1.000000 0.000000 0.600478
0.148869 0.084082 0.567372
0.210243 0.077809 0.582054
0.371354 0.000000 0.611232
0.766314 0.000000 0.646055
1.000000 0.000000 0.693291
0.000000 0.306893 0.796981
0.000000 0.310893 0.803101
0.207265 0.309844 0.820756
0.734441 0.282526 0.853481
1.000000 0.235026 0.830591
0.000000 0.606703 0.910961
0.000000 0.617600 0.913656
0.000000 0.634053 0.920344
0.643273 0.648390 0.936922
1.000000 0.674197 0.927746
0.000000 0.935307 0.969310
0.000000 0.937139 0.969785
0.000000 0.942174 0.972687
0.667236 0.947416 0.975573
0.950571 0.961406 0.975865
