Assets/Lutify-Free-LUTs-Pack/Lutify Free LUTs Pack/Commercial Pro - Claire/Lutify.me-Claire-FLog-to-Rec709.cube
# Created with: fylm.ai - Colour Grading and Collaboration Software in Cloud 
# Website: https://fylm.ai 
# META
# Option: Gamut compress
# Block 1: IDT | Fujifilm F-Gamut F-Log
# Block 2: colourMatch | Blending Mode: Normal | {"ColorSpace":0,"CrossCovarianceLimit":50,"ReshapingIterations":1,"PercentSaturationShift":100,"PercentShadingShift":100,"ExtraShading":true,"PercentTint":100,"PercentModified":100}
# Block 3: HSL | Blending Mode: Normal | {"hue":{"Reds":0,"Yellows":0,"Greens":0,"Cyans":0,"Blues":0,"Magentas":0},"saturation":{"Reds":1,"Yellows":1,"Greens":1,"Cyans":1,"Blues":1,"Magentas":1},"luminance":{"Reds":0.9,"Yellows":0.9,"Greens":0.9,"Cyans":0.8,"Blues":0.8,"Magentas":0.9},"lum_sat":{"Blacks":1,"Shadows":1,"Midtones":1,"Highlights":1,"Whites":1},"sat_sat":{"10":1,"20":1,"30":1,"40":1,"50":1}}
# Block 4: subtractiveColour | Blending Mode: Normal | {"sliders":{"gainY":0.1,"C":0.05,"M":0.05,"Y":0.05}}
# Block 5: logPrimaries | Blending Mode: Normal | {"wheels":{"shadows":{"Y":"0","R":"1","G":"1","B":"1"},"midtones":{"Y":"0","R":"1","G":"1","B":"1"},"highlights":{"Y":"0","R":"1","G":"1","B":"1"},"offset":{"Y":"0","R":"1","G":"1","B":"1"}},"sliders":{"shadows":{"Y":0,"R":-0.05,"G":0,"B":0.1},"midtones":{"Y":0,"R":0,"G":0,"B":0},"highlights":{"Y":0,"R":0,"G":0,"B":0},"offset":{"Y":0,"R":0,"G":0,"B":0}}}
# Block 6: LUT | Filmic Curve Response: Standard Contrast 1 (100%)
# Block 7: LUT | Illuminant: D93 (100%)
# Block 8: LUT | Neutral Tint: Teal Tint 4 (100%)
# Block 9: ODT | Rec709
TITLE "Lutify.me-Claire-FLog-to-Rec709" 
LUT_3D_SIZE 9
0.000000 0.000000 0.000000
0.032138 0.000000 0.000000
0.255798 0.000000 0.000000
0.401785 0.000000 0.000000
0.508596 0.000000 0.000000
0.675015 0.000000 0.000000
0.896984 0.000000 0.055196
1.000000 0.170278 0.158890
1.000000 0.476473 0.303622
0.000000 0.014846 0.000000
0.000000 0.002354 0.000000
0.205803 0.000000 0.000000
0.354713 0.000000 0.000000
0.497744 0.000000 0.000000
0.670786 0.000000 0.000000
0.900826 0.000000 0.056580
1.000000 0.184628 0.160087
1.000000 0.480351 0.303312
0.000000 0.115848 0.000000
0.000000 0.111192 0.000000
0.163533 0.081187 0.000000
0.325226 0.000000 0.000000
0.484094 0.000000 0.000000
0.671062 0.000000 0.000000
0.900140 0.000000 0.056375
1.000000 0.210793 0.160410
1.000000 0.485069 0.306357
0.000000 0.225021 0.000000
0.000000 0.222798 0.000000
0.045262 0.212556 0.000000
0.315912 0.171789 0.000000
0.480443 0.145721 0.000000
0.676534 0.037373 0.000000
0.898707 0.000000 0.056139
1.000000 0.254781 0.165279
1.000000 0.500508 0.307831
0.000000 0.351726 0.000000
0.000000 0.360084 0.000000
0.000000 0.359282 0.000000
0.194312 0.356325 0.000000
0.483815 0.323118 0.000000
0.685508 0.303465 0.000000
0.896503 0.274924 0.049458
1.000000 0.331943 0.170924
1.000000 0.535911 0.313984
0.000000 0.527928 0.193033
0.000000 0.550164 0.175346
0.000000 0.553425 0.126486
0.000000 0.558972 0.000000
0.358400 0.554442 0.000000
0.684494 0.516495 0.000000
0.897077 0.506022 0.000000
1.000000 0.511249 0.181011
1.000000 0.597843 0.333125
0.000000 0.733806 0.380840
0.000000 0.748906 0.372165
0.000000 0.755918 0.364250
0.000000 0.758397 0.333437
0.000000 0.764547 0.253288
0.586814 0.755777 0.157185
0.866550 0.732631 0.000000
0.990481 0.720704 0.227141
1.000000 0.738271 0.374377
0.000000 0.889561 0.600689
0.000000 0.891442 0.596954
0.000000 0.897192 0.593503
0.000000 0.901944 0.586383
0.000000 0.902884 0.556489
0.487611 0.896179 0.487192
0.799964 0.885386 0.405948
0.954747 0.870679 0.333954
1.000000 0.870767 0.465491
0.000000 0.967547 0.794719
0.000000 0.968449 0.794853
0.000000 0.969039 0.794982
0.000000 0.969990 0.792708
0.304311 0.970200 0.785414
0.539750 0.966310 0.769306
0.764281 0.959925 0.715456
0.915558 0.953034 0.655968
0.995692 0.945749 0.587955
0.000000 0.000000 0.035310
0.014208 0.000000 0.012499
0.218011 0.000000 0.000000
0.359768 0.000000 0.000000
0.482884 0.000000 0.000000
0.670788 0.000000 0.000000
0.896987 0.000000 0.073008
1.000000 0.177554 0.166577
1.000000 0.477329 0.309668
0.000000 0.016308 0.048696
0.000000 0.014029 0.040286
0.177489 0.000000 0.000000
0.321518 0.000000 0.000000
0.472346 0.000000 0.000000
0.666566 0.000000 0.000000
0.896645 0.000000 0.072540
1.000000 0.191414 0.167855
1.000000 0.481196 0.309369
0.000000 0.096069 0.069199
0.000000 0.113568 0.045209
0.133305 0.101182 0.000000
0.297019 0.039692 0.000000
0.455658 0.000000 0.000000
0.666751 0.000000 0.000000
0.895946 0.000000 0.075252
1.000000 0.210769 0.168723
1.000000 0.485053 0.311797
0.000000 0.187379 0.099015
0.000000 0.224592 0.053861
0.000000 0.228448 0.000000
0.274069 0.205313 0.000000
0.466298 0.167989 0.000000
0.672020 0.073065 0.000000
0.898521 0.000000 0.079788
1.000000 0.254766 0.173979
1.000000 0.500494 0.313346
0.000000 0.320781 0.157226
0.000000 0.354177 0.124686
0.000000 0.370972 0.041566
0.140884 0.369241 0.000000
0.462684 0.340647 0.000000
0.680765 0.311202 0.000000
0.896241 0.275032 0.082490
1.000000 0.331942 0.180404
1.000000 0.535892 0.322574
0.000000 0.513121 0.250493
0.000000 0.542631 0.234813
0.000000 0.557181 0.199839
0.000000 0.562793 0.126799
0.344427 0.562373 0.000000
0.675005 0.532916 0.000000
0.893329 0.506349 0.050895
1.000000 0.515400 0.195240
1.000000 0.597838 0.336201
0.000000 0.729898 0.410797
0.000000 0.741289 0.402500
0.000000 0.755892 0.393991
0.000000 0.765540 0.363706
0.000000 0.768075 0.279266
0.584081 0.759340 0.194348
0.865087 0.736339 0.060213
0.988472 0.727959 0.239843
1.000000 0.741517 0.380982
0.000000 0.887344 0.608324
0.000000 0.891472 0.608516
0.000000 0.895163 0.604914
0.000000 0.901990 0.601704
0.000000 0.904736 0.571938
0.485184 0.898035 0.502247
0.797700 0.889140 0.421018
0.954505 0.870658 0.347964
1.000000 0.870757 0.471819
0.000000 0.967519 0.799792
0.000000 0.967375 0.799787
0.000000 0.969011 0.800034
0.000000 0.969977 0.795250
0.289315 0.970371 0.788027
0.539609 0.967246 0.772346
0.767837 0.959708 0.721481
0.915279 0.953009 0.662381
0.995395 0.945720 0.596690
0.000000 0.000000 0.109428
0.000000 0.000000 0.077399
0.173037 0.000000 0.054683
0.315239 0.000000 0.041193
0.469150 0.000000 0.040514
0.662445 0.000000 0.057600
0.892789 0.000000 0.098790
1.000000 0.177481 0.181085
1.000000 0.477312 0.315130
0.000000 0.024064 0.116094
0.000000 0.020477 0.100684
0.143817 0.000000 0.082349
0.287821 0.000000 0.063472
0.455288 0.000000 0.051351
0.658150 0.000000 0.060237
0.896569 0.000000 0.099136
1.000000 0.191350 0.182525
1.000000 0.481171 0.317604
0.000000 0.105022 0.174954
0.000000 0.106236 0.180634
0.085644 0.119500 0.171892
0.267422 0.082806 0.105613
0.445098 0.000000 0.064582
0.662426 0.000000 0.064150
0.895824 0.000000 0.101512
1.000000 0.222294 0.182902
1.000000 0.485036 0.317316
0.000000 0.189694 0.232473
0.000000 0.201652 0.236491
0.000000 0.238064 0.201272
0.246610 0.231889 0.134179
0.442404 0.189213 0.079688
0.667058 0.094358 0.070116
0.894215 0.000000 0.108661
1.000000 0.265051 0.188754
1.000000 0.500462 0.324609
0.000000 0.302933 0.280019
0.000000 0.324787 0.263246
0.000000 0.373387 0.228604
0.035355 0.385115 0.154545
0.442851 0.361427 0.082072
0.674641 0.326237 0.063564
0.891429 0.284736 0.121331
1.000000 0.340934 0.198817
1.000000 0.535871 0.331340
0.000000 0.494868 0.334725
0.000000 0.520271 0.316111
0.000000 0.549565 0.303553
0.000000 0.574188 0.247920
0.320624 0.570463 0.163464
0.665774 0.545329 0.000000
0.891611 0.514665 0.122911
1.000000 0.515433 0.219402
1.000000 0.597828 0.342413
0.000000 0.717950 0.449009
0.000000 0.729682 0.440682
0.000000 0.744676 0.435912
0.000000 0.769129 0.415649
0.000000 0.771641 0.340793
0.567747 0.763383 0.251401
0.859988 0.740217 0.151180
0.988012 0.727979 0.267046
1.000000 0.741507 0.391108
0.000000 0.885174 0.631420
0.000000 0.887109 0.631499
0.000000 0.893136 0.627902
0.000000 0.900015 0.624570
0.000000 0.904781 0.598617
0.475183 0.898200 0.524390
0.796976 0.889082 0.445900
0.952440 0.874542 0.380601
1.000000 0.870745 0.478175
0.000000 0.966560 0.807150
0.000000 0.967334 0.807250
0.000000 0.968101 0.804890
0.000000 0.969078 0.805103
0.287387 0.970330 0.795666
0.539028 0.967219 0.777815
0.766958 0.960626 0.730685
0.914397 0.953936 0.672528
0.995088 0.945691 0.605499
0.000000 0.000000 0.160996
0.000000 0.000000 0.133998
0.129775 0.000000 0.118149
0.289562 0.000000 0.097597
0.433555 0.000000 0.118173
0.664095 0.000000 0.129634
0.884113 0.000000 0.148781
1.000000 0.184217 0.215845
1.000000 0.477246 0.334876
0.000000 0.044486 0.180443
0.000000 0.045547 0.169286
0.104987 0.027651 0.170759
0.274739 0.000000 0.141394
0.428106 0.000000 0.142902
0.659617 0.000000 0.137389
0.883658 0.000000 0.151575
1.000000 0.197654 0.220010
1.000000 0.481104 0.337521
0.000000 0.108946 0.243248
0.000000 0.111471 0.247925
0.000000 0.118874 0.270451
0.249346 0.098487 0.246054
0.425380 0.000000 0.180610
0.650499 0.000000 0.150032
0.891394 0.000000 0.156150
1.000000 0.227610 0.221056
1.000000 0.488838 0.336997
0.000000 0.197133 0.309694
0.000000 0.207217 0.325786
0.000000 0.229016 0.342399
0.193237 0.255821 0.331271
0.419579 0.214308 0.244870
0.652196 0.129177 0.175289
0.889460 0.000000 0.164537
1.000000 0.270011 0.226356
1.000000 0.501236 0.339776
0.000000 0.317314 0.400092
0.000000 0.331444 0.409704
0.000000 0.354203 0.408726
0.000000 0.401239 0.382742
0.388099 0.403444 0.313066
0.658054 0.353737 0.215329
0.889437 0.298107 0.186913
1.000000 0.349674 0.236219
1.000000 0.535832 0.346362
0.000000 0.483710 0.465063
0.000000 0.490780 0.461059
0.000000 0.523283 0.451901
0.000000 0.574009 0.423471
0.262706 0.590136 0.347542
0.650199 0.569665 0.261027
0.883923 0.531591 0.218097
1.000000 0.523744 0.266527
1.000000 0.601608 0.364429
0.000000 0.705591 0.521634
0.000000 0.713578 0.521127
0.000000 0.725256 0.516591
0.000000 0.754820 0.503388
0.000000 0.778607 0.445537
0.557695 0.773608 0.357958
0.851455 0.751158 0.263331
0.984304 0.738588 0.318625
1.000000 0.744703 0.410514
0.000000 0.878548 0.665947
0.000000 0.882782 0.665999
0.000000 0.886830 0.662289
0.000000 0.896205 0.658843
0.000000 0.904724 0.648220
0.466667 0.903541 0.577571
0.793378 0.892605 0.500453
0.950767 0.876381 0.424697
1.000000 0.872532 0.504317
0.000000 0.965713 0.816755
0.000000 0.966506 0.816831
0.000000 0.967134 0.816905
0.000000 0.968320 0.814689
0.247384 0.968658 0.812547
0.530059 0.968294 0.793609
0.761232 0.961657 0.753952
0.913401 0.953847 0.694184
0.993920 0.946599 0.627382
0.000000 0.059219 0.242311
0.000000 0.060729 0.242313
0.010074 0.054490 0.244518
0.244576 0.000000 0.247247
0.426133 0.000000 0.211808
0.635590 0.000000 0.252189
0.893555 0.000000 0.263579
1.000000 0.227371 0.283146
1.000000 0.481804 0.381025
0.000000 0.076153 0.269531
0.000000 0.079027 0.274067
0.000000 0.081046 0.283275
0.235618 0.025537 0.286715
0.426815 0.000000 0.251465
0.640576 0.000000 0.268066
0.893097 0.000000 0.268047
1.000000 0.238376 0.285318
1.000000 0.485663 0.380810
0.000000 0.116247 0.307394
0.000000 0.120365 0.315250
0.000000 0.123328 0.334501
0.207762 0.114308 0.354290
0.427174 0.000000 0.312189
0.643980 0.000000 0.284662
0.883561 0.000000 0.274526
1.000000 0.254346 0.289903
1.000000 0.493378 0.380374
0.000000 0.214387 0.394135
0.000000 0.218099 0.410796
0.000000 0.229716 0.434461
0.049928 0.247017 0.458231
0.410024 0.235936 0.436558
0.644889 0.170823 0.340834
0.880510 0.117585 0.288171
1.000000 0.289717 0.299376
1.000000 0.512620 0.385663
0.000000 0.325168 0.480245
0.000000 0.333631 0.505356
0.000000 0.356386 0.526518
0.000000 0.381597 0.543981
0.339274 0.433642 0.535987
0.633274 0.389670 0.431955
0.888134 0.327897 0.330386
1.000000 0.362993 0.315459
1.000000 0.543375 0.393573
0.000000 0.493744 0.603268
0.000000 0.504478 0.606595
0.000000 0.522589 0.617294
0.000000 0.554917 0.615579
0.000000 0.609710 0.589096
0.599516 0.609056 0.519352
0.868542 0.557205 0.398493
1.000000 0.540156 0.355480
1.000000 0.605327 0.409746
0.000000 0.689367 0.674068
0.000000 0.693047 0.673856
0.000000 0.704729 0.665384
0.000000 0.727979 0.660132
0.000000 0.782083 0.645413
0.510299 0.793433 0.571193
0.836442 0.768156 0.476686
0.979868 0.745494 0.417875
1.000000 0.747820 0.459679
0.000000 0.869128 0.730328
0.000000 0.871301 0.730265
0.000000 0.877856 0.726773
0.000000 0.885895 0.723291
0.000000 0.899547 0.716594
0.452424 0.908385 0.679385
0.790761 0.897358 0.596621
0.945528 0.883571 0.515161
1.000000 0.877777 0.551407
0.000000 0.961823 0.837201
0.000000 0.963810 0.837269
0.000000 0.964362 0.837285
0.000000 0.964592 0.835088
0.127646 0.966215 0.835205
0.511033 0.969476 0.826978
0.762171 0.963161 0.789776
0.910367 0.955558 0.738627
0.992278 0.948312 0.674458
0.000000 0.127843 0.390084
0.000000 0.130383 0.396760
0.000000 0.133603 0.409958
0.133153 0.125955 0.430101
0.389612 0.058430 0.432193
0.634709 0.000000 0.380976
0.862845 0.000000 0.423786
1.000000 0.245857 0.437028
1.000000 0.495906 0.469243
0.000000 0.141206 0.406431
0.000000 0.142529 0.409769
0.000000 0.146146 0.430097
0.114218 0.141533 0.447135
0.389745 0.094295 0.452779
0.635916 0.000000 0.397580
0.862568 0.000000 0.430397
1.000000 0.256473 0.440152
1.000000 0.495906 0.469243
0.000000 0.168289 0.439879
0.000000 0.169878 0.446809
0.000000 0.172707 0.464302
0.028413 0.177977 0.485260
0.383902 0.150866 0.498417
0.633674 0.000000 0.447982
0.866000 0.000000 0.447136
1.000000 0.277111 0.446600
1.000000 0.503636 0.472182
0.000000 0.229076 0.498410
0.000000 0.233055 0.509213
0.000000 0.241153 0.523614
0.000000 0.246876 0.556625
0.353348 0.247016 0.566534
0.646127 0.185100 0.521213
0.867388 0.157222 0.470652
1.000000 0.320432 0.455661
1.000000 0.519107 0.474773
0.000000 0.352947 0.598350
0.000000 0.355736 0.609795
0.000000 0.364404 0.624876
0.000000 0.388078 0.646996
0.227624 0.417542 0.668262
0.627825 0.418246 0.643295
0.867024 0.364713 0.542098
1.000000 0.391930 0.474242
1.000000 0.550004 0.479951
0.000000 0.496813 0.688433
0.000000 0.503901 0.703412
0.000000 0.518450 0.710189
0.000000 0.551022 0.726744
0.000000 0.591786 0.745092
0.567758 0.638690 0.744380
0.844090 0.603101 0.636675
1.000000 0.572638 0.534734
1.000000 0.620309 0.504330
0.000000 0.692812 0.787353
0.000000 0.696537 0.787113
0.000000 0.708500 0.789478
0.000000 0.723804 0.794571
0.000000 0.765366 0.797485
0.447729 0.802704 0.785089
0.813140 0.804365 0.717717
0.962599 0.771361 0.616820
1.000000 0.757186 0.559184
0.000000 0.861747 0.834023
0.000000 0.863968 0.833866
0.000000 0.868543 0.833558
0.000000 0.874778 0.830672
0.000000 0.883659 0.829904
0.347426 0.909418 0.823091
0.766049 0.910009 0.778594
0.931851 0.898003 0.710783
1.000000 0.880977 0.640408
0.000000 0.955362 0.873630
0.000000 0.956466 0.873593
0.000000 0.957301 0.873540
0.000000 0.958610 0.871537
0.000000 0.961676 0.873173
0.442656 0.966012 0.869195
0.752919 0.966651 0.848719
0.908114 0.960467 0.807499
0.987080 0.950906 0.745080
0.000000 0.233223 0.587504
0.000000 0.235110 0.591256
0.000000 0.240878 0.602522
0.000000 0.238609 0.617796
0.279031 0.233669 0.636141
0.611480 0.180203 0.645534
0.869680 0.000000 0.584038
1.000000 0.271314 0.624686
1.000000 0.524577 0.627398
0.000000 0.241943 0.594881
0.000000 0.243911 0.598638
0.000000 0.247719 0.606145
0.000000 0.247774 0.625216
0.273620 0.243680 0.643600
0.609585 0.194908 0.653027
0.870275 0.000000 0.595220
1.000000 0.281503 0.628343
1.000000 0.528490 0.627248
0.000000 0.255559 0.605945
0.000000 0.255264 0.609787
0.000000 0.256832 0.621242
0.000000 0.262022 0.636334
0.259618 0.259467 0.654780
0.609865 0.222312 0.671788
0.874047 0.000000 0.610092
1.000000 0.301013 0.635492
1.000000 0.532346 0.630739
0.000000 0.287150 0.639536
0.000000 0.286913 0.643399
0.000000 0.288947 0.651021
0.000000 0.298003 0.666025
0.230681 0.303726 0.688187
0.598552 0.279406 0.712695
0.876316 0.172201 0.647313
1.000000 0.338447 0.649839
1.000000 0.548542 0.637660
0.000000 0.379004 0.709267
0.000000 0.382045 0.712899
0.000000 0.388135 0.720070
0.000000 0.390344 0.734473
0.000000 0.415544 0.764284
0.546806 0.427448 0.775553
0.871002 0.383803 0.736370
1.000000 0.413411 0.678175
1.000000 0.580087 0.651247
0.000000 0.529088 0.790347
0.000000 0.528961 0.793571
0.000000 0.539968 0.799297
0.000000 0.554289 0.810598
0.000000 0.581464 0.828267
0.448997 0.618916 0.844871
0.845277 0.626224 0.826613
0.989958 0.598882 0.742734
1.000000 0.646268 0.678113
0.000000 0.692800 0.847613
0.000000 0.696535 0.849767
0.000000 0.704455 0.851612
0.000000 0.720012 0.859772
0.000000 0.751851 0.870368
0.306749 0.789988 0.878601
0.777569 0.825734 0.877989
0.944198 0.797212 0.815624
1.000000 0.779860 0.730952
0.000000 0.864282 0.899216
0.000000 0.866621 0.899032
0.000000 0.868674 0.900463
0.000000 0.877386 0.901353
0.000000 0.886513 0.901997
0.125946 0.900485 0.902974
0.734598 0.913530 0.895579
0.918967 0.908209 0.869247
0.995314 0.896416 0.805288
0.000000 0.953351 0.924710
0.000000 0.953237 0.924700
0.000000 0.954154 0.923292
0.000000 0.954662 0.923156
0.000000 0.956527 0.920157
0.296029 0.960863 0.919300
0.719595 0.966636 0.917865
0.896452 0.964494 0.900007
0.978551 0.958298 0.861986
0.000000 0.373425 0.787692
0.000000 0.373193 0.787669
0.000000 0.375850 0.790835
0.000000 0.381022 0.797018
0.000000 0.387065 0.811955
0.481751 0.380918 0.827568
0.843245 0.357077 0.837435
1.000000 0.297134 0.785634
1.000000 0.538397 0.810561
0.000000 0.376605 0.790910
0.000000 0.379612 0.790749
0.000000 0.382335 0.793873
0.000000 0.387555 0.799960
0.000000 0.397413 0.814548
0.479280 0.388295 0.827307
0.841765 0.365835 0.839773
1.000000 0.307143 0.788655
1.000000 0.542383 0.810404
0.000000 0.386355 0.793804
0.000000 0.386133 0.793782
0.000000 0.388860 0.796856
0.000000 0.401097 0.805716
0.000000 0.407856 0.817086
0.469032 0.399787 0.832395
0.839387 0.378879 0.844483
1.000000 0.326319 0.794549
1.000000 0.550109 0.815458
0.000000 0.409842 0.805604
0.000000 0.409634 0.805583
0.000000 0.412643 0.808495
0.000000 0.418373 0.817138
0.000000 0.429221 0.833158
0.458913 0.422046 0.842071
0.833013 0.413230 0.850882
1.000000 0.358827 0.805908
1.000000 0.566404 0.820065
0.000000 0.451477 0.830102
0.000000 0.451290 0.830081
0.000000 0.454467 0.832593
0.000000 0.464209 0.839935
0.000000 0.475934 0.849211
0.442198 0.477816 0.859541
0.828713 0.471562 0.871930
1.000000 0.429711 0.833913
1.000000 0.602703 0.828751
0.000000 0.569285 0.866584
0.000000 0.572902 0.866352
0.000000 0.576481 0.868392
0.000000 0.583440 0.874567
0.000000 0.596621 0.882008
0.326528 0.622498 0.895307
0.764599 0.636157 0.900805
0.986536 0.619861 0.882593
1.000000 0.672573 0.840035
0.000000 0.727989 0.907039
0.000000 0.731811 0.906772
0.000000 0.735436 0.908164
0.000000 0.738719 0.909494
0.000000 0.752124 0.914733
0.000000 0.780251 0.925230
0.700096 0.808563 0.926330
0.935464 0.818237 0.919759
1.000000 0.804569 0.879100
0.000000 0.859766 0.932184
0.000000 0.862025 0.933308
0.000000 0.864204 0.934407
0.000000 0.868535 0.935279
0.000000 0.878713 0.936792
0.000000 0.895297 0.943939
0.649402 0.906145 0.946436
0.905925 0.922076 0.946150
0.980672 0.910889 0.914611
0.000000 0.952988 0.959455
0.000000 0.952889 0.959446
0.000000 0.953748 0.959312
0.000000 0.954230 0.960036
0.000000 0.956429 0.960504
0.000000 0.962197 0.961072
0.658352 0.963347 0.960180
0.880807 0.968020 0.957720
0.971109 0.965134 0.941800
0.000000 0.554903 0.909920
0.000000 0.554593 0.909884
0.000000 0.558105 0.911434
0.000000 0.561293 0.914646
0.000000 0.563112 0.919227
0.357962 0.575883 0.925443
0.709056 0.576654 0.927239
0.978828 0.574638 0.932961
1.000000 0.551759 0.907649
0.000000 0.558717 0.909716
0.000000 0.558428 0.911471
0.000000 0.561946 0.912991
0.000000 0.561293 0.914646
0.000000 0.566986 0.920644
0.357662 0.575909 0.926988
0.700028 0.585337 0.929865
0.977714 0.578944 0.934172
1.000000 0.551430 0.909303
0.000000 0.562453 0.911291
0.000000 0.566071 0.911061
0.000000 0.565772 0.912786
0.000000 0.568979 0.915938
0.000000 0.570840 0.920439
0.354199 0.579829 0.926785
0.698545 0.589419 0.929669
0.976687 0.583206 0.933986
1.000000 0.559807 0.908962
0.000000 0.577796 0.913954
0.000000 0.577494 0.913919
0.000000 0.577307 0.915598
0.000000 0.580425 0.918619
0.000000 0.582306 0.922997
0.333840 0.591887 0.929241
0.695286 0.597635 0.932190
0.974741 0.600113 0.935959
1.000000 0.579783 0.912909
0.000000 0.600724 0.919295
0.000000 0.604475 0.919067
0.000000 0.604202 0.920640
0.000000 0.611201 0.921712
0.000000 0.613181 0.925960
0.302356 0.619440 0.933677
0.679333 0.622532 0.935274
0.967833 0.633797 0.940987
1.000000 0.612424 0.917648
0.000000 0.650984 0.927328
0.000000 0.650803 0.927307
0.000000 0.650578 0.930267
0.000000 0.653877 0.931444
0.000000 0.663626 0.934869
0.228151 0.666582 0.939448
0.655384 0.687720 0.945008
0.948139 0.704944 0.949507
1.000000 0.685165 0.928558
0.000000 0.766823 0.943507
0.000000 0.766684 0.944744
0.000000 0.770045 0.944490
0.000000 0.772936 0.945430
0.000000 0.778378 0.949623
0.000000 0.787581 0.952886
0.594183 0.805319 0.960122
0.900069 0.817888 0.961465
1.000000 0.815127 0.952128
0.000000 0.881204 0.963443
0.000000 0.883282 0.963261
0.000000 0.883046 0.964152
0.000000 0.884738 0.964842
0.000000 0.887687 0.966165
0.000000 0.896221 0.968333
0.543280 0.903477 0.973179
0.859679 0.910773 0.974763
0.978992 0.921516 0.970223
0.000000 0.952827 0.977104
0.000000 0.952577 0.977080
0.000000 0.952399 0.977752
0.000000 0.953030 0.978270
0.000000 0.955184 0.979808
0.000000 0.957947 0.980317
0.571739 0.959482 0.983170
0.844942 0.964176 0.984069
0.965210 0.971933 0.983674
