Assets/Lutify-Free-LUTs-Pack/Lutify Free LUTs Pack/Commercial Pro - Claire/Lutify.me-Claire-Rec709-to-Rec709.cube
# Created with: fylm.ai - Colour Grading and Collaboration Software in Cloud 
# Website: https://fylm.ai 
# META
# Option: Gamut compress
# Block 1: IDT | Rec709
# Block 2: colourMatch | Blending Mode: Normal | {"ColorSpace":0,"CrossCovarianceLimit":50,"ReshapingIterations":1,"PercentSaturationShift":100,"PercentShadingShift":100,"ExtraShading":true,"PercentTint":100,"PercentModified":100}
# Block 3: HSL | Blending Mode: Normal | {"hue":{"Reds":0,"Yellows":0,"Greens":0,"Cyans":0,"Blues":0,"Magentas":0},"saturation":{"Reds":1,"Yellows":1,"Greens":1,"Cyans":1,"Blues":1,"Magentas":1},"luminance":{"Reds":0.9,"Yellows":0.9,"Greens":0.9,"Cyans":0.8,"Blues":0.8,"Magentas":0.9},"lum_sat":{"Blacks":1,"Shadows":1,"Midtones":1,"Highlights":1,"Whites":1},"sat_sat":{"10":1,"20":1,"30":1,"40":1,"50":1}}
# Block 4: subtractiveColour | Blending Mode: Normal | {"sliders":{"gainY":0.1,"C":0.05,"M":0.05,"Y":0.05}}
# Block 5: logPrimaries | Blending Mode: Normal | {"wheels":{"shadows":{"Y":"0","R":"1","G":"1","B":"1"},"midtones":{"Y":"0","R":"1","G":"1","B":"1"},"highlights":{"Y":"0","R":"1","G":"1","B":"1"},"offset":{"Y":"0","R":"1","G":"1","B":"1"}},"sliders":{"shadows":{"Y":0,"R":-0.05,"G":0,"B":0.1},"midtones":{"Y":0,"R":0,"G":0,"B":0},"highlights":{"Y":0,"R":0,"G":0,"B":0},"offset":{"Y":0,"R":0,"G":0,"B":0}}}
# Block 6: LUT | Filmic Curve Response: Standard Contrast 1 (100%)
# Block 7: LUT | Illuminant: D93 (100%)
# Block 8: LUT | Neutral Tint: Teal Tint 4 (100%)
# Block 9: ODT | Rec709
TITLE "Lutify.me-Claire-Rec709-to-Rec709" 
LUT_3D_SIZE 33
0.000000 0.000000 0.027457
0.000000 0.000000 0.028526
0.035937 0.000000 0.000000
0.085548 0.000000 0.000000
0.132795 0.000000 0.000000
0.167303 0.000000 0.000000
0.200859 0.000000 0.000000
0.239108 0.000000 0.000000
0.263706 0.000000 0.000000
0.287415 0.000000 0.000000
0.310181 0.000000 0.000000
0.335006 0.000000 0.000000
0.353719 0.000000 0.000000
0.375311 0.000000 0.000000
0.401349 0.000000 0.000000
0.423068 0.000000 0.000000
0.449508 0.000000 0.000000
0.474196 0.000000 0.000000
0.492511 0.000000 0.000000
0.515168 0.000000 0.000000
0.535032 0.000000 0.000000
0.559058 0.000000 0.000000
0.579448 0.000000 0.000000
0.604221 0.000000 0.000000
0.637593 0.000000 0.000000
0.662953 0.000000 0.016089
0.688521 0.000000 0.020868
0.714209 0.000000 0.030489
0.740945 0.000000 0.035634
0.769006 0.000000 0.048085
0.801821 0.000000 0.059532
0.838829 0.000000 0.069434
0.877827 0.000000 0.081467
0.000000 0.017600 0.030573
0.000000 0.018083 0.029651
0.049264 0.000000 0.000000
0.086411 0.000000 0.000000
0.130100 0.000000 0.000000
0.165301 0.000000 0.000000
0.198829 0.000000 0.000000
0.237223 0.000000 0.000000
0.263768 0.000000 0.000000
0.285289 0.000000 0.000000
0.310241 0.000000 0.000000
0.332488 0.000000 0.000000
0.353782 0.000000 0.000000
0.375375 0.000000 0.000000
0.401428 0.000000 0.000000
0.423178 0.000000 0.000000
0.449556 0.000000 0.000000
0.470607 0.000000 0.000000
0.492511 0.000000 0.000000
0.515226 0.000000 0.000000
0.535032 0.000000 0.000000
0.559106 0.000000 0.000000
0.579430 0.000000 0.000000
0.604221 0.000000 0.000000
0.637593 0.000000 0.000000
0.662953 0.000000 0.016089
0.688521 0.000000 0.020868
0.714209 0.000000 0.030489
0.740945 0.000000 0.035634
0.769006 0.000000 0.048085
0.801793 0.000000 0.058813
0.838829 0.000000 0.069434
0.877827 0.000000 0.081467
0.000000 0.050603 0.020730
0.000000 0.050612 0.000000
0.050700 0.048969 0.000000
0.086257 0.043289 0.000000
0.126205 0.034085 0.000000
0.160277 0.016796 0.000000
0.194625 0.000000 0.000000
0.231024 0.000000 0.000000
0.257677 0.000000 0.000000
0.281139 0.000000 0.000000
0.308084 0.000000 0.000000
0.330187 0.000000 0.000000
0.354033 0.000000 0.000000
0.375587 0.000000 0.000000
0.401635 0.000000 0.000000
0.423348 0.000000 0.000000
0.446424 0.000000 0.000000
0.470854 0.000000 0.000000
0.492746 0.000000 0.000000
0.515358 0.000000 0.000000
0.535160 0.000000 0.000000
0.559155 0.000000 0.000000
0.579603 0.000000 0.000000
0.604264 0.000000 0.000000
0.637625 0.000000 0.000000
0.662975 0.000000 0.018342
0.688534 0.000000 0.022705
0.714240 0.000000 0.026891
0.740945 0.000000 0.035634
0.768994 0.000000 0.047176
0.801793 0.000000 0.058813
0.838829 0.000000 0.069434
0.877740 0.000000 0.080874
0.000000 0.080755 0.000000
0.000000 0.079661 0.000000
0.045171 0.076073 0.000000
0.087107 0.073949 0.000000
0.121127 0.069107 0.000000
0.156507 0.063878 0.000000
0.191290 0.057279 0.000000
0.226544 0.046011 0.000000
0.258023 0.034368 0.000000
0.281387 0.027079 0.000000
0.306135 0.000000 0.000000
0.330665 0.000000 0.000000
0.354430 0.000000 0.000000
0.376101 0.000000 0.000000
0.402108 0.000000 0.000000
0.423824 0.000000 0.000000
0.446794 0.000000 0.000000
0.471302 0.000000 0.000000
0.489513 0.000000 0.000000
0.511918 0.000000 0.000000
0.535394 0.000000 0.000000
0.559479 0.000000 0.000000
0.579798 0.000000 0.000000
0.604417 0.000000 0.000000
0.637741 0.000000 0.000000
0.663038 0.000000 0.017452
0.688578 0.000000 0.022058
0.714262 0.000000 0.026394
0.740924 0.000000 0.038207
0.768969 0.000000 0.048639
0.801752 0.000000 0.060176
0.838764 0.000000 0.070814
0.877728 0.000000 0.082899
0.000000 0.106182 0.000000
0.000000 0.106076 0.000000
0.050896 0.105499 0.000000
0.088436 0.104250 0.000000
0.122985 0.099467 0.000000
0.156414 0.096078 0.000000
0.190910 0.089571 0.000000
0.223714 0.084543 0.000000
0.249772 0.081428 0.000000
0.277313 0.076025 0.000000
0.304273 0.071146 0.000000
0.328578 0.069242 0.000000
0.349730 0.072262 0.000000
0.371222 0.075289 0.000000
0.396922 0.072286 0.000000
0.421431 0.069932 0.000000
0.440857 0.067370 0.000000
0.468406 0.062233 0.000000
0.490088 0.056811 0.000000
0.512419 0.050024 0.000000
0.535959 0.059524 0.000000
0.559832 0.052946 0.000000
0.580056 0.051720 0.000000
0.604638 0.042602 0.000000
0.637910 0.020631 0.011407
0.663163 0.000000 0.020551
0.688679 0.011537 0.020263
0.714271 0.000000 0.029477
0.740901 0.000000 0.041003
0.768932 0.000000 0.049180
0.801681 0.000000 0.060810
0.843117 0.000000 0.070901
0.877626 0.000000 0.084338
0.000000 0.132402 0.000000
0.023310 0.132273 0.000000
0.052610 0.131979 0.000000
0.087886 0.131125 0.000000
0.121848 0.129643 0.000000
0.153157 0.127583 0.000000
0.189585 0.122682 0.000000
0.222974 0.120055 0.000000
0.252491 0.116829 0.000000
0.274152 0.117324 0.000000
0.299499 0.116916 0.000000
0.324037 0.114536 0.000000
0.342386 0.115740 0.000000
0.366686 0.112910 0.000000
0.392083 0.111764 0.000000
0.416141 0.108170 0.000000
0.438639 0.107744 0.000000
0.462615 0.109961 0.000000
0.491103 0.103214 0.000000
0.513456 0.103022 0.000000
0.536651 0.098337 0.000000
0.560468 0.097493 0.000000
0.580542 0.094118 0.000000
0.605038 0.092925 0.000000
0.638245 0.091305 0.000000
0.663364 0.082752 0.020256
0.688798 0.080229 0.017975
0.714323 0.065601 0.029122
0.740884 0.039259 0.042606
0.768869 0.000000 0.051173
0.801610 0.000000 0.061433
0.842985 0.000000 0.071624
0.877430 0.022421 0.085197
0.000000 0.161843 0.031755
0.000000 0.161744 0.031784
0.050809 0.161482 0.026149
0.086223 0.160873 0.015648
0.123989 0.159649 0.000000
0.155469 0.159868 0.000000
0.185768 0.159694 0.000000
0.222995 0.156100 0.000000
0.251717 0.152175 0.000000
0.273513 0.148775 0.000000
0.298151 0.146478 0.000000
0.318514 0.146774 0.000000
0.342672 0.144002 0.000000
0.367386 0.143009 0.000000
0.390151 0.142261 0.000000
0.414299 0.140955 0.000000
0.440052 0.141668 0.000000
0.463811 0.140091 0.000000
0.488517 0.134798 0.000000
0.514424 0.131901 0.000000
0.533732 0.131436 0.000000
0.561089 0.123505 0.000000
0.581342 0.130493 0.000000
0.605628 0.127638 0.000000
0.638637 0.123490 0.000000
0.663670 0.118173 0.003731
0.688917 0.112026 0.024653
0.714345 0.104882 0.037131
0.740866 0.095596 0.044792
0.768778 0.082716 0.054454
0.810862 0.052728 0.062548
0.842833 0.054500 0.074440
0.881423 0.066359 0.086115
0.000000 0.191405 0.039767
0.000000 0.191411 0.038081
0.057282 0.191108 0.036424
0.092814 0.190568 0.028711
0.128889 0.189582 0.017714
0.157159 0.190125 0.000000
0.191972 0.187656 0.000000
0.223775 0.182779 0.000000
0.252256 0.179657 0.000000
0.273359 0.177026 0.000000
0.297549 0.173665 0.000000
0.322154 0.172070 0.000000
0.341933 0.171037 0.000000
0.367549 0.168760 0.000000
0.387849 0.169674 0.000000
0.415296 0.169051 0.000000
0.438044 0.171973 0.000000
0.465212 0.168339 0.000000
0.489978 0.164821 0.000000
0.515741 0.160890 0.000000
0.534814 0.158528 0.000000
0.562175 0.155856 0.000000
0.582073 0.155433 0.000000
0.606289 0.153363 0.000000
0.639059 0.147536 0.000000
0.663995 0.144435 0.000000
0.689111 0.140966 0.027699
0.718743 0.139541 0.035349
0.740864 0.137369 0.047265
0.768700 0.125943 0.053351
0.810638 0.107709 0.065133
0.842609 0.094078 0.076595
0.881191 0.092999 0.089058
0.029214 0.219661 0.047126
0.043547 0.219580 0.045306
0.068136 0.219313 0.043453
0.099374 0.218705 0.039533
0.127458 0.217856 0.035236
0.159044 0.216514 0.027474
0.198293 0.214213 0.000000
0.228105 0.209752 0.000000
0.249945 0.210045 0.000000
0.273117 0.207742 0.000000
0.296682 0.205118 0.000000
0.320348 0.204300 0.000000
0.345066 0.200970 0.000000
0.366118 0.200060 0.000000
0.390526 0.198447 0.000000
0.415813 0.194113 0.000000
0.438895 0.194568 0.000000
0.462900 0.192263 0.000000
0.490996 0.186179 0.000000
0.516820 0.183016 0.000000
0.535807 0.181170 0.000000
0.563150 0.179826 0.000000
0.582852 0.177354 0.000000
0.607144 0.179710 0.000000
0.639730 0.176206 0.000000
0.664399 0.171340 0.008826
0.689382 0.165799 0.025887
0.718807 0.161999 0.040718
0.740895 0.165628 0.047910
0.773197 0.155558 0.059461
0.810398 0.140937 0.067693
0.846674 0.130603 0.079517
0.888996 0.122715 0.088803
0.072099 0.240412 0.066275
0.079104 0.240312 0.066284
0.091478 0.240113 0.064514
0.112202 0.239669 0.062741
0.138392 0.238916 0.057214
0.172772 0.237535 0.051238
0.202757 0.235942 0.044968
0.230471 0.234127 0.032523
0.251073 0.234691 0.004695
0.274389 0.237081 0.000000
0.296933 0.234998 0.000000
0.319873 0.232649 0.000000
0.346606 0.229613 0.000000
0.369090 0.226806 0.000000
0.391953 0.223706 0.000000
0.415281 0.220275 0.000000
0.439125 0.218951 0.000000
0.463778 0.217291 0.000000
0.492590 0.214782 0.000000
0.514768 0.213433 0.000000
0.537368 0.208983 0.000000
0.560513 0.206944 0.000000
0.584051 0.204567 0.000000
0.607883 0.201861 0.000000
0.640230 0.196519 0.000000
0.664909 0.196326 0.000000
0.689653 0.188697 0.029794
0.718966 0.186557 0.040563
0.745518 0.185271 0.049641
0.773077 0.183588 0.060584
0.814715 0.171040 0.071676
0.846224 0.161499 0.082432
0.888440 0.151521 0.094880
0.092330 0.263246 0.082058
0.098849 0.263137 0.082067
0.104950 0.263024 0.082075
0.128614 0.264744 0.077602
0.147655 0.264219 0.073768
0.179753 0.263065 0.067889
0.207673 0.261773 0.059608
0.228007 0.260649 0.055211
0.250334 0.261555 0.043761
0.274160 0.259849 0.029947
0.294814 0.258193 0.018867
0.323598 0.253200 0.000000
0.344676 0.251067 0.000000
0.368358 0.248452 0.000000
0.392450 0.245551 0.000000
0.416986 0.242337 0.000000
0.438385 0.239313 0.000000
0.467377 0.237516 0.000000
0.493400 0.238982 0.000000
0.519486 0.234814 0.000000
0.538569 0.234415 0.000000
0.561780 0.233174 0.000000
0.585092 0.228689 0.000000
0.608867 0.226894 0.000000
0.641020 0.222983 0.000000
0.665359 0.217090 0.011605
0.689996 0.214201 0.034904
0.719225 0.217281 0.039580
0.745530 0.217588 0.053016
0.772873 0.217651 0.064518
0.814283 0.204406 0.074751
0.850029 0.191400 0.084582
0.891756 0.179850 0.098316
0.117630 0.285838 0.094605
0.117826 0.285856 0.090579
0.135135 0.285476 0.090610
0.145164 0.285230 0.088606
0.162536 0.284732 0.086610
0.182094 0.288996 0.080849
0.201748 0.288237 0.074419
0.224407 0.287205 0.067715
0.250223 0.285823 0.060590
0.272260 0.284463 0.052758
0.300494 0.277370 0.047551
0.326416 0.275237 0.041217
0.348135 0.273260 0.033516
0.370376 0.268448 0.020152
0.392064 0.266087 0.000000
0.421490 0.262592 0.000000
0.443918 0.259696 0.000000
0.473950 0.264073 0.000000
0.496986 0.263897 0.000000
0.519986 0.263624 0.000000
0.539321 0.260788 0.000000
0.566613 0.259588 0.000000
0.586100 0.256377 0.000000
0.609899 0.255408 0.000000
0.641770 0.249432 0.000000
0.666012 0.244485 0.011725
0.694686 0.241723 0.024867
0.719350 0.243381 0.048175
0.745476 0.240927 0.059391
0.777273 0.240830 0.068106
0.818379 0.233950 0.075084
0.853509 0.223713 0.090686
0.894926 0.205471 0.101815
0.122438 0.313604 0.103566
0.128460 0.313492 0.103577
0.134220 0.313378 0.103587
0.150385 0.313027 0.101419
0.165297 0.312655 0.097030
0.179278 0.312255 0.092603
0.201136 0.311519 0.088145
0.221969 0.310698 0.081276
0.254039 0.309181 0.076617
0.277795 0.307858 0.071771
0.303018 0.303512 0.065444
0.326698 0.301802 0.060064
0.350525 0.297118 0.052927
0.373433 0.295080 0.042596
0.400541 0.292436 0.027955
0.424703 0.287015 0.016169
0.448117 0.287286 0.000000
0.475843 0.287138 0.000000
0.499548 0.287329 0.000000
0.523181 0.287437 0.000000
0.543113 0.284810 0.000000
0.566926 0.284688 0.000000
0.586716 0.281820 0.000000
0.610501 0.278172 0.000000
0.642300 0.272936 0.021990
0.670561 0.271390 0.031321
0.694908 0.266813 0.041381
0.723698 0.268449 0.048806
0.749947 0.266850 0.064246
0.777090 0.268882 0.067297
0.822283 0.258573 0.081871
0.856928 0.250013 0.095401
0.897542 0.239392 0.106287
0.138054 0.335307 0.118159
0.144140 0.335188 0.118171
0.144140 0.335188 0.118171
0.155766 0.334947 0.115848
0.166687 0.334695 0.113525
0.187042 0.334152 0.108872
0.206034 0.333557 0.104198
0.228572 0.332731 0.099502
0.254675 0.331611 0.092329
0.284451 0.330101 0.087484
0.309879 0.328612 0.082501
0.331483 0.324247 0.073289
0.355619 0.322477 0.067769
0.377092 0.317777 0.060492
0.405749 0.315220 0.050363
0.430920 0.312979 0.042196
0.456172 0.310558 0.031398
0.480631 0.311176 0.014237
0.500898 0.312169 0.000000
0.520800 0.316087 0.000000
0.541539 0.313677 0.000000
0.570235 0.310143 0.000000
0.590437 0.310719 0.000000
0.618659 0.306901 0.011638
0.646803 0.302847 0.024691
0.670912 0.299166 0.038543
0.695231 0.295229 0.043320
0.723687 0.293895 0.057721
0.749957 0.296463 0.061170
0.781267 0.294453 0.073085
0.821585 0.286559 0.085329
0.860095 0.278539 0.096983
0.903763 0.269114 0.111296
0.145419 0.360280 0.132107
0.145550 0.360284 0.129846
0.152153 0.360160 0.129860
0.158609 0.360036 0.127614
0.170753 0.359776 0.125384
0.193092 0.359217 0.123183
0.208840 0.358765 0.118708
0.228876 0.358111 0.111447
0.257400 0.357009 0.108984
0.289719 0.355525 0.101346
0.311512 0.354373 0.096157
0.334594 0.350041 0.089298
0.360430 0.348407 0.081048
0.387857 0.343542 0.073765
0.409885 0.341925 0.060828
0.436477 0.339789 0.057253
0.462055 0.340682 0.041190
0.483823 0.338667 0.035093
0.504761 0.339806 0.019360
0.521918 0.338056 0.000000
0.547609 0.335295 0.000000
0.568675 0.332908 0.018148
0.589416 0.330453 0.036864
0.618079 0.330262 0.038951
0.646562 0.326566 0.044308
0.670864 0.323243 0.049053
0.699346 0.319122 0.048643
0.727701 0.318429 0.063170
0.754093 0.317955 0.072117
0.785316 0.316609 0.080558
0.825290 0.309654 0.087043
0.863337 0.298602 0.100431
0.906116 0.294838 0.111736
0.168397 0.377630 0.141834
0.168397 0.377630 0.141834
0.174743 0.377494 0.141848
0.180905 0.377355 0.141862
0.192866 0.377070 0.139542
0.204306 0.376771 0.137222
0.226044 0.376130 0.132578
0.246657 0.375427 0.130281
0.271545 0.374455 0.125627
0.290599 0.373671 0.118576
0.311423 0.375954 0.110519
0.338805 0.374629 0.105182
0.366323 0.373125 0.096860
0.390876 0.368391 0.089496
0.414105 0.366822 0.080434
0.438337 0.361784 0.075688
0.464605 0.362948 0.067081
0.482641 0.361414 0.059352
0.504151 0.362827 0.047263
0.526433 0.360730 0.034346
0.548506 0.358538 0.034383
0.570263 0.356270 0.034355
0.591559 0.353952 0.052518
0.621067 0.350577 0.052423
0.649900 0.350669 0.054358
0.674470 0.347619 0.058817
0.698923 0.344451 0.062963
0.727298 0.344336 0.072591
0.758128 0.339989 0.079698
0.784791 0.339918 0.085008
0.828832 0.329096 0.093141
0.866205 0.323006 0.102886
0.912050 0.315544 0.117962
0.168853 0.402998 0.153123
0.168853 0.402998 0.153123
0.175986 0.402872 0.153144
0.182872 0.402744 0.153164
0.196155 0.402479 0.150728
0.208668 0.402201 0.150770
0.226717 0.401763 0.145882
0.249394 0.401128 0.143493
0.270647 0.400454 0.138619
0.290642 0.399744 0.133725
0.312943 0.402231 0.125360
0.337431 0.401159 0.117740
0.364846 0.403215 0.108800
0.386278 0.398643 0.101929
0.415671 0.396871 0.095849
0.436434 0.392060 0.090965
0.464930 0.390005 0.084465
0.483709 0.388555 0.073745
0.506828 0.386656 0.069983
0.525342 0.385051 0.065972
0.552712 0.382543 0.061745
0.570650 0.380814 0.061850
0.592749 0.378595 0.061958
0.622744 0.379060 0.059454
0.652509 0.375799 0.064197
0.677385 0.376658 0.066332
0.702066 0.377506 0.068495
0.730893 0.374049 0.076835
0.757440 0.370729 0.084509
0.788552 0.362768 0.093205
0.831935 0.356705 0.097033
0.868813 0.347355 0.108112
0.913524 0.345175 0.121910
0.180409 0.422857 0.166796
0.180409 0.422857 0.166796
0.187782 0.422723 0.166816
0.194915 0.422585 0.166837
0.201968 0.422447 0.164275
0.215398 0.422159 0.161738
0.234438 0.421701 0.159227
0.251949 0.421229 0.156716
0.273889 0.420569 0.151650
0.292379 0.423361 0.148356
0.313461 0.422590 0.140625
0.342250 0.424845 0.131910
0.360888 0.427466 0.122822
0.386814 0.426184 0.117383
0.414148 0.421191 0.110207
0.439202 0.419668 0.104532
0.463901 0.418038 0.098677
0.484694 0.413027 0.094152
0.503922 0.411574 0.087162
0.532634 0.409257 0.083658
0.552346 0.403979 0.081847
0.575405 0.401888 0.078127
0.598031 0.399738 0.078312
0.628581 0.400354 0.076547
0.654336 0.401385 0.074660
0.679709 0.402417 0.077038
0.709206 0.399200 0.077259
0.734555 0.396345 0.081590
0.761353 0.389391 0.087467
0.796642 0.385056 0.098238
0.834926 0.380186 0.104880
0.878741 0.374551 0.111783
0.918545 0.369651 0.124475
0.185936 0.443194 0.178700
0.185936 0.443194 0.178700
0.185936 0.443194 0.178700
0.201348 0.442910 0.178742
0.208829 0.442766 0.176073
0.222598 0.442470 0.176116
0.241607 0.442022 0.173493
0.256219 0.445101 0.170160
0.273957 0.444597 0.167531
0.291233 0.444063 0.162208
0.316446 0.446679 0.156114
0.341592 0.449219 0.147151
0.363561 0.448293 0.138915
0.395813 0.446763 0.133460
0.422059 0.445378 0.127912
0.444453 0.440531 0.120511
0.464769 0.439266 0.114747
0.484839 0.437937 0.108830
0.506171 0.432836 0.104199
0.535689 0.430590 0.098072
0.555028 0.429026 0.094956
0.574988 0.423689 0.093458
0.597495 0.425349 0.092014
0.633992 0.421940 0.092404
0.660181 0.423098 0.090976
0.681661 0.424689 0.089454
0.711805 0.421578 0.086133
0.737932 0.418799 0.086427
0.764881 0.412018 0.095502
0.808697 0.407001 0.102645
0.841976 0.399165 0.113811
0.884541 0.398179 0.116789
0.926451 0.393653 0.127324
0.188783 0.470922 0.190078
0.188783 0.470922 0.190078
0.188783 0.470922 0.190078
0.196948 0.470784 0.190099
0.204814 0.470643 0.190120
0.219806 0.470352 0.190163
0.234150 0.470052 0.187375
0.254337 0.469573 0.187441
0.270178 0.472699 0.181142
0.295286 0.471981 0.175566
0.316516 0.474853 0.169194
0.340294 0.474011 0.163580
0.363528 0.473099 0.157952
0.391635 0.471875 0.152332
0.418961 0.470555 0.146682
0.440447 0.469430 0.137986
0.463314 0.464511 0.133287
0.484116 0.463237 0.127427
0.504941 0.461885 0.118317
0.531899 0.456348 0.110347
0.556918 0.454470 0.103978
0.577649 0.449135 0.102403
0.605488 0.450504 0.101144
0.637564 0.451418 0.099923
0.660542 0.449314 0.100237
0.687035 0.450590 0.095294
0.713523 0.448011 0.091934
0.740870 0.441439 0.094156
0.772601 0.438153 0.098253
0.811632 0.434031 0.105855
0.848223 0.430153 0.113283
0.889573 0.425886 0.124037
0.930118 0.422094 0.132049
0.187945 0.495671 0.202943
0.187945 0.495671 0.202943
0.187945 0.495671 0.202943
0.196985 0.495528 0.202965
0.205829 0.495386 0.200025
0.214149 0.495237 0.200047
0.230152 0.494933 0.197136
0.252376 0.494449 0.197204
0.280146 0.493757 0.194348
0.299953 0.493199 0.191476
0.316087 0.496307 0.184916
0.341172 0.495464 0.182065
0.371302 0.494336 0.173329
0.394502 0.493369 0.167517
0.417110 0.492343 0.161689
0.444693 0.490974 0.155870
0.466363 0.489810 0.149979
0.488063 0.488566 0.140942
0.516331 0.483121 0.136108
0.537283 0.481724 0.126814
0.559265 0.476458 0.118592
0.579471 0.474944 0.112100
0.613987 0.472195 0.109105
0.637106 0.474022 0.107868
0.664658 0.475421 0.103019
0.692339 0.472930 0.103492
0.719288 0.470420 0.103961
0.747625 0.467702 0.100738
0.780040 0.460640 0.103022
0.818544 0.456820 0.110964
0.854258 0.453325 0.121992
0.897907 0.449251 0.133134
0.942793 0.449783 0.137828
0.187410 0.521092 0.213558
0.187410 0.521092 0.213558
0.187410 0.521092 0.213558
0.197615 0.520947 0.210486
0.207100 0.520797 0.210509
0.216183 0.520643 0.210532
0.241738 0.520164 0.207515
0.257483 0.519827 0.207563
0.279992 0.519296 0.204558
0.301367 0.518731 0.201561
0.321851 0.518132 0.198571
0.347919 0.517290 0.192551
0.378869 0.516162 0.186574
0.396778 0.515444 0.183606
0.420049 0.514437 0.180675
0.440703 0.517227 0.170673
0.468926 0.515817 0.164640
0.496760 0.514300 0.158580
0.515064 0.509455 0.150285
0.536642 0.508113 0.144083
0.559461 0.502805 0.135753
0.590582 0.500598 0.126091
0.619733 0.502236 0.118055
0.649386 0.499873 0.118539
0.672565 0.501829 0.117411
0.700972 0.499392 0.110522
0.729511 0.496850 0.107279
0.758492 0.494192 0.107916
0.790918 0.487205 0.110339
0.828572 0.483721 0.122140
0.863634 0.476542 0.127973
0.908090 0.480976 0.134207
0.951604 0.474119 0.147941
0.191703 0.550557 0.219841
0.202563 0.550402 0.219865
0.202563 0.550402 0.219865
0.202563 0.550402 0.219865
0.212858 0.550243 0.219890
0.232111 0.549917 0.219940
0.241369 0.549751 0.217118
0.258853 0.549407 0.214329
0.283207 0.548859 0.214407
0.298616 0.548482 0.211607
0.327561 0.547689 0.208497
0.354734 0.546848 0.205400
0.374348 0.546188 0.199076
0.399507 0.545261 0.192797
0.417847 0.544532 0.186480
0.441638 0.543505 0.183417
0.462933 0.546308 0.179440
0.497580 0.544572 0.173198
0.522071 0.539414 0.171121
0.544341 0.538117 0.158183
0.571616 0.536413 0.148395
0.603619 0.534265 0.138437
0.629694 0.532402 0.128051
0.653949 0.534477 0.119377
0.678911 0.532527 0.119895
0.708103 0.530152 0.116627
0.738593 0.527571 0.113377
0.768012 0.525005 0.114161
0.804747 0.517786 0.116914
0.837520 0.514954 0.125578
0.878539 0.507590 0.135681
0.917312 0.508887 0.140090
0.961310 0.506722 0.156980
0.205840 0.576442 0.232769
0.205840 0.576442 0.232769
0.205840 0.576442 0.232769
0.216928 0.576277 0.232795
0.227474 0.576108 0.232821
0.237733 0.575940 0.229867
0.247369 0.575766 0.229894
0.265748 0.575413 0.226976
0.291025 0.574857 0.227060
0.306965 0.574476 0.224153
0.336934 0.573680 0.218364
0.358076 0.573050 0.215513
0.378374 0.572393 0.212671
0.398066 0.571711 0.206880
0.423394 0.570751 0.203688
0.448235 0.569726 0.200510
0.476120 0.572297 0.193178
0.499774 0.571160 0.190011
0.523026 0.569969 0.183472
0.545871 0.568722 0.176910
0.579471 0.566748 0.166992
0.606884 0.565017 0.156853
0.633724 0.563216 0.146478
0.658589 0.565372 0.134277
0.689423 0.563093 0.122993
0.715426 0.561075 0.119507
0.747737 0.554500 0.122092
0.781818 0.551654 0.119049
0.817215 0.548689 0.124435
0.849629 0.542050 0.131168
0.885115 0.539404 0.140340
0.928079 0.540868 0.149217
0.970357 0.535252 0.167830
0.211281 0.602643 0.240429
0.211281 0.602643 0.240429
0.211281 0.602643 0.240429
0.211281 0.602643 0.240429
0.222865 0.602474 0.240457
0.244241 0.602129 0.240513
0.254401 0.601956 0.237443
0.273221 0.601595 0.237502
0.299451 0.601036 0.234501
0.315867 0.600652 0.231480
0.331574 0.600256 0.228466
0.353891 0.599635 0.228568
0.375193 0.598990 0.228675
0.395863 0.598324 0.222647
0.416714 0.605217 0.218211
0.443105 0.604240 0.209110
0.468481 0.603207 0.206209
0.493158 0.602123 0.203323
0.517310 0.600991 0.196899
0.550506 0.603166 0.189231
0.579367 0.601594 0.178818
0.607599 0.599940 0.171949
0.635295 0.598214 0.161298
0.667749 0.596062 0.146581
0.694281 0.594195 0.139203
0.722078 0.592149 0.131679
0.749840 0.586054 0.129903
0.788995 0.582950 0.127085
0.820041 0.580476 0.124179
0.851854 0.578016 0.134175
0.893185 0.575166 0.144567
0.934761 0.573043 0.155435
0.978257 0.563812 0.176147
0.208789 0.632834 0.257700
0.208789 0.632834 0.257700
0.208789 0.632834 0.257700
0.208789 0.632834 0.257700
0.221653 0.632668 0.254473
0.221653 0.632668 0.254473
