Assets/Lutify-Free-LUTs-Pack/Lutify Free LUTs Pack/Commercial Pro - Claire/Lutify.me-Claire-RWG-to-RWG.cube
# Created with: fylm.ai - Colour Grading and Collaboration Software in Cloud 
# Website: https://fylm.ai 
# META
# Option: Gamut compress
# Block 1: colourMatch | Blending Mode: Normal | {"ColorSpace":0,"CrossCovarianceLimit":50,"ReshapingIterations":1,"PercentSaturationShift":100,"PercentShadingShift":100,"ExtraShading":true,"PercentTint":100,"PercentModified":100}
# Block 2: HSL | Blending Mode: Normal | {"hue":{"Reds":0,"Yellows":0,"Greens":0,"Cyans":0,"Blues":0,"Magentas":0},"saturation":{"Reds":1,"Yellows":1,"Greens":1,"Cyans":1,"Blues":1,"Magentas":1},"luminance":{"Reds":0.9,"Yellows":0.9,"Greens":0.9,"Cyans":0.8,"Blues":0.8,"Magentas":0.9},"lum_sat":{"Blacks":1,"Shadows":1,"Midtones":1,"Highlights":1,"Whites":1},"sat_sat":{"10":1,"20":1,"30":1,"40":1,"50":1}}
# Block 3: subtractiveColour | Blending Mode: Normal | {"sliders":{"gainY":0.1,"C":0.05,"M":0.05,"Y":0.05}}
# Block 4: logPrimaries | Blending Mode: Normal | {"wheels":{"shadows":{"Y":"0","R":"1","G":"1","B":"1"},"midtones":{"Y":"0","R":"1","G":"1","B":"1"},"highlights":{"Y":"0","R":"1","G":"1","B":"1"},"offset":{"Y":"0","R":"1","G":"1","B":"1"}},"sliders":{"shadows":{"Y":0,"R":-0.05,"G":0,"B":0.1},"midtones":{"Y":0,"R":0,"G":0,"B":0},"highlights":{"Y":0,"R":0,"G":0,"B":0},"offset":{"Y":0,"R":0,"G":0,"B":0}}}
# Block 5: LUT | Filmic Curve Response: Standard Contrast 1 (100%)
# Block 6: LUT | Illuminant: D93 (100%)
# Block 7: LUT | Neutral Tint: Teal Tint 4 (100%)
TITLE "ipp2" 
LUT_3D_SIZE 9
0.053831 0.077263 0.086370
0.150381 0.074784 0.067858
0.313739 0.100692 0.110841
0.381945 0.149609 0.152764
0.461281 0.232385 0.223398
0.564740 0.335599 0.321110
0.677097 0.439346 0.429574
0.777067 0.548159 0.532126
0.863413 0.656503 0.627549
0.079293 0.128067 0.087689
0.122743 0.120290 0.079538
0.294080 0.117758 0.107774
0.385675 0.160648 0.156835
0.462658 0.236812 0.224639
0.564745 0.336285 0.321186
0.677102 0.440074 0.429626
0.777067 0.548159 0.532126
0.863413 0.656503 0.627549
0.105927 0.228795 0.131331
0.131913 0.219803 0.126577
0.291681 0.203792 0.137632
0.410394 0.204943 0.181325
0.474861 0.251003 0.232203
0.566213 0.340868 0.322417
0.678495 0.441270 0.430522
0.777067 0.548159 0.532126
0.863413 0.656503 0.627549
0.151666 0.308692 0.190011
0.177388 0.304407 0.187524
0.280501 0.299526 0.191692
0.408161 0.288877 0.213855
0.531621 0.301472 0.280194
0.570610 0.353819 0.325387
0.681301 0.446603 0.432564
0.778189 0.550255 0.533033
0.863412 0.656469 0.627362
0.245458 0.390094 0.261370
0.260952 0.386591 0.259048
0.306846 0.385906 0.261330
0.406232 0.380193 0.269792
0.538185 0.377168 0.312017
0.660140 0.400679 0.395410
0.682773 0.460293 0.433024
0.780449 0.556283 0.535304
0.864425 0.659723 0.628919
0.357032 0.473067 0.340863
0.362754 0.473121 0.341228
0.376963 0.473286 0.342335
0.424412 0.474005 0.347052
0.535095 0.466511 0.361903
0.664858 0.468044 0.419584
0.774473 0.501357 0.504997
0.781664 0.569910 0.536008
0.865448 0.664706 0.630067
0.473030 0.574502 0.440806
0.475105 0.574527 0.440976
0.481352 0.574602 0.441489
0.500384 0.572015 0.440711
0.557982 0.569013 0.445039
0.665460 0.566597 0.469991
0.782750 0.571300 0.530986
0.867797 0.596858 0.598366
0.866619 0.682352 0.632353
0.604689 0.667611 0.536288
0.605889 0.667630 0.536417
0.608289 0.667669 0.536676
0.615525 0.667788 0.537481
0.635843 0.668234 0.540384
0.684887 0.665676 0.546278
0.779857 0.661806 0.571940
0.873023 0.669918 0.623843
0.916889 0.674716 0.654858
0.726915 0.753251 0.625875
0.726915 0.753251 0.625875
0.728044 0.753276 0.626037
0.729174 0.753301 0.626199
0.736114 0.753488 0.627388
0.757274 0.754133 0.631409
0.797247 0.752052 0.638064
0.874393 0.751125 0.663300
0.917789 0.755037 0.685855
0.076679 0.100303 0.138774
0.123695 0.087973 0.115458
0.289479 0.097406 0.108965
0.362911 0.147559 0.151803
0.454600 0.233284 0.224877
0.564749 0.335835 0.322443
0.677106 0.440201 0.430252
0.777069 0.548219 0.532463
0.863413 0.656503 0.627549
0.079691 0.123346 0.139330
0.111895 0.118768 0.129007
0.264895 0.113056 0.104943
0.361827 0.159137 0.152397
0.457343 0.239798 0.227392
0.564760 0.337228 0.322682
0.677105 0.440168 0.430084
0.777069 0.548219 0.532463
0.863413 0.656503 0.627549
0.102429 0.226537 0.143648
0.123349 0.224838 0.135301
0.270987 0.210282 0.136500
0.376679 0.209786 0.167994
0.461494 0.254993 0.230442
0.564784 0.340645 0.322905
0.678498 0.441363 0.430977
0.777067 0.548159 0.532126
0.863413 0.656503 0.627549
0.149307 0.308680 0.189973
0.174271 0.304380 0.187372
0.278384 0.298398 0.190639
0.408161 0.288877 0.213855
0.531615 0.300732 0.279975
0.569192 0.354483 0.326145
0.681304 0.446677 0.432991
0.778190 0.550286 0.533202
0.863412 0.656469 0.627362
0.243688 0.388872 0.260240
0.260169 0.386585 0.259007
0.304995 0.385883 0.261180
0.405086 0.380145 0.269533
0.536737 0.374923 0.310273
0.658749 0.400056 0.394239
0.682776 0.460372 0.433496
0.780459 0.557303 0.535744
0.864425 0.659723 0.628919
0.357032 0.473067 0.340863
0.362754 0.473121 0.341228
0.376963 0.473286 0.342335
0.423292 0.473981 0.346896
0.535095 0.466511 0.361903
0.664858 0.468044 0.419584
0.774473 0.501357 0.504997
0.781665 0.569933 0.536173
0.865448 0.664706 0.630067
0.473030 0.574502 0.440806
0.475105 0.574527 0.440976
0.481352 0.574602 0.441489
0.500384 0.572015 0.440711
0.557982 0.569013 0.445039
0.665460 0.566597 0.469991
0.782750 0.571300 0.530986
0.867797 0.596858 0.598366
0.866620 0.682364 0.632454
0.604689 0.667611 0.536288
0.605889 0.667630 0.536417
0.608289 0.667669 0.536676
0.615525 0.667788 0.537481
0.635843 0.668234 0.540384
0.684887 0.665676 0.546278
0.779857 0.661806 0.571940
0.873023 0.669918 0.623843
0.916889 0.674716 0.654858
0.726915 0.753251 0.625875
0.726915 0.753251 0.625875
0.728044 0.753276 0.626037
0.729174 0.753301 0.626199
0.736114 0.753488 0.627388
0.757274 0.754133 0.631409
0.797247 0.752052 0.638064
0.874393 0.751125 0.663300
0.917789 0.755037 0.685855
0.089215 0.128411 0.205939
0.103943 0.106969 0.159672
0.269806 0.103783 0.146122
0.353719 0.147181 0.181545
0.449389 0.235598 0.237234
0.561924 0.337309 0.326366
0.677116 0.440475 0.431777
0.777072 0.548280 0.532800
0.863414 0.656536 0.627736
0.090742 0.139400 0.208132
0.100072 0.128865 0.184670
0.245846 0.117330 0.164499
0.346963 0.162880 0.191988
0.450769 0.240932 0.239065
0.561934 0.338659 0.326502
0.677116 0.440475 0.431777
0.777072 0.548280 0.532800
0.863414 0.656536 0.627736
0.121736 0.232117 0.266097
0.126967 0.233272 0.267278
0.239086 0.254292 0.276048
0.347246 0.228576 0.218010
0.452313 0.261607 0.243497
0.563395 0.342553 0.327736
0.677127 0.441962 0.432009
0.777072 0.548280 0.532800
0.863413 0.656503 0.627549
0.141141 0.290020 0.263293
0.161765 0.308810 0.257275
0.235073 0.327393 0.234942
0.361466 0.317044 0.222412
0.462528 0.322308 0.260088
0.564953 0.357402 0.329385
0.678536 0.446012 0.432658
0.777083 0.549976 0.532935
0.863413 0.656503 0.627549
0.236952 0.388825 0.259934
0.254515 0.387748 0.259748
0.301034 0.384629 0.259849
0.403862 0.378926 0.268408
0.536737 0.374923 0.310273
0.658745 0.399409 0.394074
0.682816 0.463521 0.436254
0.780461 0.557347 0.536024
0.864425 0.659723 0.628919
0.353763 0.473036 0.340655
0.360301 0.473097 0.341072
0.375099 0.473263 0.342183
0.423292 0.473981 0.346896
0.535095 0.466511 0.361903
0.664858 0.468044 0.419584
0.774473 0.501357 0.504997
0.781667 0.570002 0.536609
0.865449 0.664732 0.630238
0.473030 0.574502 0.440806
0.474067 0.574515 0.440891
0.481352 0.574602 0.441489
0.500384 0.572015 0.440711
0.557982 0.569013 0.445039
0.665460 0.566597 0.469991
0.781641 0.570979 0.530157
0.867797 0.596858 0.598366
0.866620 0.682376 0.632554
0.604689 0.667611 0.536288
0.605889 0.667630 0.536417
0.607089 0.667650 0.536547
0.615525 0.667788 0.537481
0.635843 0.668234 0.540384
0.684887 0.665676 0.546278
0.779857 0.661806 0.571940
0.873023 0.669918 0.623843
0.916889 0.674716 0.654858
0.726915 0.753251 0.625875
0.726915 0.753251 0.625875
0.728044 0.753276 0.626037
0.729174 0.753301 0.626199
0.736114 0.753488 0.627388
0.757274 0.754133 0.631409
0.797247 0.752052 0.638064
0.874393 0.751125 0.663300
0.917789 0.755037 0.685855
0.097688 0.135314 0.219017
0.123206 0.121484 0.191204
0.234771 0.112125 0.170562
0.386960 0.137031 0.186607
0.440631 0.234693 0.284782
0.559225 0.340624 0.344950
0.677175 0.443927 0.438311
0.778199 0.549830 0.535326
0.863417 0.656606 0.628147
0.102586 0.154260 0.237003
0.119899 0.146067 0.220488
0.210750 0.137541 0.206699
0.353818 0.138534 0.195199
0.440788 0.243522 0.291009
0.559237 0.341975 0.345256
0.677173 0.443881 0.438069
0.778199 0.549830 0.535326
0.863417 0.656606 0.628147
0.126192 0.214427 0.288612
0.135301 0.215807 0.286765
0.196379 0.224346 0.298920
0.331409 0.216477 0.288258
0.445190 0.269093 0.303824
0.562133 0.346931 0.347610
0.677183 0.445338 0.438214
0.778199 0.549830 0.535326
0.863417 0.656606 0.628147
0.172487 0.311849 0.351366
0.173824 0.314198 0.350807
0.220055 0.337734 0.375694
0.350663 0.366291 0.388089
0.453412 0.341814 0.333354
0.563745 0.364971 0.351982
0.677219 0.450462 0.438843
0.777099 0.551126 0.534689
0.863426 0.657575 0.628232
0.218417 0.386173 0.372130
0.227681 0.391927 0.371187
0.264160 0.415797 0.371590
0.348478 0.438175 0.357877
0.464090 0.429409 0.332581
0.573160 0.429350 0.366513
0.681492 0.466089 0.442405
0.778255 0.557017 0.536259
0.864427 0.659790 0.629293
0.346856 0.471631 0.338996
0.352554 0.471685 0.339360
0.370231 0.471868 0.340591
0.418939 0.472573 0.345235
0.533726 0.466429 0.361475
0.664844 0.466988 0.419142
0.774470 0.500755 0.504864
0.781700 0.572322 0.539223
0.865462 0.665758 0.630895
0.470954 0.574477 0.440635
0.471992 0.574490 0.440720
0.478218 0.574564 0.441232
0.498029 0.571977 0.440457
0.556675 0.568973 0.444793
0.665416 0.565268 0.469123
0.781631 0.569958 0.529796
0.867797 0.596858 0.598366
0.866624 0.682437 0.633058
0.604689 0.667611 0.536288
0.604689 0.667611 0.536288
0.607089 0.667650 0.536547
0.614287 0.667765 0.537323
0.635670 0.666865 0.539169
0.684887 0.665676 0.546278
0.779857 0.661806 0.571940
0.873023 0.669918 0.623843
0.916889 0.674716 0.654858
0.726915 0.753251 0.625875
0.726915 0.753251 0.625875
0.726915 0.753251 0.625875
0.729174 0.753301 0.626199
0.736114 0.753488 0.627388
0.757274 0.754133 0.631409
0.797247 0.752052 0.638064
0.874393 0.751125 0.663300
0.917789 0.755037 0.685855
0.152335 0.137492 0.221312
0.174732 0.135035 0.216429
0.238534 0.128802 0.202810
0.353772 0.133706 0.194578
0.487131 0.193653 0.248979
0.554019 0.341939 0.391083
0.674548 0.447624 0.454790
0.778252 0.551936 0.542020
0.864417 0.657218 0.630890
0.145159 0.163502 0.251904
0.158919 0.162010 0.249844
0.219527 0.160138 0.246780
0.327160 0.149066 0.223681
0.487131 0.193653 0.248979
0.554059 0.344248 0.392818
0.674548 0.447624 0.454790
0.778252 0.551936 0.542020
0.864417 0.657218 0.630890
0.162834 0.236279 0.323766
0.171463 0.236492 0.324909
0.204604 0.239973 0.329765
0.307539 0.243814 0.336591
0.427581 0.217739 0.299961
0.555591 0.351294 0.397714
0.674559 0.449075 0.455118
0.778259 0.552806 0.542244
0.864417 0.657218 0.630890
0.186031 0.302732 0.372726
0.196428 0.308123 0.377693
0.221698 0.316866 0.388583
0.305013 0.332379 0.407439
0.430952 0.326342 0.397893
0.560245 0.376705 0.410721
0.674606 0.454877 0.456428
0.778264 0.553631 0.542233
0.864427 0.658223 0.631199
0.232753 0.386541 0.429560
0.232753 0.386541 0.429560
0.255794 0.408078 0.448204
0.327327 0.440815 0.482209
0.463700 0.479207 0.500159
0.571738 0.450734 0.445092
0.681702 0.475194 0.463528
0.778320 0.560126 0.543181
0.864454 0.661121 0.631864
0.313754 0.489704 0.473456
0.317941 0.491840 0.473088
0.329237 0.499958 0.472728
0.374176 0.529113 0.480061
0.464727 0.556944 0.475140
0.583014 0.543762 0.448955
0.689521 0.545500 0.482337
0.780690 0.578890 0.546021
0.864492 0.665762 0.631952
0.463361 0.572957 0.438707
0.464398 0.572970 0.438792
0.470623 0.573044 0.439302
0.492386 0.571887 0.439851
0.552628 0.567447 0.442879
0.662710 0.565041 0.468033
0.781631 0.569958 0.529796
0.867794 0.596222 0.598226
0.866665 0.684837 0.635643
0.602289 0.667573 0.536029
0.602289 0.667573 0.536029
0.604689 0.667611 0.536288
0.612849 0.666368 0.535930
0.633131 0.666809 0.538806
0.683577 0.665620 0.545952
0.778763 0.661678 0.571397
0.873023 0.669918 0.623843
0.916889 0.674716 0.654858
0.725785 0.753226 0.625713
0.725785 0.753226 0.625713
0.726915 0.753251 0.625875
0.729174 0.753301 0.626199
0.734939 0.753453 0.627165
0.757274 0.754133 0.631409
0.797247 0.752052 0.638064
0.874393 0.751125 0.663300
0.917789 0.755037 0.685855
0.256225 0.145855 0.232562
0.263383 0.144485 0.229831
0.290009 0.141612 0.222863
0.349538 0.144743 0.219556
0.457177 0.183678 0.249504
0.591771 0.274788 0.332066
0.666720 0.448211 0.498231
0.777314 0.558729 0.559770
0.864504 0.661413 0.639096
0.238001 0.180092 0.278891
0.246766 0.178128 0.275908
0.267349 0.173066 0.268331
0.325761 0.161727 0.248762
0.457177 0.183678 0.249504
0.591771 0.274788 0.332066
0.666726 0.448799 0.498312
0.777314 0.558729 0.559770
0.864504 0.661413 0.639096
0.225101 0.262874 0.363862
0.229154 0.260752 0.361587
0.244888 0.260325 0.361763
0.302177 0.264237 0.368532
0.401197 0.233679 0.332660
0.590325 0.273595 0.330903
0.666780 0.451514 0.501089
0.777324 0.559670 0.560000
0.864504 0.661413 0.639096
0.246173 0.332514 0.422136
0.249881 0.333741 0.423396
0.263642 0.337511 0.428321
0.307882 0.346886 0.440181
0.404892 0.353005 0.449927
0.531924 0.327705 0.415836
0.669663 0.460951 0.507150
0.778450 0.561850 0.561027
0.864513 0.662368 0.639373
0.271971 0.397874 0.471543
0.276496 0.400403 0.474244
0.288771 0.406077 0.480931
0.324121 0.416878 0.495606
0.413884 0.438162 0.520000
0.548836 0.437206 0.511549
0.674152 0.486285 0.520122
0.780733 0.568406 0.564895
0.864530 0.664225 0.639608
0.305219 0.465861 0.512389
0.305219 0.465861 0.512389
0.305219 0.465861 0.512389
0.359836 0.513696 0.560999
0.440660 0.555861 0.599460
0.588596 0.600242 0.618815
0.690929 0.570398 0.559152
0.783131 0.588032 0.569814
0.864578 0.669055 0.640182
0.424134 0.604944 0.585153
0.424809 0.604947 0.585161
0.429693 0.608676 0.586205
0.442834 0.618645 0.587603
0.485894 0.646725 0.595522
0.585047 0.676788 0.594392
0.700976 0.667715 0.569181
0.790956 0.664633 0.593179
0.867786 0.692443 0.645846
0.591727 0.668778 0.536129
0.592688 0.667419 0.534994
0.595088 0.667458 0.535252
0.602050 0.666195 0.534764
0.626781 0.666670 0.537899
0.679560 0.664113 0.543911
0.777640 0.660314 0.570141
0.873014 0.668926 0.623492
0.916876 0.672931 0.654326
0.723526 0.753177 0.625390
0.723526 0.753177 0.625390
0.724656 0.753202 0.625551
0.726915 0.753251 0.625875
0.732588 0.753381 0.626718
0.754922 0.754062 0.630962
0.796182 0.751991 0.637734
0.874393 0.751125 0.663300
0.917789 0.755037 0.685855
0.362036 0.163828 0.250840
0.364385 0.164395 0.251245
0.370205 0.164766 0.250320
0.391603 0.170357 0.254028
0.448044 0.189611 0.267138
0.558631 0.254011 0.319916
0.689201 0.362213 0.419501
0.771294 0.562716 0.613655
0.866706 0.669816 0.663033
0.347698 0.176828 0.271738
0.349909 0.176608 0.271065
0.359008 0.174579 0.266515
0.391603 0.170357 0.254028
0.448044 0.189611 0.267138
0.558631 0.254011 0.319916
0.689200 0.362164 0.419376
0.771294 0.562716 0.613655
0.866706 0.669816 0.663033
0.316044 0.285498 0.399085
0.317803 0.285575 0.399124
0.325431 0.283700 0.396938
0.349546 0.276755 0.390483
0.402589 0.233759 0.338558
0.558631 0.254011 0.319916
0.689200 0.362164 0.419376
0.771301 0.563393 0.613748
0.866706 0.669816 0.663033
0.324591 0.370570 0.475461
0.325212 0.370582 0.475468
0.329860 0.370204 0.475489
0.344166 0.370066 0.475643
0.398664 0.375660 0.484349
0.503487 0.354039 0.460772
0.689200 0.362164 0.419376
0.771357 0.566174 0.616007
0.866706 0.669816 0.663033
0.348594 0.435639 0.531861
0.349762 0.436386 0.533229
0.353752 0.437748 0.534675
0.369606 0.443639 0.541808
0.410967 0.454842 0.554856
0.517326 0.467874 0.570803
0.644097 0.441205 0.533477
0.774801 0.575563 0.621780
0.866731 0.671765 0.664050
0.376613 0.502773 0.584891
0.378305 0.503497 0.586268
0.384149 0.506319 0.589172
0.399584 0.514908 0.599205
0.434660 0.530570 0.615257
0.527971 0.557421 0.644771
0.667855 0.557417 0.635860
0.779689 0.603193 0.638196
0.866809 0.677681 0.665595
0.390367 0.552764 0.603651
0.390367 0.552764 0.603651
0.390367 0.552764 0.603651
0.390367 0.552764 0.603651
0.472045 0.626125 0.676837
0.553683 0.671951 0.717170
0.709692 0.720228 0.741530
0.793744 0.690197 0.678212
0.870062 0.701943 0.674243
0.534610 0.716810 0.700168
0.534830 0.716811 0.700170
0.535490 0.716814 0.700178
0.541082 0.721436 0.702478
0.551579 0.728586 0.700777
0.602149 0.758061 0.714080
0.703730 0.786586 0.712176
0.803324 0.776218 0.678974
0.875945 0.771279 0.692980
0.714493 0.752979 0.624095
0.714493 0.752979 0.624095
0.715622 0.753004 0.624257
0.716751 0.753029 0.624419
0.724656 0.753202 0.625551
0.749044 0.753883 0.629845
0.793038 0.751857 0.636949
0.873552 0.752164 0.663527
0.917789 0.755037 0.685855
0.461764 0.208602 0.295088
0.463105 0.209189 0.295505
0.465789 0.210363 0.296340
0.472497 0.213299 0.298426
0.498973 0.225884 0.307539
0.551564 0.256635 0.331734
0.661339 0.340327 0.403226
0.776498 0.445344 0.501951
0.860766 0.676180 0.727132
0.461764 0.208602 0.295088
0.463105 0.209189 0.295505
0.464447 0.209776 0.295923
0.472497 0.213299 0.298426
0.497557 0.225135 0.306979
0.551564 0.256635 0.331734
0.661339 0.340327 0.403226
0.776498 0.445344 0.501951
0.860766 0.676180 0.727132
0.429769 0.230732 0.334762
0.432342 0.230518 0.334126
0.436127 0.228000 0.329939
0.452850 0.220772 0.317070
0.497557 0.225135 0.306979
0.551564 0.256635 0.331734
0.661339 0.340327 0.403226
0.776498 0.445344 0.501951
0.860776 0.676932 0.727235
0.409854 0.400621 0.518060
0.410712 0.400648 0.518074
0.412472 0.400706 0.518105
0.420357 0.401714 0.519629
0.445227 0.399883 0.518700
0.497850 0.361862 0.478501
0.661339 0.340327 0.403226
0.776498 0.445344 0.501951
0.860794 0.677296 0.728198
0.430827 0.482438 0.595362
0.431462 0.482450 0.595369
0.432040 0.482097 0.595349
0.437775 0.482208 0.595409
0.452884 0.481820 0.595542
0.504363 0.489950 0.604805
0.617936 0.473440 0.587184
0.776498 0.445344 0.501951
0.860840 0.679917 0.729470
0.459855 0.550483 0.653733
0.460659 0.550493 0.653739
0.461867 0.551355 0.655091
0.465650 0.552766 0.656504
0.481825 0.558249 0.663431
0.524502 0.572714 0.680231
0.636403 0.586853 0.695860
0.749307 0.555299 0.654060
0.863971 0.690604 0.736254
0.489598 0.616000 0.701444
0.489761 0.616002 0.701445
0.490087 0.616005 0.701447
0.496822 0.620325 0.706928
0.511324 0.628951 0.716631
0.548400 0.647055 0.735113
0.646374 0.674895 0.760715
0.777002 0.675331 0.751843
0.870379 0.719158 0.750447
0.479304 0.641343 0.695744
0.479304 0.641343 0.695744
0.479304 0.641343 0.695744
0.479304 0.641343 0.695744
0.479304 0.641343 0.695744
0.577552 0.731605 0.783568
0.666340 0.779165 0.820427
0.815794 0.829365 0.847512
0.881729 0.799039 0.788971
0.637630 0.815064 0.806291
0.638128 0.816018 0.806552
0.638413 0.816020 0.806555
0.639303 0.816025 0.806563
0.645288 0.820032 0.808529
0.658388 0.826768 0.810462
0.708539 0.850572 0.819750
0.809770 0.878284 0.818628
0.890105 0.866748 0.777794
0.564623 0.271957 0.351426
0.566064 0.272900 0.352144
0.566064 0.272900 0.352144
0.568945 0.274787 0.353579
0.577587 0.280406 0.357878
0.603552 0.298964 0.373248
0.655811 0.339000 0.406391
0.752928 0.424668 0.484426
0.852696 0.519677 0.575611
0.564623 0.271957 0.351426
0.566064 0.272900 0.352144
0.566064 0.272900 0.352144
0.568945 0.274787 0.353579
0.577587 0.280406 0.357878
0.603552 0.298964 0.373248
0.655811 0.339000 0.406391
0.752928 0.424668 0.484426
0.852696 0.519677 0.575611
0.564623 0.271957 0.351426
0.566064 0.272900 0.352144
0.566064 0.272900 0.352144
0.568945 0.274787 0.353579
0.577587 0.280406 0.357878
0.603552 0.298964 0.373248
0.655811 0.339000 0.406391
0.752928 0.424668 0.484426
0.852696 0.519677 0.575611
0.518257 0.342493 0.461223
0.518257 0.342493 0.461223
0.519452 0.339315 0.457690
0.521684 0.330219 0.447031
0.542530 0.294078 0.396278
0.602108 0.297903 0.372394
0.655811 0.339000 0.406391
0.752928 0.424668 0.484426
0.852696 0.519677 0.575611
0.518673 0.516111 0.640024
0.518673 0.516111 0.640024
0.519675 0.516144 0.640041
0.521683 0.516213 0.640073
0.530132 0.517313 0.641600
0.558562 0.517713 0.642135
0.612943 0.488677 0.611976
0.752928 0.424668 0.484426
0.852696 0.519677 0.575611
0.544713 0.598832 0.715659
0.545415 0.598845 0.715666
0.545415 0.598845 0.715666
0.546865 0.598872 0.715681
0.551309 0.598958 0.715726
0.565160 0.595351 0.713038
0.619678 0.604213 0.723070
0.727589 0.593580 0.711153
0.852696 0.519677 0.575611
0.568818 0.659314 0.763188
0.568818 0.659314 0.763188
0.569260 0.659319 0.763191
0.570154 0.659330 0.763198
0.575080 0.662059 0.765802
0.592870 0.668650 0.773518
0.641095 0.683630 0.789833
0.748641 0.699365 0.803086
0.842358 0.665386 0.764744
0.593611 0.722446 0.806006
0.593769 0.722447 0.806007
0.594574 0.723037 0.807075
0.595082 0.723041 0.807078
0.600349 0.726147 0.810419
0.614125 0.733702 0.817245
0.654908 0.751409 0.834281
0.755559 0.782064 0.859027
0.869963 0.785752 0.855554
0.565512 0.729266 0.782078
0.565512 0.729266 0.782078
0.565512 0.729266 0.782078
0.565512 0.729266 0.782078
0.565512 0.729266 0.782078
0.565512 0.729266 0.782078
0.671648 0.827217 0.874886
0.767876 0.870469 0.907624
0.903123 0.914518 0.932512
