Assets/Lutify-Free-LUTs-Pack/Lutify Free LUTs Pack/Commercial Pro - Claire/Lutify.me-Claire-SLog2-to-Rec709.cube
# Created with: fylm.ai - Colour Grading and Collaboration Software in Cloud 
# Website: https://fylm.ai 
# META
# Option: Gamut compress
# Block 1: IDT | Sony S-Log2 S-Gamut Daylight 10-bit
# Block 2: colourMatch | Blending Mode: Normal | {"ColorSpace":0,"CrossCovarianceLimit":50,"ReshapingIterations":1,"PercentSaturationShift":100,"PercentShadingShift":100,"ExtraShading":true,"PercentTint":100,"PercentModified":100}
# Block 3: HSL | Blending Mode: Normal | {"hue":{"Reds":0,"Yellows":0,"Greens":0,"Cyans":0,"Blues":0,"Magentas":0},"saturation":{"Reds":1,"Yellows":1,"Greens":1,"Cyans":1,"Blues":1,"Magentas":1},"luminance":{"Reds":0.9,"Yellows":0.9,"Greens":0.9,"Cyans":0.8,"Blues":0.8,"Magentas":0.9},"lum_sat":{"Blacks":1,"Shadows":1,"Midtones":1,"Highlights":1,"Whites":1},"sat_sat":{"10":1,"20":1,"30":1,"40":1,"50":1}}
# Block 4: subtractiveColour | Blending Mode: Normal | {"sliders":{"gainY":0.1,"C":0.05,"M":0.05,"Y":0.05}}
# Block 5: logPrimaries | Blending Mode: Normal | {"wheels":{"shadows":{"Y":"0","R":"1","G":"1","B":"1"},"midtones":{"Y":"0","R":"1","G":"1","B":"1"},"highlights":{"Y":"0","R":"1","G":"1","B":"1"},"offset":{"Y":"0","R":"1","G":"1","B":"1"}},"sliders":{"shadows":{"Y":0,"R":-0.05,"G":0,"B":0.1},"midtones":{"Y":0,"R":0,"G":0,"B":0},"highlights":{"Y":0,"R":0,"G":0,"B":0},"offset":{"Y":0,"R":0,"G":0,"B":0}}}
# Block 6: LUT | Filmic Curve Response: Standard Contrast 1 (100%)
# Block 7: LUT | Illuminant: D93 (100%)
# Block 8: LUT | Neutral Tint: Teal Tint 4 (100%)
# Block 9: ODT | Rec709
TITLE "Lutify.me-Claire-SLog2-to-Rec709" 
LUT_3D_SIZE 5
0.000000 0.000000 0.000000
0.519255 0.000000 0.000000
0.731880 0.000000 0.031337
1.000000 0.277834 0.259378
1.000000 0.746636 0.617783
0.000000 0.229866 0.000000
0.385224 0.121536 0.000000
0.727544 0.054665 0.000000
1.000000 0.338612 0.263121
1.000000 0.757686 0.620817
0.000000 0.513117 0.000000
0.000000 0.472151 0.000000
0.798343 0.445891 0.000000
1.000000 0.573916 0.260498
1.000000 0.786265 0.627619
0.000000 0.821694 0.000000
0.000000 0.821694 0.000000
0.510949 0.782419 0.000000
0.965516 0.853922 0.000000
1.000000 0.891338 0.666173
0.000000 0.973329 0.000000
0.000000 0.973329 0.000000
0.000000 0.973329 0.000000
0.800513 0.974268 0.108566
1.000000 0.975099 0.590301
0.000000 0.000000 0.466759
0.385971 0.000000 0.048035
0.716637 0.000000 0.149960
1.000000 0.282852 0.307827
1.000000 0.746568 0.631158
0.000000 0.176488 0.277667
0.183033 0.231856 0.310156
0.699585 0.090678 0.183654
1.000000 0.338728 0.316522
1.000000 0.757620 0.634204
0.000000 0.385438 0.321036
0.000000 0.520453 0.287769
0.675433 0.575942 0.087505
1.000000 0.573971 0.331931
1.000000 0.786205 0.640983
0.000000 0.633787 0.349269
0.000000 0.633753 0.364216
0.000000 0.884672 0.000000
0.958873 0.864718 0.165229
1.000000 0.891201 0.677976
0.000000 0.973329 0.000000
0.000000 0.977783 0.000000
0.000000 0.932242 0.000000
0.775674 0.981258 0.332488
1.000000 0.975620 0.613149
0.000000 0.000000 0.281910
0.219622 0.000000 0.201535
0.677560 0.000000 0.233268
1.000000 0.276960 0.491988
1.000000 0.749671 0.685237
0.000000 0.122674 0.427234
0.000000 0.160409 0.457519
0.679517 0.000000 0.447961
1.000000 0.338665 0.515242
1.000000 0.760574 0.688145
0.000000 0.413447 0.595605
0.000000 0.458045 0.636001
0.564036 0.635021 0.741239
1.000000 0.589393 0.586577
1.000000 0.788283 0.706562
0.000000 0.678700 0.662908
0.000000 0.678700 0.662908
0.000000 0.888028 0.716509
0.936353 0.890516 0.590036
1.000000 0.892458 0.736603
0.000000 0.881748 0.740199
0.000000 0.881731 0.743683
0.000000 0.881697 0.750540
0.744632 0.989477 0.686182
1.000000 0.979192 0.716435
0.000000 0.166600 0.574268
0.000000 0.174134 0.608193
0.551585 0.089275 0.666240
1.000000 0.000000 0.661357
1.000000 0.751844 0.838291
0.000000 0.226555 0.633931
0.000000 0.241699 0.675842
0.499926 0.226394 0.740401
1.000000 0.000000 0.712904
1.000000 0.760108 0.840080
0.000000 0.325365 0.719029
0.000000 0.411656 0.786237
0.239296 0.467301 0.853859
1.000000 0.443201 0.838547
1.000000 0.791363 0.851540
0.000000 0.697141 0.849809
0.000000 0.697141 0.849809
0.000000 0.842900 0.921027
0.896300 0.915977 0.941543
1.000000 0.898979 0.883804
0.000000 0.906769 0.884479
0.000000 0.906769 0.884479
0.000000 0.906761 0.886301
0.636563 0.991137 0.937638
0.996202 0.984705 0.904512
0.000000 0.436241 0.900920
0.000000 0.434901 0.904766
0.323322 0.461054 0.920316
0.946436 0.449328 0.939830
1.000000 0.566311 0.928892
0.000000 0.457673 0.905922
0.000000 0.463583 0.911136
0.269312 0.484511 0.925957
0.939487 0.484820 0.944071
1.000000 0.583248 0.932347
0.000000 0.539248 0.918321
0.000000 0.545970 0.925934
0.000000 0.574444 0.941274
0.890412 0.590655 0.959621
1.000000 0.670501 0.944947
0.000000 0.651268 0.915513
0.000000 0.729570 0.938848
0.000000 0.785320 0.961833
0.752053 0.826853 0.980294
1.000000 0.851738 0.974004
0.000000 0.910414 0.956310
0.000000 0.910414 0.956310
0.000000 0.910414 0.956310
0.000000 0.985602 0.993265
0.985666 0.990243 0.997823
