Assets/Lutify-Free-LUTs-Pack/Lutify Free LUTs Pack/Commercial Pro - Claire/Lutify.me-Claire-LLog-to-Rec709.cube
# Created with: fylm.ai - Colour Grading and Collaboration Software in Cloud 
# Website: https://fylm.ai 
# META
# Option: Gamut compress
# Block 1: IDT | Leica BT2020 L-Log
# Block 2: colourMatch | Blending Mode: Normal | {"ColorSpace":0,"CrossCovarianceLimit":50,"ReshapingIterations":1,"PercentSaturationShift":100,"PercentShadingShift":100,"ExtraShading":true,"PercentTint":100,"PercentModified":100}
# Block 3: HSL | Blending Mode: Normal | {"hue":{"Reds":0,"Yellows":0,"Greens":0,"Cyans":0,"Blues":0,"Magentas":0},"saturation":{"Reds":1,"Yellows":1,"Greens":1,"Cyans":1,"Blues":1,"Magentas":1},"luminance":{"Reds":0.9,"Yellows":0.9,"Greens":0.9,"Cyans":0.8,"Blues":0.8,"Magentas":0.9},"lum_sat":{"Blacks":1,"Shadows":1,"Midtones":1,"Highlights":1,"Whites":1},"sat_sat":{"10":1,"20":1,"30":1,"40":1,"50":1}}
# Block 4: subtractiveColour | Blending Mode: Normal | {"sliders":{"gainY":0.1,"C":0.05,"M":0.05,"Y":0.05}}
# Block 5: logPrimaries | Blending Mode: Normal | {"wheels":{"shadows":{"Y":"0","R":"1","G":"1","B":"1"},"midtones":{"Y":"0","R":"1","G":"1","B":"1"},"highlights":{"Y":"0","R":"1","G":"1","B":"1"},"offset":{"Y":"0","R":"1","G":"1","B":"1"}},"sliders":{"shadows":{"Y":0,"R":-0.05,"G":0,"B":0.1},"midtones":{"Y":0,"R":0,"G":0,"B":0},"highlights":{"Y":0,"R":0,"G":0,"B":0},"offset":{"Y":0,"R":0,"G":0,"B":0}}}
# Block 6: LUT | Filmic Curve Response: Standard Contrast 1 (100%)
# Block 7: LUT | Illuminant: D93 (100%)
# Block 8: LUT | Neutral Tint: Teal Tint 4 (100%)
# Block 9: ODT | Rec709
TITLE "Lutify.me-Claire-LLog-to-Rec709" 
LUT_3D_SIZE 33
0.000000 0.000000 0.000000
0.000000 0.000000 0.000000
0.105105 0.000000 0.000000
0.000000 0.000000 0.009908
0.040302 0.000000 0.000000
0.092773 0.000000 0.000000
0.148472 0.000000 0.000000
0.201468 0.000000 0.000000
0.253737 0.000000 0.000000
0.297124 0.000000 0.000000
0.348946 0.000000 0.000000
0.384135 0.000000 0.000000
0.414038 0.000000 0.000000
0.443304 0.000000 0.000000
0.474955 0.000000 0.000000
0.512356 0.000000 0.000000
0.556564 0.000000 0.000000
0.598146 0.000000 0.000000
0.666346 0.000000 0.000000
0.731794 0.000000 0.000000
0.793525 0.000000 0.000000
0.871845 0.000000 0.044583
0.938846 0.000000 0.070047
0.993551 0.000000 0.100462
1.000000 0.077804 0.138161
1.000000 0.235761 0.178658
1.000000 0.336398 0.226009
1.000000 0.416488 0.275143
1.000000 0.504727 0.325133
1.000000 0.586472 0.389822
1.000000 0.663388 0.459319
1.000000 0.732679 0.522481
1.000000 0.789570 0.585506
0.000000 0.000000 0.000000
0.000000 0.000000 0.000000
0.106406 0.000000 0.000000
0.000000 0.000000 0.009023
0.038752 0.000000 0.000000
0.087720 0.000000 0.000000
0.141698 0.000000 0.000000
0.194254 0.000000 0.000000
0.241746 0.000000 0.000000
0.283996 0.000000 0.000000
0.330588 0.000000 0.000000
0.370219 0.000000 0.000000
0.398899 0.000000 0.000000
0.430213 0.000000 0.000000
0.464346 0.000000 0.000000
0.508664 0.000000 0.000000
0.552582 0.000000 0.000000
0.598196 0.000000 0.000000
0.662075 0.000000 0.000000
0.727241 0.000000 0.000000
0.793509 0.000000 0.000000
0.871749 0.000000 0.043088
0.938747 0.000000 0.069462
0.993551 0.000000 0.100462
1.000000 0.094046 0.137751
1.000000 0.241192 0.178260
1.000000 0.336398 0.226009
1.000000 0.424468 0.274501
1.000000 0.504727 0.325133
1.000000 0.586472 0.389822
1.000000 0.663388 0.459319
1.000000 0.732679 0.522481
1.000000 0.789570 0.585506
0.000000 0.000000 0.000000
0.000000 0.000000 0.000000
0.000000 0.000000 0.000000
0.000000 0.000000 0.009554
0.033881 0.000000 0.000000
0.085093 0.000000 0.000000
0.136401 0.000000 0.000000
0.185689 0.000000 0.000000
0.231923 0.000000 0.000000
0.272951 0.000000 0.000000
0.320666 0.000000 0.000000
0.356913 0.000000 0.000000
0.384409 0.000000 0.000000
0.420726 0.000000 0.000000
0.453988 0.000000 0.000000
0.505017 0.000000 0.000000
0.548596 0.000000 0.000000
0.594071 0.000000 0.000000
0.662101 0.000000 0.000000
0.727243 0.000000 0.000000
0.793477 0.000000 0.000000
0.871700 0.000000 0.044405
0.938656 0.000000 0.070831
0.993402 0.000000 0.100014
1.000000 0.107319 0.137329
1.000000 0.241185 0.180406
1.000000 0.336398 0.226009
1.000000 0.424468 0.274501
1.000000 0.504727 0.325133
1.000000 0.586472 0.389822
1.000000 0.666673 0.459145
1.000000 0.732679 0.522481
1.000000 0.789570 0.585506
0.000000 0.000000 0.004141
0.000000 0.000000 0.005361
0.000000 0.000000 0.006283
0.000000 0.000000 0.008536
0.026812 0.000000 0.000000
0.077937 0.000000 0.000000
0.126209 0.000000 0.000000
0.176242 0.000000 0.000000
0.217485 0.000000 0.000000
0.262224 0.000000 0.000000
0.304112 0.000000 0.000000
0.346511 0.000000 0.000000
0.376135 0.000000 0.000000
0.408419 0.000000 0.000000
0.450666 0.000000 0.000000
0.501375 0.000000 0.000000
0.548665 0.000000 0.000000
0.594132 0.000000 0.000000
0.662125 0.000000 0.000000
0.727245 0.000000 0.000000
0.802966 0.000000 0.000000
0.871650 0.000000 0.043618
0.938566 0.000000 0.070306
0.993246 0.000000 0.101486
1.000000 0.107319 0.137329
1.000000 0.246547 0.180006
1.000000 0.340795 0.225645
1.000000 0.424468 0.274501
1.000000 0.504727 0.325133
1.000000 0.586472 0.389822
1.000000 0.666673 0.459145
1.000000 0.732679 0.522481
1.000000 0.789570 0.585506
0.000000 0.017891 0.000000
0.000000 0.016487 0.000000
0.000000 0.015078 0.000000
0.000000 0.012367 0.000000
0.000000 0.004086 0.000000
0.060405 0.000000 0.000000
0.108402 0.000000 0.000000
0.153809 0.000000 0.000000
0.200161 0.000000 0.000000
0.247903 0.000000 0.000000
0.295137 0.000000 0.000000
0.333575 0.000000 0.000000
0.365347 0.000000 0.000000
0.402469 0.000000 0.000000
0.447398 0.000000 0.000000
0.497755 0.000000 0.000000
0.544705 0.000000 0.000000
0.594182 0.000000 0.000000
0.657869 0.000000 0.000000
0.727246 0.000000 0.000000
0.802929 0.000000 0.000000
0.871599 0.000000 0.044928
0.938473 0.000000 0.071684
0.993246 0.000000 0.101486
1.000000 0.118824 0.136897
1.000000 0.246547 0.180006
1.000000 0.340795 0.225645
1.000000 0.424461 0.276999
1.000000 0.509408 0.328380
1.000000 0.590095 0.389587
1.000000 0.666673 0.459145
1.000000 0.732679 0.522481
1.000000 0.789570 0.585506
0.000000 0.045923 0.000000
0.000000 0.045146 0.000000
0.000000 0.044270 0.000000
0.000000 0.043498 0.000000
0.000000 0.040402 0.000000
0.046084 0.033143 0.000000
0.087636 0.000000 0.000000
0.138770 0.000000 0.000000
0.182315 0.000000 0.000000
0.226139 0.000000 0.000000
0.275957 0.000000 0.000000
0.316392 0.000000 0.000000
0.357520 0.000000 0.000000
0.393706 0.000000 0.000000
0.444177 0.000000 0.000000
0.494167 0.000000 0.000000
0.540785 0.000000 0.000000
0.590121 0.000000 0.000000
0.657905 0.000000 0.000000
0.727247 0.000000 0.000000
0.802909 0.000000 0.000000
0.871493 0.000000 0.047496
0.938380 0.000000 0.071146
0.996099 0.000000 0.101314
1.000000 0.129139 0.136453
1.000000 0.251844 0.179597
1.000000 0.345165 0.227761
1.000000 0.428442 0.276677
1.000000 0.509408 0.328380
1.000000 0.590085 0.392687
1.000000 0.666673 0.459145
1.000000 0.732679 0.522481
1.000000 0.789570 0.585506
0.000000 0.064493 0.000000
0.000000 0.064338 0.000000
0.000000 0.064182 0.000000
0.000000 0.062558 0.000000
0.000000 0.058807 0.000000
0.028505 0.056308 0.000000
0.075333 0.047802 0.000000
0.126364 0.029565 0.000000
0.168871 0.000000 0.000000
0.215642 0.000000 0.000000
0.265371 0.000000 0.000000
0.307226 0.000000 0.000000
0.352583 0.000000 0.000000
0.388152 0.000000 0.000000
0.434397 0.000000 0.000000
0.494288 0.000000 0.000000
0.540935 0.000000 0.000000
0.590223 0.000000 0.000000
0.657957 0.000000 0.000000
0.727249 0.000000 0.000000
0.802849 0.000000 0.000000
0.871384 0.000000 0.045898
0.938281 0.000000 0.074446
0.995931 0.000000 0.104750
1.000000 0.129119 0.140739
1.000000 0.251844 0.179597
1.000000 0.345165 0.227761
1.000000 0.428442 0.276677
1.000000 0.509408 0.328380
1.000000 0.590085 0.392687
1.000000 0.666673 0.459145
1.000000 0.732679 0.522481
1.000000 0.791834 0.585508
0.000000 0.088818 0.000000
0.000000 0.088626 0.000000
0.000000 0.088457 0.000000
0.000000 0.084066 0.000000
0.000000 0.082937 0.000000
0.000000 0.078215 0.000000
0.063800 0.073608 0.000000
0.117212 0.062548 0.000000
0.162891 0.045195 0.000000
0.206947 0.000000 0.000000
0.259379 0.000000 0.000000
0.300699 0.000000 0.000000
0.345143 0.000000 0.000000
0.382865 0.000000 0.000000
0.434682 0.000000 0.000000
0.487188 0.000000 0.000000
0.533149 0.000000 0.000000
0.590358 0.000000 0.000000
0.658043 0.000000 0.000000
0.731789 0.000000 0.000000
0.802765 0.000000 0.000000
0.871270 0.000000 0.046342
0.941698 0.000000 0.073534
0.995769 0.000000 0.104292
1.000000 0.138569 0.140305
1.000000 0.257063 0.181357
1.000000 0.349520 0.227392
1.000000 0.428442 0.276677
1.000000 0.509408 0.328380
1.000000 0.590085 0.392687
1.000000 0.666673 0.459145
1.000000 0.732679 0.522481
1.000000 0.791834 0.585508
0.000000 0.111703 0.000000
0.000000 0.111532 0.000000
0.000000 0.111339 0.000000
0.000000 0.107279 0.000000
0.000000 0.105902 0.000000
0.000000 0.101635 0.000000
0.041109 0.096882 0.000000
0.109319 0.090132 0.000000
0.158476 0.078074 0.000000
0.203333 0.065338 0.000000
0.257541 0.017447 0.000000
0.292096 0.000000 0.000000
0.340491 0.000000 0.000000
0.380719 0.000000 0.000000
0.425658 0.000000 0.000000
0.483981 0.000000 0.000000
0.533510 0.000000 0.000000
0.590599 0.000000 0.000000
0.658162 0.000000 0.000000
0.731785 0.000000 0.000000
0.802698 0.000000 0.000000
0.871031 0.000000 0.044882
0.941491 0.000000 0.074373
0.995599 0.000000 0.105799
1.000000 0.155614 0.141363
1.000000 0.262216 0.180940
1.000000 0.349520 0.227392
1.000000 0.432419 0.276351
1.000000 0.516989 0.327809
1.000000 0.593710 0.392453
1.000000 0.666673 0.459145
1.000000 0.736281 0.523234
1.000000 0.791834 0.585508
0.000000 0.139064 0.000000
0.000000 0.138968 0.000000
0.000000 0.135856 0.000000
0.000000 0.135700 0.000000
0.000000 0.132765 0.000000
0.000000 0.130988 0.000000
0.000000 0.125838 0.000000
0.092604 0.120756 0.000000
0.147877 0.114217 0.000000
0.200088 0.098501 0.000000
0.253016 0.085690 0.000000
0.292565 0.066179 0.000000
0.338871 0.000000 0.000000
0.381851 0.000000 0.000000
0.423793 0.000000 0.000000
0.484842 0.000000 0.000000
0.534189 0.000000 0.000000
0.586876 0.000000 0.000000
0.662613 0.000000 0.000000
0.731781 0.000000 0.000000
0.802579 0.000000 0.000000
0.870772 0.000000 0.045498
0.941276 0.000000 0.075205
0.995254 0.000000 0.106848
1.000000 0.163448 0.142877
1.000000 0.267298 0.182718
1.000000 0.353850 0.229533
1.000000 0.432412 0.278875
1.000000 0.520780 0.327521
1.000000 0.593710 0.392453
1.000000 0.669943 0.458974
1.000000 0.736281 0.523234
1.000000 0.791834 0.585508
0.000000 0.168506 0.000000
0.000000 0.168383 0.000000
0.000000 0.166497 0.000000
0.000000 0.166296 0.000000
0.000000 0.164348 0.000000
0.000000 0.162366 0.000000
0.000000 0.161933 0.000000
0.043709 0.153785 0.000000
0.129993 0.151380 0.000000
0.188468 0.142280 0.000000
0.249945 0.123965 0.000000
0.292178 0.112991 0.000000
0.334948 0.102845 0.000000
0.378162 0.082994 0.000000
0.425655 0.052746 0.000000
0.479432 0.000000 0.000000
0.527805 0.000000 0.000000
0.587566 0.000000 0.000000
0.662776 0.000000 0.000000
0.731778 0.000000 0.000000
0.802436 0.000000 0.000000
0.870519 0.000000 0.046599
0.940820 0.000000 0.076849
0.994712 0.000000 0.107404
1.000000 0.185055 0.143464
1.000000 0.272325 0.182294
1.000000 0.358168 0.229159
1.000000 0.436383 0.278550
1.000000 0.520771 0.330381
1.000000 0.597336 0.392218
1.000000 0.669932 0.462010
1.000000 0.736281 0.523234
1.000000 0.791834 0.585508
0.000000 0.199476 0.000000
0.000000 0.199465 0.000000
0.000000 0.199306 0.000000
0.000000 0.197120 0.000000
0.000000 0.196899 0.000000
0.000000 0.194616 0.000000
0.000000 0.194232 0.000000
0.000000 0.191388 0.000000
0.094327 0.185671 0.000000
0.171887 0.178392 0.000000
0.233954 0.166561 0.000000
0.289730 0.146451 0.000000
0.334909 0.141850 0.000000
0.379771 0.133525 0.000000
0.427971 0.121597 0.000000
0.478393 0.104441 0.000000
0.529735 0.077314 0.000000
0.588942 0.000000 0.000000
0.663222 0.000000 0.000000
0.731809 0.000000 0.000000
0.802262 0.000000 0.000000
0.870126 0.000000 0.045767
0.940326 0.000000 0.078460
0.993729 0.072980 0.111058
1.000000 0.204656 0.146049
1.000000 0.282204 0.183658
1.000000 0.367337 0.231412
1.000000 0.440350 0.278221
1.000000 0.524562 0.330094
1.000000 0.604584 0.394865
1.000000 0.673185 0.461842
1.000000 0.736270 0.526290
1.000000 0.794084 0.585514
0.000000 0.232604 0.000000
0.000000 0.234534 0.000000
0.000000 0.232579 0.000000
0.000000 0.232505 0.000000
0.000000 0.230346 0.000000
0.000000 0.230097 0.000000
0.000000 0.227754 0.000000
0.000000 0.226783 0.000000
0.000000 0.223326 0.000000
0.132281 0.220592 0.000000
0.209869 0.214378 0.000000
0.272936 0.202156 0.000000
0.332037 0.180602 0.000000
0.379929 0.174846 0.000000
0.430095 0.169882 0.000000
0.481309 0.160375 0.000000
0.532915 0.155465 0.000000
0.590847 0.134242 0.000000
0.664242 0.096336 0.000000
0.732012 0.000000 0.000000
0.802050 0.000000 0.000000
0.873901 0.000000 0.046071
0.939658 0.000000 0.079353
0.992652 0.133694 0.112599
1.000000 0.227839 0.148221
1.000000 0.297037 0.184992
1.000000 0.371593 0.233602
1.000000 0.448270 0.277552
1.000000 0.532135 0.332406
1.000000 0.608214 0.394628
1.000000 0.673185 0.461842
1.000000 0.739150 0.526202
1.000000 0.794084 0.585514
0.000000 0.263301 0.000000
0.000000 0.265475 0.000000
0.000000 0.267646 0.000000
0.000000 0.267603 0.000000
0.000000 0.265326 0.000000
0.000000 0.265232 0.000000
0.000000 0.262813 0.000000
0.000000 0.262167 0.000000
0.000000 0.258969 0.000000
0.053145 0.256943 0.000000
0.179791 0.253634 0.000000
0.247743 0.245153 0.000000
0.318934 0.232005 0.000000
0.376457 0.217928 0.000000
0.433645 0.216586 0.000000
0.487478 0.209856 0.000000
0.535772 0.203431 0.000000
0.593580 0.195875 0.000000
0.669806 0.172919 0.000000
0.737054 0.148988 0.000000
0.811110 0.099082 0.000000
0.873134 0.091108 0.042528
0.938449 0.100504 0.080029
0.991209 0.179399 0.115713
1.000000 0.249228 0.150414
1.000000 0.311110 0.188222
1.000000 0.384857 0.235523
1.000000 0.456887 0.280017
1.000000 0.535926 0.332117
1.000000 0.611837 0.397528
1.000000 0.676412 0.464724
1.000000 0.742007 0.526119
1.000000 0.796766 0.592413
0.000000 0.303141 0.000000
0.000000 0.308222 0.000000
0.000000 0.308198 0.000000
0.000000 0.310747 0.000000
0.000000 0.310695 0.000000
0.000000 0.310618 0.000000
0.000000 0.307860 0.000000
0.000000 0.307590 0.000000
0.000000 0.304384 0.000000
0.000000 0.305759 0.000000
0.108783 0.303473 0.000000
0.203840 0.300773 0.000000
0.285639 0.293738 0.000000
0.359090 0.282441 0.000000
0.428304 0.269401 0.000000
0.495037 0.263915 0.000000
0.541697 0.257243 0.000000
0.600323 0.253681 0.000000
0.671928 0.242995 0.000000
0.737801 0.227287 0.000000
0.810514 0.205542 0.000000
0.871423 0.198368 0.037262
0.939952 0.183728 0.079975
0.991985 0.226798 0.117774
1.000000 0.274690 0.152364
1.000000 0.333930 0.190587
1.000000 0.397417 0.236981
1.000000 0.468717 0.281577
1.000000 0.548081 0.334882
1.000000 0.615470 0.397292
1.000000 0.682832 0.464402
1.000000 0.741995 0.529183
1.000000 0.798982 0.592425
0.000000 0.351732 0.000000
0.000000 0.354518 0.000000
0.000000 0.354494 0.000000
0.000000 0.357286 0.000000
0.000000 0.360083 0.000000
0.000000 0.362885 0.000000
0.000000 0.359903 0.000000
0.000000 0.359709 0.000000
0.000000 0.359334 0.000000
0.000000 0.361428 0.000000
0.000000 0.363009 0.000000
0.112329 0.358015 0.000000
0.224110 0.355374 0.000000
0.320243 0.347940 0.000000
0.399539 0.336684 0.000000
0.484415 0.320005 0.000000
0.542611 0.319753 0.000000
0.600593 0.315718 0.000000
0.673455 0.305336 0.000000
0.738638 0.298206 0.000000
0.814206 0.283913 0.000000
0.873003 0.279845 0.000000
0.936533 0.262078 0.079510
0.989270 0.272345 0.116071
1.000000 0.308341 0.152720
1.000000 0.356455 0.193377
1.000000 0.419209 0.241312
1.000000 0.485303 0.283372
1.000000 0.555633 0.337252
1.000000 0.622730 0.399973
1.000000 0.689171 0.467152
1.000000 0.747638 0.529030
1.000000 0.801186 0.592442
0.000000 0.396126 0.064887
0.000000 0.399283 0.041543
0.000000 0.405679 0.000000
0.000000 0.405640 0.000000
0.000000 0.408841 0.000000
0.000000 0.412047 0.000000
0.000000 0.415235 0.000000
0.000000 0.411820 0.000000
0.000000 0.411550 0.000000
0.000000 0.417592 0.000000
0.000000 0.416712 0.000000
0.000000 0.415478 0.000000
0.129540 0.410340 0.000000
0.262425 0.407544 0.000000
0.361222 0.403482 0.000000
0.461019 0.390356 0.000000
0.544823 0.383290 0.000000
0.598817 0.377919 0.000000
0.676395 0.365491 0.000000
0.742819 0.360884 0.000000
0.812733 0.359137 0.000000
0.869971 0.347000 0.000000
0.931602 0.338418 0.073415
0.983779 0.341750 0.118063
1.000000 0.353666 0.151145
1.000000 0.387058 0.195157
1.000000 0.440181 0.248052
1.000000 0.505723 0.287505
1.000000 0.570749 0.339069
1.000000 0.633619 0.402437
1.000000 0.696519 0.470679
1.000000 0.751023 0.532870
1.000000 0.803364 0.595500
0.000000 0.449341 0.138789
0.000000 0.456267 0.128294
0.000000 0.459722 0.118314
0.000000 0.463189 0.110855
0.000000 0.473705 0.096088
0.000000 0.473660 0.084733
0.000000 0.473595 0.071829
0.000000 0.473503 0.047600
0.000000 0.469777 0.000000
0.000000 0.469427 0.000000
0.000000 0.472364 0.000000
0.000000 0.474909 0.000000
0.000000 0.473607 0.000000
0.167072 0.467944 0.000000
0.307704 0.468215 0.000000
0.422595 0.466899 0.000000
0.524120 0.453345 0.000000
0.606580 0.431915 0.000000
0.675052 0.425286 0.000000
0.748955 0.428913 0.000000
0.818891 0.421245 0.000000
0.869823 0.415708 0.000000
0.928531 0.413892 0.052973
0.979621 0.410422 0.117722
1.000000 0.414060 0.156259
1.000000 0.438143 0.197047
1.000000 0.472785 0.252223
1.000000 0.529335 0.296331
1.000000 0.582083 0.341209
1.000000 0.645079 0.408864
1.000000 0.703194 0.473451
1.000000 0.759171 0.535767
1.000000 0.805530 0.598567
0.000000 0.513195 0.180868
0.000000 0.520528 0.179241
0.000000 0.527902 0.174426
0.000000 0.531583 0.167238
0.000000 0.535263 0.163097
0.000000 0.535194 0.156709
0.000000 0.535121 0.146935
0.000000 0.542450 0.130710
0.000000 0.534790 0.111739
0.000000 0.534561 0.095406
0.000000 0.545348 0.058697
0.000000 0.544570 0.000000
0.000000 0.543465 0.000000
0.000000 0.537933 0.000000
0.223645 0.542880 0.000000
0.370847 0.539021 0.000000
0.471564 0.534696 0.000000
0.571747 0.513521 0.000000
0.674983 0.497790 0.000000
0.745447 0.499313 0.000000
0.822177 0.492130 0.000000
0.875273 0.487463 0.000000
0.929652 0.491638 0.032712
0.975080 0.489669 0.115994
1.000000 0.493792 0.160053
1.000000 0.504557 0.203692
1.000000 0.517513 0.260498
1.000000 0.556810 0.302337
1.000000 0.609163 0.349151
1.000000 0.659118 0.414281
1.000000 0.713037 0.476117
1.000000 0.765013 0.539590
1.000000 0.812385 0.599473
0.000000 0.584058 0.233685
0.000000 0.587797 0.230035
0.000000 0.591546 0.229376
0.000000 0.595271 0.225687
0.000000 0.595215 0.222688
0.000000 0.598962 0.212855
0.000000 0.598876 0.206830
0.000000 0.602563 0.199932
0.000000 0.606213 0.188582
0.000000 0.605958 0.174469
0.000000 0.617078 0.156249
0.000000 0.608907 0.135556
0.000000 0.608023 0.104468
0.000000 0.602634 0.055147
0.000000 0.612159 0.000000
0.295387 0.608932 0.000000
0.419839 0.605322 0.000000
0.535376 0.592563 0.000000
0.646827 0.585870 0.000000
0.734608 0.571492 0.000000
0.816066 0.564783 0.000000
0.874523 0.556158 0.000000
0.926269 0.561122 0.000000
0.969671 0.559715 0.112978
1.000000 0.559957 0.167811
1.000000 0.574238 0.214214
1.000000 0.578166 0.265214
1.000000 0.596375 0.314172
1.000000 0.631744 0.356900
1.000000 0.679617 0.416140
1.000000 0.725809 0.481826
1.000000 0.772725 0.542574
1.000000 0.816574 0.605640
0.000000 0.644712 0.295183
0.000000 0.648466 0.291279
0.000000 0.652249 0.287351
0.000000 0.652169 0.287390
0.000000 0.655939 0.286884
0.000000 0.659729 0.286362
0.000000 0.663473 0.282413
0.000000 0.667186 0.275032
0.000000 0.670814 0.271104
0.000000 0.674476 0.256879
0.000000 0.674168 0.243414
0.000000 0.673748 0.226658
0.000000 0.669249 0.214219
0.000000 0.667976 0.194248
0.000000 0.673881 0.157198
0.182098 0.671165 0.114955
0.354682 0.668213 0.055917
0.487938 0.660091 0.000000
0.613994 0.658010 0.000000
0.714059 0.647998 0.000000
0.799587 0.633978 0.000000
0.865680 0.625135 0.000000
0.915467 0.626175 0.000000
0.958082 0.624785 0.121324
0.991967 0.624908 0.173027
1.000000 0.634583 0.232158
1.000000 0.637976 0.279624
1.000000 0.646701 0.322089
1.000000 0.668311 0.367125
1.000000 0.704329 0.424076
1.000000 0.747154 0.487411
1.000000 0.783065 0.549529
1.000000 0.824810 0.608939
0.000000 0.710069 0.360968
0.000000 0.714078 0.356889
0.000000 0.718044 0.356514
0.000000 0.722012 0.352240
0.000000 0.725937 0.351861
0.000000 0.729766 0.351513
0.000000 0.729686 0.347643
0.000000 0.733522 0.343375
0.000000 0.733327 0.339564
0.000000 0.733146 0.335762
0.000000 0.736753 0.327746
0.000000 0.736333 0.308903
0.000000 0.735749 0.290428
0.000000 0.734862 0.275945
0.000000 0.737235 0.239102
0.000000 0.734761 0.217646
0.267769 0.735964 0.187062
0.429036 0.739907 0.146315
0.578108 0.730728 0.122849
0.698640 0.720778 0.055999
0.788076 0.707415 0.000000
0.850632 0.707143 0.000000
0.904748 0.699824 0.000000
0.946069 0.694051 0.132665
0.982697 0.693743 0.189174
1.000000 0.702338 0.245188
1.000000 0.700619 0.296138
1.000000 0.708042 0.332364
1.000000 0.715899 0.384747
1.000000 0.734671 0.442278
1.000000 0.770173 0.497195
1.000000 0.797243 0.555794
1.000000 0.832785 0.615430
0.000000 0.781159 0.425824
0.000000 0.781074 0.422086
0.000000 0.784430 0.421889
0.000000 0.787744 0.421702
0.000000 0.787683 0.417956
0.000000 0.790990 0.417766
0.000000 0.794189 0.413839
0.000000 0.797333 0.413690
0.000000 0.797213 0.409958
0.000000 0.796940 0.406270
0.000000 0.799912 0.402398
0.000000 0.799514 0.394983
0.000000 0.802110 0.379933
0.000000 0.804597 0.357392
0.000000 0.806484 0.337960
0.000000 0.804307 0.310575
0.144277 0.798541 0.284059
0.365697 0.795677 0.253793
0.516932 0.797588 0.223076
0.643109 0.789416 0.197403
0.752516 0.786765 0.170942
0.826990 0.779184 0.136873
0.893210 0.768693 0.089437
0.938192 0.762952 0.154113
0.967562 0.761964 0.211856
0.991262 0.768228 0.268133
1.000000 0.765916 0.314019
1.000000 0.770793 0.361834
1.000000 0.776228 0.405057
1.000000 0.779563 0.459471
1.000000 0.798655 0.514637
1.000000 0.815290 0.565476
1.000000 0.842802 0.622880
0.000000 0.832921 0.492089
0.000000 0.835560 0.488246
0.000000 0.835468 0.488265
0.000000 0.835373 0.488283
0.000000 0.837994 0.488260
0.000000 0.837955 0.484457
0.000000 0.840489 0.484453
0.000000 0.840393 0.480664
0.000000 0.842778 0.480692
0.000000 0.842606 0.476920
0.000000 0.844803 0.473185
0.000000 0.847021 0.469451
0.000000 0.849031 0.461972
0.000000 0.853257 0.447036
0.000000 0.852242 0.432129
0.000000 0.850686 0.409859
0.000000 0.848324 0.387847
0.311773 0.845453 0.354843
0.485189 0.841549 0.332269
0.617460 0.839314 0.306114
0.727312 0.834215 0.273271
0.804613 0.834850 0.253824
0.881534 0.822796 0.221841
0.924916 0.812522 0.197663
0.955450 0.810902 0.239729
0.979781 0.815144 0.298038
1.000000 0.812542 0.347824
1.000000 0.815766 0.391731
1.000000 0.819640 0.436828
1.000000 0.823759 0.484042
1.000000 0.828561 0.535554
1.000000 0.834536 0.582638
1.000000 0.856063 0.633103
0.000000 0.869679 0.557432
0.000000 0.869617 0.557440
0.000000 0.869488 0.557456
0.000000 0.871768 0.557521
0.000000 0.871699 0.557530
0.000000 0.876374 0.557661
0.000000 0.876237 0.557678
0.000000 0.878439 0.553903
0.000000 0.880594 0.554005
0.000000 0.882638 0.554125
0.000000 0.884569 0.550409
0.000000 0.886357 0.546721
0.000000 0.888085 0.543076
0.000000 0.889550 0.535735
0.000000 0.888443 0.520776
0.000000 0.887173 0.505888
0.000000 0.887710 0.483822
0.255806 0.887057 0.462149
0.461993 0.881213 0.433044
0.589990 0.877204 0.408351
0.704275 0.872407 0.384668
0.784196 0.872590 0.358896
0.867435 0.865735 0.337591
0.912606 0.860896 0.309357
0.944968 0.852485 0.285174
0.971103 0.853314 0.333053
0.993309 0.850420 0.381882
1.000000 0.854736 0.420332
1.000000 0.855354 0.461077
1.000000 0.860255 0.514349
1.000000 0.861816 0.562315
1.000000 0.864073 0.604701
1.000000 0.871669 0.650223
0.000000 0.905184 0.636245
0.000000 0.907026 0.636385
0.000000 0.906942 0.636390
0.000000 0.906857 0.636395
0.000000 0.908753 0.636538
