Assets/Lutify-Free-LUTs-Pack/Lutify Free LUTs Pack/Commercial Pro - Claire/Lutify.me-Claire-DragonColor2RLF-to-Rec709.cube
# Created with: fylm.ai - Colour Grading and Collaboration Software in Cloud 
# Website: https://fylm.ai 
# META
# Option: Gamut compress
# Block 1: IDT | RED DragonColor2 REDLogFilm
# Block 2: colourMatch | Blending Mode: Normal | {"ColorSpace":0,"CrossCovarianceLimit":50,"ReshapingIterations":1,"PercentSaturationShift":100,"PercentShadingShift":100,"ExtraShading":true,"PercentTint":100,"PercentModified":100}
# Block 3: HSL | Blending Mode: Normal | {"hue":{"Reds":0,"Yellows":0,"Greens":0,"Cyans":0,"Blues":0,"Magentas":0},"saturation":{"Reds":1,"Yellows":1,"Greens":1,"Cyans":1,"Blues":1,"Magentas":1},"luminance":{"Reds":0.9,"Yellows":0.9,"Greens":0.9,"Cyans":0.8,"Blues":0.8,"Magentas":0.9},"lum_sat":{"Blacks":1,"Shadows":1,"Midtones":1,"Highlights":1,"Whites":1},"sat_sat":{"10":1,"20":1,"30":1,"40":1,"50":1}}
# Block 4: subtractiveColour | Blending Mode: Normal | {"sliders":{"gainY":0.1,"C":0.05,"M":0.05,"Y":0.05}}
# Block 5: logPrimaries | Blending Mode: Normal | {"wheels":{"shadows":{"Y":"0","R":"1","G":"1","B":"1"},"midtones":{"Y":"0","R":"1","G":"1","B":"1"},"highlights":{"Y":"0","R":"1","G":"1","B":"1"},"offset":{"Y":"0","R":"1","G":"1","B":"1"}},"sliders":{"shadows":{"Y":0,"R":-0.05,"G":0,"B":0.1},"midtones":{"Y":0,"R":0,"G":0,"B":0},"highlights":{"Y":0,"R":0,"G":0,"B":0},"offset":{"Y":0,"R":0,"G":0,"B":0}}}
# Block 6: LUT | Filmic Curve Response: Standard Contrast 1 (100%)
# Block 7: LUT | Illuminant: D93 (100%)
# Block 8: LUT | Neutral Tint: Teal Tint 4 (100%)
# Block 9: ODT | Rec709
TITLE "Lutify.me-Claire-DragonColor2RLF-to-Rec709" 
LUT_3D_SIZE 9
0.000000 0.000000 0.000000
0.000000 0.000000 0.009610
0.155329 0.000000 0.000000
0.325615 0.000000 0.000000
0.471479 0.000000 0.000000
0.683429 0.000000 0.000000
0.913326 0.000000 0.000000
1.000000 0.237445 0.000000
1.000000 0.553262 0.135834
0.000000 0.000000 0.000000
0.000000 0.000000 0.000000
0.143078 0.000000 0.000000
0.301989 0.000000 0.000000
0.468154 0.000000 0.000000
0.683512 0.000000 0.000000
0.913203 0.000000 0.000000
1.000000 0.242840 0.000000
1.000000 0.553262 0.135834
0.000000 0.098932 0.000000
0.000000 0.093443 0.000000
0.133019 0.077081 0.000000
0.278900 0.000000 0.000000
0.458663 0.000000 0.000000
0.679511 0.000000 0.000000
0.912677 0.000000 0.000000
1.000000 0.253423 0.000000
1.000000 0.556920 0.134625
0.000000 0.210923 0.000000
0.000000 0.205741 0.000000
0.153641 0.199161 0.000000
0.305998 0.162363 0.000000
0.479010 0.109648 0.000000
0.685194 0.000000 0.000000
0.915540 0.000000 0.000000
1.000000 0.284051 0.000000
1.000000 0.565134 0.136686
0.000000 0.365222 0.000000
0.000000 0.364588 0.000000
0.152204 0.363133 0.000000
0.310127 0.351433 0.000000
0.523505 0.299091 0.000000
0.715042 0.272566 0.000000
0.923936 0.259775 0.000000
1.000000 0.352767 0.000000
1.000000 0.591552 0.138174
0.109364 0.588889 0.000000
0.137116 0.592453 0.000000
0.220354 0.591507 0.000000
0.341026 0.588911 0.000000
0.511567 0.574600 0.000000
0.750894 0.526506 0.000000
0.928604 0.515903 0.000000
1.000000 0.542477 0.000000
1.000000 0.651116 0.137931
0.453988 0.819638 0.194927
0.462193 0.819409 0.190686
0.478227 0.818944 0.182054
0.523634 0.817487 0.169074
0.616046 0.813943 0.114256
0.769663 0.803464 0.000000
0.922595 0.770251 0.000000
1.000000 0.768558 0.000000
1.000000 0.795086 0.178305
0.783845 0.928104 0.505376
0.783845 0.928104 0.505376
0.787950 0.927907 0.502079
0.799714 0.927304 0.499090
0.822144 0.926151 0.486438
0.862725 0.922649 0.451306
0.918895 0.920895 0.381597
0.989014 0.901401 0.204501
1.000000 0.903701 0.330065
0.920148 0.979010 0.772485
0.921828 0.978909 0.772587
0.921828 0.978909 0.772587
0.921958 0.978920 0.770172
0.925235 0.979355 0.766140
0.932048 0.979010 0.757483
0.948598 0.978736 0.738631
0.983110 0.975185 0.684157
1.000000 0.969697 0.556484
0.000000 0.000000 0.034484
0.000000 0.000000 0.028895
0.141925 0.000000 0.000000
0.299627 0.000000 0.000000
0.443847 0.000000 0.000000
0.657671 0.000000 0.000000
0.905219 0.000000 0.000000
1.000000 0.242841 0.000000
1.000000 0.553259 0.141047
0.000000 0.000000 0.042762
0.000000 0.000000 0.034540
0.133889 0.000000 0.000000
0.275903 0.000000 0.000000
0.434206 0.000000 0.000000
0.657780 0.000000 0.000000
0.909122 0.000000 0.000000
1.000000 0.242841 0.000000
1.000000 0.553259 0.141047
0.000000 0.099629 0.032995
0.000000 0.099323 0.000000
0.115408 0.089310 0.000000
0.262051 0.019423 0.000000
0.425651 0.000000 0.000000
0.658170 0.000000 0.000000
0.908585 0.000000 0.000000
1.000000 0.258604 0.000000
1.000000 0.556918 0.139905
0.000000 0.219921 0.000000
0.000000 0.217056 0.000000
0.120757 0.211712 0.000000
0.280892 0.186012 0.000000
0.445399 0.141442 0.000000
0.672659 0.000000 0.000000
0.911412 0.000000 0.000000
1.000000 0.283561 0.000000
1.000000 0.568784 0.138160
0.000000 0.371569 0.000000
0.000000 0.374124 0.000000
0.100370 0.372762 0.000000
0.282411 0.361815 0.000000
0.500120 0.324334 0.000000
0.703003 0.296823 0.000000
0.916076 0.274962 0.000000
1.000000 0.357149 0.000000
1.000000 0.591550 0.143183
0.048306 0.596590 0.000000
0.120693 0.596303 0.000000
0.212512 0.595367 0.000000
0.336909 0.592796 0.000000
0.503482 0.578835 0.000000
0.738888 0.535488 0.000000
0.924976 0.520208 0.000000
1.000000 0.542485 0.000000
1.000000 0.651115 0.143653
0.453532 0.819620 0.216039
0.461757 0.819391 0.211991
0.477742 0.818924 0.208022
0.521172 0.820238 0.191334
0.614031 0.816705 0.151386
0.763267 0.806585 0.000000
0.921511 0.773441 0.000000
1.000000 0.768561 0.000000
1.000000 0.797377 0.185915
0.783588 0.928085 0.512266
0.783588 0.928085 0.512266
0.787698 0.927888 0.508956
0.799470 0.927285 0.505946
0.821919 0.926133 0.493231
0.861876 0.924025 0.458718
0.918761 0.920882 0.388154
0.988377 0.902917 0.216287
1.000000 0.903696 0.334798
0.920018 0.978999 0.774881
0.921699 0.978897 0.774979
0.921430 0.979509 0.775470
0.921559 0.979520 0.773091
0.924982 0.979332 0.770901
0.931929 0.979000 0.759788
0.948482 0.978725 0.741020
0.983005 0.975175 0.686667
1.000000 0.969691 0.558434
0.000000 0.000000 0.094876
0.000000 0.000000 0.085061
0.098959 0.000000 0.064200
0.253810 0.000000 0.042358
0.403201 0.000000 0.000000
0.628008 0.000000 0.000000
0.900932 0.000000 0.000000
1.000000 0.247636 0.000000
1.000000 0.553252 0.155341
0.000000 0.015620 0.100758
0.000000 0.010160 0.092740
0.094247 0.000000 0.081579
0.242008 0.000000 0.056209
0.400292 0.000000 0.018079
0.628094 0.000000 0.000000
0.900806 0.000000 0.000000
1.000000 0.247636 0.000000
1.000000 0.556911 0.154351
0.000000 0.095388 0.166082
0.000000 0.097534 0.169592
0.073503 0.103729 0.153282
0.231067 0.075914 0.087388
0.394783 0.000000 0.029116
0.632711 0.000000 0.000000
0.900326 0.000000 0.000000
1.000000 0.263218 0.000000
1.000000 0.556911 0.154351
0.000000 0.217222 0.188574
0.000000 0.228858 0.179226
0.000000 0.228524 0.145941
0.238944 0.220832 0.089738
0.415490 0.181991 0.000000
0.647422 0.096674 0.000000
0.906938 0.000000 0.000000
1.000000 0.288399 0.000000
1.000000 0.568776 0.155239
0.000000 0.390378 0.129458
0.000000 0.389964 0.119760
0.000000 0.388850 0.092964
0.242501 0.381823 0.000000
0.462624 0.356609 0.000000
0.677610 0.322036 0.000000
0.911528 0.289135 0.000000
1.000000 0.361521 0.000000
1.000000 0.595193 0.159364
0.000000 0.604672 0.129040
0.000000 0.604131 0.120527
0.159138 0.610975 0.096766
0.319894 0.600750 0.019889
0.490296 0.590933 0.000000
0.724275 0.552546 0.000000
0.919991 0.532778 0.000000
1.000000 0.546572 0.000000
1.000000 0.651109 0.163035
0.449511 0.822321 0.268080
0.457740 0.822090 0.268161
0.471545 0.824341 0.264266
0.510499 0.823152 0.248835
0.604582 0.819696 0.209811
0.761451 0.809357 0.116247
0.919297 0.779688 0.000000
1.000000 0.774577 0.000000
1.000000 0.797369 0.204797
0.782272 0.929401 0.530180
0.782408 0.929412 0.526719
0.786394 0.929205 0.526847
0.798965 0.927245 0.519715
0.821453 0.926095 0.506878
0.867215 0.923643 0.475819
0.917761 0.922231 0.405462
0.986852 0.902961 0.238189
1.000000 0.903680 0.346810
0.921302 0.979498 0.777827
0.921302 0.979498 0.777827
0.921302 0.979498 0.777827
0.921302 0.979498 0.777827
0.924726 0.979310 0.775671
0.931691 0.978979 0.764350
0.948249 0.978704 0.745758
0.982471 0.975775 0.692628
1.000000 0.969667 0.566356
0.000000 0.021969 0.150643
0.000000 0.022358 0.145393
0.067708 0.000000 0.141743
0.223224 0.000000 0.119181
0.373990 0.000000 0.120433
0.603664 0.000000 0.096660
0.892133 0.000000 0.069979
1.000000 0.257614 0.083754
1.000000 0.560546 0.190442
0.000000 0.042983 0.167542
0.000000 0.043087 0.165786
0.060461 0.034394 0.169235
0.218857 0.000000 0.149333
0.372384 0.000000 0.138815
0.603577 0.000000 0.098767
0.891896 0.000000 0.070140
1.000000 0.262749 0.082434
1.000000 0.564209 0.189708
0.000000 0.100116 0.238906
0.000000 0.099886 0.241258
0.000000 0.104050 0.257506
0.203126 0.095600 0.244472
0.377970 0.000000 0.177671
0.611707 0.000000 0.108093
0.891357 0.000000 0.074048
1.000000 0.272827 0.082585
1.000000 0.567874 0.188965
0.000000 0.213222 0.334223
0.000000 0.219210 0.333988
0.000000 0.228219 0.333606
0.189136 0.244614 0.321783
0.388247 0.214350 0.228007
0.632170 0.143143 0.124538
0.898109 0.000000 0.077206
1.000000 0.297504 0.088300
1.000000 0.575205 0.189856
0.000000 0.389767 0.383319
0.000000 0.392615 0.379673
0.000000 0.411680 0.371634
0.138833 0.416161 0.325681
0.424125 0.402856 0.255708
0.663749 0.356342 0.131433
0.902131 0.308427 0.066859
1.000000 0.369857 0.087755
1.000000 0.602479 0.194579
0.000000 0.627742 0.329403
0.000000 0.627247 0.322419
0.000000 0.630445 0.311614
0.264739 0.624302 0.291979
0.457129 0.618930 0.237561
0.705705 0.593389 0.103457
0.912245 0.557761 0.000000
1.000000 0.566656 0.038084
1.000000 0.657486 0.200549
0.446038 0.829978 0.370261
0.454605 0.829754 0.366589
0.479125 0.829056 0.363042
0.510328 0.828099 0.355848
0.598547 0.824924 0.329288
0.746058 0.818017 0.254056
0.910904 0.794689 0.000000
1.000000 0.788857 0.079344
1.000000 0.799835 0.248633
0.776105 0.930835 0.569057
0.780033 0.930634 0.569161
0.784183 0.930440 0.565720
0.796019 0.929842 0.562541
0.815720 0.927539 0.548700
0.865171 0.924900 0.520286
0.915983 0.923493 0.453694
0.985060 0.905904 0.298832
1.000000 0.905051 0.377880
0.920798 0.979454 0.787025
0.920798 0.979454 0.787025
0.920798 0.979454 0.787025
0.922458 0.979353 0.787112
0.924222 0.979265 0.784942
0.930672 0.979517 0.778915
0.947553 0.978641 0.759637
0.981832 0.975714 0.707431
1.000000 0.970286 0.582204
0.000000 0.074845 0.271864
0.000000 0.073338 0.274167
0.000000 0.073920 0.281086
0.170168 0.051726 0.292372
0.372623 0.000000 0.261323
0.590016 0.000000 0.265834
0.874860 0.000000 0.224557
1.000000 0.281465 0.201176
1.000000 0.571459 0.261564
0.000000 0.087173 0.285643
0.000000 0.086782 0.288056
0.000000 0.086660 0.295382
0.161399 0.073499 0.312745
0.370995 0.000000 0.284839
0.594199 0.000000 0.272846
0.874460 0.000000 0.224274
1.000000 0.286341 0.203139
1.000000 0.575124 0.263863
0.000000 0.118104 0.329024
0.000000 0.116445 0.329066
0.000000 0.119934 0.334571
0.157068 0.113960 0.351658
0.371258 0.015541 0.332355
0.602712 0.000000 0.294954
0.873547 0.000000 0.230722
1.000000 0.300710 0.204354
1.000000 0.578795 0.263419
0.000000 0.221523 0.434737
0.000000 0.219239 0.441774
0.000000 0.226445 0.455549
0.011935 0.240277 0.465537
0.369198 0.235408 0.454179
0.611458 0.187344 0.356219
0.879766 0.127846 0.244127
1.000000 0.333582 0.207087
1.000000 0.586140 0.262519
0.000000 0.382622 0.558928
0.000000 0.382383 0.562684
0.000000 0.391351 0.562255
0.000000 0.412815 0.557434
0.357491 0.443502 0.548653
0.630538 0.404702 0.434895
0.891123 0.352793 0.272044
1.000000 0.395569 0.217293
1.000000 0.608951 0.266086
0.000000 0.627678 0.615306
0.000000 0.631226 0.615092
0.000000 0.634402 0.614883
0.000000 0.647708 0.606261
0.378671 0.659006 0.573273
0.666746 0.638400 0.483269
0.893878 0.599491 0.312236
1.000000 0.590825 0.242501
1.000000 0.664405 0.282509
0.403747 0.844956 0.593260
0.413658 0.844747 0.589416
0.432390 0.844308 0.585595
0.484720 0.842953 0.570300
0.577411 0.842404 0.540018
0.737081 0.832950 0.489007
0.897983 0.813811 0.360474
0.992658 0.802218 0.303680
1.000000 0.807111 0.334246
0.769827 0.934498 0.659834
0.769827 0.934498 0.659834
0.773973 0.934313 0.656389
0.781550 0.935221 0.653432
0.805474 0.932772 0.642859
0.853921 0.929006 0.611943
0.915184 0.926970 0.561484
0.978893 0.915756 0.432987
1.000000 0.910445 0.445312
0.919424 0.979960 0.807218
0.919424 0.979960 0.807218
0.919424 0.979960 0.807218
0.921086 0.979861 0.807290
0.924591 0.979685 0.803140
0.930961 0.979934 0.797351
0.947313 0.979038 0.785279
0.979589 0.976777 0.744556
1.000000 0.971461 0.624185
0.000000 0.163112 0.468117
0.000000 0.164764 0.468060
0.000000 0.167753 0.475056
0.000000 0.164270 0.492861
0.318147 0.148030 0.509903
0.599411 0.000000 0.469045
0.860306 0.000000 0.464472
1.000000 0.332199 0.416997
1.000000 0.593176 0.404444
0.000000 0.170527 0.475028
0.000000 0.172129 0.478543
0.000000 0.175423 0.481996
0.000000 0.171998 0.503526
0.314615 0.160214 0.520671
0.598100 0.000000 0.483100
0.860607 0.000000 0.471384
1.000000 0.336744 0.416853
1.000000 0.600542 0.403985
0.000000 0.189898 0.503284
0.000000 0.191843 0.503216
0.000000 0.193194 0.510422
0.000000 0.197001 0.524777
0.316992 0.188833 0.542169
0.594328 0.086393 0.511520
0.864071 0.067910 0.481701
1.000000 0.345717 0.419839
1.000000 0.604226 0.403754
0.000000 0.240071 0.557019
0.000000 0.239865 0.560754
0.000000 0.243712 0.564327
0.000000 0.245824 0.579176
0.308903 0.247774 0.589544
0.604683 0.209957 0.572751
0.870173 0.192182 0.516533
1.000000 0.372434 0.429076
1.000000 0.611587 0.406507
0.000000 0.388106 0.674118
0.000000 0.391236 0.673971
0.000000 0.400633 0.681257
0.000000 0.409080 0.692340
0.237957 0.430459 0.709827
0.616988 0.441150 0.699986
0.880478 0.402676 0.593283
1.000000 0.440793 0.446809
1.000000 0.633679 0.411449
0.000000 0.619870 0.784873
0.000000 0.619774 0.784867
0.000000 0.623160 0.784619
0.000000 0.629666 0.787316
0.199579 0.652215 0.785480
0.616324 0.687074 0.781656
0.860327 0.657910 0.672821
1.000000 0.627013 0.498587
1.000000 0.691768 0.428093
0.250209 0.845815 0.821300
0.282003 0.845405 0.821278
0.319230 0.847247 0.821109
0.392560 0.850625 0.820765
0.507069 0.859567 0.822470
0.684955 0.862061 0.804744
0.872910 0.850177 0.722185
0.978541 0.824577 0.568177
1.000000 0.823303 0.485333
0.760322 0.941135 0.818421
0.764406 0.940935 0.818431
0.768609 0.940748 0.816082
0.776686 0.940366 0.813726
0.795357 0.940640 0.809071
0.832725 0.941146 0.789602
0.900258 0.935210 0.757496
0.969047 0.927037 0.643438
1.000000 0.920563 0.588222
0.913757 0.982138 0.858631
0.913757 0.982138 0.858631
0.913757 0.982138 0.858631
0.915548 0.982047 0.856943
0.918961 0.981859 0.855280
0.927185 0.981413 0.850188
0.945077 0.980453 0.836121
0.974820 0.978330 0.804442
1.000000 0.973599 0.719306
0.000000 0.300126 0.704596
0.000000 0.299897 0.704579
0.000000 0.302224 0.708270
0.000000 0.300555 0.715717
0.203450 0.303593 0.729810
0.545760 0.286710 0.748971
0.871691 0.193658 0.711517
1.000000 0.368099 0.709279
1.000000 0.636748 0.650192
0.000000 0.302716 0.708308
0.000000 0.302560 0.708296
0.000000 0.304907 0.711959
0.000000 0.303294 0.715609
0.205450 0.309379 0.729596
0.544052 0.293737 0.752240
0.870835 0.205145 0.715057
1.000000 0.372921 0.709219
1.000000 0.636748 0.650192
0.000000 0.311060 0.715562
0.000000 0.313798 0.715443
0.000000 0.313245 0.719150
0.000000 0.314656 0.726341
0.200429 0.318200 0.740083
0.540564 0.307385 0.758683
0.868632 0.231805 0.721977
1.000000 0.381685 0.712593
1.000000 0.640402 0.650033
0.000000 0.339839 0.740070
0.000000 0.342562 0.739935
0.000000 0.342134 0.743456
0.000000 0.346704 0.750125
0.197783 0.350747 0.759637
0.540223 0.340756 0.782157
0.870394 0.291306 0.745486
1.000000 0.412110 0.725956
1.000000 0.647621 0.653312
0.000000 0.419067 0.788859
0.000000 0.418905 0.792158
0.000000 0.422010 0.791967
0.000000 0.427829 0.794815
0.124672 0.437840 0.809527
0.535643 0.446335 0.815952
0.866737 0.433948 0.804388
1.000000 0.484573 0.757560
1.000000 0.672851 0.659734
0.000000 0.623872 0.865302
0.000000 0.623785 0.867542
0.000000 0.623323 0.867496
0.000000 0.630043 0.869173
0.000000 0.642072 0.876563
0.523051 0.662056 0.881942
0.855267 0.686787 0.875935
0.993980 0.680051 0.816015
1.000000 0.725722 0.682729
0.000000 0.837268 0.910707
0.000000 0.837083 0.910691
0.000000 0.839266 0.910484
0.187888 0.840826 0.911759
0.371897 0.845546 0.911022
0.583848 0.858498 0.913676
0.847997 0.873675 0.912108
0.947897 0.859250 0.858575
1.000000 0.845058 0.739662
0.710057 0.941265 0.929026
0.710057 0.941265 0.929026
0.714518 0.941066 0.929013
0.727066 0.941692 0.928909
0.749953 0.945273 0.927375
0.807847 0.946806 0.925775
0.885467 0.947796 0.922103
0.948702 0.944323 0.886780
1.000000 0.929515 0.793851
0.905522 0.986625 0.932110
0.905522 0.986625 0.932110
0.905522 0.986625 0.932110
0.907217 0.986526 0.932113
0.910765 0.986350 0.928897
0.917587 0.985486 0.925552
0.937106 0.983895 0.917489
0.967920 0.983176 0.899230
0.999129 0.977619 0.849674
0.000000 0.493133 0.885199
0.000000 0.493133 0.885199
0.000000 0.492857 0.885169
0.000000 0.495976 0.887018
0.155628 0.501090 0.890500
0.451645 0.507249 0.896959
0.807657 0.511037 0.906492
1.000000 0.490160 0.887942
1.000000 0.670121 0.875159
0.000000 0.496822 0.885019
0.000000 0.496687 0.885004
0.000000 0.496549 0.884989
0.000000 0.499565 0.886820
0.155628 0.501090 0.890500
0.449237 0.511170 0.898771
0.806589 0.515246 0.906321
1.000000 0.490149 0.889945
1.000000 0.670121 0.875159
0.000000 0.500429 0.886915
0.000000 0.500293 0.886900
0.000000 0.500153 0.886885
0.000000 0.503343 0.888703
0.153968 0.508500 0.892126
0.453279 0.514777 0.900521
0.810163 0.518989 0.907888
1.000000 0.498936 0.891596
1.000000 0.673693 0.876915
0.000000 0.515254 0.890246
0.000000 0.515117 0.890231
0.000000 0.514978 0.890215
0.000000 0.518191 0.891976
0.167804 0.523197 0.895387
0.454869 0.533795 0.903378
0.805476 0.535843 0.910652
1.000000 0.516529 0.894808
1.000000 0.684953 0.878252
0.000000 0.552715 0.898326
0.000000 0.552589 0.900276
0.000000 0.556283 0.900060
0.000000 0.555379 0.899962
0.191100 0.560416 0.904990
0.470005 0.571551 0.913778
0.802500 0.576885 0.916923
1.000000 0.568514 0.905337
1.000000 0.707132 0.880990
0.000000 0.651647 0.920592
0.000000 0.651520 0.922138
0.000000 0.655109 0.921879
0.000000 0.654195 0.923326
0.184638 0.651727 0.926113
0.474459 0.664166 0.933038
0.805849 0.682154 0.932045
0.987697 0.698902 0.926596
1.000000 0.759869 0.894452
0.000000 0.832828 0.951775
0.000000 0.832649 0.951758
0.000000 0.835068 0.951560
0.000000 0.834334 0.952576
0.278338 0.837277 0.953087
0.509240 0.849083 0.953475
0.788509 0.862241 0.955623
0.943856 0.877052 0.953329
1.000000 0.865780 0.921075
0.649592 0.938584 0.970677
0.649592 0.938584 0.970677
0.655110 0.938364 0.970658
0.665329 0.939198 0.970532
0.694790 0.939194 0.970340
0.749216 0.940335 0.970617
0.849302 0.944192 0.971732
0.937893 0.954628 0.970588
0.992276 0.944978 0.944462
0.884685 0.985859 0.979791
0.886592 0.985750 0.979784
0.886592 0.985750 0.979784
0.888478 0.985643 0.979777
0.892030 0.985946 0.979736
0.902322 0.986344 0.979646
0.924895 0.986931 0.979475
0.961340 0.988331 0.975540
0.990086 0.984981 0.960460
0.295096 0.732112 0.965564
0.295096 0.732112 0.965564
0.307271 0.731894 0.965542
0.330054 0.731485 0.966480
0.386230 0.733953 0.967074
0.496249 0.738068 0.969107
0.724078 0.745526 0.971494
0.946292 0.752504 0.973117
1.000000 0.751462 0.965377
0.295096 0.732112 0.965564
0.295096 0.732112 0.965564
0.307182 0.731927 0.966525
0.330054 0.731485 0.966480
0.386230 0.733953 0.967074
0.496249 0.738068 0.969107
0.722368 0.749111 0.971280
0.946292 0.752504 0.973117
1.000000 0.754634 0.965198
0.295004 0.732144 0.966547
0.307182 0.731927 0.966525
0.301519 0.735736 0.966288
0.324938 0.735297 0.966243
0.382144 0.737736 0.966840
0.493350 0.741827 0.969808
0.722325 0.749145 0.972161
0.946292 0.752504 0.973117
1.000000 0.754649 0.966092
0.295645 0.739541 0.967022
0.307913 0.739324 0.967000
0.307913 0.739324 0.967000
0.330940 0.738882 0.966955
0.396813 0.741073 0.968468
0.495270 0.748931 0.970250
0.726013 0.752383 0.971920
0.943844 0.759190 0.973563
1.000000 0.760889 0.966624
0.304616 0.757294 0.968650
0.304616 0.757294 0.968650
0.316762 0.757076 0.968628
0.350443 0.756408 0.968561
0.405557 0.758597 0.969127
0.502199 0.759180 0.971342
0.731495 0.762266 0.973824
0.942427 0.768781 0.974617
1.000000 0.772952 0.967671
0.354588 0.786196 0.971060
0.365289 0.785969 0.971037
0.365285 0.785992 0.971920
0.385752 0.785532 0.971876
0.429537 0.787566 0.972426
0.532274 0.787443 0.973621
0.739265 0.787087 0.976254
0.933332 0.798033 0.976007
1.000000 0.805584 0.971543
0.403300 0.849734 0.978603
0.400632 0.852221 0.978429
0.410661 0.851991 0.978408
0.429995 0.851524 0.978365
0.481400 0.852552 0.978804
0.581961 0.856305 0.980160
0.759790 0.861813 0.982585
0.914624 0.867511 0.982062
1.000000 0.881094 0.979670
0.646037 0.936183 0.990086
0.651580 0.935963 0.990067
0.651580 0.935963 0.990067
0.657028 0.935745 0.990048
0.682304 0.935973 0.989860
0.722368 0.936716 0.989986
0.814304 0.938204 0.991403
0.909535 0.946861 0.992023
0.988798 0.955845 0.991085
0.856203 0.984128 0.997142
0.856203 0.984128 0.997142
0.856203 0.984128 0.997142
0.858388 0.984008 0.997132
0.864666 0.984213 0.997064
0.874638 0.984735 0.997240
0.903492 0.985151 0.997255
0.944207 0.986546 0.997652
0.985252 0.989891 0.997606
