Assets/Lutify-Free-LUTs-Pack/Lutify Free LUTs Pack/Commercial Pro - Claire/Lutify.me-Claire-SLog3Cine-to-Rec709.cube
# Created with: fylm.ai - Colour Grading and Collaboration Software in Cloud 
# Website: https://fylm.ai 
# META
# Option: Gamut compress
# Block 1: IDT | Sony S-Log3 S-Gamut3.Cine
# Block 2: colourMatch | Blending Mode: Normal | {"ColorSpace":0,"CrossCovarianceLimit":50,"ReshapingIterations":1,"PercentSaturationShift":100,"PercentShadingShift":100,"ExtraShading":true,"PercentTint":100,"PercentModified":100}
# Block 3: HSL | Blending Mode: Normal | {"hue":{"Reds":0,"Yellows":0,"Greens":0,"Cyans":0,"Blues":0,"Magentas":0},"saturation":{"Reds":1,"Yellows":1,"Greens":1,"Cyans":1,"Blues":1,"Magentas":1},"luminance":{"Reds":0.9,"Yellows":0.9,"Greens":0.9,"Cyans":0.8,"Blues":0.8,"Magentas":0.9},"lum_sat":{"Blacks":1,"Shadows":1,"Midtones":1,"Highlights":1,"Whites":1},"sat_sat":{"10":1,"20":1,"30":1,"40":1,"50":1}}
# Block 4: subtractiveColour | Blending Mode: Normal | {"sliders":{"gainY":0.1,"C":0.05,"M":0.05,"Y":0.05}}
# Block 5: logPrimaries | Blending Mode: Normal | {"wheels":{"shadows":{"Y":"0","R":"1","G":"1","B":"1"},"midtones":{"Y":"0","R":"1","G":"1","B":"1"},"highlights":{"Y":"0","R":"1","G":"1","B":"1"},"offset":{"Y":"0","R":"1","G":"1","B":"1"}},"sliders":{"shadows":{"Y":0,"R":-0.05,"G":0,"B":0.1},"midtones":{"Y":0,"R":0,"G":0,"B":0},"highlights":{"Y":0,"R":0,"G":0,"B":0},"offset":{"Y":0,"R":0,"G":0,"B":0}}}
# Block 6: LUT | Filmic Curve Response: Standard Contrast 1 (100%)
# Block 7: LUT | Illuminant: D93 (100%)
# Block 8: LUT | Neutral Tint: Teal Tint 4 (100%)
# Block 9: ODT | Rec709
TITLE "Lutify.me-Claire-SLog3Cine-to-Rec709" 
LUT_3D_SIZE 5
0.000000 0.000000 0.000000
0.294866 0.000000 0.000000
0.648434 0.000000 0.000000
1.000000 0.000000 0.118229
1.000000 0.805046 0.591443
0.000000 0.149187 0.000000
0.201769 0.101324 0.000000
0.615267 0.000000 0.000000
1.000000 0.114332 0.120071
1.000000 0.807031 0.591468
0.000000 0.508618 0.000000
0.000000 0.506628 0.000000
0.675897 0.420871 0.000000
1.000000 0.379988 0.113742
1.000000 0.821159 0.598358
0.415592 0.938750 0.492326
0.462440 0.937711 0.482029
0.673508 0.929496 0.435052
0.980032 0.900352 0.185592
1.000000 0.894315 0.646920
0.940153 1.000000 0.932058
0.941323 1.000000 0.931142
0.944707 1.000000 0.929306
0.971373 1.000000 0.916376
1.000000 0.999641 0.838476
0.000000 0.000000 0.157504
0.184914 0.000000 0.045082
0.589857 0.000000 0.000000
1.000000 0.000000 0.147178
1.000000 0.805034 0.594193
0.000000 0.116884 0.190061
0.092535 0.127881 0.182988
0.561701 0.000000 0.045086
1.000000 0.112791 0.149592
1.000000 0.807020 0.594217
0.000000 0.527281 0.212060
0.000000 0.540676 0.145617
0.610556 0.487683 0.000000
1.000000 0.388920 0.148343
1.000000 0.821148 0.601108
0.411143 0.939981 0.535330
0.458110 0.938928 0.531963
0.664702 0.932389 0.484604
0.978966 0.901853 0.243398
1.000000 0.895637 0.652687
0.940092 1.000000 0.932977
0.940092 1.000000 0.932977
0.944583 1.000000 0.931180
0.971309 1.000000 0.917389
1.000000 0.999636 0.839463
0.000000 0.000000 0.257077
0.097471 0.000000 0.119710
0.697496 0.000000 0.061608
1.000000 0.000000 0.292761
1.000000 0.807473 0.628966
0.000000 0.062871 0.295926
0.000000 0.063287 0.286112
0.520564 0.000000 0.182091
1.000000 0.056526 0.299535
1.000000 0.809439 0.628982
0.000000 0.440500 0.633011
0.000000 0.468041 0.651085
0.477095 0.555018 0.668911
1.000000 0.396590 0.354163
1.000000 0.825288 0.636019
0.305892 0.945569 0.758814
0.369872 0.944602 0.752619
0.635635 0.941317 0.712782
0.965296 0.918871 0.521001
1.000000 0.898147 0.691008
0.940568 1.000000 0.942789
0.940617 1.000000 0.941848
0.943984 1.000000 0.940196
0.970562 1.000000 0.928292
1.000000 0.999948 0.856520
0.129030 0.000000 0.234862
0.216932 0.000000 0.203418
0.509568 0.000000 0.147181
1.000000 0.000000 0.147501
1.000000 0.797799 0.798861
0.000000 0.067352 0.462922
0.000000 0.057595 0.445351
0.389433 0.000000 0.365695
1.000000 0.000000 0.147501
1.000000 0.800464 0.799071
0.000000 0.324450 0.755022
0.000000 0.329864 0.768753
0.000000 0.340109 0.804683
1.000000 0.000000 0.709975
1.000000 0.816168 0.805404
0.000000 0.907896 0.951718
0.000000 0.909360 0.952567
0.000000 0.920635 0.958504
0.926587 0.939860 0.959502
1.000000 0.900222 0.842879
0.931409 1.000000 0.980788
0.932549 1.000000 0.980786
0.937064 1.000000 0.980336
0.966404 1.000000 0.974412
1.000000 1.000000 0.933832
0.597392 0.000000 0.295450
0.612201 0.000000 0.280285
0.721343 0.000000 0.247815
1.000000 0.000000 0.245675
1.000000 0.386689 0.409792
0.421389 0.000000 0.676445
0.444608 0.000000 0.664649
0.610147 0.000000 0.537859
1.000000 0.000000 0.245949
1.000000 0.386689 0.409792
0.000000 0.376291 0.926763
0.112654 0.375550 0.928317
0.326628 0.356112 0.926560
0.921360 0.125279 0.915971
1.000000 0.386689 0.409792
0.000000 0.816575 0.988448
0.000000 0.816219 0.988411
0.000000 0.822552 0.989596
0.728234 0.828698 0.995016
1.000000 0.762051 0.980279
0.764513 1.000000 1.000000
0.767289 1.000000 1.000000
0.781774 1.000000 1.000000
0.885331 1.000000 1.000000
1.000000 1.000000 1.000000
