Assets/Lutify-Free-LUTs-Pack/Lutify Free LUTs Pack/Commercial Pro - Claire/Lutify.me-Claire-VLog-to-Rec709.cube
# Created with: fylm.ai - Colour Grading and Collaboration Software in Cloud 
# Website: https://fylm.ai 
# META
# Option: Gamut compress
# Block 1: IDT | Panasonic V-Gamut V-Log
# Block 2: colourMatch | Blending Mode: Normal | {"ColorSpace":0,"CrossCovarianceLimit":50,"ReshapingIterations":1,"PercentSaturationShift":100,"PercentShadingShift":100,"ExtraShading":true,"PercentTint":100,"PercentModified":100}
# Block 3: HSL | Blending Mode: Normal | {"hue":{"Reds":0,"Yellows":0,"Greens":0,"Cyans":0,"Blues":0,"Magentas":0},"saturation":{"Reds":1,"Yellows":1,"Greens":1,"Cyans":1,"Blues":1,"Magentas":1},"luminance":{"Reds":0.9,"Yellows":0.9,"Greens":0.9,"Cyans":0.8,"Blues":0.8,"Magentas":0.9},"lum_sat":{"Blacks":1,"Shadows":1,"Midtones":1,"Highlights":1,"Whites":1},"sat_sat":{"10":1,"20":1,"30":1,"40":1,"50":1}}
# Block 4: subtractiveColour | Blending Mode: Normal | {"sliders":{"gainY":0.1,"C":0.05,"M":0.05,"Y":0.05}}
# Block 5: logPrimaries | Blending Mode: Normal | {"wheels":{"shadows":{"Y":"0","R":"1","G":"1","B":"1"},"midtones":{"Y":"0","R":"1","G":"1","B":"1"},"highlights":{"Y":"0","R":"1","G":"1","B":"1"},"offset":{"Y":"0","R":"1","G":"1","B":"1"}},"sliders":{"shadows":{"Y":0,"R":-0.05,"G":0,"B":0.1},"midtones":{"Y":0,"R":0,"G":0,"B":0},"highlights":{"Y":0,"R":0,"G":0,"B":0},"offset":{"Y":0,"R":0,"G":0,"B":0}}}
# Block 6: LUT | Filmic Curve Response: Standard Contrast 1 (100%)
# Block 7: LUT | Illuminant: D93 (100%)
# Block 8: LUT | Neutral Tint: Teal Tint 4 (100%)
# Block 9: ODT | Rec709
TITLE "Lutify.me-Claire-VLog-to-Rec709" 
LUT_3D_SIZE 5
0.000000 0.000000 0.000000
0.354054 0.000000 0.000000
0.644218 0.000000 0.000000
1.000000 0.255076 0.192248
1.000000 0.873761 0.744155
0.000000 0.125033 0.000000
0.190838 0.064197 0.000000
0.615264 0.000000 0.000000
1.000000 0.279945 0.194689
1.000000 0.875193 0.744215
0.000000 0.456403 0.000000
0.000000 0.462655 0.000000
0.635172 0.399278 0.000000
1.000000 0.426421 0.205172
1.000000 0.879385 0.746799
0.000000 0.938463 0.637211
0.000000 0.938978 0.630125
0.258259 0.939505 0.573563
0.979313 0.904616 0.348766
1.000000 0.920112 0.777158
0.860353 1.000000 0.966406
0.862123 1.000000 0.966401
0.874657 1.000000 0.966451
0.935282 1.000000 0.958025
1.000000 1.000000 0.902331
0.000000 0.000000 0.212361
0.196978 0.000000 0.035522
0.589988 0.000000 0.019468
1.000000 0.260083 0.213972
1.000000 0.873748 0.746548
0.000000 0.097699 0.169632
0.076587 0.107450 0.156399
0.565806 0.000000 0.046581
1.000000 0.284680 0.216946
1.000000 0.875181 0.746605
0.000000 0.391938 0.277553
0.000000 0.484029 0.219249
0.576228 0.456695 0.000000
1.000000 0.426391 0.236786
1.000000 0.879385 0.746799
0.000000 0.935705 0.666324
0.000000 0.937729 0.663229
0.229452 0.940911 0.614356
0.976563 0.906124 0.389772
1.000000 0.919976 0.778758
0.860311 1.000000 0.967052
0.860311 1.000000 0.967052
0.874614 1.000000 0.967094
0.935234 1.000000 0.958730
1.000000 1.000000 0.903239
0.000000 0.000000 0.272635
0.041928 0.000000 0.188437
0.600010 0.000000 0.102466
1.000000 0.259063 0.334639
1.000000 0.873687 0.758322
0.000000 0.084246 0.329829
0.000000 0.091389 0.318701
0.523776 0.000000 0.270926
1.000000 0.284518 0.342956
1.000000 0.875120 0.758365
0.000000 0.368599 0.537031
0.000000 0.420089 0.606900
0.454146 0.533596 0.648091
1.000000 0.445562 0.387545
1.000000 0.879314 0.760815
0.000000 0.919202 0.787111
0.000000 0.923428 0.787064
0.000000 0.941778 0.776139
0.966670 0.918533 0.573925
1.000000 0.919905 0.793611
0.856252 1.000000 0.969548
0.856252 1.000000 0.969548
0.870843 1.000000 0.969573
0.934989 1.000000 0.962894
1.000000 1.000000 0.909627
0.000000 0.263251 0.713779
0.000000 0.267451 0.721094
0.208462 0.263870 0.755920
1.000000 0.000000 0.647402
1.000000 0.879043 0.850104
0.000000 0.280641 0.728116
0.000000 0.290513 0.735008
0.173318 0.294466 0.779569
1.000000 0.000000 0.688363
1.000000 0.879043 0.850104
0.000000 0.404597 0.802920
0.000000 0.411024 0.811913
0.000000 0.436946 0.851122
1.000000 0.319681 0.815574
1.000000 0.884726 0.851995
0.000000 0.880185 0.940991
0.000000 0.884508 0.943007
0.000000 0.910178 0.951619
0.928407 0.942893 0.961736
1.000000 0.924816 0.875067
0.811691 1.000000 0.985856
0.813837 1.000000 0.985848
0.831236 1.000000 0.985784
0.920415 1.000000 0.985554
1.000000 1.000000 0.952558
0.000000 0.777122 0.988704
0.000000 0.776860 0.989369
0.000000 0.781417 0.990071
0.795857 0.787728 0.994595
1.000000 0.751695 0.976551
0.000000 0.777163 0.989401
0.000000 0.776860 0.989369
0.000000 0.781417 0.990071
0.794496 0.790733 0.994943
1.000000 0.753821 0.977190
0.000000 0.793537 0.989683
0.000000 0.793277 0.990323
0.000000 0.797466 0.991000
0.789405 0.810199 0.995746
1.000000 0.776145 0.980997
0.000000 0.888549 0.996073
0.000000 0.890364 0.995893
0.000000 0.892462 0.996799
0.745792 0.898898 1.000000
1.000000 0.891101 0.995466
0.394327 1.000000 1.000000
0.405338 1.000000 1.000000
0.484986 1.000000 1.000000
0.770522 1.000000 1.000000
1.000000 1.000000 1.000000
