Assets/Lutify-Free-LUTs-Pack/Lutify Free LUTs Pack/Commercial Pro - Claire/Lutify.me-Claire-Rec709-to-Rec709.cube
# Created with: fylm.ai - Colour Grading and Collaboration Software in Cloud 
# Website: https://fylm.ai 
# META
# Option: Gamut compress
# Block 1: IDT | Rec709
# Block 2: colourMatch | Blending Mode: Normal | {"ColorSpace":0,"CrossCovarianceLimit":50,"ReshapingIterations":1,"PercentSaturationShift":100,"PercentShadingShift":100,"ExtraShading":true,"PercentTint":100,"PercentModified":100}
# Block 3: HSL | Blending Mode: Normal | {"hue":{"Reds":0,"Yellows":0,"Greens":0,"Cyans":0,"Blues":0,"Magentas":0},"saturation":{"Reds":1,"Yellows":1,"Greens":1,"Cyans":1,"Blues":1,"Magentas":1},"luminance":{"Reds":0.9,"Yellows":0.9,"Greens":0.9,"Cyans":0.8,"Blues":0.8,"Magentas":0.9},"lum_sat":{"Blacks":1,"Shadows":1,"Midtones":1,"Highlights":1,"Whites":1},"sat_sat":{"10":1,"20":1,"30":1,"40":1,"50":1}}
# Block 4: subtractiveColour | Blending Mode: Normal | {"sliders":{"gainY":0.1,"C":0.05,"M":0.05,"Y":0.05}}
# Block 5: logPrimaries | Blending Mode: Normal | {"wheels":{"shadows":{"Y":"0","R":"1","G":"1","B":"1"},"midtones":{"Y":"0","R":"1","G":"1","B":"1"},"highlights":{"Y":"0","R":"1","G":"1","B":"1"},"offset":{"Y":"0","R":"1","G":"1","B":"1"}},"sliders":{"shadows":{"Y":0,"R":-0.05,"G":0,"B":0.1},"midtones":{"Y":0,"R":0,"G":0,"B":0},"highlights":{"Y":0,"R":0,"G":0,"B":0},"offset":{"Y":0,"R":0,"G":0,"B":0}}}
# Block 6: LUT | Filmic Curve Response: Standard Contrast 1 (100%)
# Block 7: LUT | Illuminant: D93 (100%)
# Block 8: LUT | Neutral Tint: Teal Tint 4 (100%)
# Block 9: ODT | Rec709
TITLE "Lutify.me-Claire-Rec709-to-Rec709" 
LUT_3D_SIZE 9
0.000000 0.000000 0.027457
0.132795 0.000000 0.000000
0.263706 0.000000 0.000000
0.353719 0.000000 0.000000
0.449508 0.000000 0.000000
0.535032 0.000000 0.000000
0.637593 0.000000 0.000000
0.740945 0.000000 0.035634
0.877827 0.000000 0.081467
0.000000 0.106182 0.000000
0.122985 0.099467 0.000000
0.249772 0.081428 0.000000
0.349730 0.072262 0.000000
0.440857 0.067370 0.000000
0.535959 0.059524 0.000000
0.637910 0.020631 0.011407
0.740901 0.000000 0.041003
0.877626 0.000000 0.084338
0.029214 0.219661 0.047126
0.127458 0.217856 0.035236
0.249945 0.210045 0.000000
0.345066 0.200970 0.000000
0.438895 0.194568 0.000000
0.535807 0.181170 0.000000
0.639730 0.176206 0.000000
0.740895 0.165628 0.047910
0.888996 0.122715 0.088803
0.122438 0.313604 0.103566
0.165297 0.312655 0.097030
0.254039 0.309181 0.076617
0.350525 0.297118 0.052927
0.448117 0.287286 0.000000
0.543113 0.284810 0.000000
0.642300 0.272936 0.021990
0.749947 0.266850 0.064246
0.897542 0.239392 0.106287
0.168853 0.402998 0.153123
0.196155 0.402479 0.150728
0.270647 0.400454 0.138619
0.364846 0.403215 0.108800
0.464930 0.390005 0.084465
0.552712 0.382543 0.061745
0.652509 0.375799 0.064197
0.757440 0.370729 0.084509
0.913524 0.345175 0.121910
0.187945 0.495671 0.202943
0.205829 0.495386 0.200025
0.280146 0.493757 0.194348
0.371302 0.494336 0.173329
0.466363 0.489810 0.149979
0.559265 0.476458 0.118592
0.664658 0.475421 0.103019
0.780040 0.460640 0.103022
0.942793 0.449783 0.137828
0.211281 0.602643 0.240429
0.222865 0.602474 0.240457
0.299451 0.601036 0.234501
0.375193 0.598990 0.228675
0.468481 0.603207 0.206209
0.579367 0.601594 0.178818
0.694281 0.594195 0.139203
0.820041 0.580476 0.124179
0.978257 0.563812 0.176147
0.000000 0.737377 0.324759
0.101162 0.737224 0.317174
0.190252 0.740378 0.313094
0.311787 0.746088 0.301293
0.410872 0.754695 0.281740
0.554963 0.753439 0.260182
0.692569 0.753990 0.220171
0.841484 0.751944 0.166374
0.988272 0.748837 0.246086
0.000000 0.947489 0.652063
0.000000 0.947332 0.652074
0.000000 0.949592 0.656475
0.000000 0.952033 0.661318
0.308149 0.954856 0.670106
0.464837 0.959701 0.690163
0.612726 0.963439 0.706867
0.794373 0.969148 0.716090
0.976717 0.974693 0.723847
0.000000 0.010029 0.093855
0.106758 0.000000 0.095315
0.232677 0.000000 0.089012
0.336349 0.000000 0.077583
0.438524 0.000000 0.066604
0.526567 0.000000 0.064291
0.632969 0.000000 0.067358
0.735919 0.000000 0.076575
0.873357 0.000000 0.102462
0.000000 0.110733 0.182147
0.085644 0.119500 0.171892
0.232630 0.105169 0.114585
0.332466 0.097324 0.089079
0.429289 0.096643 0.073002
0.527233 0.085875 0.066402
0.633136 0.054572 0.070355
0.735858 0.000000 0.078183
0.877406 0.000000 0.103624
0.000000 0.228135 0.194816
0.077513 0.227068 0.184284
0.230695 0.223990 0.146182
0.330634 0.215711 0.120507
0.428622 0.203774 0.093927
0.530282 0.191096 0.078180
0.638519 0.183641 0.080456
0.740277 0.170360 0.085852
0.888812 0.122850 0.111951
0.083048 0.320997 0.204165
0.136211 0.320390 0.199515
0.233013 0.317913 0.176870
0.335861 0.312200 0.146898
0.448685 0.299064 0.122534
0.536892 0.295188 0.098755
0.640803 0.280155 0.091374
0.749091 0.270981 0.098203
0.897294 0.239492 0.125702
0.141720 0.409859 0.229805
0.167292 0.409499 0.224321
0.251591 0.407603 0.210994
0.354550 0.410431 0.186727
0.455570 0.401021 0.157260
0.545702 0.390260 0.135920
0.650822 0.383370 0.114847
0.756516 0.370932 0.115392
0.912975 0.349493 0.136457
0.177131 0.499282 0.247453
0.196186 0.498997 0.247491
0.262985 0.501292 0.241628
0.367411 0.498051 0.220299
0.469127 0.493281 0.196841
0.558350 0.491451 0.166985
0.663321 0.479358 0.141762
0.774654 0.465087 0.128747
0.942554 0.449837 0.152786
0.177466 0.610512 0.274033
0.205550 0.610192 0.267632
0.288376 0.608780 0.261450
0.367350 0.606774 0.252249
0.465268 0.607119 0.233360
0.578875 0.601566 0.212659
0.687122 0.598605 0.172256
0.818901 0.584561 0.150934
0.978048 0.563845 0.189489
0.000000 0.741168 0.343706
0.048682 0.741011 0.339837
0.187016 0.740339 0.336087
0.310271 0.746051 0.324129
0.406361 0.758301 0.300205
0.552145 0.757041 0.274675
0.692299 0.753971 0.239090
0.839947 0.755449 0.190309
0.988106 0.748842 0.256402
0.000000 0.947489 0.652063
0.000000 0.947332 0.652074
0.000000 0.949592 0.656475
0.000000 0.952033 0.661318
0.308149 0.954856 0.670106
0.464837 0.959701 0.690163
0.612657 0.964411 0.707320
0.794373 0.969148 0.716090
0.976717 0.974693 0.723847
0.000000 0.043748 0.163996
0.090213 0.039608 0.178190
0.214745 0.018293 0.199392
0.315686 0.046623 0.202836
0.417458 0.060823 0.189898
0.515051 0.072571 0.178150
0.619352 0.052745 0.161916
0.730259 0.048515 0.149089
0.872804 0.000000 0.154616
0.000000 0.114647 0.257309
0.000000 0.118637 0.263566
0.202509 0.126260 0.259959
0.318470 0.121460 0.236997
0.420980 0.127075 0.203154
0.513479 0.125002 0.185075
0.618676 0.120888 0.168172
0.730022 0.090981 0.152081
0.872559 0.065059 0.156092
0.000000 0.224200 0.330882
0.000000 0.229349 0.330600
0.190837 0.246741 0.324560
0.298347 0.238232 0.294188
0.420778 0.226706 0.236750
0.517942 0.218840 0.209414
0.629988 0.206320 0.184658
0.733538 0.185686 0.163712
0.879488 0.156230 0.163435
0.000000 0.322742 0.359736
0.000000 0.325147 0.353206
0.161900 0.339854 0.350449
0.261781 0.345589 0.348882
0.418215 0.326478 0.275294
0.520133 0.310427 0.241148
0.629443 0.305952 0.207360
0.741037 0.287607 0.179452
0.895719 0.257847 0.174171
0.000000 0.427034 0.377712
0.000000 0.426735 0.370756
0.173175 0.429836 0.359954
0.288538 0.429257 0.352829
0.424287 0.421130 0.304690
0.526546 0.416593 0.267328
0.635089 0.403477 0.231978
0.751988 0.383275 0.200819
0.911702 0.353987 0.183614
0.089743 0.514062 0.378866
0.144919 0.513665 0.375440
0.236660 0.512964 0.365884
0.343571 0.513298 0.340858
0.451889 0.508753 0.321098
0.549704 0.506896 0.296000
0.666471 0.494423 0.255958
0.787957 0.471861 0.223049
0.947211 0.453808 0.201541
0.106468 0.618202 0.384637
0.133427 0.618052 0.381107
0.237836 0.616892 0.374168
0.338663 0.614810 0.363599
0.437417 0.623208 0.340930
0.558551 0.625650 0.312638
0.681128 0.610613 0.274618
0.814935 0.596812 0.230187
0.975081 0.576220 0.234570
0.000000 0.744976 0.410494
0.000000 0.744814 0.410517
0.116012 0.747924 0.402919
0.274692 0.757197 0.391275
0.390308 0.761992 0.368994
0.547630 0.760514 0.343302
0.679511 0.764808 0.305492
0.837987 0.758878 0.246954
0.986495 0.752179 0.297868
0.000000 0.947569 0.670003
0.000000 0.947414 0.670011
0.000000 0.949532 0.670719
0.000000 0.951974 0.675361
0.306134 0.954812 0.680423
0.464837 0.959701 0.690163
0.618714 0.964194 0.707344
0.801190 0.968802 0.716212
0.977718 0.974630 0.724126
0.000000 0.066827 0.244401
0.064310 0.069610 0.248832
0.202757 0.067173 0.275024
0.299777 0.078534 0.287900
0.400461 0.090999 0.291187
0.493501 0.114235 0.284419
0.596744 0.120267 0.268812
0.717658 0.106095 0.242295
0.863584 0.089471 0.220007
0.000000 0.121224 0.307247
0.000000 0.126971 0.314904
0.176952 0.130880 0.327928
0.297520 0.139118 0.329515
0.401564 0.148271 0.319636
0.498609 0.152785 0.296713
0.599636 0.150548 0.273160
0.721159 0.136741 0.249138
0.867449 0.114057 0.222025
0.000000 0.222751 0.400594
0.000000 0.226190 0.400464
0.145122 0.239850 0.403235
0.291802 0.248636 0.399304
0.406493 0.240587 0.368737
0.507074 0.235697 0.328653
0.612432 0.228843 0.294193
0.721971 0.216311 0.265907
0.874210 0.175817 0.227841
0.000000 0.316763 0.459266
0.000000 0.319050 0.459159
0.123405 0.331565 0.458586
0.278899 0.351114 0.456865
0.376366 0.346144 0.440346
0.503090 0.338002 0.370064
0.622117 0.324035 0.324788
0.739603 0.306155 0.290489
0.894051 0.266940 0.242131
0.000000 0.420329 0.490511
0.000000 0.419854 0.490526
0.109577 0.428721 0.482786
0.268291 0.448406 0.486766
0.356435 0.452395 0.491610
0.496814 0.435320 0.420109
0.631043 0.415730 0.358252
0.757003 0.398368 0.310818
0.915542 0.370336 0.258075
0.000000 0.517823 0.507342
0.000000 0.521219 0.507145
0.163992 0.527239 0.506773
0.283855 0.533933 0.503242
0.376538 0.540579 0.480831
0.505538 0.530291 0.445761
0.651154 0.507186 0.386829
0.770365 0.493405 0.332475
0.947442 0.462281 0.273580
0.000000 0.633114 0.526571
0.000000 0.632801 0.526586
0.212454 0.635378 0.518881
0.296841 0.637842 0.503714
0.400178 0.636192 0.481529
0.540611 0.637569 0.444709
0.671053 0.626464 0.413337
0.812869 0.608774 0.347931
0.973758 0.588605 0.301304
0.000000 0.766475 0.518244
0.000000 0.766317 0.518258
0.000000 0.765677 0.514510
0.221061 0.767823 0.503054
0.359485 0.772460 0.484011
0.528335 0.771024 0.454428
0.677046 0.774491 0.418042
0.832120 0.768903 0.355659
0.985408 0.758726 0.348308
0.000000 0.947586 0.700994
0.000000 0.948732 0.701263
0.000000 0.949556 0.701549
0.000000 0.953245 0.706029
0.299808 0.957018 0.710878
0.461896 0.960665 0.716186
0.617668 0.965099 0.720011
0.804529 0.968631 0.716275
0.980220 0.975061 0.728129
0.000000 0.098766 0.315729
0.011843 0.098085 0.321017
0.181387 0.101535 0.342812
0.287230 0.102261 0.359794
0.383772 0.116123 0.374753
0.492416 0.129849 0.380520
0.588893 0.144195 0.373153
0.703121 0.142602 0.341003
0.868353 0.132659 0.314940
0.000000 0.135189 0.351695
0.000000 0.138313 0.360663
0.156027 0.138421 0.382551
0.277563 0.152087 0.405061
0.384439 0.157360 0.400949
0.492766 0.168292 0.393527
0.591589 0.170757 0.382826
0.710716 0.161385 0.346847
0.872066 0.144224 0.314817
0.000000 0.230204 0.458940
0.000000 0.231720 0.462402
0.087785 0.244233 0.465376
0.248738 0.247752 0.468478
0.378409 0.254701 0.471264
0.490758 0.251859 0.449618
0.602933 0.249568 0.411609
0.723546 0.232855 0.371096
0.877815 0.199283 0.322485
0.000000 0.319392 0.524343
0.000000 0.321781 0.524225
0.000000 0.328742 0.527544
0.233779 0.342172 0.530471
0.383759 0.353016 0.525910
0.490968 0.348969 0.502523
0.627485 0.341296 0.454160
0.738241 0.323769 0.395648
0.899416 0.286916 0.335196
0.000000 0.413274 0.568738
0.000000 0.416457 0.568580
0.000000 0.428844 0.564138
0.231131 0.439609 0.567252
0.378874 0.460110 0.570287
0.487465 0.452972 0.552274
0.623083 0.442486 0.482048
0.745899 0.422784 0.433159
0.919520 0.378034 0.350844
0.000000 0.510530 0.602326
0.000000 0.513930 0.602136
0.000000 0.520228 0.597893
0.228974 0.532925 0.589402
0.371831 0.549141 0.595628
0.451609 0.560591 0.590530
0.607374 0.543321 0.533409
0.762412 0.522340 0.460265
0.944896 0.483236 0.366739
0.000000 0.622201 0.627192
0.000000 0.625803 0.626978
0.000000 0.632528 0.626548
0.241815 0.645561 0.621812
0.377556 0.651328 0.614494
0.497795 0.656455 0.599700
0.644275 0.652464 0.550038
0.799877 0.633303 0.486491
0.971572 0.600972 0.379749
0.000000 0.766580 0.650047
0.000000 0.769958 0.649870
0.000000 0.775985 0.645658
0.184805 0.780736 0.633728
0.350713 0.781758 0.614232
0.488640 0.790953 0.590630
0.655608 0.790559 0.560151
0.826855 0.781301 0.494679
0.987205 0.765126 0.409068
0.000000 0.948504 0.749304
0.000000 0.949796 0.749468
0.000000 0.951868 0.749811
0.000000 0.954270 0.747213
0.276026 0.957031 0.748072
0.457614 0.962603 0.753131
0.626471 0.966390 0.755918
0.808606 0.970669 0.745727
0.983539 0.975433 0.732388
0.000000 0.129978 0.393371
0.000000 0.131777 0.396555
0.150450 0.134237 0.409466
0.263828 0.137860 0.436001
0.382289 0.142786 0.448879
0.478036 0.154916 0.458442
0.584179 0.158854 0.457670
0.696638 0.154856 0.439784
0.855715 0.149904 0.402590
0.000000 0.153946 0.419562
0.000000 0.156447 0.429714
0.138492 0.157463 0.436283
0.247393 0.166769 0.459965
0.378628 0.179764 0.472950
0.482568 0.182327 0.472118
0.585934 0.184988 0.471384
0.700174 0.178603 0.449859
0.859061 0.171859 0.405680
0.000000 0.240042 0.505273
0.000000 0.241687 0.508834
0.000000 0.243539 0.515906
0.229562 0.247444 0.526410
0.361686 0.260231 0.536432
0.482136 0.266229 0.531805
0.588687 0.258942 0.509406
0.708385 0.246063 0.476794
0.869118 0.219863 0.415054
0.000000 0.318667 0.572827
0.000000 0.321194 0.572704
0.000000 0.328317 0.579947
0.194032 0.342336 0.590620
0.342454 0.351388 0.589800
0.479741 0.364372 0.588635
0.595586 0.356424 0.554366
0.724618 0.340748 0.514171
0.894341 0.307673 0.443976
0.000000 0.416489 0.630124
0.000000 0.416247 0.630117
0.000000 0.425434 0.629619
0.165397 0.436609 0.628904
0.326523 0.449834 0.635679
0.464701 0.464965 0.636540
0.601418 0.456631 0.608248
0.740419 0.436860 0.537050
0.915299 0.402398 0.458715
0.000000 0.510456 0.668127
0.000000 0.510213 0.671995
0.000000 0.520188 0.671408
0.167659 0.533018 0.666726
0.350756 0.547789 0.665668
0.485153 0.562147 0.675610
0.609241 0.553290 0.653323
0.768203 0.529544 0.563474
0.942177 0.499708 0.469754
0.000000 0.618560 0.708165
0.000000 0.618435 0.708161
0.000000 0.625104 0.707709
0.144198 0.634540 0.703320
0.328855 0.650807 0.698478
0.482039 0.677826 0.701690
0.603376 0.675157 0.689090
0.788482 0.642709 0.605591
0.972727 0.613284 0.480770
0.000000 0.749321 0.725595
0.000000 0.749048 0.725590
0.000000 0.759216 0.724949
0.000000 0.775134 0.723950
0.280960 0.791725 0.719421
0.489630 0.802072 0.711734
0.622220 0.806395 0.693211
0.815238 0.804418 0.622921
0.985930 0.771314 0.497460
0.000000 0.946131 0.790283
0.000000 0.945981 0.790278
0.000000 0.948122 0.793063
0.000000 0.952082 0.793336
0.244630 0.959232 0.799187
0.442902 0.965629 0.800273
0.628249 0.968705 0.801776
0.814207 0.973961 0.789592
0.986908 0.976328 0.744451
0.000000 0.176495 0.481902
0.000000 0.177991 0.485417
0.074720 0.185064 0.506700
0.228441 0.184415 0.513473
0.350078 0.194171 0.538107
0.457518 0.193012 0.555699
0.567692 0.190846 0.547361
0.690420 0.180206 0.539251
0.837951 0.181703 0.520297
0.000000 0.192694 0.503104
0.000000 0.194362 0.506663
0.000000 0.200267 0.524584
0.223699 0.200798 0.524068
0.346617 0.206173 0.545270
0.453639 0.212428 0.566533
0.568948 0.209266 0.565584
0.693232 0.199313 0.546336
0.841124 0.196138 0.523744
0.000000 0.245492 0.556743
0.000000 0.245005 0.560461
0.000000 0.249606 0.571361
0.200478 0.257021 0.582164
0.326592 0.267226 0.592698
0.454179 0.280116 0.606733
0.569578 0.280182 0.605824
0.698683 0.266888 0.582393
0.850901 0.241242 0.541295
0.000000 0.323821 0.626383
0.000000 0.326441 0.630116
0.000000 0.330909 0.637538
0.132767 0.345430 0.648296
0.299040 0.355624 0.651296
0.438850 0.363198 0.654131
0.573680 0.375412 0.656666
0.708696 0.366500 0.629256
0.870616 0.337348 0.564979
0.000000 0.412818 0.684465
0.000000 0.412555 0.688322
0.000000 0.421753 0.691681
0.069356 0.429569 0.698779
0.284600 0.443212 0.705372
0.430427 0.454816 0.704263
0.591914 0.469745 0.706474
0.724438 0.461531 0.671882
0.906131 0.425603 0.588876
0.000000 0.499544 0.732668
0.000000 0.499252 0.732652
0.000000 0.505576 0.735770
0.000000 0.515000 0.738627
0.273668 0.530222 0.744407
0.439390 0.547371 0.739536
0.608632 0.569207 0.742241
0.764990 0.554036 0.710790
0.942549 0.518845 0.608858
0.000000 0.614919 0.778470
0.000000 0.614806 0.778463
0.000000 0.618061 0.781503
0.000000 0.628019 0.780748
0.232962 0.644219 0.779462
0.428655 0.658716 0.778094
0.616324 0.687074 0.781656
0.795749 0.673298 0.733725
0.973517 0.629256 0.617048
0.000000 0.752754 0.814843
0.000000 0.752622 0.814834
0.000000 0.762697 0.814094
0.000000 0.768414 0.816226
0.108653 0.779723 0.812565
0.427083 0.794104 0.808435
0.620658 0.821349 0.808452
0.804195 0.818040 0.767282
0.982969 0.791417 0.626273
0.000000 0.937490 0.845912
0.000000 0.940175 0.845850
0.000000 0.942229 0.845765
0.000000 0.946354 0.847774
0.000000 0.953018 0.849737
0.374246 0.964523 0.851944
0.624092 0.972830 0.850820
0.819240 0.976272 0.837213
0.991454 0.978655 0.775456
0.000000 0.239919 0.594780
0.000000 0.239523 0.598598
0.000000 0.245031 0.605986
0.120543 0.253352 0.624656
0.270354 0.254140 0.639465
0.403077 0.255114 0.661592
0.533762 0.260702 0.679479
0.677149 0.246300 0.670700
0.846591 0.197310 0.643372
0.000000 0.248947 0.602159
0.000000 0.248562 0.605984
0.000000 0.254241 0.617226
0.113327 0.260581 0.632133
0.275697 0.261445 0.643069
0.399121 0.266730 0.669021
0.541000 0.269125 0.686900
0.680052 0.256877 0.678140
0.845952 0.207924 0.647057
0.000000 0.277380 0.635840
0.000000 0.279677 0.639601
0.000000 0.286176 0.646979
0.071371 0.294020 0.661888
0.267734 0.293818 0.672931
0.392100 0.296473 0.691328
0.536450 0.305944 0.708886
0.682203 0.296948 0.703979
0.854396 0.261759 0.669089
0.000000 0.337532 0.683822
0.000000 0.340169 0.687563
0.000000 0.342040 0.695121
0.000000 0.351429 0.713565
0.248837 0.362572 0.720091
0.370958 0.363042 0.730397
0.528446 0.381971 0.742705
0.686971 0.386852 0.744609
0.871991 0.354267 0.708603
0.000000 0.419255 0.747154
0.000000 0.419110 0.747144
0.000000 0.425290 0.753670
0.000000 0.433731 0.763564
0.177300 0.444760 0.769795
0.360955 0.460659 0.782134
0.515219 0.466860 0.784228
0.695719 0.478756 0.788774
0.897558 0.447616 0.744546
0.000000 0.506964 0.794273
0.000000 0.506775 0.797442
0.000000 0.513389 0.800137
0.000000 0.523054 0.802532
0.122159 0.535501 0.807604
0.327936 0.546721 0.820891
0.520507 0.557844 0.824719
0.713195 0.572525 0.825154
0.930418 0.541782 0.771727
0.000000 0.604055 0.834813
0.000000 0.603957 0.834804
0.000000 0.611057 0.836889
0.000000 0.621203 0.841176
0.000000 0.630033 0.845241
0.343410 0.641436 0.848868
0.546135 0.661154 0.856110
0.762978 0.689221 0.848302
0.958429 0.663337 0.785781
0.000000 0.743055 0.872831
0.000000 0.742947 0.872821
0.000000 0.749877 0.872285
0.000000 0.759469 0.873513
0.000000 0.771217 0.876431
0.323435 0.786542 0.880803
0.529964 0.810677 0.880361
0.792360 0.834694 0.885034
0.980675 0.809590 0.794248
0.000000 0.936649 0.917635
0.000000 0.937956 0.917533
0.000000 0.940396 0.917324
0.000000 0.943710 0.917003
0.000000 0.949959 0.915022
0.178973 0.959834 0.914089
0.532061 0.968992 0.914448
0.815496 0.981112 0.912645
0.993267 0.982566 0.849487
0.000000 0.428280 0.833590
0.000000 0.431698 0.836100
0.000000 0.434657 0.838529
0.000000 0.444203 0.845730
0.000000 0.453498 0.855140
0.000000 0.465996 0.863915
0.303537 0.479816 0.878504
0.484316 0.494108 0.885177
0.709570 0.512496 0.898256
0.000000 0.435213 0.838590
0.000000 0.435126 0.838580
0.000000 0.441629 0.843422
0.000000 0.447769 0.850646
0.000000 0.460730 0.854806
0.000000 0.469660 0.868421
0.299708 0.483561 0.880502
0.482178 0.498030 0.887064
0.708344 0.516605 0.898082
0.000000 0.456161 0.850446
0.000000 0.456068 0.852940
0.000000 0.462773 0.855026
0.000000 0.469020 0.857030
0.000000 0.478664 0.863579
0.000000 0.487731 0.874343
0.305676 0.501786 0.885900
0.486097 0.513070 0.892354
0.721320 0.527473 0.904958
0.000000 0.488068 0.868131
0.000000 0.487972 0.868121
0.000000 0.491124 0.870186
0.000000 0.497678 0.874261
0.000000 0.507655 0.877987
0.000000 0.513035 0.885903
0.316402 0.531446 0.894483
0.491568 0.547349 0.902416
0.739840 0.553996 0.912241
0.000000 0.528133 0.883642
0.000000 0.528026 0.883630
0.000000 0.535166 0.885283
0.000000 0.538288 0.889117
0.000000 0.544738 0.892625
0.000000 0.557852 0.899615
0.317994 0.569287 0.907762
0.506466 0.585326 0.917698
0.787193 0.594416 0.922455
0.000000 0.588218 0.906098
0.000000 0.592084 0.907705
0.000000 0.591746 0.907667
0.000000 0.598888 0.910724
0.000000 0.601544 0.913806
0.000000 0.611118 0.919473
0.304110 0.619317 0.926250
0.520530 0.635241 0.934462
0.841253 0.650767 0.937532
0.000000 0.656604 0.931088
0.000000 0.656478 0.931074
0.000000 0.660091 0.930815
0.000000 0.663180 0.933395
0.000000 0.669749 0.934231
0.026514 0.671635 0.937974
0.315929 0.688103 0.941855
0.534363 0.705697 0.949716
0.883309 0.727913 0.954401
0.000000 0.766529 0.953607
0.000000 0.766388 0.953593
0.000000 0.769613 0.954453
0.000000 0.772644 0.955287
0.000000 0.778383 0.956911
0.000000 0.789830 0.959031
0.326411 0.798797 0.962837
0.593926 0.816254 0.968634
0.941352 0.839994 0.973134
0.000000 0.939417 0.986833
0.000000 0.940795 0.986724
0.000000 0.942018 0.987144
0.000000 0.944135 0.987936
0.000000 0.949711 0.988866
0.000000 0.957890 0.990385
0.326291 0.968129 0.992559
0.664749 0.975814 0.996277
0.990388 0.994188 1.000000
