Assets/Lutify-Free-LUTs-Pack/Lutify Free LUTs Pack/Commercial Pro - Claire/Lutify.me-Claire-BolexLog-to-Rec709.cube
# Created with: fylm.ai - Colour Grading and Collaboration Software in Cloud 
# Website: https://fylm.ai 
# META
# Option: Gamut compress
# Block 1: IDT | Bolex Wide Gamut RGB Bolex Log
# Block 2: colourMatch | Blending Mode: Normal | {"ColorSpace":0,"CrossCovarianceLimit":50,"ReshapingIterations":1,"PercentSaturationShift":100,"PercentShadingShift":100,"ExtraShading":true,"PercentTint":100,"PercentModified":100}
# Block 3: HSL | Blending Mode: Normal | {"hue":{"Reds":0,"Yellows":0,"Greens":0,"Cyans":0,"Blues":0,"Magentas":0},"saturation":{"Reds":1,"Yellows":1,"Greens":1,"Cyans":1,"Blues":1,"Magentas":1},"luminance":{"Reds":0.9,"Yellows":0.9,"Greens":0.9,"Cyans":0.8,"Blues":0.8,"Magentas":0.9},"lum_sat":{"Blacks":1,"Shadows":1,"Midtones":1,"Highlights":1,"Whites":1},"sat_sat":{"10":1,"20":1,"30":1,"40":1,"50":1}}
# Block 4: subtractiveColour | Blending Mode: Normal | {"sliders":{"gainY":0.1,"C":0.05,"M":0.05,"Y":0.05}}
# Block 5: logPrimaries | Blending Mode: Normal | {"wheels":{"shadows":{"Y":"0","R":"1","G":"1","B":"1"},"midtones":{"Y":"0","R":"1","G":"1","B":"1"},"highlights":{"Y":"0","R":"1","G":"1","B":"1"},"offset":{"Y":"0","R":"1","G":"1","B":"1"}},"sliders":{"shadows":{"Y":0,"R":-0.05,"G":0,"B":0.1},"midtones":{"Y":0,"R":0,"G":0,"B":0},"highlights":{"Y":0,"R":0,"G":0,"B":0},"offset":{"Y":0,"R":0,"G":0,"B":0}}}
# Block 6: LUT | Filmic Curve Response: Standard Contrast 1 (100%)
# Block 7: LUT | Illuminant: D93 (100%)
# Block 8: LUT | Neutral Tint: Teal Tint 4 (100%)
# Block 9: ODT | Rec709
TITLE "Lutify.me-Claire-BolexLog-to-Rec709" 
LUT_3D_SIZE 9
0.000000 0.000000 0.000000
0.104035 0.000000 0.000000
0.281858 0.000000 0.000000
0.426740 0.000000 0.000000
0.564779 0.000000 0.000000
0.812639 0.000000 0.022050
1.000000 0.000000 0.146055
1.000000 0.481894 0.329604
1.000000 0.771039 0.579327
0.000000 0.065120 0.000000
0.058809 0.052133 0.000000
0.205613 0.000000 0.000000
0.368406 0.000000 0.000000
0.552995 0.000000 0.000000
0.817198 0.000000 0.025767
1.000000 0.077708 0.146174
1.000000 0.485699 0.329337
1.000000 0.771039 0.579327
0.000000 0.152914 0.000000
0.000000 0.142123 0.000000
0.199426 0.116745 0.000000
0.360765 0.043926 0.000000
0.546296 0.000000 0.000000
0.816799 0.000000 0.027758
1.000000 0.138152 0.148443
1.000000 0.493299 0.331629
1.000000 0.773481 0.579295
0.000000 0.274277 0.000000
0.000000 0.268813 0.000000
0.137085 0.261998 0.000000
0.361478 0.231746 0.000000
0.562539 0.203336 0.000000
0.820305 0.089425 0.000000
1.000000 0.238600 0.156030
1.000000 0.516963 0.336440
1.000000 0.778801 0.583105
0.000000 0.473397 0.047886
0.000000 0.472813 0.000000
0.000000 0.478651 0.000000
0.218369 0.470578 0.000000
0.570051 0.446136 0.000000
0.827016 0.412530 0.000000
1.000000 0.392967 0.168548
1.000000 0.566947 0.348461
1.000000 0.791314 0.593839
0.000000 0.732161 0.301993
0.000000 0.731647 0.287335
0.000000 0.730878 0.276549
0.000000 0.735752 0.228474
0.480347 0.730796 0.149897
0.829592 0.700641 0.000000
0.988098 0.685895 0.212858
1.000000 0.694540 0.392508
1.000000 0.822387 0.614318
0.000000 0.916136 0.592661
0.000000 0.915838 0.588907
0.000000 0.915386 0.581393
0.143716 0.913551 0.562736
0.525776 0.908963 0.523229
0.772049 0.899046 0.461611
0.947919 0.885641 0.394043
1.000000 0.879769 0.506974
1.000000 0.882758 0.667643
0.664262 0.980379 0.832002
0.669048 0.980192 0.832002
0.673630 0.979250 0.831816
0.687510 0.978710 0.829705
0.730075 0.977732 0.821338
0.831282 0.973782 0.794860
0.923987 0.968075 0.754726
0.994587 0.961879 0.697479
1.000000 0.960691 0.777749
0.880185 1.000000 0.940836
0.880249 1.000000 0.939920
0.880249 1.000000 0.939920
0.883817 1.000000 0.939919
0.889106 1.000000 0.938998
0.907195 1.000000 0.935247
0.941311 0.999102 0.924453
0.980365 0.997371 0.909359
1.000000 0.995125 0.882532
0.000000 0.000000 0.066377
0.053701 0.000000 0.038066
0.225495 0.000000 0.000000
0.376378 0.000000 0.000000
0.544791 0.000000 0.000000
0.803131 0.000000 0.060861
1.000000 0.000000 0.157388
1.000000 0.478098 0.332688
1.000000 0.771039 0.579327
0.000000 0.051624 0.087320
0.030064 0.048874 0.078453
0.169121 0.000000 0.036596
0.331964 0.000000 0.000000
0.529128 0.000000 0.013101
0.812417 0.000000 0.063177
1.000000 0.077509 0.159702
1.000000 0.485679 0.335012
1.000000 0.771026 0.582394
0.000000 0.124618 0.130338
0.000000 0.149045 0.092223
0.144642 0.141727 0.049147
0.315466 0.098852 0.000000
0.530029 0.000000 0.014484
0.812009 0.000000 0.067703
1.000000 0.138455 0.161973
1.000000 0.493279 0.337363
1.000000 0.773468 0.582361
0.000000 0.253589 0.147707
0.000000 0.284968 0.097221
0.000000 0.280326 0.031441
0.308634 0.266703 0.000000
0.553781 0.219963 0.000000
0.819984 0.089890 0.070246
1.000000 0.238583 0.168910
1.000000 0.516946 0.342298
1.000000 0.778776 0.589242
0.000000 0.480463 0.199381
0.000000 0.479925 0.170971
0.000000 0.489532 0.126898
0.174784 0.481843 0.052102
0.551384 0.458635 0.000000
0.825610 0.420669 0.055322
1.000000 0.392984 0.186569
1.000000 0.570712 0.354363
1.000000 0.791302 0.596906
0.000000 0.739933 0.358509
0.000000 0.735584 0.347472
0.000000 0.734774 0.332165
0.000000 0.739812 0.275519
0.461721 0.735107 0.206881
0.819446 0.705258 0.110919
0.987733 0.685924 0.235964
1.000000 0.694120 0.398536
1.000000 0.822387 0.614318
0.000000 0.916064 0.611587
0.000000 0.915768 0.607826
0.000000 0.916988 0.600553
0.128325 0.915161 0.581864
0.515879 0.909149 0.545210
0.771316 0.898990 0.483034
0.947640 0.885615 0.407222
1.000000 0.879749 0.516495
1.000000 0.884257 0.667871
0.663897 0.980356 0.836169
0.668867 0.980181 0.834095
0.673575 0.979995 0.834096
0.687404 0.979457 0.832009
0.729739 0.977709 0.825676
0.830982 0.973758 0.799544
0.923858 0.968064 0.757204
0.994360 0.961857 0.702779
1.000000 0.960682 0.779739
0.880185 1.000000 0.940836
0.880185 1.000000 0.940836
0.880185 1.000000 0.940836
0.883817 1.000000 0.939919
0.889106 1.000000 0.938998
0.905661 1.000000 0.935243
0.941168 0.999374 0.925613
0.980365 0.997371 0.909359
1.000000 0.995118 0.883681
0.000000 0.000000 0.132278
0.000000 0.000000 0.077468
0.191563 0.000000 0.055427
0.358790 0.000000 0.042484
0.533539 0.000000 0.057404
0.793777 0.000000 0.087624
1.000000 0.000000 0.174983
1.000000 0.479055 0.341952
1.000000 0.771026 0.582394
0.000000 0.033125 0.136872
0.000000 0.029384 0.118824
0.151935 0.000000 0.101083
0.310539 0.000000 0.080940
0.521816 0.000000 0.069827
0.803011 0.000000 0.092906
1.000000 0.054004 0.175946
1.000000 0.486610 0.344363
1.000000 0.771000 0.588553
0.000000 0.123283 0.205457
0.000000 0.128594 0.217799
0.097265 0.141822 0.211150
0.294983 0.103459 0.139700
0.517953 0.000000 0.085168
0.802533 0.000000 0.097813
1.000000 0.138318 0.180422
1.000000 0.494196 0.343860
1.000000 0.773442 0.588519
0.000000 0.239458 0.286789
0.000000 0.259133 0.275683
0.000000 0.293585 0.249013
0.275017 0.285888 0.182531
0.533971 0.229770 0.115271
0.814841 0.095493 0.113518
1.000000 0.238547 0.186526
1.000000 0.516927 0.348242
1.000000 0.778763 0.592323
0.000000 0.448789 0.319495
0.000000 0.483506 0.304144
0.000000 0.500299 0.269766
0.038412 0.500365 0.214091
0.529761 0.474840 0.138486
0.823731 0.428875 0.129365
1.000000 0.392921 0.209810
1.000000 0.570697 0.360608
1.000000 0.791289 0.599981
0.000000 0.739960 0.421468
0.000000 0.743338 0.410098
0.000000 0.746299 0.395114
0.000000 0.743622 0.354948
0.445536 0.742879 0.279631
0.816068 0.713244 0.186180
0.984341 0.689910 0.264857
1.000000 0.694109 0.404902
1.000000 0.822375 0.617443
0.000000 0.915959 0.638100
0.000000 0.917349 0.630767
0.000000 0.916886 0.627019
0.000000 0.915259 0.604483
0.512897 0.910723 0.571632
0.769678 0.900623 0.504978
0.946334 0.887309 0.434323
1.000000 0.881407 0.526548
1.000000 0.884234 0.673859
0.663536 0.980334 0.840261
0.668507 0.980158 0.838225
0.673218 0.979972 0.838224
0.691454 0.979254 0.836174
0.729407 0.977686 0.829942
0.830145 0.974473 0.808993
0.923447 0.968028 0.765022
0.993768 0.962637 0.708719
1.000000 0.960664 0.783922
0.878311 1.000000 0.941743
0.880121 1.000000 0.941742
0.880121 1.000000 0.941742
0.881977 1.000000 0.940835
0.889042 1.000000 0.939918
0.905595 1.000000 0.936200
0.941100 0.999368 0.926651
0.980294 0.997365 0.910496
1.000000 0.995118 0.883681
0.000000 0.000000 0.176960
0.000000 0.000000 0.118969
0.144325 0.000000 0.092806
0.350979 0.000000 0.072985
0.511444 0.000000 0.113243
0.804610 0.000000 0.158175
1.000000 0.000000 0.221938
1.000000 0.481754 0.364929
1.000000 0.770973 0.594743
0.000000 0.030280 0.190388
0.000000 0.031668 0.169550
0.110327 0.000000 0.165486
0.297485 0.000000 0.131106
0.498381 0.000000 0.158704
0.794732 0.000000 0.170033
1.000000 0.053694 0.223543
1.000000 0.486526 0.365356
1.000000 0.770973 0.594743
0.000000 0.100637 0.255573
0.000000 0.101679 0.262160
0.000000 0.102688 0.275538
0.277496 0.055359 0.253613
0.500198 0.000000 0.199687
0.788992 0.000000 0.180285
1.000000 0.128709 0.227298
1.000000 0.494102 0.367988
1.000000 0.773402 0.597814
0.000000 0.231087 0.363642
0.000000 0.247773 0.386210
0.000000 0.262696 0.402525
0.225595 0.290532 0.391350
0.503447 0.240375 0.286963
0.790378 0.116187 0.205976
1.000000 0.238373 0.243882
1.000000 0.516840 0.372830
1.000000 0.778736 0.598508
0.000000 0.430927 0.497173
0.000000 0.444406 0.496523
0.000000 0.471763 0.480481
0.000000 0.511811 0.452891
0.494655 0.507232 0.376875
0.816688 0.441849 0.264380
1.000000 0.397142 0.270035
1.000000 0.569879 0.391839
1.000000 0.791263 0.606185
0.000000 0.708497 0.540623
0.000000 0.720199 0.536079
0.000000 0.735225 0.531349
0.000000 0.761882 0.503190
0.389353 0.758235 0.439758
0.798746 0.729217 0.352834
0.981981 0.701777 0.333127
1.000000 0.701321 0.433401
1.000000 0.822337 0.626861
0.000000 0.914341 0.689616
0.000000 0.915582 0.689759
0.000000 0.916634 0.686376
0.000000 0.918066 0.672418
0.489842 0.912667 0.624379
0.770440 0.901880 0.567137
0.944240 0.888898 0.488829
1.000000 0.883001 0.552802
1.000000 0.884199 0.682769
0.662489 0.980267 0.852068
0.662489 0.980267 0.852068
0.672180 0.979906 0.850145
0.690438 0.979187 0.848203
0.728566 0.978386 0.840451
0.832057 0.974257 0.822258
0.922274 0.968736 0.780550
0.992496 0.963342 0.729834
1.000000 0.961392 0.790585
0.878187 1.000000 0.943528
0.878248 1.000000 0.942639
0.880058 1.000000 0.942638
0.881851 1.000000 0.942637
0.888915 1.000000 0.941739
0.905464 1.000000 0.938157
0.939781 0.999428 0.928687
0.980839 0.997308 0.912790
1.000000 0.995082 0.887234
0.000000 0.000000 0.206432
0.000000 0.000000 0.178978
0.093990 0.000000 0.171030
0.287272 0.000000 0.145938
0.542644 0.000000 0.113141
0.765574 0.000000 0.273414
1.000000 0.000000 0.327293
1.000000 0.481406 0.430854
1.000000 0.770857 0.620073
0.000000 0.044477 0.254428
0.000000 0.045005 0.244907
0.000000 0.040633 0.240112
0.251160 0.000000 0.235364
0.486039 0.000000 0.190122
0.766146 0.000000 0.295641
1.000000 0.000000 0.329771
1.000000 0.485201 0.433804
1.000000 0.770841 0.623286
0.000000 0.085241 0.308214
0.000000 0.089800 0.308141
0.000000 0.089315 0.321419
0.225260 0.054406 0.337054
0.488924 0.000000 0.288207
0.762057 0.000000 0.325169
1.000000 0.124545 0.337882
1.000000 0.492831 0.433438
1.000000 0.773286 0.623244
0.000000 0.207268 0.428242
0.000000 0.213501 0.448932
0.000000 0.216892 0.466494
0.115019 0.227524 0.498138
0.495392 0.185111 0.464921
0.778382 0.072312 0.386366
1.000000 0.242214 0.360532
1.000000 0.515655 0.441795
1.000000 0.778085 0.626389
0.000000 0.406514 0.607539
0.000000 0.423342 0.610628
0.000000 0.433092 0.629515
0.000000 0.465556 0.643339
0.434883 0.511003 0.641969
0.782815 0.460762 0.517631
1.000000 0.405219 0.405045
1.000000 0.569625 0.458873
1.000000 0.790188 0.633392
0.000000 0.688438 0.733106
0.000000 0.695800 0.732648
0.000000 0.699326 0.732407
0.000000 0.725270 0.720196
0.260003 0.776076 0.702515
0.758152 0.766030 0.632821
0.972272 0.709630 0.503009
1.000000 0.701562 0.500226
1.000000 0.821860 0.654815
0.000000 0.901308 0.781435
0.000000 0.902857 0.781383
0.000000 0.904106 0.778373
0.000000 0.911076 0.778226
0.459772 0.920149 0.769404
0.750502 0.909819 0.709388
0.933214 0.898435 0.634875
1.000000 0.884468 0.616467
1.000000 0.883968 0.705538
0.650300 0.979756 0.875389
0.655302 0.979566 0.875382
0.660395 0.980132 0.875449
0.683830 0.979221 0.873701
0.726307 0.978975 0.868567
0.826759 0.975738 0.852816
0.916669 0.972382 0.820500
0.990594 0.965456 0.767348
1.000000 0.961330 0.804885
0.876209 1.000000 0.947067
0.876209 1.000000 0.947067
0.876209 1.000000 0.947067
0.879825 1.000000 0.947063
0.886934 1.000000 0.946198
0.905089 1.000000 0.943583
0.939255 0.999938 0.934781
0.979621 0.997587 0.919453
1.000000 0.995325 0.894428
0.000000 0.049376 0.319422
0.000000 0.047227 0.316707
0.000000 0.040811 0.313913
0.187669 0.000000 0.318220
0.451293 0.000000 0.281194
0.755274 0.000000 0.228984
1.000000 0.000000 0.499119
1.000000 0.473439 0.565799
1.000000 0.768660 0.679039
0.000000 0.079627 0.368401
0.000000 0.080943 0.377874
0.000000 0.077873 0.381063
0.143818 0.060703 0.390545
0.434693 0.000000 0.371892
0.740037 0.000000 0.311681
1.000000 0.000000 0.509438
1.000000 0.482096 0.565840
1.000000 0.768642 0.682224
0.000000 0.116631 0.417164
0.000000 0.115872 0.430848
0.000000 0.116234 0.441164
0.078259 0.111429 0.451322
0.422890 0.000000 0.456418
0.744719 0.000000 0.394457
1.000000 0.000000 0.523355
1.000000 0.489781 0.569035
1.000000 0.771099 0.682160
0.000000 0.190627 0.510577
0.000000 0.188215 0.517970
0.000000 0.193763 0.532506
0.000000 0.199445 0.550674
0.402242 0.170401 0.590479
0.762787 0.000000 0.518504
1.000000 0.143643 0.562281
1.000000 0.512821 0.578674
1.000000 0.775923 0.685208
0.000000 0.370248 0.671082
0.000000 0.379417 0.682307
0.000000 0.382254 0.693787
0.000000 0.393889 0.716014
0.292289 0.421243 0.746077
0.774165 0.386939 0.722802
1.000000 0.370709 0.629780
1.000000 0.576224 0.605725
1.000000 0.790828 0.695317
0.000000 0.646568 0.825027
0.000000 0.650225 0.827436
0.000000 0.657633 0.829576
0.000000 0.679264 0.840808
0.000000 0.720685 0.847040
0.714201 0.769655 0.851483
0.949133 0.731597 0.763864
1.000000 0.704536 0.651768
1.000000 0.823595 0.722330
0.000000 0.890840 0.893529
0.000000 0.890545 0.893505
0.000000 0.892137 0.891614
0.000000 0.894750 0.889487
0.188392 0.903850 0.889763
0.707245 0.916412 0.882331
0.918426 0.911208 0.843960
1.000000 0.891922 0.766413
1.000000 0.885205 0.765198
0.542415 0.976585 0.915608
0.549389 0.976378 0.915593
0.576033 0.975550 0.915536
0.601345 0.976371 0.915463
0.680057 0.976659 0.915270
0.807221 0.978939 0.912542
0.911162 0.974745 0.890609
0.985381 0.968630 0.852370
1.000000 0.962642 0.845229
0.869802 1.000000 0.959863
0.871660 1.000000 0.959858
0.871660 1.000000 0.959858
0.875467 1.000000 0.959134
0.880906 1.000000 0.958372
0.899603 1.000000 0.956124
0.937107 1.000000 0.948173
0.978543 0.997768 0.934625
1.000000 0.995485 0.912591
0.000000 0.138547 0.548719
0.000000 0.139467 0.552365
0.000000 0.139684 0.563455
0.000000 0.130116 0.559590
0.316481 0.097105 0.584681
0.702135 0.000000 0.559342
0.983785 0.000000 0.474592
1.000000 0.404958 0.753401
1.000000 0.769647 0.797394
0.000000 0.157610 0.578206
0.000000 0.159035 0.578132
0.000000 0.159742 0.585663
0.000000 0.154097 0.593153
0.300641 0.130031 0.611220
0.694104 0.000000 0.600594
0.987281 0.000000 0.513251
1.000000 0.408869 0.756457
1.000000 0.769647 0.797394
0.000000 0.185115 0.608129
0.000000 0.184609 0.611952
0.000000 0.183680 0.615750
0.000000 0.184839 0.630868
0.279443 0.165826 0.645413
0.694088 0.000000 0.646139
0.988564 0.000000 0.563657
1.000000 0.424657 0.762650
1.000000 0.772081 0.799800
0.000000 0.233726 0.664570
0.000000 0.237846 0.668281
0.000000 0.239407 0.675915
0.000000 0.242071 0.687253
0.226874 0.234481 0.705793
0.691067 0.136235 0.728508
0.995802 0.000000 0.653212
1.000000 0.449111 0.771929
1.000000 0.776930 0.799571
0.000000 0.341707 0.750812
0.000000 0.344372 0.754144
0.000000 0.346967 0.760845
0.000000 0.354693 0.774649
0.066899 0.358081 0.797470
0.671005 0.337409 0.818460
1.000000 0.207149 0.773688
1.000000 0.517156 0.800411
1.000000 0.790909 0.806298
0.000000 0.600233 0.871664
0.000000 0.600084 0.873848
0.000000 0.603677 0.875776
0.000000 0.618251 0.883235
0.000000 0.638260 0.893696
0.572268 0.671412 0.909014
0.954846 0.671712 0.895364
1.000000 0.682325 0.842134
1.000000 0.827013 0.824180
0.000000 0.863478 0.934336
0.000000 0.863184 0.934309
0.000000 0.865390 0.935387
0.000000 0.869286 0.937465
0.000000 0.883353 0.941782
0.532379 0.896983 0.945606
0.897231 0.914443 0.946486
0.993017 0.899130 0.911057
1.000000 0.887852 0.853895
0.343780 0.972706 0.964091
0.356670 0.973409 0.964012
0.389179 0.972838 0.963963
0.428481 0.972949 0.964630
0.531380 0.974761 0.964125
0.723500 0.972780 0.963260
0.894301 0.977580 0.961997
0.975872 0.974682 0.945243
1.000000 0.966619 0.910831
0.841532 1.000000 0.976214
0.841532 1.000000 0.976214
0.843796 1.000000 0.976203
0.847998 1.000000 0.976188
0.856405 1.000000 0.976155
0.883082 1.000000 0.976065
0.931502 1.000000 0.975423
0.974584 0.998959 0.965791
1.000000 0.997134 0.949269
0.000000 0.280619 0.801035
0.000000 0.280063 0.800980
0.000000 0.282254 0.804076
0.000000 0.283209 0.810165
0.247508 0.273785 0.809662
0.547839 0.246327 0.833698
0.961143 0.000000 0.819032
1.000000 0.000000 0.747808
1.000000 0.718920 0.906291
0.000000 0.288733 0.807184
0.000000 0.290983 0.807034
0.000000 0.290477 0.810142
0.000000 0.291574 0.816063
0.237912 0.285261 0.818508
0.545046 0.260212 0.838778
0.962430 0.000000 0.829837
1.000000 0.000000 0.760680
1.000000 0.721893 0.906130
0.000000 0.302710 0.816022
0.000000 0.302176 0.818998
0.000000 0.304601 0.821834
0.000000 0.305966 0.824513
0.222944 0.300037 0.832510
0.536018 0.278498 0.846268
0.959684 0.102781 0.842471
1.000000 0.000000 0.780489
1.000000 0.724787 0.907495
0.000000 0.337825 0.843001
0.000000 0.337468 0.842960
0.000000 0.339954 0.845416
0.000000 0.341690 0.850340
0.188671 0.342760 0.859635
0.520040 0.320868 0.862666
0.955504 0.228349 0.870126
1.000000 0.103421 0.810443
1.000000 0.731365 0.908695
0.000000 0.422236 0.873886
0.000000 0.425516 0.873701
0.000000 0.425224 0.875942
0.000000 0.431206 0.877747
0.000000 0.427862 0.890309
0.473975 0.420600 0.896684
0.946537 0.382890 0.907495
1.000000 0.326169 0.867878
1.000000 0.750789 0.913519
0.000000 0.564493 0.915027
0.000000 0.564397 0.916717
0.000000 0.567954 0.916478
0.000000 0.571092 0.919501
0.000000 0.576338 0.926741
0.410646 0.593436 0.937547
0.912223 0.588290 0.943881
1.000000 0.553940 0.921666
1.000000 0.794001 0.924937
0.000000 0.829692 0.960559
0.000000 0.829544 0.960543
0.000000 0.832089 0.961322
0.000000 0.834160 0.962046
0.000000 0.839911 0.965071
0.166315 0.850588 0.967699
0.822453 0.866754 0.974652
0.998267 0.868914 0.968385
1.000000 0.877235 0.944669
0.000000 0.964208 0.985186
0.000000 0.965130 0.985617
0.000000 0.964842 0.985590
0.000000 0.965304 0.985449
0.000000 0.966280 0.986045
0.572720 0.967147 0.987153
0.835923 0.967907 0.988972
0.966597 0.976606 0.989003
1.000000 0.970276 0.974626
0.786614 1.000000 0.996157
0.789362 1.000000 0.996146
0.789362 1.000000 0.996146
0.794761 1.000000 0.996125
0.807925 1.000000 0.996349
0.838336 0.999913 0.996448
0.897164 0.998955 0.996054
0.967223 0.999828 0.995493
1.000000 0.999158 0.989363
0.098150 0.491093 0.944125
0.124930 0.490894 0.944102
0.163392 0.490485 0.944056
0.212561 0.493348 0.943785
0.337497 0.493830 0.946041
0.499726 0.482397 0.946808
0.824514 0.464863 0.954217
1.000000 0.439462 0.952905
1.000000 0.443242 0.915653
0.079952 0.494799 0.943950
0.112777 0.494603 0.943927
0.146436 0.497953 0.943704
0.206379 0.497157 0.945018
0.331217 0.501527 0.947069
0.497873 0.486327 0.948005
0.823592 0.469106 0.954065
1.000000 0.448506 0.953842
1.000000 0.449189 0.917024
0.000000 0.502368 0.945001
0.076779 0.502176 0.944978
0.135511 0.501778 0.944933
0.219022 0.504353 0.946005
0.324626 0.509241 0.948076
0.500337 0.493823 0.948980
0.821622 0.477644 0.954998
1.000000 0.457580 0.955940
1.000000 0.457957 0.919820
0.000000 0.521222 0.946833
0.000000 0.521079 0.948177
0.088934 0.520695 0.948133
0.185976 0.523548 0.949182
0.315116 0.528372 0.951139
0.496871 0.513264 0.953324
0.810547 0.503787 0.960073
1.000000 0.488887 0.959493
1.000000 0.483833 0.926443
0.000000 0.567394 0.952471
0.000000 0.567271 0.953728
0.000000 0.566928 0.953689
0.000000 0.569925 0.954648
0.267016 0.571242 0.956633
0.479748 0.568210 0.961618
0.793078 0.550581 0.964952
1.000000 0.554302 0.967624
1.000000 0.535770 0.939787
0.000000 0.656202 0.967239
0.000000 0.659919 0.966996
0.000000 0.659506 0.967984
0.000000 0.658698 0.967893
0.080998 0.664771 0.969280
0.425807 0.674646 0.973526
0.751664 0.670476 0.975774
1.000000 0.680661 0.981961
1.000000 0.661685 0.961765
0.000000 0.802774 0.980326
0.000000 0.802632 0.980312
0.000000 0.802489 0.980297
0.000000 0.805102 0.980825
0.000000 0.806708 0.982008
0.326760 0.808058 0.984822
0.718183 0.818843 0.988544
0.982772 0.828944 0.990975
1.000000 0.816819 0.981126
0.000000 0.944876 0.996369
0.000000 0.944715 0.996354
0.000000 0.944552 0.996339
0.000000 0.945342 0.996598
0.109928 0.945404 0.996787
0.433760 0.946500 0.997215
0.714670 0.947676 0.998152
0.937908 0.954526 0.999851
1.000000 0.955787 0.997949
0.659012 0.999246 1.000000
0.663177 0.999089 1.000000
0.663177 0.999089 1.000000
0.671052 0.998788 1.000000
0.690912 0.998471 1.000000
0.731358 0.998142 1.000000
0.836093 0.996944 1.000000
0.941172 0.997484 1.000000
0.996905 0.999612 1.000000
