Assets/Lutify-Free-LUTs-Pack/Lutify Free LUTs Pack/Commercial Pro - Claire/Lutify.me-Claire-SLog3CineVenice-to-Rec709.cube
# Created with: fylm.ai - Colour Grading and Collaboration Software in Cloud 
# Website: https://fylm.ai 
# META
# Option: Gamut compress
# Block 1: IDT | Sony Venice S-Log3 S-Gamut3.Cine
# Block 2: colourMatch | Blending Mode: Normal | {"ColorSpace":0,"CrossCovarianceLimit":50,"ReshapingIterations":1,"PercentSaturationShift":100,"PercentShadingShift":100,"ExtraShading":true,"PercentTint":100,"PercentModified":100}
# Block 3: HSL | Blending Mode: Normal | {"hue":{"Reds":0,"Yellows":0,"Greens":0,"Cyans":0,"Blues":0,"Magentas":0},"saturation":{"Reds":1,"Yellows":1,"Greens":1,"Cyans":1,"Blues":1,"Magentas":1},"luminance":{"Reds":0.9,"Yellows":0.9,"Greens":0.9,"Cyans":0.8,"Blues":0.8,"Magentas":0.9},"lum_sat":{"Blacks":1,"Shadows":1,"Midtones":1,"Highlights":1,"Whites":1},"sat_sat":{"10":1,"20":1,"30":1,"40":1,"50":1}}
# Block 4: subtractiveColour | Blending Mode: Normal | {"sliders":{"gainY":0.1,"C":0.05,"M":0.05,"Y":0.05}}
# Block 5: logPrimaries | Blending Mode: Normal | {"wheels":{"shadows":{"Y":"0","R":"1","G":"1","B":"1"},"midtones":{"Y":"0","R":"1","G":"1","B":"1"},"highlights":{"Y":"0","R":"1","G":"1","B":"1"},"offset":{"Y":"0","R":"1","G":"1","B":"1"}},"sliders":{"shadows":{"Y":0,"R":-0.05,"G":0,"B":0.1},"midtones":{"Y":0,"R":0,"G":0,"B":0},"highlights":{"Y":0,"R":0,"G":0,"B":0},"offset":{"Y":0,"R":0,"G":0,"B":0}}}
# Block 6: LUT | Filmic Curve Response: Standard Contrast 1 (100%)
# Block 7: LUT | Illuminant: D93 (100%)
# Block 8: LUT | Neutral Tint: Teal Tint 4 (100%)
# Block 9: ODT | Rec709
TITLE "Lutify.me-Claire-SLog3CineVenice-to-Rec709" 
LUT_3D_SIZE 33
0.000000 0.000000 0.000000
0.000000 0.000000 0.000000
0.061549 0.000000 0.000000
0.000000 0.000000 0.012954
0.053906 0.000000 0.000000
0.119488 0.000000 0.000000
0.181930 0.000000 0.000000
0.251503 0.000000 0.000000
0.308569 0.000000 0.000000
0.370080 0.000000 0.000000
0.426530 0.000000 0.000000
0.481699 0.000000 0.000000
0.519291 0.000000 0.000000
0.559629 0.000000 0.000000
0.597071 0.000000 0.000000
0.631081 0.000000 0.000000
0.665658 0.000000 0.000000
0.709344 0.000000 0.000000
0.764981 0.000000 0.000000
0.841337 0.000000 0.000000
0.902600 0.000000 0.000000
0.969422 0.000000 0.000000
1.000000 0.000000 0.037370
1.000000 0.000000 0.075569
1.000000 0.000000 0.113365
1.000000 0.224618 0.152634
1.000000 0.339419 0.198843
1.000000 0.437261 0.250560
1.000000 0.522363 0.306681
1.000000 0.610525 0.374251
1.000000 0.690071 0.449510
1.000000 0.754712 0.514328
1.000000 0.806956 0.581426
0.000000 0.000000 0.000000
0.000000 0.000000 0.000000
0.082865 0.000000 0.000000
0.000000 0.000000 0.007979
0.051612 0.000000 0.000000
0.113989 0.000000 0.000000
0.169406 0.000000 0.000000
0.231678 0.000000 0.000000
0.283980 0.000000 0.000000
0.348932 0.000000 0.000000
0.401676 0.000000 0.000000
0.453226 0.000000 0.000000
0.496614 0.000000 0.000000
0.531345 0.000000 0.000000
0.580448 0.000000 0.000000
0.614187 0.000000 0.000000
0.661407 0.000000 0.000000
0.700639 0.000000 0.000000
0.764987 0.000000 0.000000
0.841302 0.000000 0.000000
0.902544 0.000000 0.000000
0.969363 0.000000 0.000000
1.000000 0.000000 0.034764
1.000000 0.000000 0.074955
1.000000 0.000000 0.112858
1.000000 0.230389 0.152129
1.000000 0.343451 0.198430
1.000000 0.437261 0.250560
1.000000 0.522355 0.309072
1.000000 0.613763 0.374021
1.000000 0.692833 0.449372
1.000000 0.754712 0.514328
1.000000 0.806956 0.581426
0.000000 0.000000 0.000000
0.000000 0.000000 0.000000
0.000000 0.000000 0.000000
0.000000 0.000000 0.000000
0.050185 0.000000 0.000000
0.109563 0.000000 0.000000
0.160741 0.000000 0.000000
0.215268 0.000000 0.000000
0.268532 0.000000 0.000000
0.325547 0.000000 0.000000
0.378486 0.000000 0.000000
0.420297 0.000000 0.000000
0.467413 0.000000 0.000000
0.515686 0.000000 0.000000
0.568187 0.000000 0.000000
0.610051 0.000000 0.000000
0.652867 0.000000 0.000000
0.709400 0.000000 0.000000
0.764994 0.000000 0.000000
0.841272 0.000000 0.000000
0.898280 0.000000 0.000000
0.969177 0.000000 0.000000
1.000000 0.000000 0.036319
1.000000 0.000000 0.074321
1.000000 0.000000 0.112337
1.000000 0.230389 0.152129
1.000000 0.343451 0.198430
1.000000 0.437261 0.250560
1.000000 0.525790 0.308778
1.000000 0.613763 0.374021
1.000000 0.692833 0.449372
1.000000 0.754712 0.514328
1.000000 0.806956 0.581426
0.000000 0.016046 0.000000
0.000000 0.012288 0.000000
0.000000 0.006594 0.000000
0.000000 0.000000 0.000000
0.033920 0.000000 0.000000
0.088862 0.000000 0.000000
0.140374 0.000000 0.000000
0.196534 0.000000 0.000000
0.251810 0.000000 0.000000
0.304067 0.000000 0.000000
0.359538 0.000000 0.000000
0.401913 0.000000 0.000000
0.446705 0.000000 0.000000
0.496976 0.000000 0.000000
0.556021 0.000000 0.000000
0.597535 0.000000 0.000000
0.652933 0.000000 0.000000
0.700712 0.000000 0.000000
0.765000 0.000000 0.000000
0.836543 0.000000 0.000000
0.898218 0.000000 0.000000
0.969112 0.000000 0.000000
1.000000 0.000000 0.033406
1.000000 0.000000 0.074898
1.000000 0.000000 0.111801
1.000000 0.237432 0.156368
1.000000 0.343451 0.198430
1.000000 0.440873 0.250202
1.000000 0.525790 0.308778
1.000000 0.613763 0.374021
1.000000 0.692833 0.449372
1.000000 0.754712 0.514328
1.000000 0.806956 0.581426
0.000000 0.052174 0.000000
0.000000 0.050204 0.000000
0.000000 0.048248 0.000000
0.000000 0.047115 0.000000
0.000000 0.041322 0.000000
0.064872 0.026304 0.000000
0.117943 0.000000 0.000000
0.169235 0.000000 0.000000
0.223914 0.000000 0.000000
0.284279 0.000000 0.000000
0.338686 0.000000 0.000000
0.387454 0.000000 0.000000
0.430351 0.000000 0.000000
0.486021 0.000000 0.000000
0.548002 0.000000 0.000000
0.593465 0.000000 0.000000
0.648689 0.000000 0.000000
0.700752 0.000000 0.000000
0.765004 0.000000 0.000000
0.836508 0.000000 0.000000
0.902290 0.000000 0.000000
0.968979 0.000000 0.000000
1.000000 0.000000 0.031750
1.000000 0.000000 0.074224
1.000000 0.051739 0.110687
1.000000 0.237432 0.156368
1.000000 0.347469 0.198010
1.000000 0.440873 0.250202
1.000000 0.525790 0.308778
1.000000 0.613763 0.374021
1.000000 0.692833 0.449372
1.000000 0.757136 0.514278
1.000000 0.808905 0.581459
0.000000 0.074111 0.000000
0.000000 0.072163 0.000000
0.000000 0.070336 0.000000
0.000000 0.066071 0.000000
0.000000 0.061984 0.000000
0.054757 0.055705 0.000000
0.102339 0.041702 0.000000
0.158848 0.000000 0.000000
0.205611 0.000000 0.000000
0.265184 0.000000 0.000000
0.321327 0.000000 0.000000
0.376362 0.000000 0.000000
0.424102 0.000000 0.000000
0.478840 0.000000 0.000000
0.544085 0.000000 0.000000
0.589397 0.000000 0.000000
0.644460 0.000000 0.000000
0.696438 0.000000 0.000000
0.765008 0.000000 0.000000
0.836469 0.000000 0.000000
0.902219 0.000000 0.000000
0.968839 0.000000 0.000000
1.000000 0.000000 0.027879
1.000000 0.000000 0.073528
1.000000 0.051739 0.110687
1.000000 0.247819 0.155407
1.000000 0.347469 0.198010
1.000000 0.440873 0.250202
1.000000 0.529228 0.308482
1.000000 0.613763 0.374021
1.000000 0.692833 0.449372
1.000000 0.757136 0.514278
1.000000 0.808905 0.581459
0.000000 0.097355 0.000000
0.000000 0.096082 0.000000
0.000000 0.092554 0.000000
0.000000 0.089087 0.000000
0.000000 0.083541 0.000000
0.040075 0.077243 0.000000
0.096283 0.070112 0.000000
0.152161 0.049777 0.000000
0.200855 0.000000 0.000000
0.259225 0.000000 0.000000
0.309766 0.000000 0.000000
0.365900 0.000000 0.000000
0.414996 0.000000 0.000000
0.471872 0.000000 0.000000
0.540244 0.000000 0.000000
0.585368 0.000000 0.000000
0.644541 0.000000 0.000000
0.696490 0.000000 0.000000
0.765013 0.000000 0.000000
0.831715 0.000000 0.000000
0.902145 0.000000 0.000000
0.968695 0.000000 0.000000
1.000000 0.000000 0.025540
1.000000 0.000000 0.072807
1.000000 0.076352 0.110106
1.000000 0.252866 0.154916
1.000000 0.351475 0.197583
1.000000 0.444484 0.249841
1.000000 0.529228 0.308482
1.000000 0.613763 0.374021
1.000000 0.692833 0.449372
1.000000 0.757136 0.514278
1.000000 0.808905 0.581459
0.000000 0.122409 0.000000
0.000000 0.120873 0.000000
0.000000 0.119331 0.000000
0.000000 0.115015 0.000000
0.000000 0.110716 0.000000
0.000000 0.104682 0.000000
0.092522 0.096040 0.000000
0.150020 0.083099 0.000000
0.201252 0.062678 0.000000
0.259627 0.000000 0.000000
0.305656 0.000000 0.000000
0.355992 0.000000 0.000000
0.409426 0.000000 0.000000
0.468696 0.000000 0.000000
0.528502 0.000000 0.000000
0.581434 0.000000 0.000000
0.640416 0.000000 0.000000
0.692238 0.000000 0.000000
0.760255 0.000000 0.000000
0.831630 0.000000 0.000000
0.901989 0.000000 0.000000
0.968465 0.000000 0.000000
1.000000 0.000000 0.022991
1.000000 0.000000 0.071290
1.000000 0.107014 0.110835
1.000000 0.257846 0.154415
1.000000 0.351475 0.197583
1.000000 0.444484 0.249841
1.000000 0.529228 0.308482
1.000000 0.617006 0.373790
1.000000 0.692833 0.449372
1.000000 0.757136 0.514278
1.000000 0.808905 0.581459
0.000000 0.154109 0.000000
0.000000 0.150787 0.000000
0.000000 0.147524 0.000000
0.000000 0.144345 0.000000
0.000000 0.141070 0.000000
0.000000 0.134629 0.000000
0.075293 0.127273 0.000000
0.141820 0.119223 0.000000
0.196588 0.105342 0.000000
0.259611 0.079738 0.000000
0.306380 0.040540 0.000000
0.359668 0.000000 0.000000
0.407458 0.000000 0.000000
0.459101 0.000000 0.000000
0.529072 0.000000 0.000000
0.581728 0.000000 0.000000
0.632124 0.000000 0.000000
0.696693 0.000000 0.000000
0.765025 0.000000 0.000000
0.831534 0.000000 0.000000
0.901730 0.000000 0.000000
0.968138 0.000000 0.000000
1.000000 0.000000 0.009628
1.000000 0.000000 0.071744
1.000000 0.129387 0.109586
1.000000 0.262761 0.153905
1.000000 0.359447 0.196710
1.000000 0.451700 0.251487
1.000000 0.532670 0.308183
1.000000 0.616998 0.376454
1.000000 0.695583 0.449237
1.000000 0.757136 0.514278
1.000000 0.808905 0.581459
0.000000 0.186672 0.000000
0.000000 0.182705 0.000000
0.000000 0.178811 0.000000
0.000000 0.176844 0.000000
0.000000 0.174774 0.000000
0.000000 0.167046 0.000000
0.000000 0.162344 0.000000
0.127392 0.154722 0.000000
0.187033 0.145681 0.000000
0.256177 0.126096 0.000000
0.309254 0.102238 0.000000
0.358769 0.075429 0.000000
0.406285 0.000000 0.000000
0.467783 0.000000 0.000000
0.526549 0.000000 0.000000
0.578498 0.000000 0.000000
0.636744 0.000000 0.000000
0.696888 0.000000 0.000000
0.765028 0.000000 0.000000
0.831403 0.000000 0.000000
0.901439 0.000000 0.000000
0.967782 0.000000 0.000000
1.000000 0.000000 0.007648
1.000000 0.000000 0.071331
1.000000 0.147964 0.112276
1.000000 0.272416 0.154745
1.000000 0.363412 0.198318
1.000000 0.455312 0.251118
1.000000 0.536117 0.307882
1.000000 0.620246 0.376224
1.000000 0.695583 0.449237
1.000000 0.759542 0.514232
1.000000 0.808905 0.581459
0.000000 0.220466 0.000000
0.000000 0.218119 0.000000
0.000000 0.213624 0.000000
0.000000 0.211316 0.000000
0.000000 0.211147 0.000000
0.000000 0.202254 0.000000
0.000000 0.199338 0.000000
0.096548 0.191388 0.000000
0.176543 0.183518 0.000000
0.250204 0.168268 0.000000
0.307258 0.149207 0.000000
0.365426 0.122592 0.000000
0.411490 0.101278 0.000000
0.473776 0.055438 0.000000
0.532539 0.000000 0.000000
0.584015 0.000000 0.000000
0.637652 0.000000 0.000000
0.697165 0.000000 0.000000
0.765028 0.000000 0.000000
0.831217 0.000000 0.000000
0.901113 0.000000 0.000000
0.967193 0.000000 0.000000
1.000000 0.000000 0.000000
1.000000 0.000000 0.069866
1.000000 0.171923 0.112308
1.000000 0.281874 0.153676
1.000000 0.371321 0.197418
1.000000 0.458924 0.250744
1.000000 0.543022 0.307271
1.000000 0.620246 0.376224
1.000000 0.698323 0.449103
1.000000 0.759532 0.516889
1.000000 0.810846 0.581494
0.000000 0.250259 0.000000
0.000000 0.245955 0.000000
0.000000 0.243756 0.000000
0.000000 0.243560 0.000000
0.000000 0.241307 0.000000
0.000000 0.240959 0.000000
0.000000 0.238093 0.000000
0.000000 0.234619 0.000000
0.145808 0.223618 0.000000
0.235092 0.212108 0.000000
0.296048 0.199214 0.000000
0.367938 0.171770 0.000000
0.422974 0.152180 0.000000
0.483680 0.130656 0.000000
0.538893 0.097284 0.000000
0.590248 0.057830 0.000000
0.643257 0.000000 0.000000
0.702057 0.000000 0.000000
0.760353 0.000000 0.000000
0.835592 0.000000 0.000000
0.904599 0.000000 0.000000
0.969973 0.000000 0.000000
1.000000 0.000000 0.000000
1.000000 0.000000 0.068317
1.000000 0.199633 0.111527
1.000000 0.295734 0.151994
1.000000 0.379189 0.198585
1.000000 0.463735 0.253686
1.000000 0.548923 0.309099
1.000000 0.626758 0.375761
1.000000 0.698323 0.449103
1.000000 0.761921 0.516847
1.000000 0.810835 0.584159
0.000000 0.285880 0.000000
0.000000 0.285695 0.000000
0.000000 0.283154 0.000000
0.000000 0.282978 0.000000
0.000000 0.280391 0.000000
0.000000 0.280082 0.000000
0.000000 0.277246 0.000000
0.000000 0.276114 0.000000
0.052517 0.271973 0.000000
0.207355 0.258561 0.000000
0.273098 0.249599 0.000000
0.350796 0.232565 0.000000
0.419652 0.210900 0.000000
0.490314 0.189617 0.000000
0.554036 0.171090 0.000000
0.600777 0.149293 0.000000
0.649485 0.136091 0.000000
0.711659 0.090511 0.000000
0.765260 0.000000 0.000000
0.835126 0.000000 0.000000
0.903741 0.000000 0.000000
0.968711 0.000000 0.000000
1.000000 0.000000 0.000000
1.000000 0.127930 0.066935
1.000000 0.229811 0.109797
1.000000 0.313712 0.151592
1.000000 0.387024 0.199765
1.000000 0.474526 0.254997
1.000000 0.555786 0.310917
1.000000 0.633248 0.377986
1.000000 0.701042 0.451746
1.000000 0.764291 0.516809
1.000000 0.812766 0.584198
0.000000 0.335121 0.000000
0.000000 0.335057 0.000000
0.000000 0.332096 0.000000
0.000000 0.331904 0.000000
0.000000 0.328904 0.000000
0.000000 0.328664 0.000000
0.000000 0.328320 0.000000
0.000000 0.324766 0.000000
0.000000 0.323383 0.000000
0.136976 0.318137 0.000000
0.241094 0.309095 0.000000
0.322771 0.298507 0.000000
0.398573 0.280520 0.000000
0.490971 0.251967 0.000000
0.560877 0.228591 0.000000
0.607862 0.215685 0.000000
0.656242 0.214076 0.000000
0.713419 0.202291 0.000000
0.770462 0.179235 0.000000
0.838958 0.121709 0.000000
0.902458 0.000000 0.000000
0.970278 0.000000 0.000000
1.000000 0.103315 0.000000
1.000000 0.191726 0.060661
1.000000 0.262317 0.110043
1.000000 0.339862 0.149790
1.000000 0.403733 0.200829
1.000000 0.486459 0.257242
1.000000 0.562672 0.310298
1.000000 0.639707 0.377532
1.000000 0.703759 0.451618
1.000000 0.766644 0.516777
1.000000 0.814689 0.584241
0.000000 0.386833 0.000000
0.000000 0.383698 0.000000
0.000000 0.383597 0.000000
0.000000 0.383507 0.000000
0.000000 0.380329 0.000000
0.000000 0.383228 0.000000
0.000000 0.386098 0.000000
0.000000 0.385731 0.000000
0.000000 0.384670 0.000000
0.000000 0.379917 0.000000
0.148543 0.371731 0.000000
0.264776 0.365130 0.000000
0.362786 0.350795 0.000000
0.463933 0.330459 0.000000
0.556392 0.297856 0.000000
0.621960 0.281487 0.000000
0.666325 0.274082 0.000000
0.723261 0.274716 0.000000
0.780213 0.274983 0.000000
0.841971 0.253345 0.000000
0.903523 0.212619 0.000000
0.967255 0.180103 0.000000
1.000000 0.194005 0.000000
1.000000 0.244470 0.053465
1.000000 0.291685 0.109350
1.000000 0.361095 0.148426
1.000000 0.419177 0.201021
1.000000 0.497320 0.258576
1.000000 0.573024 0.311825
1.000000 0.646126 0.377083
1.000000 0.711837 0.451253
1.000000 0.768967 0.519416
1.000000 0.816602 0.584288
0.000000 0.445806 0.000000
0.000000 0.442295 0.000000
0.000000 0.442216 0.000000
0.000000 0.442115 0.000000
0.000000 0.441991 0.000000
0.000000 0.441886 0.000000
0.000000 0.445201 0.000000
0.000000 0.448413 0.000000
0.000000 0.444390 0.000000
0.000000 0.440031 0.000000
0.000000 0.438839 0.000000
0.178382 0.433234 0.000000
0.292229 0.426861 0.000000
0.413040 0.414123 0.000000
0.514272 0.392577 0.000000
0.605511 0.358475 0.000000
0.682531 0.341629 0.000000
0.735986 0.341931 0.000000
0.784531 0.339159 0.000000
0.844276 0.334219 0.000000
0.902804 0.320860 0.000000
0.964971 0.289373 0.000000
1.000000 0.280188 0.000000
1.000000 0.294995 0.031766
1.000000 0.333002 0.105147
1.000000 0.386838 0.151369
1.000000 0.442228 0.202378
1.000000 0.516618 0.260046
1.000000 0.587965 0.316678
1.000000 0.655665 0.379137
1.000000 0.717271 0.451019
1.000000 0.775850 0.519362
1.000000 0.818494 0.587010
0.000000 0.516765 0.000000
0.000000 0.516687 0.000000
0.000000 0.512931 0.000000
0.000000 0.512833 0.000000
0.000000 0.512739 0.000000
0.000000 0.512607 0.000000
0.000000 0.512452 0.000000
0.000000 0.512240 0.000000
0.000000 0.515603 0.000000
0.000000 0.514928 0.000000
0.000000 0.510333 0.000000
0.000000 0.505183 0.000000
0.199515 0.499288 0.000000
0.338516 0.495751 0.000000
0.462787 0.490152 0.000000
0.564125 0.464945 0.000000
0.666377 0.425663 0.000000
0.742645 0.405874 0.000000
0.800091 0.415127 0.000000
0.852419 0.425231 0.000000
0.911506 0.402902 0.000000
0.957255 0.386341 0.000000
1.000000 0.375335 0.000000
1.000000 0.358757 0.000000
1.000000 0.381301 0.101016
1.000000 0.423542 0.148796
1.000000 0.472814 0.204991
1.000000 0.542161 0.262354
1.000000 0.605300 0.317653
1.000000 0.669219 0.382242
1.000000 0.722973 0.453578
1.000000 0.780327 0.522027
1.000000 0.822805 0.588322
0.000000 0.587603 0.000000
0.000000 0.587503 0.000000
0.000000 0.583619 0.000000
0.000000 0.583520 0.000000
0.000000 0.583439 0.000000
0.000000 0.587118 0.000000
0.000000 0.586990 0.000000
0.000000 0.590536 0.000000
0.000000 0.590313 0.000000
0.000000 0.589873 0.000000
0.000000 0.585455 0.000000
0.000000 0.588175 0.000000
0.000000 0.582634 0.000000
0.240555 0.579927 0.000000
0.389004 0.572276 0.000000
0.506493 0.563375 0.000000
0.617773 0.541148 0.000000
0.728826 0.512544 0.000000
0.811185 0.492834 0.000000
0.854668 0.497061 0.000000
0.906373 0.496939 0.000000
0.961375 0.481499 0.000000
1.000000 0.480766 0.000000
1.000000 0.456931 0.000000
1.000000 0.448810 0.091452
1.000000 0.472415 0.146175
1.000000 0.516092 0.204170
1.000000 0.568668 0.262986
1.000000 0.626205 0.318321
1.000000 0.681500 0.381452
1.000000 0.731410 0.453260
1.000000 0.786927 0.524731
1.000000 0.826507 0.591119
0.000000 0.655767 0.036112
0.000000 0.659545 0.000000
0.000000 0.659414 0.000000
0.000000 0.659351 0.000000
0.000000 0.659254 0.000000
0.000000 0.663027 0.000000
0.000000 0.659044 0.000000
0.000000 0.658888 0.000000
0.000000 0.658675 0.000000
0.000000 0.654488 0.000000
0.000000 0.657811 0.000000
0.000000 0.653164 0.000000
0.000000 0.651780 0.000000
0.000000 0.653375 0.000000
0.317087 0.646415 0.000000
0.447040 0.638760 0.000000
0.573082 0.629265 0.000000
0.681158 0.618854 0.000000
0.791064 0.582837 0.000000
0.856935 0.565432 0.000000
0.900799 0.566327 0.000000
0.953277 0.559776 0.000000
0.992851 0.559362 0.000000
1.000000 0.552610 0.000000
1.000000 0.539651 0.061448
1.000000 0.538012 0.142982
1.000000 0.559070 0.205740
1.000000 0.601621 0.261677
1.000000 0.647810 0.322863
1.000000 0.699475 0.385883
1.000000 0.745094 0.455502
1.000000 0.796151 0.528682
1.000000 0.832470 0.595208
0.000000 0.729546 0.154353
0.000000 0.729511 0.149420
0.000000 0.729438 0.139190
0.000000 0.729360 0.133883
0.000000 0.729321 0.128358
0.000000 0.729237 0.122653
0.000000 0.729151 0.110313
0.000000 0.725105 0.099270
0.000000 0.724853 0.091976
0.000000 0.724579 0.048528
0.000000 0.724066 0.000000
0.000000 0.723305 0.000000
0.000000 0.726076 0.000000
0.000000 0.723988 0.000000
0.234938 0.717475 0.000000
0.390932 0.718337 0.000000
0.528338 0.713767 0.000000
0.660559 0.703480 0.000000
0.760283 0.680983 0.000000
0.844761 0.654573 0.000000
0.900510 0.634882 0.000000
0.941888 0.640988 0.000000
0.979960 0.640512 0.000000
1.000000 0.641622 0.000000
1.000000 0.636122 0.000000
1.000000 0.621179 0.140642
1.000000 0.621970 0.211753
1.000000 0.642559 0.268096
1.000000 0.674476 0.328760
1.000000 0.718194 0.390474
1.000000 0.763997 0.458958
1.000000 0.806696 0.531578
1.000000 0.837809 0.598141
0.000000 0.800378 0.254900
0.000000 0.800332 0.251006
0.000000 0.800231 0.247130
0.000000 0.800180 0.243223
0.000000 0.800076 0.235380
0.000000 0.799964 0.231466
0.000000 0.799846 0.227541
0.000000 0.799726 0.219582
0.000000 0.796165 0.212217
0.000000 0.795952 0.204142
0.000000 0.798736 0.186847
0.000000 0.798045 0.173986
0.000000 0.800105 0.139628
0.000000 0.798628 0.097933
0.000000 0.793674 0.000000
0.299955 0.787771 0.000000
0.473832 0.783672 0.000000
0.603453 0.782034 0.000000
0.726305 0.769380 0.000000
0.811826 0.750598 0.000000
0.876402 0.735734 0.000000
0.936575 0.721296 0.000000
0.968612 0.720352 0.000000
0.997926 0.713260 0.000000
1.000000 0.718158 0.000000
1.000000 0.706073 0.122923
1.000000 0.700384 0.217698
1.000000 0.692500 0.276771
1.000000 0.710950 0.337411
1.000000 0.746159 0.403155
1.000000 0.781034 0.469588
1.000000 0.818972 0.534685
1.000000 0.845169 0.605081
0.000000 0.850004 0.336440
0.000000 0.849940 0.332423
0.000000 0.849800 0.328426
0.000000 0.849725 0.328449
0.000000 0.849655 0.324422
0.000000 0.849504 0.320415
0.000000 0.849429 0.316377
0.000000 0.849275 0.308317
0.000000 0.851532 0.304388
0.000000 0.851078 0.292421
0.000000 0.850685 0.284490
0.000000 0.850161 0.272581
0.000000 0.849353 0.260751
0.000000 0.845806 0.244907
0.000000 0.844206 0.212316
0.253567 0.839223 0.178143
0.445962 0.838077 0.111942
0.582968 0.833609 0.000000
0.702070 0.825766 0.000000
0.782760 0.823979 0.000000
0.851732 0.809414 0.000000
0.914605 0.794573 0.000000
0.956845 0.780827 0.000000
0.983288 0.783112 0.000000
1.000000 0.783324 0.000000
1.000000 0.778743 0.133355
1.000000 0.778017 0.220534
1.000000 0.770008 0.286636
1.000000 0.764223 0.353195
1.000000 0.781209 0.418321
1.000000 0.802003 0.484647
1.000000 0.831554 0.543003
1.000000 0.854082 0.609568
0.000000 0.892536 0.415891
0.000000 0.892444 0.412191
0.000000 0.892341 0.412212
0.000000 0.892246 0.408515
0.000000 0.892140 0.408537
0.000000 0.892140 0.408537
0.000000 0.892042 0.404841
0.000000 0.891831 0.401171
0.000000 0.891607 0.401219
0.000000 0.891392 0.393839
0.000000 0.888909 0.389911
0.000000 0.888439 0.375156
0.000000 0.887798 0.364159
0.000000 0.884640 0.352886
0.000000 0.883232 0.333451
0.269613 0.881118 0.302120
0.445486 0.880025 0.267629
0.566915 0.876398 0.228758
0.682227 0.869582 0.193314
0.764528 0.867714 0.132993
0.842055 0.861201 0.000000
0.897930 0.851082 0.000000
0.943756 0.834113 0.000000
0.973181 0.830268 0.000000
0.996309 0.829714 0.000000
1.000000 0.827471 0.141914
1.000000 0.826338 0.241892
1.000000 0.823549 0.312005
1.000000 0.819229 0.365238
1.000000 0.817194 0.431928
1.000000 0.828540 0.494726
1.000000 0.846769 0.556059
1.000000 0.865627 0.616064
0.000000 0.921864 0.492500
0.000000 0.921738 0.492519
0.000000 0.921738 0.492519
0.000000 0.921609 0.492539
0.000000 0.921620 0.488872
0.000000 0.921490 0.488892
0.000000 0.919854 0.488470
0.000000 0.919733 0.484821
0.000000 0.921111 0.481631
0.000000 0.920974 0.481653
0.000000 0.920568 0.474413
0.000000 0.919986 0.470863
0.000000 0.921172 0.456872
0.000000 0.920560 0.446124
0.000000 0.917792 0.431385
0.319292 0.915777 0.413846
0.465174 0.912889 0.385991
0.572890 0.908072 0.361195
0.666401 0.904533 0.328892
0.749586 0.902395 0.291062
0.823723 0.896863 0.250154
0.889165 0.893052 0.214930
0.927722 0.883836 0.135021
0.963100 0.874434 0.000000
0.989053 0.867448 0.000000
1.000000 0.867052 0.171817
1.000000 0.869149 0.265743
1.000000 0.866064 0.332401
1.000000 0.865435 0.393364
1.000000 0.860304 0.450058
1.000000 0.856230 0.507983
1.000000 0.866458 0.564913
1.000000 0.877829 0.625779
0.000000 0.945714 0.585101
0.000000 0.946890 0.585600
0.000000 0.946903 0.581946
0.000000 0.946751 0.581962
0.000000 0.946751 0.581962
0.000000 0.946597 0.581978
0.000000 0.946610 0.578327
0.000000 0.946454 0.578344
0.000000 0.946309 0.574714
0.000000 0.945989 0.574751
0.000000 0.945840 0.571126
0.000000 0.945367 0.563908
0.086660 0.946019 0.557304
0.259779 0.943640 0.549766
0.333922 0.942743 0.532143
0.412462 0.940024 0.521158
0.495092 0.938105 0.503915
0.575327 0.935748 0.483529
0.671462 0.932225 0.457141
0.745908 0.930334 0.425932
0.819022 0.923968 0.391074
0.877222 0.920773 0.348810
0.911847 0.920145 0.316809
0.948264 0.912423 0.267899
0.977876 0.901969 0.200442
1.000000 0.897889 0.204025
1.000000 0.899032 0.292236
1.000000 0.896135 0.366644
1.000000 0.896611 0.426782
1.000000 0.894640 0.475655
1.000000 0.890461 0.533056
1.000000 0.889482 0.578833
1.000000 0.893397 0.635234
0.264913 0.965442 0.674178
0.265721 0.965457 0.670792
0.281496 0.965275 0.670804
0.281496 0.965275 0.670804
0.281496 0.965275 0.670804
