Assets/Lutify-Free-LUTs-Pack/Lutify Free LUTs Pack/Commercial Pro - Claire/Lutify.me-Claire-CanonLog2-to-Rec709.cube
# Created with: fylm.ai - Colour Grading and Collaboration Software in Cloud 
# Website: https://fylm.ai 
# META
# Option: Gamut compress
# Block 1: IDT | CanonLog2 Cinema Gamut Daylight
# Block 2: colourMatch | Blending Mode: Normal | {"ColorSpace":0,"CrossCovarianceLimit":50,"ReshapingIterations":1,"PercentSaturationShift":100,"PercentShadingShift":100,"ExtraShading":true,"PercentTint":100,"PercentModified":100}
# Block 3: HSL | Blending Mode: Normal | {"hue":{"Reds":0,"Yellows":0,"Greens":0,"Cyans":0,"Blues":0,"Magentas":0},"saturation":{"Reds":1,"Yellows":1,"Greens":1,"Cyans":1,"Blues":1,"Magentas":1},"luminance":{"Reds":0.9,"Yellows":0.9,"Greens":0.9,"Cyans":0.8,"Blues":0.8,"Magentas":0.9},"lum_sat":{"Blacks":1,"Shadows":1,"Midtones":1,"Highlights":1,"Whites":1},"sat_sat":{"10":1,"20":1,"30":1,"40":1,"50":1}}
# Block 4: subtractiveColour | Blending Mode: Normal | {"sliders":{"gainY":0.1,"C":0.05,"M":0.05,"Y":0.05}}
# Block 5: logPrimaries | Blending Mode: Normal | {"wheels":{"shadows":{"Y":"0","R":"1","G":"1","B":"1"},"midtones":{"Y":"0","R":"1","G":"1","B":"1"},"highlights":{"Y":"0","R":"1","G":"1","B":"1"},"offset":{"Y":"0","R":"1","G":"1","B":"1"}},"sliders":{"shadows":{"Y":0,"R":-0.05,"G":0,"B":0.1},"midtones":{"Y":0,"R":0,"G":0,"B":0},"highlights":{"Y":0,"R":0,"G":0,"B":0},"offset":{"Y":0,"R":0,"G":0,"B":0}}}
# Block 6: LUT | Filmic Curve Response: Standard Contrast 1 (100%)
# Block 7: LUT | Illuminant: D93 (100%)
# Block 8: LUT | Neutral Tint: Teal Tint 4 (100%)
# Block 9: ODT | Rec709
TITLE "Lutify.me-Claire-CanonLog2-to-Rec709" 
LUT_3D_SIZE 9
0.000000 0.000000 0.000000
0.068894 0.000000 0.000000
0.338256 0.000000 0.000000
0.523252 0.000000 0.000000
0.687709 0.000000 0.000000
0.975144 0.000000 0.069715
1.000000 0.333752 0.243614
1.000000 0.693019 0.510600
1.000000 0.892010 0.785625
0.000000 0.049268 0.000000
0.000000 0.036316 0.000000
0.262524 0.000000 0.000000
0.464331 0.000000 0.000000
0.679149 0.000000 0.000000
0.974697 0.000000 0.067327
1.000000 0.346392 0.242674
1.000000 0.695841 0.510476
1.000000 0.892010 0.785625
0.000000 0.155335 0.000000
0.000000 0.140949 0.000000
0.244117 0.087810 0.000000
0.473430 0.000000 0.000000
0.688139 0.000000 0.000000
0.976944 0.000000 0.061518
1.000000 0.354734 0.242025
1.000000 0.698650 0.510354
1.000000 0.894480 0.785712
0.000000 0.290065 0.000000
0.000000 0.280062 0.000000
0.198297 0.256623 0.000000
0.526922 0.172675 0.000000
0.756443 0.000000 0.000000
0.976614 0.000000 0.000000
1.000000 0.388464 0.239850
1.000000 0.709743 0.512811
1.000000 0.895706 0.785760
0.000000 0.479857 0.000000
0.000000 0.471871 0.000000
0.000000 0.465860 0.000000
0.518079 0.424061 0.000000
0.900032 0.319128 0.000000
0.980592 0.438942 0.000000
1.000000 0.493313 0.219141
1.000000 0.741337 0.511694
1.000000 0.898139 0.785863
0.000000 0.709314 0.000000
0.000000 0.708287 0.000000
0.168938 0.706167 0.000000
0.504397 0.682260 0.000000
0.885823 0.631185 0.000000
1.000000 0.587563 0.000000
1.000000 0.762239 0.000000
1.000000 0.806970 0.511510
1.000000 0.908957 0.786955
0.644335 0.877945 0.000000
0.663083 0.877133 0.000000
0.681011 0.876327 0.000000
0.742475 0.869080 0.000000
0.877357 0.859160 0.000000
1.000000 0.834354 0.000000
1.000000 0.820113 0.252529
1.000000 0.921125 0.438130
1.000000 0.937423 0.788724
0.930971 0.951053 0.000000
0.930971 0.951053 0.000000
0.932880 0.950934 0.000000
0.940297 0.950468 0.000000
0.960434 0.949183 0.000000
0.997818 0.943833 0.135322
1.000000 0.936796 0.356197
1.000000 0.930597 0.587408
1.000000 0.982683 0.761106
1.000000 0.987627 0.470827
1.000000 0.987627 0.470827
1.000000 0.987583 0.472929
1.000000 0.987583 0.472929
1.000000 0.987457 0.479313
1.000000 0.986636 0.498040
1.000000 0.984561 0.557021
1.000000 0.982212 0.685750
1.000000 0.979794 0.811959
0.000000 0.000000 0.059725
0.005271 0.000000 0.036893
0.271331 0.000000 0.000000
0.467625 0.000000 0.000000
0.674917 0.000000 0.000000
0.971812 0.000000 0.087537
1.000000 0.333721 0.251019
1.000000 0.693006 0.513523
1.000000 0.892010 0.785625
0.000000 0.021593 0.050704
0.000000 0.010156 0.038356
0.214225 0.000000 0.000000
0.405683 0.000000 0.000000
0.670673 0.000000 0.000000
0.974701 0.000000 0.086090
1.000000 0.337953 0.250725
1.000000 0.695828 0.513399
1.000000 0.892010 0.785625
0.000000 0.135108 0.000000
0.000000 0.145454 0.000000
0.177240 0.116313 0.000000
0.387365 0.000000 0.000000
0.662320 0.000000 0.000000
0.973661 0.000000 0.081980
1.000000 0.354706 0.249505
1.000000 0.698638 0.513277
1.000000 0.894480 0.785712
0.000000 0.300214 0.000000
0.000000 0.289928 0.000000
0.075615 0.273896 0.000000
0.476363 0.208177 0.000000
0.691640 0.171723 0.000000
0.973382 0.000000 0.053422
1.000000 0.391589 0.249080
1.000000 0.709743 0.512811
1.000000 0.895706 0.785760
0.000000 0.479934 0.000000
0.000000 0.468447 0.000000
0.000000 0.466039 0.000000
0.513156 0.424444 0.000000
0.896331 0.319732 0.000000
0.976703 0.447573 0.000000
1.000000 0.493302 0.229825
1.000000 0.741327 0.514631
1.000000 0.898139 0.785863
0.000000 0.709432 0.000000
0.000000 0.708423 0.000000
0.181643 0.702037 0.000000
0.504397 0.682260 0.000000
0.885823 0.631185 0.000000
1.000000 0.587563 0.000000
1.000000 0.765251 0.000000
1.000000 0.806970 0.511510
1.000000 0.908936 0.791014
0.644335 0.877945 0.000000
0.663083 0.877133 0.000000
0.681011 0.876327 0.000000
0.737506 0.869336 0.000000
0.877357 0.859160 0.000000
1.000000 0.834354 0.000000
1.000000 0.820113 0.252529
1.000000 0.921054 0.443024
1.000000 0.937414 0.790513
0.930971 0.951053 0.000000
0.930971 0.951053 0.000000
0.932880 0.950934 0.000000
0.940297 0.950468 0.000000
0.960434 0.949183 0.000000
0.997818 0.943833 0.135322
1.000000 0.936796 0.356197
1.000000 0.930597 0.587408
1.000000 0.982683 0.761106
1.000000 0.987627 0.470827
1.000000 0.987627 0.470827
1.000000 0.987583 0.472929
1.000000 0.987583 0.472929
1.000000 0.987457 0.479313
1.000000 0.986636 0.498040
1.000000 0.984561 0.557021
1.000000 0.982212 0.685750
1.000000 0.979794 0.811959
0.000000 0.000000 0.198536
0.000000 0.000000 0.089324
0.221691 0.000000 0.047122
0.438066 0.000000 0.026983
0.662535 0.000000 0.055937
0.968617 0.000000 0.113866
1.000000 0.333661 0.263772
1.000000 0.692980 0.519398
1.000000 0.892010 0.785625
0.000000 0.000000 0.150775
0.000000 0.000000 0.104455
0.170440 0.000000 0.071302
0.381134 0.000000 0.057349
0.658258 0.000000 0.061514
0.971476 0.000000 0.114490
1.000000 0.337895 0.263500
1.000000 0.695802 0.519275
1.000000 0.894480 0.785712
0.000000 0.119512 0.193749
0.000000 0.121062 0.191775
0.095105 0.130575 0.186827
0.349637 0.000000 0.088770
0.649591 0.000000 0.059892
0.970422 0.000000 0.113698
1.000000 0.355675 0.262945
1.000000 0.698612 0.519153
1.000000 0.894480 0.785712
0.000000 0.240379 0.182462
0.000000 0.280506 0.145507
0.000000 0.314777 0.040834
0.353953 0.288593 0.000000
0.665769 0.202996 0.000000
0.970197 0.000000 0.102260
1.000000 0.392437 0.262550
1.000000 0.709719 0.518690
1.000000 0.895683 0.789915
0.000000 0.509280 0.000000
0.000000 0.508897 0.000000
0.000000 0.503909 0.000000
0.384168 0.475409 0.000000
0.835213 0.382121 0.000000
0.967029 0.456395 0.000000
1.000000 0.497892 0.249274
1.000000 0.741316 0.517577
1.000000 0.898117 0.790006
0.000000 0.709547 0.000000
0.000000 0.704443 0.000000
0.139800 0.702368 0.000000
0.497841 0.682521 0.000000
0.885823 0.631185 0.000000
1.000000 0.587563 0.000000
1.000000 0.768062 0.000000
1.000000 0.807330 0.518236
1.000000 0.908936 0.791014
0.631359 0.878488 0.000000
0.656927 0.877403 0.000000
0.681011 0.876327 0.000000
0.737506 0.869336 0.000000
0.874142 0.859360 0.000000
1.000000 0.834354 0.000000
1.000000 0.820113 0.252529
1.000000 0.922237 0.450554
1.000000 0.937414 0.790513
0.929040 0.951174 0.000000
0.930971 0.951053 0.000000
0.932880 0.950934 0.000000
0.938478 0.950583 0.000000
0.960434 0.949183 0.000000
0.997818 0.943833 0.135322
1.000000 0.936796 0.356197
1.000000 0.930597 0.587408
1.000000 0.982671 0.763792
1.000000 0.987627 0.470827
1.000000 0.987627 0.470827
1.000000 0.987627 0.470827
1.000000 0.987583 0.472929
1.000000 0.987457 0.479313
1.000000 0.986636 0.498040
1.000000 0.984561 0.557021
1.000000 0.982212 0.685750
1.000000 0.979794 0.811959
0.000000 0.000000 0.394935
0.000000 0.000000 0.145382
0.151860 0.000000 0.076582
0.476864 0.000000 0.048231
0.647380 0.000000 0.107548
0.969111 0.000000 0.182556
1.000000 0.324933 0.297901
1.000000 0.694707 0.533244
1.000000 0.894446 0.791970
0.000000 0.000000 0.252328
0.000000 0.000000 0.171547
0.098995 0.000000 0.131685
0.378126 0.000000 0.085981
0.635009 0.000000 0.147270
0.961550 0.000000 0.185512
1.000000 0.334582 0.297992
1.000000 0.694707 0.533244
1.000000 0.894446 0.791970
0.000000 0.069331 0.265201
0.000000 0.069531 0.242084
0.000000 0.067699 0.246739
0.328647 0.000000 0.201173
0.619030 0.000000 0.189667
0.960332 0.000000 0.188332
1.000000 0.351359 0.297081
1.000000 0.697522 0.536133
1.000000 0.894446 0.791970
0.000000 0.235189 0.366638
0.000000 0.243621 0.372767
0.000000 0.268038 0.415831
0.249074 0.314701 0.412460
0.628412 0.216010 0.261573
0.963060 0.000000 0.192786
1.000000 0.389168 0.300576
1.000000 0.709641 0.536558
1.000000 0.895672 0.792008
0.000000 0.459335 0.402615
0.000000 0.487612 0.390411
0.000000 0.531157 0.366256
0.000000 0.584066 0.280687
0.631544 0.555589 0.134289
0.950377 0.482470 0.158337
1.000000 0.505708 0.295681
1.000000 0.738449 0.538545
1.000000 0.899313 0.792138
0.000000 0.791264 0.000000
0.000000 0.790852 0.000000
0.000000 0.790107 0.000000
0.000000 0.787090 0.000000
0.632565 0.767631 0.000000
0.996912 0.668503 0.000000
1.000000 0.779449 0.206536
1.000000 0.807266 0.538668
1.000000 0.908915 0.795100
0.624723 0.878760 0.000000
0.644335 0.877945 0.000000
0.669148 0.876864 0.000000
0.732458 0.869593 0.000000
0.870881 0.859563 0.000000
1.000000 0.834334 0.000000
1.000000 0.819788 0.248329
1.000000 0.923353 0.482952
1.000000 0.937388 0.796081
0.929040 0.951174 0.000000
0.930971 0.951053 0.000000
0.932880 0.950934 0.000000
0.938478 0.950583 0.000000
0.960434 0.949183 0.000000
0.997818 0.943833 0.135322
1.000000 0.936796 0.356197
1.000000 0.930597 0.587408
1.000000 0.982647 0.769176
1.000000 0.987627 0.470827
1.000000 0.987627 0.470827
1.000000 0.987627 0.470827
1.000000 0.987583 0.472929
1.000000 0.987457 0.479313
1.000000 0.986636 0.498040
1.000000 0.984561 0.557021
1.000000 0.982212 0.685750
1.000000 0.979794 0.811959
0.000000 0.000000 0.428471
0.000000 0.000000 0.178831
0.117155 0.000000 0.118132
0.372573 0.000000 0.085024
0.780421 0.000000 0.065383
0.936362 0.000000 0.305868
1.000000 0.310702 0.415782
1.000000 0.697320 0.576061
1.000000 0.894401 0.800239
0.000000 0.000000 0.327870
0.000000 0.000000 0.227160
0.052480 0.000000 0.182478
0.316157 0.000000 0.128964
0.780421 0.000000 0.065383
0.935820 0.000000 0.327571
1.000000 0.319447 0.415528
1.000000 0.702944 0.575832
1.000000 0.894401 0.800239
0.000000 0.051473 0.344608
0.000000 0.055634 0.301059
0.000000 0.057866 0.293524
0.243176 0.000000 0.281936
0.614598 0.000000 0.169173
0.934747 0.000000 0.359966
1.000000 0.336609 0.418127
1.000000 0.705735 0.575720
1.000000 0.895627 0.800268
0.000000 0.166423 0.446865
0.000000 0.172243 0.439722
0.000000 0.189694 0.456726
0.000000 0.198610 0.513664
0.590585 0.000000 0.458517
0.940999 0.000000 0.414621
1.000000 0.383318 0.423266
1.000000 0.714373 0.575384
1.000000 0.895627 0.800268
0.000000 0.396814 0.581000
0.000000 0.423686 0.591267
0.000000 0.454450 0.643950
0.000000 0.517422 0.702687
0.527165 0.598379 0.708132
0.926919 0.491969 0.516432
1.000000 0.503963 0.437757
1.000000 0.737524 0.577704
1.000000 0.899489 0.802830
0.000000 0.756223 0.681736
0.000000 0.759788 0.669986
0.000000 0.777271 0.669057
0.000000 0.817674 0.651631
0.340737 0.855967 0.581627
0.890543 0.821697 0.425039
1.000000 0.792876 0.435767
1.000000 0.811480 0.587088
1.000000 0.909058 0.805611
0.000000 0.952084 0.000000
0.000000 0.951820 0.000000
0.000000 0.951130 0.000000
0.000000 0.948172 0.000000
0.516757 0.943830 0.000000
0.872033 0.928322 0.000000
1.000000 0.897596 0.000000
1.000000 0.926590 0.577791
1.000000 0.938230 0.809563
0.927556 0.950285 0.000000
0.927556 0.950285 0.000000
0.929510 0.950163 0.000000
0.937106 0.949688 0.000000
0.957763 0.948373 0.000000
0.996758 0.943897 0.129623
1.000000 0.936767 0.353029
1.000000 0.930597 0.587408
1.000000 0.983439 0.789378
1.000000 0.987627 0.470827
1.000000 0.987627 0.470827
1.000000 0.987627 0.470827
1.000000 0.987583 0.472929
1.000000 0.987457 0.479313
1.000000 0.986669 0.495945
1.000000 0.984561 0.557021
1.000000 0.982205 0.683519
1.000000 0.979794 0.811959
0.000000 0.000000 0.306454
0.000000 0.000000 0.202389
0.116449 0.000000 0.174399
0.299537 0.000000 0.135665
0.646618 0.000000 0.112970
1.000000 0.000000 0.110286
1.000000 0.000000 0.594489
1.000000 0.685040 0.697235
1.000000 0.894263 0.824239
0.000000 0.000000 0.314277
0.000000 0.000000 0.222792
0.095841 0.000000 0.193910
0.297350 0.000000 0.135727
0.646618 0.000000 0.112970
1.000000 0.000000 0.110286
1.000000 0.106688 0.601548
1.000000 0.687921 0.697111
1.000000 0.894263 0.824239
0.000000 0.028650 0.378386
0.000000 0.036139 0.338948
0.000000 0.033461 0.327699
0.183020 0.000000 0.307697
0.548587 0.000000 0.187813
1.000000 0.000000 0.110286
1.000000 0.166156 0.612323
1.000000 0.690789 0.696988
1.000000 0.894263 0.824239
0.000000 0.144671 0.526481
0.000000 0.155562 0.515202
0.000000 0.164191 0.533371
0.000000 0.168786 0.562821
0.447775 0.075245 0.583311
0.895584 0.000000 0.415149
1.000000 0.278338 0.644165
1.000000 0.702107 0.699701
1.000000 0.895490 0.824243
0.000000 0.309054 0.658062
0.000000 0.323153 0.665256
0.000000 0.354919 0.694960
0.000000 0.381770 0.738564
0.275624 0.407040 0.798051
0.920982 0.283761 0.738492
1.000000 0.452731 0.706713
1.000000 0.733945 0.704726
1.000000 0.899345 0.828441
0.000000 0.601369 0.792824
0.000000 0.631976 0.800360
0.000000 0.681783 0.835964
0.000000 0.736777 0.869828
0.000000 0.807403 0.895744
0.826994 0.856192 0.898287
1.000000 0.802245 0.798198
1.000000 0.812659 0.728350
1.000000 0.910038 0.834512
0.000000 0.935366 0.876772
0.000000 0.936646 0.876686
0.000000 0.939147 0.876519
0.000000 0.946244 0.876066
0.000000 0.954706 0.875221
0.785001 0.960671 0.842221
0.973514 0.946941 0.750724
1.000000 0.934738 0.751635
1.000000 0.939762 0.841988
0.696001 0.999387 0.548262
0.699957 0.999226 0.548345
0.703981 0.999071 0.546244
0.723359 0.998284 0.540220
0.762760 0.996572 0.530874
0.856939 0.992451 0.502487
0.971629 0.985803 0.469960
1.000000 0.975041 0.480329
1.000000 0.985334 0.838342
1.000000 0.987759 0.464606
1.000000 0.987759 0.464606
1.000000 0.987670 0.468739
1.000000 0.987627 0.470827
1.000000 0.987498 0.477171
1.000000 0.986703 0.493859
1.000000 0.984576 0.554722
1.000000 0.982205 0.683519
1.000000 0.979339 0.810200
0.000000 0.000000 0.244913
0.092835 0.000000 0.237546
0.170137 0.000000 0.225330
0.309035 0.000000 0.189436
0.538044 0.000000 0.163692
0.952235 0.000000 0.158355
1.000000 0.000000 0.185984
1.000000 0.572249 0.846339
1.000000 0.889834 0.887273
0.000000 0.000000 0.244919
0.092835 0.000000 0.237546
0.170137 0.000000 0.225330
0.309035 0.000000 0.189436
0.538044 0.000000 0.163692
0.952235 0.000000 0.158355
1.000000 0.000000 0.185984
1.000000 0.575447 0.848450
1.000000 0.889834 0.887273
0.000000 0.000000 0.244925
0.090997 0.000000 0.237563
0.168112 0.000000 0.225363
0.309035 0.000000 0.189436
0.534176 0.000000 0.163692
0.952235 0.000000 0.158355
1.000000 0.000000 0.185984
1.000000 0.583376 0.848238
1.000000 0.889834 0.887273
0.000000 0.130825 0.582726
0.000000 0.133690 0.590304
0.000000 0.134705 0.597923
0.000000 0.134155 0.616892
0.326162 0.033624 0.611645
0.806062 0.000000 0.340395
1.000000 0.000000 0.185984
1.000000 0.607397 0.853908
1.000000 0.891353 0.887350
0.000000 0.304958 0.748857
0.000000 0.313178 0.762358
0.000000 0.315722 0.780058
0.000000 0.338381 0.799331
0.000000 0.346946 0.836859
0.754837 0.281951 0.855648
1.000000 0.000000 0.722458
1.000000 0.673472 0.871799
1.000000 0.897485 0.889991
0.000000 0.533036 0.852147
0.000000 0.559368 0.860387
0.000000 0.574493 0.875491
0.000000 0.608588 0.898243
0.000000 0.644736 0.920228
0.613459 0.681689 0.941883
1.000000 0.632611 0.921179
1.000000 0.783430 0.896444
1.000000 0.909478 0.892500
0.000000 0.810382 0.911427
0.000000 0.813429 0.909631
0.000000 0.859299 0.922944
0.000000 0.898064 0.947783
0.000000 0.928319 0.962857
0.472082 0.945543 0.972538
0.945603 0.958448 0.973600
1.000000 0.937112 0.930550
1.000000 0.938557 0.900331
0.242532 1.000000 0.964211
0.258256 0.999931 0.964198
0.286505 0.999622 0.964171
0.358445 0.999203 0.964060
0.489776 0.999316 0.963724
0.741849 0.998450 0.964340
0.936117 0.997060 0.955800
1.000000 0.992476 0.919626
1.000000 0.987364 0.915266
0.904067 1.000000 0.832430
0.904067 1.000000 0.832430
0.904136 1.000000 0.831297
0.905575 1.000000 0.831344
0.912707 1.000000 0.829337
0.927387 1.000000 0.824340
0.960898 1.000000 0.809102
1.000000 1.000000 0.791030
1.000000 1.000000 0.772761
0.256826 0.000000 0.276815
0.272145 0.000000 0.274228
0.299259 0.000000 0.266859
0.386154 0.000000 0.249491
0.558904 0.000000 0.223727
0.862691 0.000000 0.212336
1.000000 0.000000 0.227580
1.000000 0.155083 0.308533
1.000000 0.843543 0.953971
0.254368 0.000000 0.276853
0.272145 0.000000 0.274228
0.299259 0.000000 0.266859
0.386154 0.000000 0.249491
0.558904 0.000000 0.223727
0.862691 0.000000 0.212336
1.000000 0.000000 0.227580
1.000000 0.155083 0.308533
1.000000 0.843518 0.954888
0.254368 0.000000 0.276853
0.272145 0.000000 0.274228
0.299259 0.000000 0.266859
0.386154 0.000000 0.249491
0.558904 0.000000 0.223727
0.862691 0.000000 0.212336
1.000000 0.000000 0.227580
1.000000 0.155083 0.308533
1.000000 0.845576 0.954791
0.254368 0.000000 0.276853
0.269594 0.000000 0.274268
0.296538 0.000000 0.266903
0.386154 0.000000 0.249491
0.558904 0.000000 0.223727
0.862691 0.000000 0.212336
1.000000 0.000000 0.227580
1.000000 0.155083 0.308533
1.000000 0.848662 0.955505
0.000000 0.292307 0.840013
0.000000 0.294876 0.845237
0.000000 0.297382 0.847735
0.000000 0.301817 0.852572
0.000000 0.301198 0.871399
0.593881 0.228659 0.878024
1.000000 0.000000 0.696429
1.000000 0.155083 0.308533
1.000000 0.858564 0.958481
0.000000 0.555828 0.924256
0.000000 0.559575 0.925632
0.000000 0.563306 0.928547
0.000000 0.574425 0.936913
0.000000 0.591567 0.948133
0.376103 0.622099 0.963740
0.982569 0.597021 0.971398
1.000000 0.462357 0.921003
1.000000 0.884769 0.963558
0.000000 0.810532 0.956401
0.000000 0.810534 0.959574
0.000000 0.816512 0.962186
0.000000 0.833304 0.967614
0.000000 0.857282 0.976724
0.000000 0.881701 0.986334
0.867771 0.892018 0.992124
1.000000 0.879867 0.985583
1.000000 0.930757 0.974348
0.000000 0.938800 0.969354
0.000000 0.938800 0.969354
0.000000 0.938800 0.969354
0.000000 0.975517 0.985535
0.000000 0.990886 0.994612
0.000000 0.996678 0.999089
0.835200 0.992729 1.000000
0.992008 0.996280 1.000000
1.000000 0.989309 0.989089
0.790326 1.000000 0.997947
0.790326 1.000000 0.997947
0.790326 1.000000 0.997947
0.795463 1.000000 0.997919
0.808820 1.000000 0.997858
0.839540 1.000000 0.997946
0.914603 1.000000 0.997745
0.988892 1.000000 0.995270
1.000000 1.000000 0.982725
0.520201 0.000000 0.311580
0.527642 0.000000 0.311557
0.538353 0.000000 0.308807
0.576385 0.000000 0.298073
0.671175 0.000000 0.290308
0.872936 0.000000 0.279368
1.000000 0.000000 0.285140
1.000000 0.000000 0.334862
1.000000 0.538524 0.515864
0.520201 0.000000 0.311580
0.527642 0.000000 0.311557
0.538353 0.000000 0.308807
0.576385 0.000000 0.298073
0.671175 0.000000 0.290308
0.872936 0.000000 0.279368
1.000000 0.000000 0.285140
1.000000 0.000000 0.334862
1.000000 0.538524 0.515864
0.520201 0.000000 0.311580
0.527642 0.000000 0.311557
0.538353 0.000000 0.308807
0.576385 0.000000 0.298073
0.671175 0.000000 0.290308
0.872936 0.000000 0.279368
1.000000 0.000000 0.285140
1.000000 0.000000 0.334862
1.000000 0.538524 0.515864
0.520201 0.000000 0.311580
0.527642 0.000000 0.311557
0.538348 0.000000 0.308807
0.572768 0.000000 0.298080
0.671175 0.000000 0.290308
0.872936 0.000000 0.279368
1.000000 0.000000 0.285140
1.000000 0.000000 0.334862
1.000000 0.538524 0.515864
0.516474 0.000000 0.311592
0.523927 0.000000 0.311569
0.534671 0.000000 0.308817
0.572768 0.000000 0.298080
0.671175 0.000000 0.290308
0.872936 0.000000 0.279368
1.000000 0.000000 0.285140
1.000000 0.000000 0.332883
1.000000 0.538524 0.515864
0.000000 0.532736 0.965298
0.000000 0.532644 0.965285
0.000000 0.539997 0.966024
0.000000 0.543200 0.966888
0.000000 0.548248 0.971653
0.407170 0.553246 0.979627
0.892011 0.496834 0.982500
1.000000 0.000000 0.922248
1.000000 0.538524 0.515864
0.000000 0.816068 0.990097
0.000000 0.818915 0.989884
0.000000 0.818829 0.990534
0.000000 0.826991 0.991192
0.000000 0.836287 0.994514
0.000000 0.852837 0.997481
0.735491 0.852798 1.000000
1.000000 0.854029 1.000000
1.000000 0.775454 0.988842
0.000000 0.951995 0.998167
0.000000 0.951928 0.998564
0.000000 0.953118 0.998842
0.000000 0.956528 0.999643
0.000000 0.963452 1.000000
0.000000 0.969698 1.000000
0.669941 0.968246 1.000000
0.962607 0.970815 1.000000
1.000000 0.967709 1.000000
0.000000 0.998713 0.998149
0.000000 0.998713 0.998149
0.000000 0.998713 0.998149
0.000000 0.998713 0.998149
0.000000 1.000000 1.000000
0.197079 1.000000 1.000000
0.726886 1.000000 1.000000
0.952313 1.000000 1.000000
1.000000 1.000000 1.000000
