Assets/Lutify-Free-LUTs-Pack/Lutify Free LUTs Pack/Commercial Pro - Claire/Lutify.me-Claire-RWG-to-Rec709.cube
# Created with: fylm.ai - Colour Grading and Collaboration Software in Cloud 
# Website: https://fylm.ai 
# META
# Option: Gamut compress
# Block 1: IDT | RED REDWideGamutRGB Log3G10
# Block 2: colourMatch | Blending Mode: Normal | {"ColorSpace":0,"CrossCovarianceLimit":50,"ReshapingIterations":1,"PercentSaturationShift":100,"PercentShadingShift":100,"ExtraShading":true,"PercentTint":100,"PercentModified":100}
# Block 3: HSL | Blending Mode: Normal | {"hue":{"Reds":0,"Yellows":0,"Greens":0,"Cyans":0,"Blues":0,"Magentas":0},"saturation":{"Reds":1,"Yellows":1,"Greens":1,"Cyans":1,"Blues":1,"Magentas":1},"luminance":{"Reds":0.9,"Yellows":0.9,"Greens":0.9,"Cyans":0.8,"Blues":0.8,"Magentas":0.9},"lum_sat":{"Blacks":1,"Shadows":1,"Midtones":1,"Highlights":1,"Whites":1},"sat_sat":{"10":1,"20":1,"30":1,"40":1,"50":1}}
# Block 4: subtractiveColour | Blending Mode: Normal | {"sliders":{"gainY":0.1,"C":0.05,"M":0.05,"Y":0.05}}
# Block 5: logPrimaries | Blending Mode: Normal | {"wheels":{"shadows":{"Y":"0","R":"1","G":"1","B":"1"},"midtones":{"Y":"0","R":"1","G":"1","B":"1"},"highlights":{"Y":"0","R":"1","G":"1","B":"1"},"offset":{"Y":"0","R":"1","G":"1","B":"1"}},"sliders":{"shadows":{"Y":0,"R":-0.05,"G":0,"B":0.1},"midtones":{"Y":0,"R":0,"G":0,"B":0},"highlights":{"Y":0,"R":0,"G":0,"B":0},"offset":{"Y":0,"R":0,"G":0,"B":0}}}
# Block 6: LUT | Filmic Curve Response: Standard Contrast 1 (100%)
# Block 7: LUT | Illuminant: D93 (100%)
# Block 8: LUT | Neutral Tint: Teal Tint 4 (100%)
# Block 9: ODT | Rec709
TITLE "Lutify.me-Claire-RWG-to-Rec709" 
LUT_3D_SIZE 5
0.000000 0.000000 0.000000
0.410834 0.000000 0.000000
0.906367 0.000000 0.000000
1.000000 0.652714 0.281888
1.000000 0.969510 0.850017
0.000000 0.213316 0.000000
0.354447 0.118801 0.000000
0.943925 0.000000 0.000000
1.000000 0.660107 0.275675
1.000000 0.969510 0.850017
0.000000 0.636931 0.000000
0.000000 0.617976 0.000000
1.000000 0.488447 0.000000
1.000000 0.732227 0.196450
1.000000 0.971188 0.849895
0.677896 0.954947 0.000000
0.717566 0.953236 0.000000
0.926258 0.936276 0.000000
1.000000 0.915522 0.522087
1.000000 0.981691 0.810512
1.000000 1.000000 0.681504
1.000000 1.000000 0.682313
1.000000 1.000000 0.688163
1.000000 1.000000 0.755265
1.000000 0.999063 0.875967
0.000000 0.000000 0.176954
0.305626 0.000000 0.060129
0.868096 0.000000 0.076199
1.000000 0.655833 0.308258
1.000000 0.969504 0.851220
0.000000 0.167608 0.268664
0.157709 0.204444 0.275159
0.875083 0.000000 0.052566
1.000000 0.662139 0.305354
1.000000 0.969510 0.850017
0.000000 0.633303 0.000000
0.000000 0.614655 0.000000
1.000000 0.479926 0.000000
1.000000 0.741362 0.212524
1.000000 0.971188 0.849895
0.677896 0.954947 0.000000
0.717566 0.953236 0.000000
0.926258 0.936276 0.000000
1.000000 0.915369 0.518818
1.000000 0.981682 0.812343
1.000000 1.000000 0.681504
1.000000 1.000000 0.682313
1.000000 1.000000 0.688163
1.000000 1.000000 0.755265
1.000000 0.999063 0.875967
0.051522 0.000000 0.202021
0.244791 0.000000 0.158826
0.979592 0.000000 0.091737
1.000000 0.665597 0.547823
1.000000 0.969498 0.864676
0.000000 0.110131 0.434413
0.000000 0.106267 0.451707
0.797875 0.000000 0.311988
1.000000 0.671889 0.547536
1.000000 0.969498 0.864676
0.000000 0.518665 0.728469
0.000000 0.589990 0.773741
0.725428 0.785055 0.849545
1.000000 0.762349 0.538633
1.000000 0.971628 0.864130
0.626994 0.955849 0.000000
0.667452 0.954276 0.000000
0.918486 0.935573 0.000000
1.000000 0.914237 0.518251
1.000000 0.982407 0.833133
1.000000 1.000000 0.680702
1.000000 1.000000 0.681504
1.000000 1.000000 0.687307
1.000000 1.000000 0.755265
1.000000 0.999063 0.875967
0.569291 0.000000 0.219205
0.595468 0.000000 0.214779
0.867136 0.000000 0.206071
1.000000 0.000000 0.282780
1.000000 0.972805 0.944226
0.340314 0.000000 0.669406
0.385206 0.000000 0.661271
0.735031 0.000000 0.451649
1.000000 0.000000 0.281431
1.000000 0.972805 0.944226
0.000000 0.526756 0.931550
0.000000 0.530003 0.934326
0.431721 0.550771 0.950612
1.000000 0.413800 0.909496
1.000000 0.973782 0.945038
0.000000 0.917792 0.962354
0.000000 0.917792 0.962354
0.000000 0.981619 0.990986
0.986651 0.990553 0.998270
1.000000 0.986163 0.946620
1.000000 1.000000 0.673055
1.000000 1.000000 0.673789
1.000000 1.000000 0.679906
1.000000 1.000000 0.750127
1.000000 0.999063 0.875967
1.000000 0.000000 0.349226
1.000000 0.000000 0.349635
1.000000 0.000000 0.353052
1.000000 0.000000 0.384838
1.000000 0.760623 0.719069
1.000000 0.000000 0.349226
1.000000 0.000000 0.349635
1.000000 0.000000 0.353052
1.000000 0.000000 0.384838
1.000000 0.760623 0.719069
0.921213 0.526616 1.000000
0.924486 0.526304 1.000000
0.955953 0.519423 1.000000
1.000000 0.336361 0.989109
1.000000 0.760623 0.719069
0.701002 0.944227 1.000000
0.705316 0.944038 1.000000
0.741388 0.944691 1.000000
0.937713 0.945741 1.000000
1.000000 0.923819 1.000000
0.000000 1.000000 1.000000
0.000000 1.000000 1.000000
0.000000 1.000000 1.000000
0.801661 1.000000 1.000000
1.000000 1.000000 1.000000
