Assets/Lutify-Free-LUTs-Pack/Lutify Free LUTs Pack/Commercial Pro - Claire/Lutify.me-Claire-BMDFilmGen5-to-Rec709.cube
# Created with: fylm.ai - Colour Grading and Collaboration Software in Cloud 
# Website: https://fylm.ai 
# META
# Option: Gamut compress
# Block 1: IDT | BMD Wide Gamut BMDFilm Gen 5
# Block 2: colourMatch | Blending Mode: Normal | {"ColorSpace":0,"CrossCovarianceLimit":50,"ReshapingIterations":1,"PercentSaturationShift":100,"PercentShadingShift":100,"ExtraShading":true,"PercentTint":100,"PercentModified":100}
# Block 3: HSL | Blending Mode: Normal | {"hue":{"Reds":0,"Yellows":0,"Greens":0,"Cyans":0,"Blues":0,"Magentas":0},"saturation":{"Reds":1,"Yellows":1,"Greens":1,"Cyans":1,"Blues":1,"Magentas":1},"luminance":{"Reds":0.9,"Yellows":0.9,"Greens":0.9,"Cyans":0.8,"Blues":0.8,"Magentas":0.9},"lum_sat":{"Blacks":1,"Shadows":1,"Midtones":1,"Highlights":1,"Whites":1},"sat_sat":{"10":1,"20":1,"30":1,"40":1,"50":1}}
# Block 4: subtractiveColour | Blending Mode: Normal | {"sliders":{"gainY":0.1,"C":0.05,"M":0.05,"Y":0.05}}
# Block 5: logPrimaries | Blending Mode: Normal | {"wheels":{"shadows":{"Y":"0","R":"1","G":"1","B":"1"},"midtones":{"Y":"0","R":"1","G":"1","B":"1"},"highlights":{"Y":"0","R":"1","G":"1","B":"1"},"offset":{"Y":"0","R":"1","G":"1","B":"1"}},"sliders":{"shadows":{"Y":0,"R":-0.05,"G":0,"B":0.1},"midtones":{"Y":0,"R":0,"G":0,"B":0},"highlights":{"Y":0,"R":0,"G":0,"B":0},"offset":{"Y":0,"R":0,"G":0,"B":0}}}
# Block 6: LUT | Filmic Curve Response: Standard Contrast 1 (100%)
# Block 7: LUT | Illuminant: D93 (100%)
# Block 8: LUT | Neutral Tint: Teal Tint 4 (100%)
# Block 9: ODT | Rec709
TITLE "Lutify.me-Claire-BMDFilmGen5-to-Rec709" 
LUT_3D_SIZE 5
0.000000 0.000000 0.000000
0.262077 0.000000 0.000000
0.722856 0.000000 0.000000
1.000000 0.653903 0.347442
1.000000 0.981974 0.915345
0.000000 0.139947 0.000000
0.192255 0.104367 0.000000
0.727459 0.000000 0.000000
1.000000 0.657324 0.347180
1.000000 0.981974 0.915345
0.000000 0.589561 0.000000
0.000000 0.587815 0.000000
0.868151 0.474656 0.000000
1.000000 0.736012 0.355331
1.000000 0.982383 0.915431
0.811885 0.983879 0.571654
0.818103 0.983572 0.569258
0.862144 0.981348 0.543417
1.000000 0.964980 0.395885
1.000000 0.990741 0.921853
0.997276 1.000000 0.973087
0.997537 1.000000 0.973103
0.997859 1.000000 0.972216
1.000000 1.000000 0.966722
1.000000 1.000000 0.922271
0.000000 0.000000 0.132278
0.173113 0.000000 0.053907
0.696890 0.000000 0.048788
1.000000 0.653879 0.359162
1.000000 0.981974 0.915345
0.000000 0.108783 0.186428
0.092535 0.127881 0.182988
0.709802 0.000000 0.042829
1.000000 0.657300 0.358912
1.000000 0.981974 0.915345
0.000000 0.635888 0.000000
0.000000 0.630810 0.000000
0.749102 0.594154 0.000000
1.000000 0.735520 0.369229
1.000000 0.982383 0.915431
0.813904 0.983641 0.596377
0.817064 0.983494 0.593740
0.860946 0.981904 0.570882
1.000000 0.966454 0.417443
1.000000 0.990741 0.921853
0.997276 1.000000 0.973087
0.997537 1.000000 0.973103
0.997799 1.000000 0.973118
1.000000 1.000000 0.967204
1.000000 1.000000 0.922271
0.000000 0.000000 0.178854
0.131780 0.000000 0.156643
0.703462 0.000000 0.152339
1.000000 0.659492 0.512920
1.000000 0.981924 0.919042
0.000000 0.058577 0.308746
0.000000 0.058611 0.321917
0.651943 0.000000 0.322637
1.000000 0.666277 0.515860
1.000000 0.981953 0.919195
0.000000 0.551898 0.747775
0.000000 0.570292 0.764396
0.616324 0.687074 0.781656
1.000000 0.744330 0.534870
1.000000 0.982362 0.919272
0.785472 0.988309 0.816249
0.792057 0.988005 0.814163
0.846149 0.985948 0.795501
1.000000 0.975692 0.641915
1.000000 0.991045 0.926482
0.997050 1.000000 0.975793
0.997050 1.000000 0.975793
0.997311 1.000000 0.975806
1.000000 1.000000 0.970603
1.000000 1.000000 0.927475
0.536065 0.000000 0.201933
0.554860 0.000000 0.201924
0.731205 0.000000 0.208765
1.000000 0.000000 0.797589
1.000000 0.982992 0.956643
0.436366 0.000000 0.418558
0.447242 0.000000 0.428691
0.615892 0.000000 0.512280
1.000000 0.075379 0.817421
1.000000 0.983390 0.956654
0.000000 0.434052 0.904661
0.000000 0.436991 0.904427
0.377802 0.451585 0.918729
1.000000 0.486707 0.919757
1.000000 0.983783 0.956666
0.250645 0.981552 0.993305
0.267780 0.981373 0.993691
0.548337 0.981371 0.994313
0.982917 0.988476 0.996376
1.000000 0.992032 0.963343
0.995304 1.000000 0.999067
0.995304 1.000000 0.999067
0.995575 1.000000 0.998894
0.999604 1.000000 0.997290
1.000000 1.000000 0.976875
1.000000 0.000000 0.354915
1.000000 0.000000 0.354915
1.000000 0.000000 0.356893
1.000000 0.000000 0.378551
1.000000 0.880455 1.000000
1.000000 0.000000 0.354915
1.000000 0.000000 0.354915
1.000000 0.000000 0.356893
1.000000 0.000000 0.378551
1.000000 0.881394 1.000000
1.000000 0.255552 0.981387
1.000000 0.261292 0.981300
1.000000 0.272380 0.982866
1.000000 0.443076 0.998423
1.000000 0.890257 1.000000
0.839608 0.932737 1.000000
0.839608 0.932737 1.000000
0.852422 0.933239 1.000000
0.939560 0.938459 1.000000
1.000000 0.962188 1.000000
0.958633 1.000000 1.000000
0.958633 1.000000 1.000000
0.959924 1.000000 1.000000
0.976818 1.000000 1.000000
1.000000 1.000000 1.000000
