Assets/Lutify-Free-LUTs-Pack/Lutify Free LUTs Pack/Commercial Pro - Claire/Lutify.me-Claire-LLog-to-Rec709.cube
# Created with: fylm.ai - Colour Grading and Collaboration Software in Cloud 
# Website: https://fylm.ai 
# META
# Option: Gamut compress
# Block 1: IDT | Leica BT2020 L-Log
# Block 2: colourMatch | Blending Mode: Normal | {"ColorSpace":0,"CrossCovarianceLimit":50,"ReshapingIterations":1,"PercentSaturationShift":100,"PercentShadingShift":100,"ExtraShading":true,"PercentTint":100,"PercentModified":100}
# Block 3: HSL | Blending Mode: Normal | {"hue":{"Reds":0,"Yellows":0,"Greens":0,"Cyans":0,"Blues":0,"Magentas":0},"saturation":{"Reds":1,"Yellows":1,"Greens":1,"Cyans":1,"Blues":1,"Magentas":1},"luminance":{"Reds":0.9,"Yellows":0.9,"Greens":0.9,"Cyans":0.8,"Blues":0.8,"Magentas":0.9},"lum_sat":{"Blacks":1,"Shadows":1,"Midtones":1,"Highlights":1,"Whites":1},"sat_sat":{"10":1,"20":1,"30":1,"40":1,"50":1}}
# Block 4: subtractiveColour | Blending Mode: Normal | {"sliders":{"gainY":0.1,"C":0.05,"M":0.05,"Y":0.05}}
# Block 5: logPrimaries | Blending Mode: Normal | {"wheels":{"shadows":{"Y":"0","R":"1","G":"1","B":"1"},"midtones":{"Y":"0","R":"1","G":"1","B":"1"},"highlights":{"Y":"0","R":"1","G":"1","B":"1"},"offset":{"Y":"0","R":"1","G":"1","B":"1"}},"sliders":{"shadows":{"Y":0,"R":-0.05,"G":0,"B":0.1},"midtones":{"Y":0,"R":0,"G":0,"B":0},"highlights":{"Y":0,"R":0,"G":0,"B":0},"offset":{"Y":0,"R":0,"G":0,"B":0}}}
# Block 6: LUT | Filmic Curve Response: Standard Contrast 1 (100%)
# Block 7: LUT | Illuminant: D93 (100%)
# Block 8: LUT | Neutral Tint: Teal Tint 4 (100%)
# Block 9: ODT | Rec709
TITLE "Lutify.me-Claire-LLog-to-Rec709" 
LUT_3D_SIZE 5
0.000000 0.000000 0.000000
0.253737 0.000000 0.000000
0.556564 0.000000 0.000000
1.000000 0.077804 0.138161
1.000000 0.789570 0.585506
0.000000 0.111703 0.000000
0.158476 0.078074 0.000000
0.533510 0.000000 0.000000
1.000000 0.155614 0.141363
1.000000 0.791834 0.585508
0.000000 0.396126 0.064887
0.000000 0.411550 0.000000
0.544823 0.383290 0.000000
1.000000 0.353666 0.151145
1.000000 0.803364 0.595500
0.000000 0.869679 0.557432
0.000000 0.880594 0.554005
0.000000 0.887710 0.483822
0.944968 0.852485 0.285174
1.000000 0.871669 0.650223
0.712802 1.000000 0.934028
0.716319 1.000000 0.934019
0.751820 1.000000 0.933116
0.884929 0.998518 0.918276
1.000000 0.990932 0.850042
0.000000 0.000000 0.108133
0.169952 0.000000 0.053148
0.517270 0.000000 0.041215
1.000000 0.094645 0.163003
1.000000 0.789546 0.591586
0.000000 0.101328 0.169505
0.082512 0.115349 0.166565
0.502524 0.000000 0.059187
1.000000 0.163679 0.164635
1.000000 0.791809 0.591585
0.000000 0.349880 0.284119
0.000000 0.421439 0.235821
0.502960 0.415224 0.026712
1.000000 0.358064 0.182173
1.000000 0.803352 0.598544
0.000000 0.862320 0.596180
0.000000 0.876040 0.592532
0.000000 0.889838 0.532748
0.942652 0.856912 0.329541
1.000000 0.873294 0.653512
0.709176 1.000000 0.935062
0.716242 1.000000 0.935044
0.751239 1.000000 0.934088
0.884850 0.998511 0.919419
1.000000 0.990917 0.852904
0.000000 0.075719 0.278759
0.000000 0.078323 0.293055
0.483272 0.000000 0.259508
1.000000 0.169037 0.306202
1.000000 0.791676 0.622708
0.000000 0.127015 0.337254
0.000000 0.132874 0.354830
0.486629 0.000000 0.334328
1.000000 0.220969 0.316273
1.000000 0.793928 0.622701
0.000000 0.371595 0.544374
0.000000 0.396619 0.577242
0.410707 0.487229 0.603234
1.000000 0.392570 0.361810
1.000000 0.805399 0.629780
0.000000 0.845100 0.748485
0.000000 0.851961 0.748157
0.000000 0.890411 0.726568
0.934881 0.872949 0.550204
1.000000 0.874790 0.684057
0.698687 1.000000 0.940885
0.703060 1.000000 0.940904
0.740609 1.000000 0.940977
0.884171 0.999105 0.929412
1.000000 0.991916 0.866348
0.000000 0.346549 0.753957
0.000000 0.351806 0.760498
0.238327 0.361383 0.793667
1.000000 0.235037 0.756124
1.000000 0.812698 0.791391
0.000000 0.361511 0.767315
0.000000 0.363899 0.774262
0.211890 0.378246 0.802725
1.000000 0.272483 0.769386
1.000000 0.814825 0.791310
0.000000 0.459006 0.818475
0.000000 0.465622 0.826637
0.000000 0.488692 0.850816
0.993464 0.452857 0.833195
1.000000 0.823131 0.798486
0.000000 0.842593 0.923875
0.000000 0.847346 0.924888
0.000000 0.868421 0.930977
0.888689 0.913650 0.939569
1.000000 0.888080 0.836117
0.617746 0.999557 0.970429
0.627246 0.999227 0.970402
0.672888 0.998968 0.970884
0.868224 0.999254 0.970081
1.000000 0.994012 0.933808
0.191285 0.820714 0.982763
0.233280 0.820330 0.983449
0.386761 0.820471 0.984438
0.795466 0.829630 0.988959
1.000000 0.840345 0.979678
0.183186 0.823432 0.983304
0.226961 0.823028 0.983265
0.383697 0.823143 0.984257
0.794279 0.832100 0.988798
1.000000 0.840345 0.979678
0.144668 0.833968 0.984005
0.221644 0.833369 0.983947
0.371657 0.833620 0.984933
0.790917 0.846791 0.989514
1.000000 0.852616 0.980865
0.000000 0.895567 0.990150
0.000000 0.895197 0.990116
0.290644 0.897062 0.990709
0.759122 0.902771 0.993208
1.000000 0.912843 0.988810
0.468969 1.000000 1.000000
0.488266 1.000000 1.000000
0.540028 1.000000 1.000000
0.776459 0.997415 1.000000
0.996870 0.999819 1.000000
