Assets/Lutify-Free-LUTs-Pack/Lutify Free LUTs Pack/Commercial Pro - Claire/Lutify.me-Claire-Cineon-to-Rec709.cube
# Created with: fylm.ai - Colour Grading and Collaboration Software in Cloud 
# Website: https://fylm.ai 
# META
# Option: Gamut compress
# Block 1: IDT | ADX10
# Block 2: colourMatch | Blending Mode: Normal | {"ColorSpace":0,"CrossCovarianceLimit":50,"ReshapingIterations":1,"PercentSaturationShift":100,"PercentShadingShift":100,"ExtraShading":true,"PercentTint":100,"PercentModified":100}
# Block 3: HSL | Blending Mode: Normal | {"hue":{"Reds":0,"Yellows":0,"Greens":0,"Cyans":0,"Blues":0,"Magentas":0},"saturation":{"Reds":1,"Yellows":1,"Greens":1,"Cyans":1,"Blues":1,"Magentas":1},"luminance":{"Reds":0.9,"Yellows":0.9,"Greens":0.9,"Cyans":0.8,"Blues":0.8,"Magentas":0.9},"lum_sat":{"Blacks":1,"Shadows":1,"Midtones":1,"Highlights":1,"Whites":1},"sat_sat":{"10":1,"20":1,"30":1,"40":1,"50":1}}
# Block 4: subtractiveColour | Blending Mode: Normal | {"sliders":{"gainY":0.1,"C":0.05,"M":0.05,"Y":0.05}}
# Block 5: logPrimaries | Blending Mode: Normal | {"wheels":{"shadows":{"Y":"0","R":"1","G":"1","B":"1"},"midtones":{"Y":"0","R":"1","G":"1","B":"1"},"highlights":{"Y":"0","R":"1","G":"1","B":"1"},"offset":{"Y":"0","R":"1","G":"1","B":"1"}},"sliders":{"shadows":{"Y":0,"R":-0.05,"G":0,"B":0.1},"midtones":{"Y":0,"R":0,"G":0,"B":0},"highlights":{"Y":0,"R":0,"G":0,"B":0},"offset":{"Y":0,"R":0,"G":0,"B":0}}}
# Block 6: LUT | Filmic Curve Response: Standard Contrast 1 (100%)
# Block 7: LUT | Illuminant: D93 (100%)
# Block 8: LUT | Neutral Tint: Teal Tint 4 (100%)
# Block 9: ODT | Rec709
TITLE "Lutify.me-Claire-Cineon-to-Rec709" 
LUT_3D_SIZE 9
0.000000 0.000000 0.014579
0.000000 0.000000 0.007210
0.132660 0.000000 0.000000
0.236558 0.000000 0.000000
0.344684 0.000000 0.000000
0.472819 0.000000 0.000000
0.666817 0.000000 0.026706
0.881860 0.000000 0.096772
1.000000 0.322287 0.196566
0.000000 0.015685 0.000000
0.000000 0.021639 0.000000
0.137087 0.000000 0.000000
0.252993 0.000000 0.000000
0.363751 0.000000 0.000000
0.517925 0.000000 0.000000
0.731562 0.000000 0.047366
0.941033 0.135670 0.125842
1.000000 0.400111 0.241546
0.000000 0.098445 0.033287
0.000000 0.108099 0.000000
0.134297 0.106241 0.000000
0.266439 0.093160 0.000000
0.397219 0.081826 0.000000
0.575773 0.000000 0.000000
0.792069 0.040130 0.073030
0.987328 0.253045 0.157054
1.000000 0.476829 0.289065
0.000000 0.193336 0.089417
0.000000 0.224409 0.048838
0.000000 0.235493 0.000000
0.265009 0.237860 0.000000
0.446322 0.227846 0.000000
0.649154 0.224433 0.000000
0.855944 0.271202 0.111691
1.000000 0.371176 0.198015
1.000000 0.571436 0.342417
0.000000 0.322898 0.211423
0.000000 0.365186 0.193847
0.000000 0.404312 0.155375
0.142030 0.423523 0.102604
0.468234 0.431949 0.032416
0.710480 0.436889 0.086048
0.909377 0.464597 0.154128
1.000000 0.548971 0.268085
1.000000 0.677922 0.407094
0.000000 0.523911 0.387838
0.000000 0.564814 0.388271
0.000000 0.621090 0.383780
0.000000 0.668168 0.358177
0.368870 0.686534 0.294246
0.727456 0.691085 0.242560
0.931419 0.694592 0.260961
1.000000 0.742964 0.375162
1.000000 0.811276 0.519389
0.000000 0.774173 0.614504
0.000000 0.790796 0.629335
0.000000 0.815247 0.643908
0.000000 0.855849 0.646815
0.000000 0.887962 0.632282
0.694543 0.886174 0.570279
0.908528 0.885713 0.531843
0.988303 0.889683 0.550681
1.000000 0.904515 0.659841
0.000000 0.922771 0.828467
0.000000 0.930109 0.837563
0.000000 0.939432 0.848311
0.000000 0.951834 0.854183
0.202314 0.962359 0.861747
0.703065 0.969676 0.856543
0.886136 0.966544 0.830230
0.974863 0.965351 0.803407
1.000000 0.967175 0.812294
0.000000 0.989088 0.934373
0.000000 0.991688 0.939576
0.291935 0.994853 0.943405
0.422127 0.996452 0.947000
0.596872 0.997423 0.951107
0.759860 0.998608 0.954953
0.887729 0.999584 0.955783
0.964518 0.997494 0.942159
0.998700 0.997030 0.934189
0.000000 0.000000 0.019287
0.000000 0.000000 0.034385
0.125586 0.000000 0.000000
0.219723 0.000000 0.000000
0.326923 0.000000 0.012615
0.469318 0.000000 0.036546
0.670996 0.000000 0.062411
0.889819 0.000000 0.121632
1.000000 0.336056 0.213296
0.000000 0.014302 0.040584
0.000000 0.024275 0.045737
0.129922 0.000000 0.025973
0.235556 0.000000 0.028137
0.353015 0.000000 0.034282
0.517909 0.000000 0.045738
0.736022 0.000000 0.080395
0.943978 0.149200 0.147865
1.000000 0.409208 0.259340
0.000000 0.091571 0.069567
0.000000 0.111594 0.069426
0.117208 0.114078 0.059621
0.257268 0.108993 0.051961
0.386926 0.095554 0.050389
0.575252 0.049037 0.062063
0.791674 0.073398 0.102019
0.989155 0.267533 0.176123
1.000000 0.485423 0.302947
0.000000 0.181436 0.131408
0.000000 0.217318 0.129006
0.000000 0.241046 0.107153
0.257000 0.247302 0.084821
0.444372 0.233320 0.067076
0.651751 0.227358 0.087373
0.859591 0.270457 0.139539
1.000000 0.379876 0.218320
1.000000 0.575822 0.355597
0.000000 0.311769 0.232540
0.000000 0.353369 0.228195
0.000000 0.407382 0.205585
0.147076 0.423360 0.171891
0.471024 0.435254 0.141477
0.709286 0.437049 0.137752
0.915248 0.464217 0.181112
1.000000 0.553412 0.283145
1.000000 0.682111 0.420276
0.000000 0.516505 0.395347
0.000000 0.553490 0.406798
0.000000 0.609514 0.402645
0.000000 0.667961 0.376450
0.387788 0.682149 0.320048
0.726893 0.691044 0.277617
0.933242 0.694537 0.292311
1.000000 0.739683 0.386016
1.000000 0.809031 0.526459
0.000000 0.767087 0.614887
0.000000 0.787513 0.629493
0.000000 0.812312 0.644023
0.000000 0.853284 0.650730
0.000000 0.885648 0.636037
0.700891 0.883922 0.573911
0.911725 0.883742 0.531751
0.990732 0.887951 0.564403
1.000000 0.903135 0.663062
0.000000 0.919577 0.826174
0.000000 0.927089 0.835356
0.000000 0.936636 0.846227
0.000000 0.950680 0.852143
0.224703 0.961102 0.859798
0.712299 0.967574 0.852531
0.890847 0.965483 0.828019
0.976501 0.964529 0.798825
1.000000 0.965005 0.813761
0.000000 0.987910 0.932188
0.000000 0.990466 0.937519
0.269906 0.993820 0.941446
0.411576 0.996077 0.945133
0.583946 0.996782 0.950260
0.762812 0.998046 0.954106
0.893012 0.998990 0.954156
0.966574 0.996822 0.940278
0.999522 0.996497 0.931245
0.000000 0.000000 0.072192
0.000000 0.000000 0.079361
0.086371 0.000000 0.076010
0.200200 0.000000 0.074904
0.312794 0.000000 0.083755
0.459458 0.000000 0.094724
0.670810 0.000000 0.111856
0.893193 0.061396 0.159981
1.000000 0.349531 0.251418
0.000000 0.021133 0.085023
0.000000 0.030162 0.093486
0.103148 0.023926 0.107217
0.221028 0.000000 0.099422
0.345711 0.000000 0.101756
0.514290 0.000000 0.106846
0.735657 0.000000 0.125551
0.945929 0.187457 0.179526
1.000000 0.417905 0.285341
0.000000 0.093304 0.146996
0.000000 0.103705 0.171229
0.088903 0.123795 0.177360
0.241356 0.120866 0.144641
0.377072 0.118996 0.135525
0.573821 0.098884 0.129840
0.800322 0.101205 0.148657
0.987787 0.282133 0.213093
1.000000 0.498020 0.329128
0.000000 0.180773 0.214947
0.000000 0.201500 0.236523
0.000000 0.240467 0.228082
0.215181 0.258363 0.220506
0.431865 0.248102 0.180126
0.648164 0.241890 0.163106
0.862330 0.278278 0.186252
1.000000 0.388528 0.259952
1.000000 0.588476 0.382302
0.000000 0.304988 0.306549
0.000000 0.338149 0.309920
0.000000 0.394034 0.311811
0.067694 0.437250 0.282385
0.465705 0.442482 0.254103
0.713649 0.440542 0.221487
0.916965 0.464257 0.233499
1.000000 0.557693 0.317052
1.000000 0.690358 0.446956
0.000000 0.505377 0.431379
0.000000 0.542151 0.443380
0.000000 0.594236 0.447197
0.000000 0.667714 0.438403
0.387983 0.685709 0.386239
0.736333 0.690212 0.354730
0.934073 0.694535 0.350114
1.000000 0.743145 0.420263
1.000000 0.811545 0.547052
0.000000 0.756143 0.627232
0.000000 0.777256 0.641746
0.000000 0.806179 0.655985
0.000000 0.845670 0.666330
0.000000 0.883072 0.651317
0.706381 0.881584 0.592670
0.913909 0.881655 0.560230
0.992648 0.886199 0.588639
1.000000 0.903132 0.676075
0.000000 0.916316 0.826302
0.000000 0.924065 0.835461
0.000000 0.933778 0.844121
0.000000 0.948195 0.852182
0.224174 0.960001 0.859784
0.716727 0.966496 0.852443
0.895354 0.964404 0.827923
0.978148 0.962867 0.800631
1.000000 0.964230 0.819645
0.000000 0.986832 0.929957
0.000000 0.989510 0.935432
0.222407 0.992251 0.939465
0.398235 0.995113 0.944212
0.581919 0.995766 0.948467
0.762540 0.997626 0.953260
0.898109 0.998391 0.953315
0.969313 0.996382 0.938447
1.000000 0.996210 0.930241
0.000000 0.014465 0.114856
0.000000 0.022635 0.123214
0.060488 0.022949 0.138367
0.179331 0.000000 0.153039
0.305236 0.000000 0.170975
0.453219 0.000000 0.188143
0.668142 0.000000 0.206485
0.892177 0.118861 0.236751
1.000000 0.363018 0.309695
0.000000 0.031336 0.127510
0.000000 0.040335 0.141675
0.075810 0.043937 0.170794
0.202664 0.000000 0.190053
0.341289 0.000000 0.202668
0.506172 0.000000 0.207609
0.726462 0.031797 0.221044
0.947561 0.214859 0.262063
1.000000 0.435139 0.340197
0.000000 0.097089 0.198606
0.000000 0.106991 0.227388
0.000000 0.123336 0.261182
0.222483 0.135224 0.273262
0.388851 0.133636 0.254828
0.566989 0.131049 0.245454
0.789606 0.156636 0.246120
0.990950 0.305099 0.285950
1.000000 0.514516 0.383576
0.000000 0.184316 0.272568
0.000000 0.205620 0.304074
0.000000 0.234795 0.336251
0.202057 0.271936 0.348713
0.420185 0.270355 0.325493
0.636965 0.270923 0.289865
0.866934 0.302285 0.282713
1.000000 0.409911 0.323378
1.000000 0.601022 0.428288
0.000000 0.311931 0.376621
0.000000 0.337256 0.409466
0.000000 0.380815 0.431711
0.000000 0.440464 0.432160
0.414718 0.477046 0.435969
0.702305 0.461202 0.368920
0.914830 0.476984 0.342112
1.000000 0.561762 0.387557
1.000000 0.697988 0.486897
0.000000 0.501524 0.493264
0.000000 0.530694 0.517594
0.000000 0.571331 0.530264
0.000000 0.648579 0.540737
0.354136 0.697999 0.522429
0.744951 0.709110 0.492603
0.930252 0.706405 0.445977
1.000000 0.749834 0.482892
1.000000 0.816324 0.584922
0.000000 0.741042 0.651543
0.000000 0.770167 0.673310
0.000000 0.799810 0.690735
0.000000 0.835334 0.703748
0.000000 0.880662 0.702764
0.712611 0.880783 0.668158
0.912591 0.883107 0.633771
0.991760 0.886044 0.637744
1.000000 0.901686 0.697671
0.000000 0.909282 0.829013
0.000000 0.919273 0.842505
0.000000 0.930896 0.850738
0.000000 0.944377 0.858417
0.220473 0.956560 0.867390
0.724752 0.964255 0.861775
0.899295 0.963274 0.836197
0.978343 0.962730 0.816019
1.000000 0.964155 0.831618
0.000000 0.985556 0.928851
0.000000 0.988338 0.935510
0.189367 0.991054 0.939524
0.384276 0.994107 0.944260
0.568275 0.995064 0.948516
0.762224 0.997195 0.953253
0.901405 0.997882 0.953283
0.970188 0.996028 0.939309
1.000000 0.995638 0.930090
0.000000 0.047761 0.178484
0.000000 0.054400 0.196054
0.000000 0.062036 0.228639
0.125544 0.064797 0.262332
0.279533 0.033386 0.293461
0.463133 0.000000 0.314512
0.673238 0.000000 0.345000
0.899175 0.183628 0.382635
1.000000 0.392672 0.426730
0.000000 0.055875 0.193986
0.000000 0.062427 0.213786
0.000000 0.073333 0.251376
0.161701 0.079332 0.294649
0.314634 0.058882 0.324586
0.526059 0.000000 0.342816
0.732620 0.104775 0.372862
0.954240 0.265610 0.402302
1.000000 0.459527 0.447784
0.000000 0.103186 0.255496
0.000000 0.115787 0.280051
0.000000 0.133504 0.325741
0.161454 0.149334 0.369361
0.367248 0.158505 0.394449
0.586465 0.150130 0.403158
0.801020 0.190885 0.401940
0.991379 0.344306 0.431877
1.000000 0.542370 0.482191
0.000000 0.188425 0.329386
0.000000 0.207882 0.377495
0.000000 0.231404 0.427505
0.132883 0.264388 0.464652
0.410419 0.284449 0.491706
0.657038 0.297608 0.461974
0.864332 0.329858 0.453500
1.000000 0.438804 0.461396
1.000000 0.624924 0.518894
0.000000 0.314177 0.445105
0.000000 0.336697 0.487038
0.000000 0.370954 0.533323
0.000000 0.426873 0.564303
0.407370 0.483776 0.599581
0.683442 0.489156 0.556631
0.902775 0.514318 0.515104
1.000000 0.594231 0.521018
1.000000 0.713125 0.562892
0.000000 0.512012 0.586855
0.000000 0.541421 0.620151
0.000000 0.574661 0.645570
0.000000 0.629311 0.669692
0.299813 0.706055 0.676467
0.707263 0.727704 0.675400
0.914351 0.729487 0.615680
1.000000 0.762632 0.605819
1.000000 0.823326 0.652102
0.000000 0.733092 0.716376
0.000000 0.759199 0.735732
0.000000 0.789805 0.758300
0.000000 0.824675 0.766211
0.000000 0.869822 0.785153
0.708759 0.891417 0.783908
0.908408 0.889427 0.753047
0.987369 0.890612 0.721757
1.000000 0.904423 0.744754
0.000000 0.903665 0.845572
0.000000 0.915944 0.855746
0.000000 0.926520 0.863341
0.000000 0.939071 0.872358
0.162902 0.953317 0.880428
0.722893 0.964123 0.884604
0.898790 0.963822 0.870154
0.977041 0.962456 0.857232
1.000000 0.964042 0.853622
0.000000 0.984498 0.928955
0.000000 0.987268 0.935605
0.000000 0.990284 0.940676
0.356823 0.992613 0.945323
0.552760 0.993757 0.951304
0.761179 0.995847 0.955744
0.904375 0.997346 0.957228
0.970825 0.995648 0.943719
1.000000 0.995297 0.936567
0.000000 0.086702 0.276177
0.000000 0.096281 0.300262
0.000000 0.113247 0.334800
0.000000 0.130065 0.389934
0.207741 0.146093 0.450105
0.427659 0.162786 0.512344
0.675786 0.133644 0.532469
0.884567 0.239322 0.570765
1.000000 0.437115 0.617581
0.000000 0.093107 0.290351
0.000000 0.109671 0.326467
0.000000 0.125580 0.358082
0.000000 0.143694 0.419720
0.255156 0.165392 0.474098
0.491579 0.174967 0.533518
0.735005 0.160811 0.546527
0.937978 0.298967 0.592431
1.000000 0.507893 0.639791
0.000000 0.125901 0.328789
0.000000 0.142177 0.370071
0.000000 0.159074 0.412695
0.000000 0.187276 0.477898
0.314690 0.205713 0.530751
0.558066 0.217830 0.576795
0.801685 0.231472 0.586216
0.977600 0.380509 0.621301
1.000000 0.590155 0.657589
0.000000 0.205198 0.418035
0.000000 0.223385 0.459173
0.000000 0.248043 0.505053
0.000000 0.269857 0.563263
0.330274 0.306176 0.614433
0.637746 0.331157 0.646070
0.876895 0.365015 0.647684
1.000000 0.474465 0.657380
1.000000 0.658964 0.680036
0.000000 0.324688 0.527813
0.000000 0.353159 0.571500
0.000000 0.379842 0.612624
0.000000 0.419997 0.676431
0.321172 0.470317 0.718847
0.681949 0.520294 0.739503
0.906825 0.546299 0.717016
1.000000 0.625354 0.704902
1.000000 0.742400 0.717372
0.000000 0.497029 0.657380
0.000000 0.526088 0.698491
0.000000 0.570571 0.732864
0.000000 0.625543 0.774868
0.000000 0.691531 0.801559
0.698188 0.754248 0.828368
0.900307 0.757265 0.793450
0.988151 0.791271 0.768671
1.000000 0.832148 0.773437
0.000000 0.740607 0.790583
0.000000 0.769835 0.811829
0.000000 0.789766 0.831326
0.000000 0.824477 0.852570
0.000000 0.861060 0.860171
0.676771 0.888434 0.870788
0.899484 0.898931 0.864813
0.980269 0.899565 0.836810
1.000000 0.913591 0.832040
0.000000 0.905793 0.874620
0.000000 0.916247 0.885218
0.000000 0.925161 0.894772
0.000000 0.934990 0.903313
0.000000 0.947585 0.910766
0.695185 0.960329 0.919423
0.896373 0.965913 0.920064
0.975339 0.965924 0.905529
1.000000 0.967367 0.894190
0.000000 0.983324 0.935992
0.000000 0.986243 0.941106
0.000000 0.988689 0.945875
0.310715 0.990461 0.952026
0.523076 0.992729 0.957485
0.749542 0.994418 0.961373
0.903734 0.997287 0.966684
0.972086 0.995717 0.958372
1.000000 0.995403 0.951830
0.000000 0.150926 0.412921
0.000000 0.171588 0.457285
0.000000 0.192346 0.506870
0.000000 0.224688 0.546313
0.000000 0.249343 0.609663
0.323274 0.273416 0.673254
0.635104 0.304248 0.740606
0.887094 0.345680 0.768186
1.000000 0.479782 0.793425
0.000000 0.162726 0.436575
0.000000 0.182881 0.478263
0.000000 0.209195 0.528340
0.000000 0.238794 0.575761
0.000000 0.266516 0.635893
0.396662 0.289524 0.706822
0.706124 0.329112 0.763361
0.939219 0.371854 0.777409
1.000000 0.542473 0.817123
0.000000 0.189377 0.467365
0.000000 0.207566 0.517374
0.000000 0.231382 0.564798
0.000000 0.260809 0.613317
0.153728 0.300703 0.676963
0.474829 0.325261 0.738065
0.772042 0.373967 0.788573
0.978520 0.433067 0.800859
1.000000 0.618505 0.832248
0.000000 0.237086 0.527437
0.000000 0.258828 0.567633
0.000000 0.276899 0.616721
0.000000 0.311811 0.661625
0.213373 0.354031 0.731501
0.543304 0.401728 0.786670
0.842369 0.445358 0.818615
1.000000 0.519592 0.825680
1.000000 0.694582 0.841110
0.000000 0.352562 0.629237
0.000000 0.379600 0.662929
0.000000 0.404878 0.711869
0.000000 0.437170 0.756702
0.000000 0.491731 0.806954
0.577701 0.542653 0.843170
0.888003 0.598016 0.863564
1.000000 0.663834 0.859929
1.000000 0.768756 0.861950
0.000000 0.518480 0.735626
0.000000 0.551743 0.775828
0.000000 0.573862 0.803608
0.000000 0.618076 0.839504
0.000000 0.673712 0.872661
0.588285 0.733729 0.892749
0.891480 0.780389 0.902932
0.983575 0.809954 0.891127
1.000000 0.856952 0.884290
0.000000 0.724992 0.840669
0.000000 0.747921 0.860307
0.000000 0.779809 0.877169
0.000000 0.813576 0.895822
0.000000 0.852597 0.913137
0.609535 0.881134 0.925917
0.886085 0.909534 0.937703
0.969743 0.912518 0.922444
1.000000 0.922234 0.914636
0.000000 0.904019 0.907512
0.000000 0.910962 0.918716
0.000000 0.922332 0.928624
0.000000 0.934315 0.938520
0.000000 0.949270 0.946456
0.654878 0.956715 0.952727
0.887038 0.967663 0.957704
0.970786 0.969927 0.955319
1.000000 0.971030 0.944029
0.000000 0.981286 0.950587
0.000000 0.984521 0.956618
0.000000 0.987788 0.961282
0.232356 0.990468 0.966260
0.501077 0.992566 0.971235
0.715323 0.993275 0.974141
0.888181 0.995493 0.978293
0.970119 0.997044 0.979026
0.999503 0.996595 0.973542
0.000000 0.253554 0.594497
0.000000 0.274325 0.636128
0.000000 0.301878 0.689247
0.000000 0.337937 0.733067
0.000000 0.378254 0.787260
0.000000 0.428474 0.833082
0.486180 0.471572 0.861865
0.820396 0.534332 0.899813
0.989179 0.603146 0.912080
0.000000 0.262659 0.609549
0.000000 0.286599 0.658880
0.000000 0.318256 0.711673
0.000000 0.355045 0.753545
0.000000 0.404013 0.802363
0.154578 0.443992 0.850252
0.583003 0.491487 0.878114
0.889547 0.569011 0.908139
1.000000 0.631806 0.916787
0.000000 0.281868 0.643592
0.000000 0.307535 0.692919
0.000000 0.344068 0.736471
0.000000 0.379216 0.783957
0.000000 0.430636 0.827821
0.298322 0.472831 0.862989
0.661924 0.524526 0.894274
0.936180 0.598319 0.917519
1.000000 0.678496 0.923277
0.000000 0.313571 0.684977
0.000000 0.344684 0.725587
0.000000 0.377236 0.770237
0.000000 0.422413 0.807963
0.000000 0.472293 0.849385
0.409813 0.516815 0.882494
0.751266 0.569086 0.907967
0.964146 0.650098 0.926572
1.000000 0.737098 0.929823
0.000000 0.401483 0.741244
0.000000 0.424690 0.778712
0.000000 0.451755 0.806782
0.000000 0.489293 0.843855
0.000000 0.526172 0.876995
0.474913 0.586733 0.905952
0.836679 0.642942 0.928276
0.980358 0.725794 0.937142
1.000000 0.798636 0.940062
0.000000 0.562651 0.829897
0.000000 0.577477 0.849562
0.000000 0.607370 0.873366
0.000000 0.651952 0.893232
0.000000 0.682758 0.913969
0.484107 0.737874 0.932495
0.832311 0.787048 0.944425
0.969436 0.840698 0.954637
1.000000 0.876662 0.953150
0.000000 0.740437 0.883977
0.000000 0.769636 0.899143
0.000000 0.792847 0.913934
0.000000 0.819060 0.929462
0.000000 0.849155 0.943261
0.505030 0.876422 0.956473
0.845176 0.901105 0.965727
0.967292 0.923396 0.971590
1.000000 0.933782 0.967960
0.000000 0.898429 0.933235
0.000000 0.909724 0.940872
0.000000 0.921239 0.948786
0.000000 0.932195 0.957610
0.000000 0.944142 0.967188
0.584979 0.953812 0.974900
0.859127 0.964240 0.981924
0.966596 0.974893 0.985757
0.999209 0.975624 0.980883
0.000000 0.983498 0.969129
0.000000 0.985222 0.973194
0.000000 0.986910 0.977456
0.000000 0.990523 0.982067
0.442496 0.993211 0.985747
0.700191 0.993250 0.989386
0.874752 0.994532 0.991583
0.967645 0.996770 0.994764
0.998344 0.998141 0.993735
0.000000 0.386916 0.787184
0.000000 0.423559 0.817161
0.000000 0.468451 0.847571
0.000000 0.503733 0.872088
0.000000 0.547266 0.894956
0.000000 0.598028 0.918990
0.313707 0.649846 0.940236
0.680011 0.710540 0.957440
0.917486 0.766899 0.968222
0.000000 0.406826 0.799451
0.000000 0.444164 0.833135
0.000000 0.482463 0.856787
0.000000 0.518112 0.880104
0.000000 0.569320 0.905333
0.000000 0.619722 0.928434
0.412203 0.674154 0.946216
0.772049 0.727916 0.960789
0.949727 0.794338 0.972104
0.000000 0.427076 0.817005
0.000000 0.468608 0.847589
0.000000 0.500299 0.870030
0.000000 0.544104 0.893177
0.000000 0.599310 0.915873
0.080576 0.641135 0.937081
0.508358 0.702875 0.954741
0.823384 0.753133 0.964570
0.977586 0.816407 0.976643
0.000000 0.454851 0.840601
0.000000 0.489946 0.858881
0.000000 0.526084 0.881914
0.000000 0.577806 0.905010
0.000000 0.633013 0.926438
0.233912 0.670389 0.944521
0.610747 0.733116 0.960825
0.884838 0.778188 0.970454
0.996985 0.839924 0.980569
0.000000 0.501356 0.855953
0.000000 0.537943 0.879237
0.000000 0.582597 0.899188
0.000000 0.631011 0.919071
0.000000 0.666537 0.937339
0.330334 0.715926 0.953610
0.712339 0.769704 0.968234
0.918762 0.811963 0.976767
1.000000 0.867043 0.983163
0.000000 0.614723 0.891626
0.000000 0.637176 0.907372
0.000000 0.663346 0.922129
0.000000 0.700708 0.935735
0.000000 0.743947 0.950320
0.375961 0.785555 0.962630
0.770012 0.825759 0.974941
0.933222 0.862426 0.982240
1.000000 0.901489 0.986797
0.000000 0.786017 0.929206
0.000000 0.801687 0.940101
0.000000 0.815986 0.950966
0.000000 0.841379 0.959471
0.000000 0.862114 0.969313
0.376624 0.883819 0.976886
0.793093 0.904018 0.985333
0.945567 0.923391 0.989538
1.000000 0.944652 0.993380
0.000000 0.902379 0.955549
0.000000 0.909383 0.963387
0.000000 0.920419 0.970830
0.000000 0.932413 0.977834
0.000000 0.944903 0.983917
0.491126 0.954386 0.988543
0.828134 0.960761 0.993669
0.949903 0.970840 0.997615
0.997066 0.980069 0.999617
0.000000 0.978795 0.981233
0.000000 0.981695 0.984791
0.000000 0.985355 0.987743
0.000000 0.988935 0.991199
0.292074 0.990362 0.994483
0.644293 0.991508 0.997177
0.846325 0.992595 1.000000
0.953249 0.995269 1.000000
0.996640 0.999636 1.000000
