Assets/Lutify-Free-LUTs-Pack/Lutify Free LUTs Pack/Commercial Pro - Claire/Lutify.me-Claire-SLog3-to-Rec709.cube
# Created with: fylm.ai - Colour Grading and Collaboration Software in Cloud 
# Website: https://fylm.ai 
# META
# Option: Gamut compress
# Block 1: IDT | Sony S-Log3 S-Gamut3
# Block 2: colourMatch | Blending Mode: Normal | {"ColorSpace":0,"CrossCovarianceLimit":50,"ReshapingIterations":1,"PercentSaturationShift":100,"PercentShadingShift":100,"ExtraShading":true,"PercentTint":100,"PercentModified":100}
# Block 3: HSL | Blending Mode: Normal | {"hue":{"Reds":0,"Yellows":0,"Greens":0,"Cyans":0,"Blues":0,"Magentas":0},"saturation":{"Reds":1,"Yellows":1,"Greens":1,"Cyans":1,"Blues":1,"Magentas":1},"luminance":{"Reds":0.9,"Yellows":0.9,"Greens":0.9,"Cyans":0.8,"Blues":0.8,"Magentas":0.9},"lum_sat":{"Blacks":1,"Shadows":1,"Midtones":1,"Highlights":1,"Whites":1},"sat_sat":{"10":1,"20":1,"30":1,"40":1,"50":1}}
# Block 4: subtractiveColour | Blending Mode: Normal | {"sliders":{"gainY":0.1,"C":0.05,"M":0.05,"Y":0.05}}
# Block 5: logPrimaries | Blending Mode: Normal | {"wheels":{"shadows":{"Y":"0","R":"1","G":"1","B":"1"},"midtones":{"Y":"0","R":"1","G":"1","B":"1"},"highlights":{"Y":"0","R":"1","G":"1","B":"1"},"offset":{"Y":"0","R":"1","G":"1","B":"1"}},"sliders":{"shadows":{"Y":0,"R":-0.05,"G":0,"B":0.1},"midtones":{"Y":0,"R":0,"G":0,"B":0},"highlights":{"Y":0,"R":0,"G":0,"B":0},"offset":{"Y":0,"R":0,"G":0,"B":0}}}
# Block 6: LUT | Filmic Curve Response: Standard Contrast 1 (100%)
# Block 7: LUT | Illuminant: D93 (100%)
# Block 8: LUT | Neutral Tint: Teal Tint 4 (100%)
# Block 9: ODT | Rec709
TITLE "Lutify.me-Claire-SLog3-to-Rec709" 
LUT_3D_SIZE 9
0.000000 0.000000 0.000000
0.078968 0.000000 0.000000
0.315694 0.000000 0.000000
0.492913 0.000000 0.000000
0.644530 0.000000 0.000000
0.917747 0.000000 0.042633
1.000000 0.254225 0.193914
1.000000 0.626386 0.428790
1.000000 0.856849 0.712170
0.000000 0.045527 0.000000
0.011187 0.031051 0.000000
0.236363 0.000000 0.000000
0.424089 0.000000 0.000000
0.631943 0.000000 0.000000
0.917391 0.000000 0.044487
1.000000 0.264390 0.195346
1.000000 0.629828 0.428584
1.000000 0.860131 0.712284
0.000000 0.143203 0.000000
0.000000 0.133973 0.000000
0.195624 0.097557 0.000000
0.395694 0.000000 0.000000
0.628264 0.000000 0.000000
0.916534 0.000000 0.040174
1.000000 0.279187 0.196410
1.000000 0.633247 0.431289
1.000000 0.860131 0.712284
0.000000 0.274474 0.000000
0.000000 0.274148 0.000000
0.000000 0.264593 0.000000
0.395773 0.217198 0.000000
0.625364 0.173715 0.000000
0.917872 0.000000 0.033206
1.000000 0.321804 0.202358
1.000000 0.643446 0.433611
1.000000 0.862092 0.715719
0.000000 0.449445 0.124485
0.000000 0.491641 0.000000
0.000000 0.498403 0.000000
0.000000 0.494101 0.000000
0.624209 0.456382 0.000000
0.908474 0.427815 0.000000
1.000000 0.442332 0.212944
1.000000 0.674047 0.441626
1.000000 0.866815 0.718524
0.000000 0.726699 0.370159
0.000000 0.749647 0.357027
0.000000 0.771134 0.347533
0.000000 0.786886 0.276079
0.345458 0.777091 0.111125
0.866674 0.743468 0.000000
1.000000 0.732901 0.236403
1.000000 0.759618 0.473237
1.000000 0.880115 0.727004
0.000000 0.916245 0.663450
0.000000 0.919384 0.663771
0.000000 0.925464 0.657047
0.000000 0.935880 0.647831
0.000000 0.942132 0.613709
0.758252 0.925365 0.492168
0.974690 0.904829 0.362272
1.000000 0.903648 0.562321
1.000000 0.914446 0.757016
0.000000 0.993398 0.870982
0.000000 0.993809 0.871053
0.000000 0.994062 0.871117
0.232169 0.994186 0.873039
0.480428 0.994662 0.871826
0.722457 0.991950 0.857505
0.924071 0.982652 0.792175
1.000000 0.975465 0.708403
1.000000 0.974616 0.824623
0.733584 1.000000 0.961852
0.737429 1.000000 0.961142
0.740283 1.000000 0.961133
0.749550 1.000000 0.961136
0.781101 1.000000 0.961138
0.832220 1.000000 0.960536
0.910057 1.000000 0.955858
0.982646 1.000000 0.930332
1.000000 1.000000 0.893512
0.000000 0.000000 0.044069
0.041589 0.000000 0.005754
0.266721 0.000000 0.000000
0.430182 0.000000 0.000000
0.619226 0.000000 0.000000
0.913755 0.000000 0.063505
1.000000 0.254189 0.202639
1.000000 0.626375 0.431698
1.000000 0.856849 0.712170
0.000000 0.027432 0.055840
0.000000 0.020598 0.043298
0.197631 0.000000 0.000000
0.376717 0.000000 0.000000
0.615199 0.000000 0.000000
0.913388 0.000000 0.066123
1.000000 0.264356 0.204170
1.000000 0.629817 0.431493
1.000000 0.860131 0.712284
0.000000 0.109529 0.076653
0.000000 0.130892 0.046395
0.148392 0.117080 0.000000
0.354663 0.000000 0.000000
0.598948 0.000000 0.000000
0.916521 0.000000 0.066008
1.000000 0.279157 0.205357
1.000000 0.633236 0.434210
1.000000 0.860118 0.714919
0.000000 0.221872 0.131938
0.000000 0.269602 0.068444
0.000000 0.282233 0.000000
0.343671 0.256017 0.000000
0.616790 0.192985 0.000000
0.913939 0.000000 0.068780
1.000000 0.330129 0.210474
1.000000 0.643436 0.436548
1.000000 0.862092 0.715719
0.000000 0.415155 0.236257
0.000000 0.473829 0.188867
0.000000 0.509294 0.135683
0.000000 0.509191 0.000000
0.616228 0.468320 0.000000
0.904282 0.432329 0.000000
1.000000 0.442327 0.220946
1.000000 0.674037 0.444596
1.000000 0.866815 0.718524
0.000000 0.718653 0.407806
0.000000 0.738169 0.398831
0.000000 0.756668 0.382558
0.000000 0.790205 0.330472
0.339413 0.780441 0.183989
0.865230 0.747057 0.000000
1.000000 0.732907 0.252804
1.000000 0.759610 0.476311
1.000000 0.880103 0.729532
0.000000 0.916180 0.678230
0.000000 0.917663 0.671039
0.000000 0.923854 0.668006
0.000000 0.934440 0.658728
0.000000 0.942089 0.624783
0.757048 0.926736 0.506674
0.974338 0.904795 0.381270
1.000000 0.903631 0.568292
1.000000 0.914446 0.757016
0.000000 0.993386 0.872755
0.000000 0.993797 0.872822
0.000000 0.994051 0.872881
0.212985 0.994345 0.873049
0.480208 0.994652 0.873539
0.722314 0.991940 0.859259
0.924071 0.982652 0.792175
1.000000 0.975422 0.711134
1.000000 0.974616 0.824623
0.733584 1.000000 0.961852
0.736482 1.000000 0.961843
0.740243 1.000000 0.961861
0.749550 1.000000 0.961136
0.781101 1.000000 0.961138
0.832220 1.000000 0.960536
0.910057 1.000000 0.955858
0.982646 1.000000 0.930332
1.000000 1.000000 0.893827
0.000000 0.000000 0.141989
0.000000 0.000000 0.073834
0.215682 0.000000 0.043419
0.403367 0.000000 0.024723
0.602841 0.000000 0.044009
0.909808 0.000000 0.090438
1.000000 0.254126 0.216118
1.000000 0.626353 0.437544
1.000000 0.856836 0.714811
0.000000 0.002273 0.132410
0.000000 0.000000 0.099663
0.167096 0.000000 0.071307
0.356590 0.000000 0.056236
0.602973 0.000000 0.051988
0.913422 0.000000 0.093762
1.000000 0.264298 0.217795
1.000000 0.629796 0.437343
1.000000 0.860118 0.714919
0.000000 0.115488 0.190124
0.000000 0.116897 0.190082
0.092535 0.127881 0.182988
0.325231 0.048519 0.092349
0.590653 0.000000 0.060292
0.912745 0.000000 0.096125
1.000000 0.283937 0.218838
1.000000 0.633226 0.437142
1.000000 0.860118 0.714919
0.000000 0.226122 0.251893
0.000000 0.238205 0.257914
0.000000 0.285731 0.217843
0.297329 0.282575 0.117858
0.599100 0.207247 0.059787
0.913790 0.000000 0.103996
1.000000 0.330091 0.225016
1.000000 0.643415 0.442450
1.000000 0.861723 0.717601
0.000000 0.395040 0.323429
0.000000 0.435347 0.302230
0.000000 0.494834 0.264311
0.000000 0.520672 0.161297
0.596436 0.484948 0.000000
0.899999 0.432860 0.095096
1.000000 0.442312 0.240098
1.000000 0.674008 0.453567
1.000000 0.866802 0.721114
0.000000 0.706376 0.453455
0.000000 0.722423 0.444808
0.000000 0.741617 0.435975
0.000000 0.790075 0.395470
0.327650 0.787034 0.250771
0.862315 0.754107 0.000000
1.000000 0.736252 0.275098
1.000000 0.762389 0.482444
1.000000 0.880103 0.729532
0.000000 0.910725 0.688779
0.000000 0.915862 0.689076
0.000000 0.920564 0.685872
0.000000 0.933029 0.680297
0.000000 0.942174 0.643250
0.756214 0.926675 0.527581
0.973303 0.906256 0.404584
1.000000 0.903615 0.574297
1.000000 0.914436 0.759265
0.000000 0.993364 0.876231
0.000000 0.993237 0.874496
0.000000 0.993504 0.874548
0.190479 0.994492 0.874785
0.479991 0.994641 0.875229
0.718231 0.992084 0.862713
0.923829 0.982630 0.796522
1.000000 0.975404 0.715596
1.000000 0.974609 0.826304
0.733584 1.000000 0.961852
0.733584 1.000000 0.961852
0.737390 1.000000 0.961869
0.749510 1.000000 0.961862
0.778515 1.000000 0.961146
0.832172 1.000000 0.961254
0.908633 1.000000 0.956599
0.982587 1.000000 0.931245
1.000000 1.000000 0.894787
0.000000 0.000000 0.206326
0.000000 0.000000 0.123221
0.159407 0.000000 0.086257
0.403698 0.000000 0.062194
0.588494 0.000000 0.117179
0.906173 0.000000 0.152982
1.000000 0.253115 0.249384
1.000000 0.626283 0.455331
1.000000 0.856810 0.720062
0.000000 0.018503 0.204363
0.000000 0.018472 0.160924
0.115003 0.000000 0.144797
0.347318 0.000000 0.104832
0.580728 0.000000 0.147103
0.901608 0.000000 0.157461
1.000000 0.264108 0.251848
1.000000 0.629726 0.455138
1.000000 0.860092 0.720158
0.000000 0.086525 0.253541
0.000000 0.089300 0.241547
0.000000 0.087851 0.260202
0.311880 0.000000 0.216203
0.577216 0.000000 0.179780
0.904723 0.000000 0.165406
1.000000 0.278932 0.253673
1.000000 0.633145 0.457948
1.000000 0.860092 0.720158
0.000000 0.221364 0.345547
0.000000 0.233411 0.354164
0.000000 0.256533 0.395998
0.230927 0.298633 0.389929
0.569301 0.223028 0.254693
0.901474 0.000000 0.180922
1.000000 0.331205 0.261203
1.000000 0.643348 0.460400
1.000000 0.861710 0.720213
0.000000 0.404244 0.465741
0.000000 0.431172 0.489760
0.000000 0.455251 0.492207
0.000000 0.539615 0.443859
0.548104 0.533629 0.322102
0.898916 0.449444 0.220868
1.000000 0.442258 0.279171
1.000000 0.673956 0.468714
1.000000 0.866777 0.726262
0.000000 0.671190 0.558191
0.000000 0.694030 0.552884
0.000000 0.721952 0.543435
0.000000 0.769736 0.517717
0.249404 0.803242 0.411028
0.852160 0.767860 0.265691
1.000000 0.736372 0.337290
1.000000 0.762355 0.494895
1.000000 0.880586 0.738339
0.000000 0.904934 0.723256
0.000000 0.908567 0.723314
0.000000 0.915481 0.720180
0.000000 0.927307 0.717579
0.000000 0.942425 0.693208
0.748826 0.928094 0.584765
0.967725 0.913539 0.457537
1.000000 0.903564 0.592503
1.000000 0.914416 0.763722
0.000000 0.992188 0.882801
0.000000 0.992623 0.882836
0.000000 0.992913 0.881235
0.000000 0.992955 0.881274
0.461165 0.993795 0.880000
0.713699 0.992199 0.871046
0.923226 0.982578 0.807196
1.000000 0.975935 0.729670
1.000000 0.974593 0.829647
0.730629 1.000000 0.962583
0.733546 1.000000 0.962574
0.736443 1.000000 0.962565
0.745850 1.000000 0.962563
0.778472 1.000000 0.961868
0.830084 1.000000 0.961970
0.908582 1.000000 0.957333
0.982529 1.000000 0.932151
1.000000 1.000000 0.896704
0.000000 0.000000 0.229372
0.000000 0.000000 0.190635
0.089808 0.000000 0.178497
0.319750 0.000000 0.138331
0.651058 0.000000 0.098554
0.879467 0.000000 0.296529
1.000000 0.247706 0.343321
1.000000 0.625092 0.494420
1.000000 0.860014 0.735615
0.000000 0.041623 0.272400
0.000000 0.044375 0.247253
0.000000 0.039147 0.240168
0.284429 0.000000 0.223410
0.568973 0.000000 0.158646
0.878987 0.000000 0.312209
1.000000 0.263988 0.346187
1.000000 0.628554 0.494241
1.000000 0.860014 0.735615
0.000000 0.081215 0.321618
0.000000 0.087207 0.316092
0.000000 0.087152 0.324223
0.249589 0.013662 0.331164
0.547226 0.000000 0.266150
0.882416 0.000000 0.325869
1.000000 0.278796 0.351737
1.000000 0.631990 0.497199
1.000000 0.860014 0.735615
0.000000 0.196518 0.428582
0.000000 0.209314 0.438547
0.000000 0.221298 0.462782
0.089995 0.229863 0.508998
0.558593 0.154474 0.457877
0.891097 0.000000 0.377031
1.000000 0.329871 0.365505
1.000000 0.642249 0.499823
1.000000 0.861620 0.738183
0.000000 0.371548 0.551835
0.000000 0.393656 0.565846
0.000000 0.426864 0.618164
0.000000 0.477596 0.658340
0.477095 0.555018 0.668911
0.871582 0.468070 0.491412
1.000000 0.453310 0.396832
1.000000 0.672981 0.514893
1.000000 0.866372 0.740817
0.000000 0.670560 0.730719
0.000000 0.678105 0.740634
0.000000 0.701011 0.749749
0.000000 0.732258 0.751357
0.000000 0.804075 0.722437
0.821247 0.801440 0.603919
1.000000 0.749751 0.482601
1.000000 0.762627 0.543386
1.000000 0.880019 0.746894
0.000000 0.892845 0.801844
0.000000 0.896893 0.801662
0.000000 0.900587 0.801486
0.000000 0.910619 0.801033
0.000000 0.933459 0.789851
0.738783 0.932999 0.718961
0.961969 0.917362 0.592639
1.000000 0.906221 0.647509
1.000000 0.914365 0.774612
0.000000 0.989675 0.899603
0.000000 0.990159 0.899600
0.000000 0.990492 0.899588
0.000000 0.990812 0.898079
0.392867 0.992478 0.895158
0.704312 0.992416 0.889841
0.919069 0.984157 0.839973
1.000000 0.976906 0.765121
1.000000 0.975078 0.843023
0.725598 1.000000 0.966056
0.725598 1.000000 0.966056
0.729515 1.000000 0.966064
0.739210 1.000000 0.964677
0.767003 1.000000 0.964692
0.823346 1.000000 0.964044
0.907052 1.000000 0.960963
0.982717 1.000000 0.937586
1.000000 1.000000 0.902128
0.000000 0.070750 0.368547
0.000000 0.068868 0.368550
0.000000 0.067887 0.371615
0.177138 0.013832 0.377193
0.516573 0.000000 0.322879
0.889124 0.000000 0.206552
1.000000 0.168299 0.547923
1.000000 0.627806 0.612484
1.000000 0.859843 0.767431
0.000000 0.096921 0.407432
0.000000 0.096350 0.410803
0.000000 0.096259 0.420928
0.136997 0.078869 0.430791
0.504748 0.000000 0.398118
0.859772 0.000000 0.289103
1.000000 0.189975 0.558384
1.000000 0.627806 0.612484
1.000000 0.861464 0.767433
0.000000 0.124895 0.447974
0.000000 0.128911 0.454888
0.000000 0.131105 0.465396
0.057493 0.124612 0.479353
0.494413 0.000000 0.473504
0.847726 0.000000 0.378270
1.000000 0.221630 0.568743
1.000000 0.631242 0.615780
1.000000 0.861464 0.767433
0.000000 0.196845 0.525042
0.000000 0.200851 0.536004
0.000000 0.207034 0.546945
0.000000 0.212334 0.584177
0.471622 0.170350 0.616502
0.857938 0.000000 0.522176
1.000000 0.295730 0.593434
1.000000 0.645845 0.619076
1.000000 0.863069 0.767439
0.000000 0.370501 0.663298
0.000000 0.379735 0.678412
0.000000 0.395646 0.700930
0.000000 0.414767 0.737058
0.281765 0.456326 0.782684
0.870311 0.388169 0.736249
1.000000 0.441037 0.645720
1.000000 0.677137 0.632517
1.000000 0.867778 0.769798
0.000000 0.590042 0.766843
0.000000 0.620516 0.788539
0.000000 0.647202 0.816911
0.000000 0.688976 0.845426
0.000000 0.761203 0.869511
0.768649 0.818682 0.872613
0.988793 0.765052 0.759910
1.000000 0.764441 0.671408
1.000000 0.881232 0.784716
0.000000 0.886656 0.901088
0.000000 0.888700 0.902523
0.000000 0.892763 0.902198
0.000000 0.902181 0.906120
0.000000 0.920361 0.905875
0.655135 0.937703 0.896319
0.943722 0.930642 0.848692
1.000000 0.911226 0.762430
1.000000 0.915520 0.807675
0.000000 0.985041 0.929204
0.000000 0.985645 0.929151
0.000000 0.986121 0.929091
0.000000 0.986756 0.928951
0.192717 0.988146 0.928472
0.651303 0.990104 0.926597
0.910661 0.987092 0.903576
0.998345 0.979801 0.847289
1.000000 0.975491 0.867332
0.699541 1.000000 0.971959
0.699541 1.000000 0.971959
0.702764 1.000000 0.971949
0.717381 1.000000 0.971920
0.746601 1.000000 0.971236
0.812685 1.000000 0.971140
0.903625 1.000000 0.970096
0.981229 1.000000 0.949119
1.000000 1.000000 0.916978
0.000000 0.193196 0.634880
0.000000 0.197069 0.642459
0.000000 0.196251 0.646277
0.000000 0.197514 0.661416
0.334446 0.161186 0.675814
0.805135 0.000000 0.634291
1.000000 0.000000 0.478658
1.000000 0.580670 0.804380
1.000000 0.861012 0.838731
0.000000 0.208688 0.649886
0.000000 0.210265 0.657545
0.000000 0.209532 0.661372
0.000000 0.210644 0.676533
0.322848 0.186100 0.690878
0.802608 0.000000 0.664654
1.000000 0.000000 0.523483
1.000000 0.587728 0.806771
1.000000 0.861012 0.838731
0.000000 0.222974 0.668800
0.000000 0.224662 0.676458
0.000000 0.226234 0.680227
0.000000 0.227805 0.695378
0.303973 0.206185 0.717344
0.798756 0.000000 0.694903
1.000000 0.000000 0.569760
1.000000 0.591248 0.809270
1.000000 0.861012 0.838731
0.000000 0.265746 0.713697
0.000000 0.267940 0.717375
0.000000 0.269956 0.721008
0.000000 0.278260 0.735244
0.248457 0.264619 0.755688
0.792735 0.127380 0.776124
1.000000 0.000000 0.669595
1.000000 0.612478 0.818599
1.000000 0.864201 0.840608
0.000000 0.375229 0.784466
0.000000 0.371880 0.791348
0.000000 0.377998 0.794369
0.000000 0.389964 0.809669
0.000000 0.411271 0.836576
0.766012 0.377937 0.860097
1.000000 0.254291 0.789792
1.000000 0.660336 0.831399
1.000000 0.869187 0.842646
0.000000 0.620169 0.875010
0.000000 0.627776 0.878822
0.000000 0.635338 0.882517
0.000000 0.650271 0.891707
0.000000 0.678310 0.911531
0.615048 0.717414 0.928787
0.999959 0.698522 0.907168
1.000000 0.764357 0.861602
1.000000 0.882760 0.848475
0.000000 0.830783 0.913099
0.000000 0.841481 0.919864
0.000000 0.849134 0.925059
0.000000 0.870799 0.935497
0.000000 0.899690 0.949424
0.404308 0.922801 0.959027
0.926587 0.939860 0.959502
1.000000 0.919715 0.914652
1.000000 0.918504 0.869319
0.000000 0.983910 0.972526
0.000000 0.983755 0.972512
0.000000 0.984284 0.973121
0.000000 0.985363 0.973629
0.000000 0.987211 0.975013
0.474675 0.987211 0.974341
0.884511 0.988412 0.971497
0.990658 0.985030 0.951809
1.000000 0.976873 0.916333
0.638337 1.000000 0.983495
0.642176 1.000000 0.983484
0.647279 1.000000 0.983457
0.658378 1.000000 0.983424
0.689989 1.000000 0.983756
0.767747 1.000000 0.983421
0.881528 1.000000 0.983015
0.978553 1.000000 0.974450
1.000000 1.000000 0.951445
0.000000 0.371471 0.873810
0.000000 0.371221 0.873779
0.000000 0.370863 0.876038
0.000000 0.375900 0.880115
0.212396 0.380349 0.889929
0.607464 0.345275 0.893981
1.000000 0.173710 0.880822
1.000000 0.000000 0.779984
1.000000 0.842848 0.932332
0.000000 0.378058 0.875847
0.000000 0.377819 0.875818
0.000000 0.377389 0.878042
0.000000 0.382684 0.882077
0.200092 0.390814 0.891606
0.605611 0.352962 0.895759
1.000000 0.196448 0.884769
1.000000 0.055499 0.789166
1.000000 0.842848 0.932332
0.000000 0.388008 0.879950
0.000000 0.387778 0.879921
0.000000 0.387455 0.882105
0.000000 0.389454 0.886163
0.173613 0.401603 0.895306
0.589990 0.373516 0.901322
1.000000 0.223105 0.888506
1.000000 0.142965 0.798164
1.000000 0.844553 0.933397
0.000000 0.422538 0.887194
0.000000 0.422290 0.889282
0.000000 0.421935 0.889237
0.000000 0.424340 0.893104
0.059253 0.426931 0.904403
0.567825 0.413128 0.909742
1.000000 0.309013 0.906505
1.000000 0.241261 0.830197
1.000000 0.846258 0.933293
0.000000 0.486701 0.904547
0.000000 0.486531 0.908368
0.000000 0.489872 0.908149
0.000000 0.492601 0.913394
0.000000 0.500047 0.921060
0.517065 0.500035 0.931370
1.000000 0.455931 0.935920
1.000000 0.406521 0.885564
1.000000 0.853537 0.936325
0.000000 0.626881 0.935175
0.000000 0.630609 0.934935
0.000000 0.630409 0.936350
0.000000 0.633675 0.937477
0.000000 0.642838 0.944748
0.409669 0.666810 0.956391
0.954870 0.681060 0.963579
1.000000 0.631726 0.935406
1.000000 0.874582 0.942627
0.000000 0.853308 0.964190
0.000000 0.855652 0.963996
0.000000 0.857967 0.964737
0.000000 0.862250 0.967965
0.000000 0.870050 0.973055
0.000000 0.888914 0.978822
0.860733 0.901799 0.985450
1.000000 0.893728 0.976175
1.000000 0.917517 0.956958
0.000000 0.959006 0.978848
0.000000 0.960182 0.979410
0.000000 0.962518 0.980513
0.000000 0.967924 0.983123
0.000000 0.976707 0.988029
0.000000 0.983208 0.992647
0.810729 0.981860 0.995105
0.983106 0.988060 0.996403
1.000000 0.980588 0.979819
0.500052 1.000000 0.999958
0.500052 1.000000 0.999958
0.504962 1.000000 0.999947
0.522278 1.000000 0.999881
0.572192 1.000000 1.000000
0.684749 1.000000 1.000000
0.832265 1.000000 1.000000
0.969723 1.000000 0.999846
1.000000 1.000000 0.993695
0.000000 0.636227 0.971333
0.000000 0.636059 0.971314
0.000000 0.635598 0.972250
0.000000 0.634933 0.973149
0.284832 0.636425 0.976448
0.553949 0.639274 0.981108
0.871038 0.618147 0.981553
1.000000 0.575339 0.977508
1.000000 0.551462 0.932216
0.000000 0.640097 0.971113
0.000000 0.639985 0.972089
0.000000 0.639474 0.972031
0.000000 0.638812 0.972932
0.284755 0.636486 0.977375
0.551744 0.643235 0.980897
0.871038 0.618147 0.981553
1.000000 0.579499 0.978193
1.000000 0.558652 0.933275
0.000000 0.640151 0.972108
0.000000 0.643856 0.971869
0.000000 0.643349 0.971812
0.000000 0.642748 0.973680
0.267435 0.640600 0.977183
0.549487 0.647261 0.981544
0.869729 0.622360 0.982186
1.000000 0.587718 0.978697
1.000000 0.565750 0.934362
0.000000 0.652024 0.973411
0.000000 0.651865 0.973392
0.000000 0.651539 0.973355
0.000000 0.654667 0.974941
0.241823 0.656227 0.977225
0.535900 0.659555 0.982623
0.865795 0.634880 0.983221
1.000000 0.608640 0.981092
1.000000 0.580031 0.938961
0.000000 0.683229 0.977193
0.000000 0.683079 0.977176
0.000000 0.686680 0.977809
0.000000 0.685880 0.977720
0.127481 0.691702 0.978786
0.505465 0.696285 0.983889
0.847991 0.677197 0.986573
1.000000 0.669048 0.985909
1.000000 0.628457 0.954506
0.000000 0.746824 0.982725
0.000000 0.746561 0.982696
0.000000 0.750017 0.983226
0.000000 0.749209 0.983921
0.000000 0.758282 0.985327
0.417202 0.765903 0.987418
0.808748 0.758519 0.989802
1.000000 0.771482 0.993015
1.000000 0.736156 0.971751
0.000000 0.853609 0.990414
0.000000 0.853520 0.991016
0.000000 0.853411 0.991005
0.000000 0.855270 0.991377
0.000000 0.858315 0.992565
0.265137 0.866689 0.994123
0.754434 0.872997 0.997234
1.000000 0.881765 0.998676
1.000000 0.860821 0.988962
0.000000 0.967132 0.999214
0.000000 0.967055 0.999207
0.000000 0.966891 0.999554
0.000000 0.967389 0.999763
0.000000 0.968789 1.000000
0.000000 0.970244 1.000000
0.689838 0.969098 1.000000
0.958263 0.971665 1.000000
1.000000 0.972475 1.000000
0.000000 1.000000 1.000000
0.000000 1.000000 1.000000
0.000000 1.000000 1.000000
0.000000 1.000000 1.000000
0.000000 1.000000 1.000000
0.000000 1.000000 1.000000
0.690299 1.000000 1.000000
0.940075 1.000000 1.000000
1.000000 1.000000 1.000000
