Assets/Lutify-Free-LUTs-Pack/Lutify Free LUTs Pack/Commercial Pro - Claire/Lutify.me-Claire-Rec709-to-Rec709.cube
# Created with: fylm.ai - Colour Grading and Collaboration Software in Cloud 
# Website: https://fylm.ai 
# META
# Option: Gamut compress
# Block 1: IDT | Rec709
# Block 2: colourMatch | Blending Mode: Normal | {"ColorSpace":0,"CrossCovarianceLimit":50,"ReshapingIterations":1,"PercentSaturationShift":100,"PercentShadingShift":100,"ExtraShading":true,"PercentTint":100,"PercentModified":100}
# Block 3: HSL | Blending Mode: Normal | {"hue":{"Reds":0,"Yellows":0,"Greens":0,"Cyans":0,"Blues":0,"Magentas":0},"saturation":{"Reds":1,"Yellows":1,"Greens":1,"Cyans":1,"Blues":1,"Magentas":1},"luminance":{"Reds":0.9,"Yellows":0.9,"Greens":0.9,"Cyans":0.8,"Blues":0.8,"Magentas":0.9},"lum_sat":{"Blacks":1,"Shadows":1,"Midtones":1,"Highlights":1,"Whites":1},"sat_sat":{"10":1,"20":1,"30":1,"40":1,"50":1}}
# Block 4: subtractiveColour | Blending Mode: Normal | {"sliders":{"gainY":0.1,"C":0.05,"M":0.05,"Y":0.05}}
# Block 5: logPrimaries | Blending Mode: Normal | {"wheels":{"shadows":{"Y":"0","R":"1","G":"1","B":"1"},"midtones":{"Y":"0","R":"1","G":"1","B":"1"},"highlights":{"Y":"0","R":"1","G":"1","B":"1"},"offset":{"Y":"0","R":"1","G":"1","B":"1"}},"sliders":{"shadows":{"Y":0,"R":-0.05,"G":0,"B":0.1},"midtones":{"Y":0,"R":0,"G":0,"B":0},"highlights":{"Y":0,"R":0,"G":0,"B":0},"offset":{"Y":0,"R":0,"G":0,"B":0}}}
# Block 6: LUT | Filmic Curve Response: Standard Contrast 1 (100%)
# Block 7: LUT | Illuminant: D93 (100%)
# Block 8: LUT | Neutral Tint: Teal Tint 4 (100%)
# Block 9: ODT | Rec709
TITLE "Lutify.me-Claire-Rec709-to-Rec709" 
LUT_3D_SIZE 5
0.000000 0.000000 0.027457
0.263706 0.000000 0.000000
0.449508 0.000000 0.000000
0.637593 0.000000 0.000000
0.877827 0.000000 0.081467
0.029214 0.219661 0.047126
0.249945 0.210045 0.000000
0.438895 0.194568 0.000000
0.639730 0.176206 0.000000
0.888996 0.122715 0.088803
0.168853 0.402998 0.153123
0.270647 0.400454 0.138619
0.464930 0.390005 0.084465
0.652509 0.375799 0.064197
0.913524 0.345175 0.121910
0.211281 0.602643 0.240429
0.299451 0.601036 0.234501
0.468481 0.603207 0.206209
0.694281 0.594195 0.139203
0.978257 0.563812 0.176147
0.000000 0.947489 0.652063
0.000000 0.949592 0.656475
0.308149 0.954856 0.670106
0.612726 0.963439 0.706867
0.976717 0.974693 0.723847
0.000000 0.043748 0.163996
0.214745 0.018293 0.199392
0.417458 0.060823 0.189898
0.619352 0.052745 0.161916
0.872804 0.000000 0.154616
0.000000 0.224200 0.330882
0.190837 0.246741 0.324560
0.420778 0.226706 0.236750
0.629988 0.206320 0.184658
0.879488 0.156230 0.163435
0.000000 0.427034 0.377712
0.173175 0.429836 0.359954
0.424287 0.421130 0.304690
0.635089 0.403477 0.231978
0.911702 0.353987 0.183614
0.106468 0.618202 0.384637
0.237836 0.616892 0.374168
0.437417 0.623208 0.340930
0.681128 0.610613 0.274618
0.975081 0.576220 0.234570
0.000000 0.947569 0.670003
0.000000 0.949532 0.670719
0.306134 0.954812 0.680423
0.618714 0.964194 0.707344
0.977718 0.974630 0.724126
0.000000 0.098766 0.315729
0.181387 0.101535 0.342812
0.383772 0.116123 0.374753
0.588893 0.144195 0.373153
0.868353 0.132659 0.314940
0.000000 0.230204 0.458940
0.087785 0.244233 0.465376
0.378409 0.254701 0.471264
0.602933 0.249568 0.411609
0.877815 0.199283 0.322485
0.000000 0.413274 0.568738
0.000000 0.428844 0.564138
0.378874 0.460110 0.570287
0.623083 0.442486 0.482048
0.919520 0.378034 0.350844
0.000000 0.622201 0.627192
0.000000 0.632528 0.626548
0.377556 0.651328 0.614494
0.644275 0.652464 0.550038
0.971572 0.600972 0.379749
0.000000 0.948504 0.749304
0.000000 0.951868 0.749811
0.276026 0.957031 0.748072
0.626471 0.966390 0.755918
0.983539 0.975433 0.732388
0.000000 0.176495 0.481902
0.074720 0.185064 0.506700
0.350078 0.194171 0.538107
0.567692 0.190846 0.547361
0.837951 0.181703 0.520297
0.000000 0.245492 0.556743
0.000000 0.249606 0.571361
0.326592 0.267226 0.592698
0.569578 0.280182 0.605824
0.850901 0.241242 0.541295
0.000000 0.412818 0.684465
0.000000 0.421753 0.691681
0.284600 0.443212 0.705372
0.591914 0.469745 0.706474
0.906131 0.425603 0.588876
0.000000 0.614919 0.778470
0.000000 0.618061 0.781503
0.232962 0.644219 0.779462
0.616324 0.687074 0.781656
0.973517 0.629256 0.617048
0.000000 0.937490 0.845912
0.000000 0.942229 0.845765
0.000000 0.953018 0.849737
0.624092 0.972830 0.850820
0.991454 0.978655 0.775456
0.000000 0.428280 0.833590
0.000000 0.434657 0.838529
0.000000 0.453498 0.855140
0.303537 0.479816 0.878504
0.709570 0.512496 0.898256
0.000000 0.456161 0.850446
0.000000 0.462773 0.855026
0.000000 0.478664 0.863579
0.305676 0.501786 0.885900
0.721320 0.527473 0.904958
0.000000 0.528133 0.883642
0.000000 0.535166 0.885283
0.000000 0.544738 0.892625
0.317994 0.569287 0.907762
0.787193 0.594416 0.922455
0.000000 0.656604 0.931088
0.000000 0.660091 0.930815
0.000000 0.669749 0.934231
0.315929 0.688103 0.941855
0.883309 0.727913 0.954401
0.000000 0.939417 0.986833
0.000000 0.942018 0.987144
0.000000 0.949711 0.988866
0.326291 0.968129 0.992559
0.990388 0.994188 1.000000
