Assets/Lutify-Free-LUTs-Pack/Lutify Free LUTs Pack/Commercial Pro - Claire/Lutify.me-Claire-SLog3CineVenice-to-Rec709.cube
# Created with: fylm.ai - Colour Grading and Collaboration Software in Cloud 
# Website: https://fylm.ai 
# META
# Option: Gamut compress
# Block 1: IDT | Sony Venice S-Log3 S-Gamut3.Cine
# Block 2: colourMatch | Blending Mode: Normal | {"ColorSpace":0,"CrossCovarianceLimit":50,"ReshapingIterations":1,"PercentSaturationShift":100,"PercentShadingShift":100,"ExtraShading":true,"PercentTint":100,"PercentModified":100}
# Block 3: HSL | Blending Mode: Normal | {"hue":{"Reds":0,"Yellows":0,"Greens":0,"Cyans":0,"Blues":0,"Magentas":0},"saturation":{"Reds":1,"Yellows":1,"Greens":1,"Cyans":1,"Blues":1,"Magentas":1},"luminance":{"Reds":0.9,"Yellows":0.9,"Greens":0.9,"Cyans":0.8,"Blues":0.8,"Magentas":0.9},"lum_sat":{"Blacks":1,"Shadows":1,"Midtones":1,"Highlights":1,"Whites":1},"sat_sat":{"10":1,"20":1,"30":1,"40":1,"50":1}}
# Block 4: subtractiveColour | Blending Mode: Normal | {"sliders":{"gainY":0.1,"C":0.05,"M":0.05,"Y":0.05}}
# Block 5: logPrimaries | Blending Mode: Normal | {"wheels":{"shadows":{"Y":"0","R":"1","G":"1","B":"1"},"midtones":{"Y":"0","R":"1","G":"1","B":"1"},"highlights":{"Y":"0","R":"1","G":"1","B":"1"},"offset":{"Y":"0","R":"1","G":"1","B":"1"}},"sliders":{"shadows":{"Y":0,"R":-0.05,"G":0,"B":0.1},"midtones":{"Y":0,"R":0,"G":0,"B":0},"highlights":{"Y":0,"R":0,"G":0,"B":0},"offset":{"Y":0,"R":0,"G":0,"B":0}}}
# Block 6: LUT | Filmic Curve Response: Standard Contrast 1 (100%)
# Block 7: LUT | Illuminant: D93 (100%)
# Block 8: LUT | Neutral Tint: Teal Tint 4 (100%)
# Block 9: ODT | Rec709
TITLE "Lutify.me-Claire-SLog3CineVenice-to-Rec709" 
LUT_3D_SIZE 5
0.000000 0.000000 0.000000
0.308569 0.000000 0.000000
0.665658 0.000000 0.000000
1.000000 0.000000 0.113365
1.000000 0.806956 0.581426
0.000000 0.154109 0.000000
0.196588 0.105342 0.000000
0.632124 0.000000 0.000000
1.000000 0.129387 0.109586
1.000000 0.808905 0.581459
0.000000 0.516765 0.000000
0.000000 0.515603 0.000000
0.666377 0.425663 0.000000
1.000000 0.381301 0.101016
1.000000 0.822805 0.588322
0.000000 0.945714 0.585101
0.000000 0.946309 0.574714
0.495092 0.938105 0.503915
0.977876 0.901969 0.200442
1.000000 0.893397 0.635234
0.903542 1.000000 0.952221
0.903542 1.000000 0.952221
0.909301 1.000000 0.949885
0.950574 1.000000 0.934148
1.000000 0.999844 0.841819
0.000000 0.000000 0.147109
0.204292 0.000000 0.042036
0.602335 0.000000 0.000000
1.000000 0.000000 0.138784
1.000000 0.806934 0.586770
0.000000 0.118191 0.191898
0.092535 0.127881 0.182988
0.573936 0.000000 0.040286
1.000000 0.117074 0.141051
1.000000 0.808883 0.586800
0.000000 0.502126 0.260501
0.000000 0.541814 0.203097
0.594219 0.492775 0.000000
1.000000 0.385549 0.140621
1.000000 0.822784 0.593666
0.000000 0.947026 0.629589
0.000000 0.947606 0.622724
0.499923 0.939073 0.550469
0.976224 0.904976 0.254735
1.000000 0.893377 0.640545
0.903490 1.000000 0.952988
0.903490 1.000000 0.952988
0.909347 1.000000 0.950754
0.950514 1.000000 0.935044
1.000000 0.999839 0.842804
0.000000 0.000000 0.180725
0.159039 0.000000 0.092754
0.727980 0.000000 0.059141
1.000000 0.000000 0.284356
1.000000 0.809371 0.617974
0.000000 0.057878 0.279107
0.000000 0.053240 0.276760
0.556309 0.000000 0.148798
1.000000 0.031678 0.290607
1.000000 0.811288 0.620779
0.000000 0.423520 0.610583
0.000000 0.461297 0.639774
0.477095 0.555018 0.668911
1.000000 0.393200 0.342515
1.000000 0.826360 0.626657
0.000000 0.938493 0.784443
0.000000 0.941922 0.781775
0.440197 0.945684 0.756055
0.961389 0.920402 0.527310
1.000000 0.896093 0.679756
0.903131 1.000000 0.958189
0.903131 1.000000 0.958189
0.908881 1.000000 0.957526
0.950888 1.000000 0.943698
1.000000 1.000000 0.858685
0.300860 0.000000 0.167436
0.340862 0.000000 0.159530
0.576186 0.000000 0.143707
1.000000 0.000000 0.151368
1.000000 0.797844 0.792669
0.283892 0.000000 0.197918
0.335567 0.000000 0.173728
0.576186 0.000000 0.143707
1.000000 0.000000 0.151368
1.000000 0.799837 0.792586
0.000000 0.317931 0.755197
0.000000 0.320067 0.769021
0.226675 0.315870 0.795490
1.000000 0.000000 0.646951
1.000000 0.816009 0.797071
0.000000 0.898118 0.949620
0.000000 0.901691 0.950345
0.000000 0.916020 0.955658
0.926587 0.939860 0.959502
1.000000 0.899301 0.835526
0.873723 1.000000 0.982619
0.875414 1.000000 0.982613
0.882436 1.000000 0.982605
0.942393 1.000000 0.980815
1.000000 1.000000 0.935631
0.831457 0.000000 0.251181
0.836098 0.000000 0.251237
0.880821 0.000000 0.249445
1.000000 0.000000 0.248783
1.000000 0.413328 0.427199
0.831457 0.000000 0.251181
0.836098 0.000000 0.251237
0.880821 0.000000 0.249445
1.000000 0.000000 0.248783
1.000000 0.413328 0.427199
0.836098 0.000000 0.251237
0.840711 0.000000 0.251295
0.885122 0.000000 0.249528
1.000000 0.000000 0.248783
1.000000 0.413328 0.427199
0.000000 0.806467 0.989074
0.000000 0.806322 0.989719
0.212536 0.807056 0.990590
0.801255 0.809404 0.994156
1.000000 0.698246 0.969450
0.663086 1.000000 1.000000
0.663086 1.000000 1.000000
0.691442 1.000000 1.000000
0.836769 1.000000 1.000000
1.000000 1.000000 1.000000
