Assets/Lutify-Free-LUTs-Pack/Lutify Free LUTs Pack/Commercial Pro - Claire/Lutify.me-Claire-SLog1-to-Rec709.cube
# Created with: fylm.ai - Colour Grading and Collaboration Software in Cloud 
# Website: https://fylm.ai 
# META
# Option: Gamut compress
# Block 1: IDT | Sony S-Log S-Gamut 10-bit
# Block 2: colourMatch | Blending Mode: Normal | {"ColorSpace":0,"CrossCovarianceLimit":50,"ReshapingIterations":1,"PercentSaturationShift":100,"PercentShadingShift":100,"ExtraShading":true,"PercentTint":100,"PercentModified":100}
# Block 3: HSL | Blending Mode: Normal | {"hue":{"Reds":0,"Yellows":0,"Greens":0,"Cyans":0,"Blues":0,"Magentas":0},"saturation":{"Reds":1,"Yellows":1,"Greens":1,"Cyans":1,"Blues":1,"Magentas":1},"luminance":{"Reds":0.9,"Yellows":0.9,"Greens":0.9,"Cyans":0.8,"Blues":0.8,"Magentas":0.9},"lum_sat":{"Blacks":1,"Shadows":1,"Midtones":1,"Highlights":1,"Whites":1},"sat_sat":{"10":1,"20":1,"30":1,"40":1,"50":1}}
# Block 4: subtractiveColour | Blending Mode: Normal | {"sliders":{"gainY":0.1,"C":0.05,"M":0.05,"Y":0.05}}
# Block 5: logPrimaries | Blending Mode: Normal | {"wheels":{"shadows":{"Y":"0","R":"1","G":"1","B":"1"},"midtones":{"Y":"0","R":"1","G":"1","B":"1"},"highlights":{"Y":"0","R":"1","G":"1","B":"1"},"offset":{"Y":"0","R":"1","G":"1","B":"1"}},"sliders":{"shadows":{"Y":0,"R":-0.05,"G":0,"B":0.1},"midtones":{"Y":0,"R":0,"G":0,"B":0},"highlights":{"Y":0,"R":0,"G":0,"B":0},"offset":{"Y":0,"R":0,"G":0,"B":0}}}
# Block 6: LUT | Filmic Curve Response: Standard Contrast 1 (100%)
# Block 7: LUT | Illuminant: D93 (100%)
# Block 8: LUT | Neutral Tint: Teal Tint 4 (100%)
# Block 9: ODT | Rec709
TITLE "Lutify.me-Claire-SLog1-to-Rec709" 
LUT_3D_SIZE 5
0.000000 0.000000 0.000000
0.453150 0.000000 0.000000
0.644404 0.000000 0.000000
1.000000 0.000000 0.092334
1.000000 0.548944 0.360982
0.000000 0.194645 0.000000
0.286721 0.123482 0.000000
0.620699 0.000000 0.000000
1.000000 0.000000 0.093175
1.000000 0.563231 0.365879
0.000000 0.408932 0.123461
0.000000 0.490707 0.000000
0.623092 0.441534 0.000000
0.990071 0.393049 0.079956
1.000000 0.614386 0.378231
0.000000 0.808053 0.488728
0.000000 0.846534 0.465227
0.000000 0.858240 0.334690
0.927922 0.820083 0.000000
1.000000 0.814990 0.450323
0.000000 0.979494 0.844624
0.000000 0.982031 0.838599
0.233693 0.986373 0.833512
0.811063 0.978633 0.774550
1.000000 0.964073 0.635504
0.000000 0.000000 0.229272
0.303156 0.000000 0.045363
0.599186 0.000000 0.066071
1.000000 0.000000 0.142668
1.000000 0.548869 0.381717
0.000000 0.152833 0.251142
0.142533 0.186630 0.257240
0.578403 0.000000 0.106449
1.000000 0.000000 0.148318
1.000000 0.563170 0.383820
0.000000 0.375845 0.369851
0.000000 0.490816 0.325464
0.558756 0.491470 0.129701
0.991596 0.397375 0.168626
1.000000 0.617084 0.401930
0.000000 0.788468 0.566740
0.000000 0.830630 0.549588
0.000000 0.865571 0.437139
0.921764 0.827726 0.221895
1.000000 0.817267 0.472278
0.000000 0.977779 0.854675
0.000000 0.980526 0.850870
0.180555 0.985870 0.845798
0.809967 0.979244 0.789546
1.000000 0.964773 0.654979
0.000000 0.000000 0.231577
0.170103 0.000000 0.159764
0.646757 0.000000 0.097330
0.998608 0.000000 0.312221
1.000000 0.554658 0.457070
0.000000 0.111803 0.349371
0.000000 0.122364 0.376934
0.554863 0.000000 0.325587
1.000000 0.000000 0.333820
1.000000 0.565443 0.459627
0.000000 0.359493 0.541161
0.000000 0.440507 0.625273
0.469070 0.547904 0.662206
0.979883 0.414397 0.422378
1.000000 0.620429 0.476314
0.000000 0.770640 0.766286
0.000000 0.797204 0.767975
0.000000 0.864230 0.733612
0.902567 0.856132 0.570694
1.000000 0.819224 0.549394
0.000000 0.973561 0.880793
0.000000 0.976464 0.880709
0.000000 0.983304 0.875454
0.805553 0.982241 0.846521
0.998476 0.968190 0.725283
0.000000 0.130291 0.497636
0.000000 0.129660 0.515618
0.448263 0.000000 0.527941
0.952608 0.000000 0.370394
1.000000 0.544099 0.683884
0.000000 0.189188 0.569896
0.000000 0.202488 0.596078
0.397302 0.163081 0.636613
0.956417 0.000000 0.519630
1.000000 0.562170 0.693689
0.000000 0.351723 0.710440
0.000000 0.375510 0.738847
0.194583 0.402372 0.798548
0.968723 0.279473 0.738527
1.000000 0.625580 0.725209
0.000000 0.670301 0.828940
0.000000 0.748502 0.875379
0.000000 0.824575 0.909859
0.854782 0.884472 0.917041
1.000000 0.829688 0.805573
0.000000 0.969645 0.948245
0.000000 0.972219 0.947964
0.000000 0.975619 0.947176
0.743615 0.981033 0.942495
0.988080 0.974444 0.893389
0.000000 0.361824 0.859846
0.000000 0.363830 0.862035
0.246304 0.366187 0.877305
0.886741 0.284449 0.887361
1.000000 0.000000 0.781483
0.000000 0.391355 0.865911
0.000000 0.397088 0.872545
0.202774 0.397608 0.889206
0.876279 0.332900 0.900453
1.000000 0.178845 0.808170
0.000000 0.483114 0.896695
0.000000 0.482417 0.900683
0.000000 0.492639 0.912779
0.839063 0.466465 0.929088
1.000000 0.396155 0.879413
0.000000 0.708508 0.937286
0.000000 0.712093 0.941030
0.000000 0.733442 0.950613
0.699564 0.773551 0.966254
1.000000 0.753417 0.948391
0.000000 0.938577 0.966003
0.000000 0.944087 0.972024
0.000000 0.961708 0.981499
0.455280 0.975706 0.989351
0.974032 0.982428 0.991289
