Assets/Lutify-Free-LUTs-Pack/Lutify Free LUTs Pack/Commercial Pro - Claire/Lutify.me-Claire-ProTune-to-Rec709.cube
# Created with: fylm.ai - Colour Grading and Collaboration Software in Cloud 
# Website: https://fylm.ai 
# META
# Option: Gamut compress
# Block 1: IDT | GoPro ProTune Native ProTune Flat
# Block 2: colourMatch | Blending Mode: Normal | {"ColorSpace":0,"CrossCovarianceLimit":50,"ReshapingIterations":1,"PercentSaturationShift":100,"PercentShadingShift":100,"ExtraShading":true,"PercentTint":100,"PercentModified":100}
# Block 3: HSL | Blending Mode: Normal | {"hue":{"Reds":0,"Yellows":0,"Greens":0,"Cyans":0,"Blues":0,"Magentas":0},"saturation":{"Reds":1,"Yellows":1,"Greens":1,"Cyans":1,"Blues":1,"Magentas":1},"luminance":{"Reds":0.9,"Yellows":0.9,"Greens":0.9,"Cyans":0.8,"Blues":0.8,"Magentas":0.9},"lum_sat":{"Blacks":1,"Shadows":1,"Midtones":1,"Highlights":1,"Whites":1},"sat_sat":{"10":1,"20":1,"30":1,"40":1,"50":1}}
# Block 4: subtractiveColour | Blending Mode: Normal | {"sliders":{"gainY":0.1,"C":0.05,"M":0.05,"Y":0.05}}
# Block 5: logPrimaries | Blending Mode: Normal | {"wheels":{"shadows":{"Y":"0","R":"1","G":"1","B":"1"},"midtones":{"Y":"0","R":"1","G":"1","B":"1"},"highlights":{"Y":"0","R":"1","G":"1","B":"1"},"offset":{"Y":"0","R":"1","G":"1","B":"1"}},"sliders":{"shadows":{"Y":0,"R":-0.05,"G":0,"B":0.1},"midtones":{"Y":0,"R":0,"G":0,"B":0},"highlights":{"Y":0,"R":0,"G":0,"B":0},"offset":{"Y":0,"R":0,"G":0,"B":0}}}
# Block 6: LUT | Filmic Curve Response: Standard Contrast 1 (100%)
# Block 7: LUT | Illuminant: D93 (100%)
# Block 8: LUT | Neutral Tint: Teal Tint 4 (100%)
# Block 9: ODT | Rec709
TITLE "Lutify.me-Claire-ProTune-to-Rec709" 
LUT_3D_SIZE 9
0.000000 0.000000 0.014579
0.049110 0.000000 0.000000
0.131792 0.000000 0.000000
0.220059 0.000000 0.000000
0.311389 0.000000 0.000000
0.393518 0.000000 0.000000
0.508890 0.000000 0.000000
0.627865 0.000000 0.026258
0.770635 0.000000 0.065295
0.000000 0.046198 0.000000
0.030086 0.036055 0.000000
0.112760 0.000000 0.000000
0.197143 0.000000 0.000000
0.291018 0.000000 0.000000
0.376645 0.000000 0.000000
0.486707 0.000000 0.000000
0.602741 0.000000 0.038857
0.765911 0.000000 0.071391
0.000000 0.096367 0.000000
0.000000 0.089730 0.000000
0.106301 0.075819 0.000000
0.185056 0.043908 0.000000
0.274560 0.000000 0.000000
0.358022 0.000000 0.000000
0.476004 0.000000 0.000000
0.590352 0.000000 0.045780
0.756401 0.000000 0.079954
0.000000 0.155173 0.000000
0.000000 0.149355 0.000000
0.125972 0.141689 0.000000
0.210754 0.120112 0.000000
0.290344 0.087908 0.000000
0.359890 0.000000 0.000000
0.458722 0.000000 0.000000
0.594576 0.000000 0.046867
0.756215 0.000000 0.084689
0.000000 0.210498 0.000000
0.121134 0.202292 0.000000
0.187404 0.194574 0.000000
0.262029 0.181170 0.000000
0.348383 0.156702 0.000000
0.409861 0.140223 0.000000
0.485475 0.109361 0.000000
0.595272 0.000000 0.027854
0.746095 0.000000 0.087383
0.209136 0.269889 0.000000
0.243373 0.263232 0.000000
0.290210 0.255071 0.000000
0.355107 0.241490 0.000000
0.436903 0.210373 0.000000
0.534859 0.176271 0.000000
0.570944 0.193710 0.000000
0.633791 0.198078 0.000000
0.764126 0.000000 0.067153
0.340499 0.342852 0.000000
0.358785 0.338683 0.000000
0.389924 0.333523 0.000000
0.443255 0.326088 0.000000
0.514533 0.303070 0.000000
0.621790 0.267901 0.000000
0.726904 0.231593 0.000000
0.740561 0.285319 0.000000
0.787731 0.315873 0.000000
0.496503 0.443714 0.000000
0.507994 0.439272 0.000000
0.532959 0.437386 0.000000
0.573217 0.430410 0.000000
0.640625 0.416651 0.000000
0.704499 0.394638 0.000000
0.802114 0.362812 0.000000
0.910687 0.321728 0.000000
0.890874 0.411878 0.000000
0.697139 0.538403 0.000000
0.702084 0.537995 0.000000
0.712116 0.537156 0.000000
0.734065 0.531310 0.000000
0.765282 0.524536 0.000000
0.816522 0.515791 0.000000
0.880650 0.493807 0.000000
0.949941 0.463978 0.000000
1.000000 0.441306 0.000000
0.000000 0.000000 0.054590
0.005823 0.000000 0.051605
0.111659 0.000000 0.028975
0.195597 0.000000 0.000000
0.291887 0.000000 0.000000
0.388256 0.000000 0.000000
0.501661 0.000000 0.000000
0.628054 0.000000 0.039386
0.765961 0.000000 0.070689
0.000000 0.039706 0.063319
0.008623 0.034646 0.055667
0.105311 0.000000 0.029347
0.182109 0.000000 0.000000
0.276949 0.000000 0.000000
0.368872 0.000000 0.000000
0.486975 0.000000 0.022323
0.602931 0.000000 0.048327
0.766026 0.000000 0.076976
0.000000 0.096172 0.003481
0.000000 0.092265 0.000000
0.091631 0.080763 0.000000
0.168791 0.055302 0.000000
0.259840 0.000000 0.000000
0.350405 0.000000 0.002154
0.472580 0.000000 0.031702
0.590557 0.000000 0.055867
0.756526 0.000000 0.085980
0.000000 0.160914 0.000000
0.000000 0.158545 0.000000
0.096559 0.146512 0.000000
0.187617 0.131186 0.000000
0.272360 0.106472 0.000000
0.351859 0.024416 0.000000
0.455233 0.000000 0.029527
0.590574 0.000000 0.059426
0.751589 0.000000 0.092394
0.000000 0.224080 0.000000
0.000000 0.221017 0.000000
0.135854 0.212177 0.000000
0.234341 0.201440 0.000000
0.309435 0.177180 0.000000
0.383203 0.162304 0.000000
0.481240 0.114910 0.000000
0.595147 0.000000 0.048963
0.746142 0.000000 0.094393
0.207299 0.267629 0.000000
0.244684 0.260805 0.000000
0.283322 0.255638 0.000000
0.340265 0.247944 0.000000
0.403508 0.235366 0.000000
0.487597 0.219336 0.000000
0.537230 0.224882 0.000000
0.625341 0.203680 0.000000
0.759283 0.000000 0.081472
0.340499 0.342852 0.000000
0.358785 0.338683 0.000000
0.389924 0.333523 0.000000
0.443255 0.326088 0.000000
0.514533 0.303070 0.000000
0.613755 0.269285 0.000000
0.726828 0.227813 0.000000
0.707427 0.309437 0.000000
0.787400 0.315978 0.000000
0.496503 0.443714 0.000000
0.507994 0.439272 0.000000
0.532959 0.437386 0.000000
0.573217 0.430410 0.000000
0.640625 0.416651 0.000000
0.704499 0.394638 0.000000
0.793349 0.364042 0.000000
0.910687 0.321728 0.000000
0.871434 0.430396 0.000000
0.697139 0.538403 0.000000
0.702084 0.537995 0.000000
0.712116 0.537156 0.000000
0.734065 0.531310 0.000000
0.765282 0.524536 0.000000
0.816522 0.515791 0.000000
0.880650 0.493807 0.000000
0.949941 0.463978 0.000000
1.000000 0.441306 0.000000
0.000000 0.000000 0.087229
0.000000 0.000000 0.077417
0.078313 0.000000 0.065848
0.177950 0.000000 0.053130
0.277107 0.000000 0.042121
0.374895 0.000000 0.036238
0.494695 0.000000 0.037018
0.615643 0.000000 0.051871
0.761359 0.000000 0.078502
0.000000 0.032934 0.099194
0.000000 0.025072 0.093645
0.076429 0.000000 0.082693
0.165966 0.000000 0.064073
0.260080 0.000000 0.052083
0.359150 0.000000 0.047250
0.476646 0.000000 0.048013
0.594989 0.000000 0.062820
0.756690 0.000000 0.085393
0.000000 0.083664 0.138721
0.000000 0.084452 0.136928
0.059901 0.086746 0.124026
0.145609 0.061486 0.093200
0.243201 0.000000 0.071759
0.337858 0.000000 0.059243
0.466125 0.000000 0.059008
0.586902 0.000000 0.072783
0.756790 0.000000 0.096123
0.000000 0.161115 0.095076
0.000000 0.162052 0.084294
0.000000 0.157607 0.072725
0.151896 0.149074 0.066290
0.249607 0.124093 0.062590
0.328494 0.057128 0.063969
0.448516 0.000000 0.063415
0.586859 0.000000 0.080976
0.751867 0.000000 0.104568
0.000000 0.235350 0.000000
0.000000 0.234727 0.000000
0.000000 0.231188 0.000000
0.177217 0.223185 0.000000
0.264575 0.208576 0.000000
0.358660 0.187043 0.000000
0.462534 0.134718 0.036209
0.590827 0.000000 0.075802
0.741502 0.000000 0.108893
0.000000 0.301605 0.000000
0.081436 0.298079 0.000000
0.175904 0.293460 0.000000
0.247813 0.292826 0.000000
0.329712 0.281935 0.000000
0.418339 0.259561 0.000000
0.510486 0.247457 0.000000
0.620585 0.208225 0.000000
0.759081 0.000000 0.100414
0.341943 0.339833 0.000000
0.354538 0.338957 0.000000
0.389924 0.333523 0.000000
0.438878 0.326486 0.000000
0.514533 0.303070 0.000000
0.593583 0.285801 0.000000
0.654511 0.296621 0.000000
0.678130 0.346827 0.000000
0.782014 0.320839 0.000000
0.492855 0.440355 0.000000
0.507994 0.439272 0.000000
0.532959 0.437386 0.000000
0.573217 0.430410 0.000000
0.640625 0.416651 0.000000
0.704499 0.394638 0.000000
0.793349 0.364042 0.000000
0.910687 0.321728 0.000000
0.846425 0.461552 0.000000
0.697139 0.538403 0.000000
0.702084 0.537995 0.000000
0.712116 0.537156 0.000000
0.734065 0.531310 0.000000
0.765282 0.524536 0.000000
0.816522 0.515791 0.000000
0.880650 0.493807 0.000000
0.949941 0.463978 0.000000
1.000000 0.441306 0.000000
0.000000 0.000000 0.116243
0.000000 0.000000 0.106952
0.059246 0.000000 0.094525
0.153313 0.000000 0.079321
0.266819 0.000000 0.066174
0.366682 0.000000 0.057555
0.491814 0.000000 0.056715
0.611934 0.000000 0.066499
0.752299 0.000000 0.094276
0.000000 0.023558 0.126152
0.000000 0.018217 0.118974
0.058281 0.000000 0.115993
0.145928 0.000000 0.093991
0.254944 0.000000 0.079117
0.348384 0.000000 0.070518
0.470424 0.000000 0.069519
0.595689 0.000000 0.079206
0.752444 0.000000 0.101848
0.000000 0.078066 0.177721
0.000000 0.077103 0.179686
0.000000 0.072544 0.183325
0.128065 0.051316 0.166514
0.230900 0.000000 0.123432
0.325771 0.000000 0.100322
0.449819 0.000000 0.090405
0.575648 0.000000 0.094920
0.747860 0.000000 0.113913
0.000000 0.142832 0.225902
0.000000 0.147214 0.225677
0.000000 0.151150 0.225277
0.113884 0.150410 0.212368
0.231676 0.121162 0.172299
0.320408 0.060056 0.143732
0.446997 0.000000 0.114706
0.579976 0.000000 0.113737
0.743108 0.000000 0.128446
0.000000 0.235270 0.195425
0.000000 0.241202 0.188425
0.000000 0.248679 0.174940
0.090633 0.239809 0.160793
0.231494 0.230455 0.143581
0.330392 0.206980 0.134117
0.450772 0.141449 0.129118
0.582835 0.000000 0.126483
0.742067 0.000000 0.140097
0.000000 0.330707 0.000000
0.000000 0.330214 0.000000
0.000000 0.329344 0.000000
0.089153 0.333309 0.000000
0.236795 0.323844 0.000000
0.359101 0.304790 0.000000
0.492451 0.273265 0.017789
0.613746 0.216554 0.104939
0.753963 0.000000 0.136396
0.098771 0.400258 0.000000
0.141243 0.403116 0.000000
0.198613 0.402125 0.000000
0.258806 0.403898 0.000000
0.331168 0.404612 0.000000
0.435533 0.395449 0.000000
0.550302 0.379221 0.000000
0.654865 0.371741 0.000000
0.775814 0.333543 0.090926
0.492855 0.440355 0.000000
0.502961 0.439637 0.000000
0.529229 0.434041 0.000000
0.569405 0.427076 0.000000
0.640625 0.416651 0.000000
0.704499 0.394638 0.000000
0.793349 0.364042 0.000000
0.821769 0.407676 0.000000
0.827388 0.491553 0.000000
0.697139 0.538403 0.000000
0.702084 0.537995 0.000000
0.713155 0.533116 0.000000
0.728876 0.531763 0.000000
0.760352 0.524985 0.000000
0.812198 0.516193 0.000000
0.877107 0.494112 0.000000
0.950417 0.459786 0.000000
1.000000 0.441306 0.000000
0.000000 0.000000 0.149004
0.000000 0.000000 0.142145
0.017110 0.000000 0.129255
0.126850 0.000000 0.111218
0.246190 0.000000 0.091434
0.366704 0.000000 0.070151
0.495620 0.000000 0.068262
0.612472 0.000000 0.077119
0.743581 0.000000 0.112978
0.000000 0.028880 0.162519
0.000000 0.027591 0.155796
0.000000 0.021684 0.148814
0.121829 0.000000 0.138026
0.235962 0.000000 0.112159
0.348782 0.000000 0.086421
0.470107 0.000000 0.084888
0.588047 0.000000 0.096302
0.739233 0.000000 0.124624
0.000000 0.061750 0.195892
0.000000 0.059569 0.193929
0.000000 0.056892 0.195948
0.109271 0.036683 0.191705
0.220822 0.000000 0.161238
0.319061 0.000000 0.125968
0.430505 0.000000 0.119673
0.576044 0.000000 0.123022
0.735055 0.000000 0.144051
0.000000 0.132242 0.270129
0.000000 0.132041 0.272467
0.000000 0.134197 0.279418
0.000000 0.131984 0.279187
0.201615 0.114847 0.267170
0.315517 0.000000 0.218064
0.427848 0.000000 0.173641
0.568737 0.000000 0.160202
0.730649 0.000000 0.167526
0.000000 0.217775 0.325417
0.000000 0.221614 0.325268
0.000000 0.227251 0.325042
0.000000 0.233943 0.324679
0.188940 0.240216 0.319125
0.306587 0.211920 0.283828
0.444269 0.144570 0.224597
0.572774 0.000000 0.192804
0.748657 0.000000 0.185459
0.000000 0.323311 0.308307
0.000000 0.328718 0.302369
0.000000 0.345325 0.295663
0.000000 0.352585 0.284226
0.146491 0.348544 0.273125
0.307908 0.338063 0.255471
0.468185 0.291207 0.222254
0.590935 0.228027 0.212947
0.744404 0.008877 0.196351
0.000000 0.457569 0.079177
0.000000 0.457225 0.075264
0.000000 0.456764 0.065508
0.000000 0.452258 0.057788
0.200327 0.446509 0.049609
0.348291 0.449028 0.000000
0.494204 0.426567 0.060361
0.636672 0.395879 0.127726
0.767565 0.338991 0.180672
0.115036 0.544190 0.000000
0.161572 0.543780 0.000000
0.215890 0.543037 0.000000
0.278407 0.545504 0.000000
0.359007 0.546945 0.000000
0.441954 0.547470 0.000000
0.542407 0.546058 0.000000
0.682530 0.524490 0.000000
0.815263 0.512799 0.000000
0.692172 0.538811 0.000000
0.698247 0.534370 0.000000
0.708070 0.533547 0.000000
0.728876 0.531763 0.000000
0.760352 0.524985 0.000000
0.812780 0.512119 0.000000
0.877916 0.485904 0.000000
0.950417 0.459786 0.000000
0.922318 0.543896 0.000000
0.000000 0.023140 0.188481
0.000000 0.023893 0.180736
0.000000 0.014455 0.171489
0.090603 0.000000 0.163964
0.210564 0.000000 0.135762
0.334555 0.000000 0.105009
0.514199 0.000000 0.070618
0.638108 0.000000 0.082331
0.753497 0.000000 0.118860
0.000000 0.041249 0.204101
0.000000 0.040368 0.196315
0.000000 0.036223 0.194327
0.078262 0.014279 0.188113
0.202764 0.000000 0.164844
0.322994 0.000000 0.130369
0.488168 0.000000 0.088921
0.604400 0.000000 0.102456
0.739406 0.000000 0.139128
0.000000 0.061436 0.230911
0.000000 0.060593 0.233195
0.000000 0.059848 0.233167
0.048999 0.051608 0.228621
0.190247 0.000000 0.225155
0.310240 0.000000 0.178185
0.435012 0.000000 0.133119
0.564100 0.000000 0.143803
0.721524 0.000000 0.173227
0.000000 0.112653 0.289797
0.000000 0.111144 0.289853
0.000000 0.109117 0.297370
0.000000 0.105857 0.299843
0.172165 0.083235 0.299527
0.294258 0.000000 0.269359
0.425886 0.000000 0.213978
0.556776 0.000000 0.206262
0.722125 0.000000 0.208697
0.000000 0.205694 0.377583
0.000000 0.207799 0.377523
0.000000 0.209557 0.391082
0.000000 0.210667 0.397671
0.095544 0.213776 0.397452
0.283959 0.199655 0.390764
0.436515 0.110945 0.325297
0.570225 0.000000 0.270410
0.726827 0.000000 0.252192
0.000000 0.311026 0.445348
0.000000 0.313612 0.445258
0.000000 0.318784 0.445067
0.000000 0.326415 0.448280
0.000000 0.332849 0.447976
0.271951 0.342577 0.446644
0.434432 0.303158 0.406362
0.580681 0.234544 0.337036
0.737344 0.028648 0.291193
0.000000 0.447221 0.431668
0.000000 0.450421 0.427981
0.000000 0.460484 0.423899
0.000000 0.477407 0.419396
0.000000 0.486493 0.404909
0.235399 0.481446 0.397732
0.429816 0.468167 0.380404
0.619758 0.420003 0.325274
0.754113 0.356652 0.316296
0.000000 0.599192 0.219490
0.000000 0.598915 0.213471
0.000000 0.602365 0.209717
0.000000 0.601514 0.200723
0.142377 0.603503 0.186168
0.333090 0.600297 0.183266
0.482525 0.591140 0.181765
0.649901 0.573745 0.189086
0.799832 0.534210 0.225099
0.277260 0.688944 0.000000
0.287628 0.688760 0.000000
0.307299 0.688385 0.000000
0.343824 0.687594 0.000000
0.400619 0.686109 0.000000
0.469229 0.687852 0.000000
0.579419 0.691479 0.000000
0.704930 0.684576 0.000000
0.818749 0.672698 0.000000
0.000000 0.043701 0.237987
0.000000 0.042443 0.235757
0.000000 0.040631 0.233470
0.025749 0.029951 0.226743
0.159685 0.000000 0.212868
0.300577 0.000000 0.169334
0.457095 0.000000 0.117898
0.732545 0.000000 0.059055
0.814595 0.000000 0.093521
0.000000 0.053780 0.256749
0.000000 0.053854 0.254321
0.000000 0.052912 0.254287
0.000000 0.044753 0.249448
0.147902 0.000000 0.243902
0.288469 0.000000 0.202048
0.432955 0.000000 0.141253
0.672165 0.000000 0.078752
0.767680 0.000000 0.114628
0.000000 0.073476 0.283566
0.000000 0.074343 0.283548
0.000000 0.070476 0.288412
0.000000 0.067928 0.288367
0.133592 0.043951 0.283110
0.272719 0.000000 0.260736
0.417353 0.000000 0.193168
0.604399 0.000000 0.117225
0.729998 0.000000 0.162630
0.000000 0.108378 0.326501
0.000000 0.109523 0.329257
0.000000 0.106346 0.332144
0.000000 0.105365 0.337819
0.111299 0.091798 0.343457
0.264464 0.030698 0.333790
0.413589 0.000000 0.284254
0.544064 0.000000 0.214936
0.706799 0.000000 0.238121
0.000000 0.180489 0.405292
0.000000 0.182347 0.408614
0.000000 0.182063 0.415412
0.000000 0.181247 0.429120
0.000000 0.175827 0.442942
0.241076 0.149483 0.429070
0.411606 0.043344 0.378257
0.560841 0.000000 0.322694
0.720080 0.000000 0.308763
0.000000 0.289351 0.503529
0.000000 0.291790 0.510754
0.000000 0.294093 0.518017
0.000000 0.301350 0.525101
0.000000 0.307804 0.532167
0.185528 0.300283 0.539546
0.411960 0.283645 0.524434
0.589572 0.194367 0.457179
0.734506 0.000000 0.386778
0.000000 0.426313 0.579709
0.000000 0.429543 0.583393
0.000000 0.436170 0.583072
0.000000 0.438896 0.590608
0.000000 0.451516 0.586102
0.101241 0.465731 0.589073
0.395226 0.477192 0.588464
0.583858 0.433271 0.544625
0.748416 0.359716 0.463352
0.000000 0.592116 0.567073
0.000000 0.591806 0.567092
0.000000 0.599143 0.562809
0.000000 0.605941 0.562404
0.000000 0.619505 0.565427
0.169933 0.635563 0.560529
0.381181 0.636699 0.548193
0.583418 0.617754 0.523027
0.759112 0.569487 0.475630
0.000000 0.746484 0.339129
0.000000 0.746050 0.339216
0.000000 0.745758 0.335380
0.000000 0.741352 0.332012
0.195841 0.743972 0.328007
0.341432 0.745459 0.316600
0.496064 0.741141 0.306226
0.646497 0.734634 0.300467
0.791948 0.714623 0.304881
0.000000 0.068010 0.321885
0.000000 0.067749 0.321879
0.000000 0.067234 0.321864
0.000000 0.060678 0.319175
0.093604 0.043269 0.313580
0.232087 0.000000 0.294316
0.398533 0.000000 0.225644
0.592175 0.000000 0.132213
0.904412 0.000000 0.067486
0.000000 0.078019 0.335610
0.000000 0.076676 0.335627
0.000000 0.077396 0.335597
0.000000 0.072675 0.338466
0.083040 0.058499 0.329800
0.224800 0.000000 0.325982
0.391903 0.000000 0.265540
0.568805 0.000000 0.155262
0.904412 0.000000 0.067486
0.000000 0.097436 0.358785
0.000000 0.095861 0.361882
0.000000 0.093978 0.368121
0.000000 0.094866 0.361855
0.029650 0.081766 0.361835
0.211113 0.038003 0.367276
0.382875 0.000000 0.313014
0.541078 0.000000 0.214901
0.865732 0.000000 0.084083
0.000000 0.123303 0.396932
0.000000 0.121780 0.396969
0.000000 0.122911 0.400229
0.000000 0.122135 0.406881
0.000000 0.119247 0.416923
0.196940 0.098116 0.413162
0.378213 0.000000 0.395540
0.544004 0.000000 0.311695
0.734635 0.000000 0.175160
0.000000 0.169780 0.453819
0.000000 0.167733 0.457397
0.000000 0.167480 0.460930
0.000000 0.168722 0.467958
0.000000 0.170843 0.474916
0.172013 0.155729 0.478336
0.373172 0.105598 0.470427
0.543875 0.000000 0.414520
0.702402 0.000000 0.331245
0.000000 0.261637 0.545112
0.000000 0.261567 0.545116
0.000000 0.263732 0.548762
0.000000 0.263167 0.559970
0.000000 0.264091 0.571092
0.110657 0.257091 0.586204
0.359352 0.235836 0.574288
0.545169 0.155882 0.533280
0.723719 0.000000 0.461688
0.000000 0.405714 0.650143
0.000000 0.408991 0.649991
0.000000 0.412178 0.653714
0.000000 0.418505 0.661151
0.000000 0.420697 0.672585
0.000000 0.424890 0.683773
0.305050 0.432308 0.682832
0.546149 0.414425 0.670820
0.750656 0.316964 0.599915
0.000000 0.569368 0.725728
0.000000 0.569199 0.725723
0.000000 0.572726 0.725513
0.000000 0.579853 0.728662
0.000000 0.586121 0.731743
0.000000 0.595582 0.734545
0.265216 0.613755 0.726060
0.552904 0.624016 0.731627
0.750924 0.584441 0.684965
0.000000 0.736092 0.701472
0.000000 0.739715 0.701252
0.000000 0.739488 0.701250
0.000000 0.742570 0.701029
0.000000 0.748742 0.700599
0.000000 0.768316 0.695741
0.373470 0.777414 0.691386
0.565374 0.772368 0.682030
0.739202 0.757470 0.662825
0.000000 0.111189 0.430943
0.000000 0.111066 0.430941
0.000000 0.110670 0.434381
0.000000 0.106484 0.437861
0.000000 0.100901 0.434347
0.152727 0.080098 0.430685
0.324483 0.000000 0.409257
0.515428 0.000000 0.311759
0.782064 0.000000 0.139444
0.000000 0.120208 0.441116
0.000000 0.120096 0.441115
0.000000 0.118096 0.444619
0.000000 0.113798 0.451640
0.000000 0.109706 0.451561
0.137305 0.094241 0.447883
0.317547 0.000000 0.436486
0.513797 0.000000 0.343325
0.743917 0.000000 0.166192
0.000000 0.133160 0.458300
0.000000 0.133054 0.458299
0.000000 0.131133 0.461857
0.000000 0.128647 0.468951
0.000000 0.126452 0.472411
0.117696 0.114823 0.468722
0.305876 0.055516 0.464324
0.508991 0.000000 0.394829
0.698096 0.000000 0.226354
0.000000 0.154242 0.479069
0.000000 0.154046 0.482651
0.000000 0.151941 0.486284
0.000000 0.149224 0.497131
0.000000 0.149226 0.504267
0.088045 0.139801 0.500540
0.306608 0.104894 0.506932
0.508318 0.000000 0.459361
0.688088 0.000000 0.328337
0.000000 0.189839 0.532638
0.000000 0.191858 0.532574
0.000000 0.191566 0.536269
0.000000 0.193126 0.543608
0.000000 0.194008 0.547205
0.000000 0.184111 0.562123
0.278159 0.163315 0.561540
0.503056 0.000000 0.541805
0.703671 0.000000 0.448235
0.000000 0.249080 0.586985
0.000000 0.248939 0.590818
0.000000 0.248754 0.590813
0.000000 0.248283 0.598477
0.000000 0.249661 0.602199
0.000000 0.246951 0.617444
0.268023 0.234885 0.624636
0.509190 0.184364 0.619724
0.711312 0.000000 0.558728
0.000000 0.369568 0.686580
0.000000 0.372594 0.690318
0.000000 0.372461 0.690314
0.000000 0.368960 0.702022
0.000000 0.368296 0.705808
0.000000 0.369366 0.716855
0.232968 0.372656 0.723416
0.495365 0.330118 0.719682
0.724269 0.242156 0.670347
0.000000 0.528241 0.787023
0.000000 0.531925 0.786822
0.000000 0.531712 0.786808
0.000000 0.538865 0.786388
0.000000 0.545621 0.792425
0.000000 0.555165 0.798008
0.000000 0.566478 0.806046
0.447381 0.569215 0.810658
0.710458 0.553017 0.800859
0.000000 0.705631 0.833951
0.000000 0.709485 0.833676
0.000000 0.709241 0.833657
0.000000 0.712779 0.835884
0.000000 0.716024 0.835569
0.000000 0.725988 0.837164
0.000000 0.741607 0.838154
0.470880 0.760051 0.836083
0.716663 0.770003 0.837391
