Assets/Lutify-Free-LUTs-Pack/Lutify Free LUTs Pack/Commercial Pro - Claire/Lutify.me-Claire-SLog3-to-Rec709.cube
# Created with: fylm.ai - Colour Grading and Collaboration Software in Cloud 
# Website: https://fylm.ai 
# META
# Option: Gamut compress
# Block 1: IDT | Sony S-Log3 S-Gamut3
# Block 2: colourMatch | Blending Mode: Normal | {"ColorSpace":0,"CrossCovarianceLimit":50,"ReshapingIterations":1,"PercentSaturationShift":100,"PercentShadingShift":100,"ExtraShading":true,"PercentTint":100,"PercentModified":100}
# Block 3: HSL | Blending Mode: Normal | {"hue":{"Reds":0,"Yellows":0,"Greens":0,"Cyans":0,"Blues":0,"Magentas":0},"saturation":{"Reds":1,"Yellows":1,"Greens":1,"Cyans":1,"Blues":1,"Magentas":1},"luminance":{"Reds":0.9,"Yellows":0.9,"Greens":0.9,"Cyans":0.8,"Blues":0.8,"Magentas":0.9},"lum_sat":{"Blacks":1,"Shadows":1,"Midtones":1,"Highlights":1,"Whites":1},"sat_sat":{"10":1,"20":1,"30":1,"40":1,"50":1}}
# Block 4: subtractiveColour | Blending Mode: Normal | {"sliders":{"gainY":0.1,"C":0.05,"M":0.05,"Y":0.05}}
# Block 5: logPrimaries | Blending Mode: Normal | {"wheels":{"shadows":{"Y":"0","R":"1","G":"1","B":"1"},"midtones":{"Y":"0","R":"1","G":"1","B":"1"},"highlights":{"Y":"0","R":"1","G":"1","B":"1"},"offset":{"Y":"0","R":"1","G":"1","B":"1"}},"sliders":{"shadows":{"Y":0,"R":-0.05,"G":0,"B":0.1},"midtones":{"Y":0,"R":0,"G":0,"B":0},"highlights":{"Y":0,"R":0,"G":0,"B":0},"offset":{"Y":0,"R":0,"G":0,"B":0}}}
# Block 6: LUT | Filmic Curve Response: Standard Contrast 1 (100%)
# Block 7: LUT | Illuminant: D93 (100%)
# Block 8: LUT | Neutral Tint: Teal Tint 4 (100%)
# Block 9: ODT | Rec709
TITLE "Lutify.me-Claire-SLog3-to-Rec709" 
LUT_3D_SIZE 33
0.000000 0.000000 0.000000
0.000000 0.000000 0.000000
0.103811 0.000000 0.000000
0.000000 0.000000 0.000000
0.078968 0.000000 0.000000
0.142884 0.000000 0.000000
0.203201 0.000000 0.000000
0.264177 0.000000 0.000000
0.315694 0.000000 0.000000
0.375613 0.000000 0.000000
0.423353 0.000000 0.000000
0.467242 0.000000 0.000000
0.492913 0.000000 0.000000
0.523438 0.000000 0.000000
0.551918 0.000000 0.000000
0.585141 0.000000 0.000000
0.644530 0.000000 0.000000
0.709612 0.000000 0.000000
0.774641 0.000000 0.000000
0.845640 0.000000 0.000000
0.917747 0.000000 0.042633
0.980598 0.000000 0.073712
1.000000 0.000000 0.110815
1.000000 0.074659 0.150380
1.000000 0.254225 0.193914
1.000000 0.361096 0.242672
1.000000 0.447147 0.294174
1.000000 0.536105 0.354211
1.000000 0.626386 0.428790
1.000000 0.698559 0.498554
1.000000 0.761811 0.565623
1.000000 0.820339 0.642088
1.000000 0.856849 0.712170
0.000000 0.000000 0.000000
0.000000 0.000000 0.000000
0.102523 0.000000 0.000000
0.000000 0.000000 0.000000
0.069598 0.000000 0.000000
0.131145 0.000000 0.000000
0.187154 0.000000 0.000000
0.245657 0.000000 0.000000
0.297125 0.000000 0.000000
0.354128 0.000000 0.000000
0.398713 0.000000 0.000000
0.433146 0.000000 0.000000
0.471033 0.000000 0.000000
0.504431 0.000000 0.000000
0.539897 0.000000 0.000000
0.581091 0.000000 0.000000
0.640299 0.000000 0.000000
0.700914 0.000000 0.000000
0.774625 0.000000 0.000000
0.845570 0.000000 0.000000
0.917633 0.000000 0.043279
0.980489 0.000000 0.073185
1.000000 0.000000 0.110436
1.000000 0.091970 0.150011
1.000000 0.259345 0.193545
1.000000 0.361096 0.242672
1.000000 0.450916 0.293880
1.000000 0.539696 0.353963
1.000000 0.626386 0.428790
1.000000 0.698559 0.498554
1.000000 0.761811 0.565623
1.000000 0.820339 0.642088
1.000000 0.856849 0.712170
0.000000 0.000000 0.000000
0.000000 0.000000 0.000000
0.000000 0.000000 0.000000
0.000000 0.000000 0.000000
0.063757 0.000000 0.000000
0.122715 0.000000 0.000000
0.175793 0.000000 0.000000
0.229792 0.000000 0.000000
0.277372 0.000000 0.000000
0.333166 0.000000 0.000000
0.375759 0.000000 0.000000
0.407941 0.000000 0.000000
0.450133 0.000000 0.000000
0.493381 0.000000 0.000000
0.531975 0.000000 0.000000
0.577036 0.000000 0.000000
0.636087 0.000000 0.000000
0.700940 0.000000 0.000000
0.769840 0.000000 0.000000
0.845521 0.000000 0.000000
0.917574 0.000000 0.042526
0.980262 0.000000 0.073922
1.000000 0.000000 0.110048
1.000000 0.091970 0.150011
1.000000 0.259337 0.195715
1.000000 0.361096 0.242672
1.000000 0.450907 0.296404
1.000000 0.539696 0.353963
1.000000 0.626386 0.428790
1.000000 0.701436 0.498429
1.000000 0.761811 0.565623
1.000000 0.820339 0.642088
1.000000 0.860131 0.712284
0.000000 0.000000 0.000000
0.000000 0.000000 0.000000
0.000000 0.000000 0.000000
0.000000 0.000000 0.000000
0.046487 0.000000 0.000000
0.103690 0.000000 0.000000
0.155529 0.000000 0.000000
0.207689 0.000000 0.000000
0.260101 0.000000 0.000000
0.311101 0.000000 0.000000
0.359596 0.000000 0.000000
0.390230 0.000000 0.000000
0.430351 0.000000 0.000000
0.482456 0.000000 0.000000
0.524149 0.000000 0.000000
0.573023 0.000000 0.000000
0.631885 0.000000 0.000000
0.696618 0.000000 0.000000
0.769824 0.000000 0.000000
0.845468 0.000000 0.000000
0.917453 0.000000 0.043122
0.980159 0.000000 0.073428
1.000000 0.000000 0.111529
1.000000 0.105836 0.151520
1.000000 0.264390 0.195346
1.000000 0.365239 0.244851
1.000000 0.450907 0.296404
1.000000 0.539696 0.353963
1.000000 0.629828 0.428584
1.000000 0.701436 0.498429
1.000000 0.766751 0.565535
1.000000 0.820339 0.642088
1.000000 0.860131 0.712284
0.000000 0.045527 0.000000
0.000000 0.043345 0.000000
0.000000 0.041678 0.000000
0.000000 0.038698 0.000000
0.011187 0.031051 0.000000
0.072244 0.000000 0.000000
0.127757 0.000000 0.000000
0.182476 0.000000 0.000000
0.236363 0.000000 0.000000
0.295247 0.000000 0.000000
0.344071 0.000000 0.000000
0.381872 0.000000 0.000000
0.424089 0.000000 0.000000
0.475300 0.000000 0.000000
0.520317 0.000000 0.000000
0.569007 0.000000 0.000000
0.631943 0.000000 0.000000
0.696635 0.000000 0.000000
0.769809 0.000000 0.000000
0.845414 0.000000 0.000000
0.917391 0.000000 0.044487
0.980054 0.000000 0.074782
1.000000 0.000000 0.111130
1.000000 0.117765 0.151139
1.000000 0.264390 0.195346
1.000000 0.365239 0.244851
1.000000 0.454674 0.296111
1.000000 0.539686 0.356868
1.000000 0.629828 0.428584
1.000000 0.701436 0.498429
1.000000 0.766751 0.565535
1.000000 0.820339 0.642088
1.000000 0.860131 0.712284
0.000000 0.064799 0.000000
0.000000 0.063918 0.000000
0.000000 0.063060 0.000000
0.000000 0.060197 0.000000
0.000000 0.056450 0.000000
0.058729 0.048652 0.000000
0.111309 0.031441 0.000000
0.164305 0.000000 0.000000
0.215691 0.000000 0.000000
0.273900 0.000000 0.000000
0.326299 0.000000 0.000000
0.373681 0.000000 0.000000
0.417934 0.000000 0.000000
0.471872 0.000000 0.000000
0.516595 0.000000 0.000000
0.565033 0.000000 0.000000
0.632007 0.000000 0.000000
0.692320 0.000000 0.000000
0.765028 0.000000 0.000000
0.845358 0.000000 0.000000
0.917262 0.000000 0.042860
0.979948 0.000000 0.074281
1.000000 0.000000 0.110720
1.000000 0.128397 0.150749
1.000000 0.269382 0.194972
1.000000 0.369376 0.244514
1.000000 0.454674 0.296111
1.000000 0.543280 0.356621
1.000000 0.629828 0.428584
1.000000 0.701436 0.498429
1.000000 0.766751 0.565535
1.000000 0.820339 0.642088
1.000000 0.860131 0.712284
0.000000 0.089539 0.000000
0.000000 0.088321 0.000000
0.000000 0.087128 0.000000
0.000000 0.082820 0.000000
0.000000 0.079664 0.000000
0.036216 0.072538 0.000000
0.098474 0.063009 0.000000
0.154736 0.041861 0.000000
0.203016 0.000000 0.000000
0.263468 0.000000 0.000000
0.312132 0.000000 0.000000
0.363273 0.000000 0.000000
0.408985 0.000000 0.000000
0.468532 0.000000 0.000000
0.512920 0.000000 0.000000
0.565145 0.000000 0.000000
0.632109 0.000000 0.000000
0.692362 0.000000 0.000000
0.765006 0.000000 0.000000
0.845300 0.000000 0.000000
0.917128 0.000000 0.043382
0.979840 0.000000 0.073765
1.000000 0.000000 0.110300
1.000000 0.138097 0.150350
1.000000 0.269382 0.194972
1.000000 0.369376 0.244514
1.000000 0.454674 0.296111
1.000000 0.543280 0.356621
1.000000 0.629828 0.428584
1.000000 0.701436 0.498429
1.000000 0.766751 0.565535
1.000000 0.820339 0.642088
1.000000 0.860131 0.712284
0.000000 0.114053 0.000000
0.000000 0.113921 0.000000
0.000000 0.112455 0.000000
0.000000 0.107062 0.000000
0.000000 0.104405 0.000000
0.000000 0.098697 0.000000
0.086243 0.091591 0.000000
0.147506 0.078448 0.000000
0.201561 0.057866 0.000000
0.263907 0.000000 0.000000
0.303310 0.000000 0.000000
0.353488 0.000000 0.000000
0.400532 0.000000 0.000000
0.458365 0.000000 0.000000
0.513205 0.000000 0.000000
0.565395 0.000000 0.000000
0.632247 0.000000 0.000000
0.692436 0.000000 0.000000
0.764970 0.000000 0.000000
0.845145 0.000000 0.000000
0.916916 0.000000 0.040528
0.979502 0.000000 0.075976
1.000000 0.000000 0.109425
1.000000 0.147082 0.151866
1.000000 0.274307 0.196792
1.000000 0.373502 0.244172
1.000000 0.458440 0.295814
1.000000 0.543280 0.356621
1.000000 0.629828 0.428584
1.000000 0.701436 0.498429
1.000000 0.766751 0.565535
1.000000 0.820339 0.642088
1.000000 0.860131 0.712284
0.000000 0.143203 0.000000
0.000000 0.143065 0.000000
0.000000 0.141475 0.000000
0.000000 0.139873 0.000000
0.000000 0.133973 0.000000
0.000000 0.129267 0.000000
0.050131 0.123315 0.000000
0.136043 0.113571 0.000000
0.195624 0.097557 0.000000
0.257528 0.074579 0.000000
0.303966 0.034191 0.000000
0.354493 0.000000 0.000000
0.395694 0.000000 0.000000
0.455961 0.000000 0.000000
0.506362 0.000000 0.000000
0.561754 0.000000 0.000000
0.628264 0.000000 0.000000
0.692532 0.000000 0.000000
0.764928 0.000000 0.000000
0.845012 0.000000 0.000000
0.916534 0.000000 0.040174
0.979267 0.000000 0.076815
1.000000 0.000000 0.110466
1.000000 0.163515 0.151031
1.000000 0.279187 0.196410
1.000000 0.373494 0.246719
1.000000 0.458431 0.298365
1.000000 0.546877 0.356374
1.000000 0.633247 0.431289
1.000000 0.704298 0.498306
1.000000 0.766751 0.565535
1.000000 0.820339 0.642088
1.000000 0.860131 0.712284
0.000000 0.177307 0.000000
0.000000 0.175281 0.000000
0.000000 0.173325 0.000000
0.000000 0.167786 0.000000
0.000000 0.165917 0.000000
0.000000 0.162121 0.000000
0.000000 0.157919 0.000000
0.108839 0.150466 0.000000
0.176157 0.141530 0.000000
0.250067 0.122125 0.000000
0.304367 0.101785 0.000000
0.356198 0.079653 0.000000
0.397629 0.038531 0.000000
0.454346 0.000000 0.000000
0.504282 0.000000 0.000000
0.558672 0.000000 0.000000
0.620312 0.000000 0.000000
0.692681 0.000000 0.000000
0.764875 0.000000 0.000000
0.844758 0.000000 0.000000
0.916199 0.000000 0.040727
0.978639 0.000000 0.075889
1.000000 0.000000 0.111029
1.000000 0.178441 0.152119
1.000000 0.288792 0.197862
1.000000 0.381709 0.246032
1.000000 0.462196 0.298070
1.000000 0.550475 0.356123
1.000000 0.633247 0.431289
1.000000 0.704286 0.501266
1.000000 0.769187 0.565499
1.000000 0.822277 0.642123
1.000000 0.860131 0.712284
0.000000 0.207611 0.000000
0.000000 0.207473 0.000000
0.000000 0.205186 0.000000
0.000000 0.202950 0.000000
0.000000 0.200757 0.000000
0.000000 0.198498 0.000000
0.000000 0.195996 0.000000
0.000000 0.188508 0.000000
0.156179 0.181201 0.000000
0.233643 0.166429 0.000000
0.299964 0.144410 0.000000
0.357307 0.127265 0.000000
0.399737 0.114376 0.000000
0.456864 0.088855 0.000000
0.506269 0.029216 0.000000
0.564355 0.000000 0.000000
0.617060 0.000000 0.000000
0.697182 0.000000 0.000000
0.764809 0.000000 0.000000
0.844509 0.000000 0.000000
0.919582 0.000000 0.039266
0.978088 0.000000 0.077440
1.000000 0.024624 0.112571
1.000000 0.198922 0.152743
1.000000 0.298223 0.199325
1.000000 0.385793 0.248263
1.000000 0.469721 0.297468
1.000000 0.554067 0.358807
1.000000 0.636663 0.431086
1.000000 0.707253 0.501141
1.000000 0.769175 0.568473
1.000000 0.822277 0.642123
1.000000 0.860131 0.712284
0.000000 0.240493 0.000000
0.000000 0.240367 0.000000
0.000000 0.238229 0.000000
0.000000 0.238044 0.000000
0.000000 0.235864 0.000000
0.000000 0.235588 0.000000
0.000000 0.233269 0.000000
0.000000 0.232002 0.000000
0.085640 0.223654 0.000000
0.210469 0.212197 0.000000
0.276211 0.199344 0.000000
0.349835 0.179839 0.000000
0.401176 0.162682 0.000000
0.456184 0.149001 0.000000
0.513285 0.136934 0.000000
0.567289 0.127127 0.000000
0.618975 0.099604 0.000000
0.697673 0.000000 0.000000
0.769462 0.000000 0.000000
0.844069 0.000000 0.000000
0.918943 0.000000 0.035812
0.977339 0.000000 0.078259
1.000000 0.121648 0.114042
1.000000 0.223232 0.154921
1.000000 0.308173 0.199001
1.000000 0.393947 0.247560
1.000000 0.473473 0.299749
1.000000 0.557670 0.358557
1.000000 0.640067 0.430885
1.000000 0.710324 0.501015
1.000000 0.771589 0.568440
1.000000 0.822277 0.642123
1.000000 0.862104 0.713100
0.000000 0.274474 0.000000
0.000000 0.279056 0.000000
0.000000 0.276742 0.000000
0.000000 0.274342 0.000000
0.000000 0.274148 0.000000
0.000000 0.271684 0.000000
0.000000 0.269120 0.000000
0.000000 0.268334 0.000000
0.000000 0.264593 0.000000
0.151178 0.258910 0.000000
0.244813 0.249582 0.000000
0.327235 0.235403 0.000000
0.395773 0.217198 0.000000
0.458299 0.201730 0.000000
0.516686 0.195207 0.000000
0.570492 0.191833 0.000000
0.625364 0.173715 0.000000
0.698908 0.149094 0.000000
0.769469 0.098589 0.000000
0.847955 0.000000 0.000000
0.917872 0.000000 0.033206
0.979306 0.000000 0.079917
1.000000 0.171959 0.117421
1.000000 0.245455 0.157562
1.000000 0.321804 0.202358
1.000000 0.402868 0.250042
1.000000 0.484838 0.301437
1.000000 0.564875 0.361006
1.000000 0.643446 0.433611
1.000000 0.713375 0.500891
1.000000 0.772196 0.569327
1.000000 0.824203 0.642163
1.000000 0.862092 0.715719
0.000000 0.316133 0.000000
0.000000 0.321464 0.000000
0.000000 0.324139 0.000000
0.000000 0.324105 0.000000
0.000000 0.324054 0.000000
0.000000 0.323984 0.000000
0.000000 0.321140 0.000000
0.000000 0.318047 0.000000
0.000000 0.317135 0.000000
0.000000 0.312503 0.000000
0.180604 0.306419 0.000000
0.285460 0.298616 0.000000
0.364723 0.284154 0.000000
0.451129 0.266039 0.000000
0.518326 0.251113 0.000000
0.577397 0.253994 0.000000
0.628561 0.245076 0.000000
0.700882 0.236397 0.000000
0.769794 0.210087 0.000000
0.846757 0.177264 0.000000
0.916164 0.142675 0.000000
0.977101 0.156244 0.077146
1.000000 0.228289 0.120747
1.000000 0.271313 0.159260
1.000000 0.344001 0.202566
1.000000 0.414938 0.254286
1.000000 0.492462 0.303451
1.000000 0.572097 0.360499
1.000000 0.647744 0.434265
1.000000 0.716396 0.503743
1.000000 0.774571 0.569300
1.000000 0.824190 0.645153
1.000000 0.862092 0.715719
0.000000 0.351822 0.000000
0.000000 0.366040 0.000000
0.000000 0.368940 0.000000
0.000000 0.371850 0.000000
0.000000 0.377770 0.000000
0.000000 0.374716 0.000000
0.000000 0.374610 0.000000
0.000000 0.371444 0.000000
0.000000 0.373962 0.000000
0.000000 0.372951 0.000000
0.000000 0.367945 0.000000
0.199931 0.364866 0.000000
0.319029 0.356750 0.000000
0.414304 0.341309 0.000000
0.508704 0.319962 0.000000
0.576314 0.315290 0.000000
0.641996 0.313292 0.000000
0.702411 0.307694 0.000000
0.770247 0.292421 0.000000
0.844911 0.277408 0.000000
0.916118 0.257303 0.000000
0.973613 0.240335 0.067831
1.000000 0.269886 0.117246
1.000000 0.305191 0.159814
1.000000 0.366225 0.205601
1.000000 0.435682 0.255745
1.000000 0.508581 0.305577
1.000000 0.579318 0.362964
1.000000 0.654408 0.436813
1.000000 0.722402 0.503516
1.000000 0.779242 0.572233
1.000000 0.826104 0.645195
1.000000 0.863685 0.715783
0.000000 0.386866 0.044250
0.000000 0.412327 0.000000
0.000000 0.422171 0.000000
0.000000 0.425455 0.000000
0.000000 0.428767 0.000000
0.000000 0.432140 0.000000
0.000000 0.435490 0.000000
0.000000 0.431940 0.000000
0.000000 0.428274 0.000000
0.000000 0.434668 0.000000
0.000000 0.433438 0.000000
0.000000 0.428334 0.000000
0.228692 0.425391 0.000000
0.361504 0.420615 0.000000
0.473784 0.406848 0.000000
0.562460 0.385125 0.000000
0.642119 0.380468 0.000000
0.713880 0.372040 0.000000
0.778623 0.363720 0.000000
0.846506 0.358311 0.000000
0.911246 0.345236 0.000000
0.970893 0.325127 0.060433
1.000000 0.326790 0.111538
1.000000 0.350875 0.158699
1.000000 0.396380 0.210221
1.000000 0.460155 0.258926
1.000000 0.532197 0.307071
1.000000 0.590160 0.368200
1.000000 0.664298 0.439200
1.000000 0.728325 0.503303
1.000000 0.781548 0.572220
1.000000 0.828006 0.645242
1.000000 0.865264 0.715852
0.000000 0.449445 0.124485
0.000000 0.470420 0.100802
0.000000 0.481015 0.079561
0.000000 0.488107 0.051398
0.000000 0.491641 0.000000
0.000000 0.491592 0.000000
0.000000 0.498707 0.000000
0.000000 0.502187 0.000000
0.000000 0.498403 0.000000
0.000000 0.498029 0.000000
0.000000 0.504640 0.000000
0.000000 0.499786 0.000000
0.000000 0.494101 0.000000
0.278287 0.494019 0.000000
0.419247 0.492398 0.000000
0.525902 0.475229 0.000000
0.624209 0.456382 0.000000
0.717204 0.439881 0.000000
0.780263 0.440958 0.000000
0.854821 0.433070 0.000000
0.908474 0.427815 0.000000
0.961967 0.419602 0.000000
1.000000 0.405391 0.114286
1.000000 0.411907 0.157443
1.000000 0.442332 0.212944
1.000000 0.492606 0.266392
1.000000 0.555691 0.311351
1.000000 0.609111 0.370763
1.000000 0.674047 0.441626
1.000000 0.734152 0.506091
1.000000 0.788884 0.576069
1.000000 0.831757 0.648339
1.000000 0.866815 0.718524
0.000000 0.520735 0.182048
0.000000 0.531827 0.173256
0.000000 0.542980 0.160715
0.000000 0.554178 0.147256
0.000000 0.557890 0.135354
0.000000 0.561601 0.122591
0.000000 0.565312 0.112815
0.000000 0.572745 0.089906
0.000000 0.576358 0.039822
0.000000 0.572272 0.000000
0.000000 0.575563 0.000000
0.000000 0.578548 0.000000
0.000000 0.573319 0.000000
0.000000 0.570770 0.000000
0.320073 0.574401 0.000000
0.465524 0.565372 0.000000
0.589574 0.546944 0.000000
0.696189 0.527281 0.000000
0.775031 0.524357 0.000000
0.847740 0.517903 0.000000
0.910232 0.509059 0.000000
0.964759 0.510499 0.000000
1.000000 0.501874 0.101649
1.000000 0.499495 0.155612
1.000000 0.500106 0.213786
1.000000 0.536105 0.269676
1.000000 0.578345 0.320744
1.000000 0.630829 0.375328
1.000000 0.689954 0.446755
1.000000 0.742730 0.508824
1.000000 0.793347 0.579055
1.000000 0.835453 0.651454
1.000000 0.868362 0.718598
0.000000 0.584291 0.236488
0.000000 0.591844 0.229126
0.000000 0.599403 0.224703
0.000000 0.606979 0.220183
0.000000 0.618376 0.214769
0.000000 0.625976 0.206835
0.000000 0.633543 0.198720
0.000000 0.637254 0.187612
0.000000 0.640879 0.171483
0.000000 0.640625 0.147609
0.000000 0.647850 0.111967
0.000000 0.647265 0.039874
0.000000 0.642404 0.000000
0.000000 0.640487 0.000000
0.120503 0.645297 0.000000
0.380040 0.637149 0.000000
0.527666 0.627664 0.000000
0.659351 0.620284 0.000000
0.756986 0.601478 0.000000
0.836101 0.591235 0.000000
0.899688 0.586704 0.000000
0.952838 0.588428 0.000000
0.992767 0.580050 0.077787
1.000000 0.581564 0.157911
1.000000 0.576917 0.222977
1.000000 0.583746 0.276096
1.000000 0.616106 0.326319
1.000000 0.652197 0.386266
1.000000 0.706558 0.454990
1.000000 0.757139 0.515404
1.000000 0.800431 0.582957
1.000000 0.839490 0.655431
1.000000 0.871397 0.721340
0.000000 0.652750 0.297367
0.000000 0.660375 0.292897
0.000000 0.667995 0.288391
0.000000 0.671793 0.284390
0.000000 0.679384 0.283323
0.000000 0.683135 0.279307
0.000000 0.694548 0.274079
0.000000 0.698235 0.266505
0.000000 0.702055 0.251847
0.000000 0.714095 0.239075
0.000000 0.717789 0.220496
0.000000 0.717319 0.198837
0.000000 0.712594 0.165455
0.000000 0.711185 0.132182
0.000000 0.716645 0.000000
0.273128 0.708990 0.000000
0.451423 0.708642 0.000000
0.622254 0.697448 0.000000
0.733185 0.682750 0.000000
0.820144 0.668360 0.000000
0.883842 0.664010 0.000000
0.939228 0.661264 0.000000
0.978407 0.652710 0.059493
1.000000 0.657791 0.163426
1.000000 0.656636 0.226702
1.000000 0.649771 0.283271
1.000000 0.657092 0.335153
1.000000 0.686758 0.393569
1.000000 0.728995 0.463208
1.000000 0.770763 0.525156
1.000000 0.811586 0.586971
1.000000 0.844832 0.658613
1.000000 0.875831 0.724166
0.000000 0.726699 0.370159
0.000000 0.734515 0.365758
0.000000 0.742194 0.361366
0.000000 0.745929 0.357349
0.000000 0.749647 0.357027
0.000000 0.753323 0.356714
0.000000 0.756958 0.356412
0.000000 0.760487 0.352382
0.000000 0.771134 0.347533
0.000000 0.777925 0.335103
0.000000 0.784466 0.318808
0.000000 0.787476 0.295187
0.000000 0.786886 0.276079
0.000000 0.785828 0.253350
0.000000 0.787147 0.210377
0.000000 0.784067 0.173861
0.345458 0.777091 0.111125
0.540541 0.778068 0.000000
0.686904 0.768146 0.000000
0.797953 0.751422 0.000000
0.866674 0.743468 0.000000
0.926521 0.736352 0.000000
0.964738 0.731413 0.000000
0.992830 0.735112 0.161916
1.000000 0.732901 0.236403
1.000000 0.731960 0.295917
1.000000 0.726196 0.344895
1.000000 0.725040 0.408501
1.000000 0.759618 0.473237
1.000000 0.788356 0.532080
1.000000 0.821908 0.596166
1.000000 0.852013 0.664854
1.000000 0.880115 0.727004
0.000000 0.795289 0.436123
0.000000 0.798492 0.435970
0.000000 0.801661 0.432039
0.000000 0.801594 0.432063
0.000000 0.804679 0.431939
0.000000 0.807742 0.431816
0.000000 0.810700 0.431724
0.000000 0.813654 0.427845
0.000000 0.819433 0.427684
0.000000 0.830678 0.419866
0.000000 0.835859 0.408527
0.000000 0.838138 0.393518
0.000000 0.840173 0.378587
0.000000 0.841825 0.359982
0.000000 0.842771 0.332954
0.000000 0.837738 0.293353
0.208903 0.834507 0.258420
0.473913 0.832141 0.207079
0.634436 0.826279 0.175106
0.760982 0.819963 0.121551
0.840007 0.810052 0.000000
0.909164 0.800344 0.000000
0.952391 0.792454 0.007539
0.979793 0.797045 0.173335
1.000000 0.794390 0.255024
1.000000 0.795402 0.317197
1.000000 0.794892 0.372719
1.000000 0.787454 0.425305
1.000000 0.794173 0.487238
1.000000 0.811638 0.545503
1.000000 0.835760 0.602701
1.000000 0.862382 0.671337
1.000000 0.885657 0.734952
0.000000 0.844345 0.510882
0.000000 0.846876 0.510879
0.000000 0.849390 0.507060
0.000000 0.851837 0.507080
0.000000 0.851744 0.507101
0.000000 0.854189 0.507123
0.000000 0.856583 0.503344
0.000000 0.861369 0.503424
0.000000 0.863583 0.503504
0.000000 0.865848 0.499782
0.000000 0.870398 0.492392
0.000000 0.877128 0.485188
0.000000 0.878840 0.470316
0.000000 0.884672 0.459673
0.000000 0.885479 0.437643
0.000000 0.881244 0.411702
0.000000 0.878887 0.375032
0.412369 0.874137 0.342147
0.592081 0.868791 0.296456
0.726443 0.865130 0.268673
0.818255 0.862438 0.227344
0.888066 0.851550 0.186367
0.935824 0.841680 0.145407
0.968706 0.839979 0.198979
0.992980 0.839232 0.277772
1.000000 0.839361 0.343124
1.000000 0.840227 0.400100
1.000000 0.835066 0.456825
1.000000 0.837506 0.508819
1.000000 0.837188 0.559746
1.000000 0.852934 0.615886
1.000000 0.873673 0.678062
1.000000 0.894182 0.741821
0.000000 0.889273 0.584941
0.000000 0.889234 0.584946
0.000000 0.889169 0.581092
0.000000 0.891313 0.581199
0.000000 0.891271 0.581205
0.000000 0.893341 0.581327
0.000000 0.893251 0.581339
0.000000 0.895251 0.577621
0.000000 0.895101 0.577640
0.000000 0.896944 0.573954
0.000000 0.900757 0.574285
0.000000 0.906130 0.567208
0.000000 0.911075 0.560286
0.000000 0.915465 0.545989
0.000000 0.915852 0.538988
0.000000 0.914269 0.520621
0.000000 0.915835 0.492102
0.318700 0.912344 0.456198
0.541551 0.905552 0.424379
0.678313 0.900481 0.383375
0.783910 0.897113 0.358643
0.871778 0.890498 0.320636
0.919391 0.889352 0.297273
0.957876 0.880099 0.252715
0.986560 0.873092 0.303579
1.000000 0.874443 0.370527
1.000000 0.874554 0.425156
1.000000 0.871561 0.476324
1.000000 0.874438 0.542756
1.000000 0.874662 0.582417
1.000000 0.873911 0.631143
1.000000 0.888515 0.691813
1.000000 0.903203 0.747521
0.000000 0.916245 0.663450
0.000000 0.917917 0.663601
0.000000 0.917863 0.663605
0.000000 0.919442 0.663767
0.000000 0.919384 0.663771
0.000000 0.920998 0.660206
0.000000 0.922561 0.660387
0.000000 0.924024 0.660581
0.000000 0.925464 0.657047
0.000000 0.926785 0.657267
0.000000 0.929483 0.653987
0.000000 0.933513 0.651004
0.000000 0.935880 0.647831
0.000000 0.938020 0.644716
0.000000 0.938486 0.637619
0.000000 0.941383 0.627576
0.000000 0.942132 0.613709
0.288617 0.939101 0.580934
0.501449 0.934975 0.552419
0.646228 0.931622 0.518614
0.758252 0.925365 0.492168
0.852384 0.919075 0.454775
0.898927 0.919253 0.418332
0.941672 0.913912 0.398887
0.974690 0.904829 0.362272
0.996675 0.902221 0.400774
1.000000 0.901767 0.450583
1.000000 0.900359 0.500273
1.000000 0.903648 0.562321
1.000000 0.904654 0.610425
1.000000 0.901872 0.659150
1.000000 0.903556 0.705732
1.000000 0.914446 0.757016
0.000000 0.948283 0.732448
0.000000 0.949556 0.732618
0.000000 0.949480 0.732618
0.000000 0.950751 0.729666
0.000000 0.950594 0.729666
