Assets/Lutify-Free-LUTs-Pack/Lutify Free LUTs Pack/Commercial Pro - Claire/Lutify.me-Claire-SLog3Cine-to-Rec709.cube
# Created with: fylm.ai - Colour Grading and Collaboration Software in Cloud 
# Website: https://fylm.ai 
# META
# Option: Gamut compress
# Block 1: IDT | Sony S-Log3 S-Gamut3.Cine
# Block 2: colourMatch | Blending Mode: Normal | {"ColorSpace":0,"CrossCovarianceLimit":50,"ReshapingIterations":1,"PercentSaturationShift":100,"PercentShadingShift":100,"ExtraShading":true,"PercentTint":100,"PercentModified":100}
# Block 3: HSL | Blending Mode: Normal | {"hue":{"Reds":0,"Yellows":0,"Greens":0,"Cyans":0,"Blues":0,"Magentas":0},"saturation":{"Reds":1,"Yellows":1,"Greens":1,"Cyans":1,"Blues":1,"Magentas":1},"luminance":{"Reds":0.9,"Yellows":0.9,"Greens":0.9,"Cyans":0.8,"Blues":0.8,"Magentas":0.9},"lum_sat":{"Blacks":1,"Shadows":1,"Midtones":1,"Highlights":1,"Whites":1},"sat_sat":{"10":1,"20":1,"30":1,"40":1,"50":1}}
# Block 4: subtractiveColour | Blending Mode: Normal | {"sliders":{"gainY":0.1,"C":0.05,"M":0.05,"Y":0.05}}
# Block 5: logPrimaries | Blending Mode: Normal | {"wheels":{"shadows":{"Y":"0","R":"1","G":"1","B":"1"},"midtones":{"Y":"0","R":"1","G":"1","B":"1"},"highlights":{"Y":"0","R":"1","G":"1","B":"1"},"offset":{"Y":"0","R":"1","G":"1","B":"1"}},"sliders":{"shadows":{"Y":0,"R":-0.05,"G":0,"B":0.1},"midtones":{"Y":0,"R":0,"G":0,"B":0},"highlights":{"Y":0,"R":0,"G":0,"B":0},"offset":{"Y":0,"R":0,"G":0,"B":0}}}
# Block 6: LUT | Filmic Curve Response: Standard Contrast 1 (100%)
# Block 7: LUT | Illuminant: D93 (100%)
# Block 8: LUT | Neutral Tint: Teal Tint 4 (100%)
# Block 9: ODT | Rec709
TITLE "Lutify.me-Claire-SLog3Cine-to-Rec709" 
LUT_3D_SIZE 33
0.000000 0.000000 0.000000
0.000000 0.000000 0.000000
0.016208 0.000000 0.000000
0.000000 0.000000 0.000000
0.038451 0.000000 0.000000
0.101336 0.000000 0.000000
0.164810 0.000000 0.000000
0.235582 0.000000 0.000000
0.294866 0.000000 0.000000
0.354086 0.000000 0.000000
0.410777 0.000000 0.000000
0.467204 0.000000 0.000000
0.507806 0.000000 0.000000
0.539283 0.000000 0.000000
0.580380 0.000000 0.000000
0.609861 0.000000 0.000000
0.648434 0.000000 0.000000
0.687553 0.000000 0.000000
0.750656 0.000000 0.000000
0.827212 0.000000 0.000000
0.881484 0.000000 0.000000
0.951748 0.000000 0.000000
1.000000 0.000000 0.047232
1.000000 0.000000 0.080992
1.000000 0.000000 0.118229
1.000000 0.220339 0.163876
1.000000 0.333956 0.203910
1.000000 0.431987 0.259085
1.000000 0.518475 0.313351
1.000000 0.608626 0.380168
1.000000 0.686882 0.454377
1.000000 0.752220 0.521601
1.000000 0.805046 0.591443
0.000000 0.000000 0.000000
0.000000 0.000000 0.000000
0.072234 0.000000 0.000000
0.000000 0.000000 0.009514
0.043869 0.000000 0.000000
0.102462 0.000000 0.000000
0.159183 0.000000 0.000000
0.219100 0.000000 0.000000
0.275094 0.000000 0.000000
0.333108 0.000000 0.000000
0.386963 0.000000 0.000000
0.436362 0.000000 0.000000
0.481793 0.000000 0.000000
0.515592 0.000000 0.000000
0.563930 0.000000 0.000000
0.593174 0.000000 0.000000
0.644218 0.000000 0.000000
0.683251 0.000000 0.000000
0.745895 0.000000 0.000000
0.827182 0.000000 0.000000
0.881380 0.000000 0.000000
0.951638 0.000000 0.000000
1.000000 0.000000 0.046348
1.000000 0.000000 0.080454
1.000000 0.000000 0.119643
1.000000 0.226229 0.163426
1.000000 0.338078 0.203512
1.000000 0.431987 0.259085
1.000000 0.518475 0.313351
1.000000 0.608626 0.380168
1.000000 0.686882 0.454377
1.000000 0.752210 0.524334
1.000000 0.805046 0.591443
0.000000 0.000000 0.000000
0.000000 0.000000 0.000000
0.000000 0.000000 0.000000
0.000000 0.000000 0.000000
0.047342 0.000000 0.000000
0.103520 0.000000 0.000000
0.152455 0.000000 0.000000
0.207422 0.000000 0.000000
0.259990 0.000000 0.000000
0.310973 0.000000 0.000000
0.367452 0.000000 0.000000
0.410915 0.000000 0.000000
0.449962 0.000000 0.000000
0.496826 0.000000 0.000000
0.555896 0.000000 0.000000
0.589098 0.000000 0.000000
0.640018 0.000000 0.000000
0.683287 0.000000 0.000000
0.745906 0.000000 0.000000
0.827149 0.000000 0.000000
0.881326 0.000000 0.000000
0.951462 0.000000 0.000000
1.000000 0.000000 0.047639
1.000000 0.000000 0.083529
1.000000 0.000000 0.119172
1.000000 0.226229 0.163426
1.000000 0.338073 0.205607
1.000000 0.431987 0.259085
1.000000 0.518475 0.313351
1.000000 0.608626 0.380168
1.000000 0.686882 0.454377
1.000000 0.752210 0.524334
1.000000 0.805046 0.591443
0.000000 0.012560 0.000000
0.000000 0.008303 0.000000
0.000000 0.000000 0.000000
0.000000 0.000000 0.000000
0.038276 0.000000 0.000000
0.087663 0.000000 0.000000
0.137628 0.000000 0.000000
0.192973 0.000000 0.000000
0.243793 0.000000 0.000000
0.297236 0.000000 0.000000
0.349110 0.000000 0.000000
0.390091 0.000000 0.000000
0.433396 0.000000 0.000000
0.482191 0.000000 0.000000
0.539812 0.000000 0.000000
0.580885 0.000000 0.000000
0.635821 0.000000 0.000000
0.679001 0.000000 0.000000
0.745919 0.000000 0.000000
0.822344 0.000000 0.000000
0.881269 0.000000 0.000000
0.951402 0.000000 0.000000
1.000000 0.000000 0.044755
1.000000 0.000000 0.082427
1.000000 0.000000 0.119172
1.000000 0.232019 0.162965
1.000000 0.338073 0.205607
1.000000 0.435667 0.258746
1.000000 0.521948 0.315547
1.000000 0.608616 0.382922
1.000000 0.686882 0.454377
1.000000 0.752210 0.524334
1.000000 0.805046 0.591443
0.000000 0.050254 0.000000
0.000000 0.048296 0.000000
0.000000 0.047019 0.000000
0.000000 0.045149 0.000000
0.009661 0.037985 0.000000
0.067338 0.022679 0.000000
0.118235 0.000000 0.000000
0.166129 0.000000 0.000000
0.219796 0.000000 0.000000
0.277804 0.000000 0.000000
0.330944 0.000000 0.000000
0.378926 0.000000 0.000000
0.420746 0.000000 0.000000
0.467876 0.000000 0.000000
0.523919 0.000000 0.000000
0.576876 0.000000 0.000000
0.631623 0.000000 0.000000
0.679041 0.000000 0.000000
0.745929 0.000000 0.000000
0.822316 0.000000 0.000000
0.881178 0.000000 0.000000
0.951276 0.000000 0.000000
1.000000 0.000000 0.043687
1.000000 0.000000 0.081847
1.000000 0.000000 0.118688
1.000000 0.232019 0.162965
1.000000 0.342177 0.205209
1.000000 0.435667 0.258746
1.000000 0.521948 0.315547
1.000000 0.608616 0.382922
1.000000 0.689689 0.456910
1.000000 0.752210 0.524334
1.000000 0.805046 0.591443
0.000000 0.071249 0.000000
0.000000 0.070304 0.000000
0.000000 0.068602 0.000000
0.000000 0.063707 0.000000
0.000000 0.060222 0.000000
0.059903 0.053263 0.000000
0.105782 0.038481 0.000000
0.157313 0.000000 0.000000
0.203668 0.000000 0.000000
0.260926 0.000000 0.000000
0.311699 0.000000 0.000000
0.365431 0.000000 0.000000
0.414658 0.000000 0.000000
0.464489 0.000000 0.000000
0.524063 0.000000 0.000000
0.572859 0.000000 0.000000
0.627423 0.000000 0.000000
0.679094 0.000000 0.000000
0.745940 0.000000 0.000000
0.822274 0.000000 0.000000
0.881114 0.000000 0.000000
0.951145 0.000000 0.000000
1.000000 0.000000 0.041355
1.000000 0.000000 0.083124
1.000000 0.034942 0.120214
1.000000 0.242695 0.163971
1.000000 0.342177 0.205209
1.000000 0.435667 0.258746
1.000000 0.521948 0.315547
1.000000 0.608616 0.382922
1.000000 0.689689 0.456910
1.000000 0.754688 0.524277
1.000000 0.807031 0.591468
0.000000 0.094964 0.000000
0.000000 0.093725 0.000000
0.000000 0.090270 0.000000
0.000000 0.087959 0.000000
0.000000 0.081182 0.000000
0.053150 0.075860 0.000000
0.105045 0.066119 0.000000
0.154152 0.046832 0.000000
0.198846 0.000000 0.000000
0.255012 0.000000 0.000000
0.302797 0.000000 0.000000
0.357948 0.000000 0.000000
0.405807 0.000000 0.000000
0.454316 0.000000 0.000000
0.524255 0.000000 0.000000
0.568887 0.000000 0.000000
0.627512 0.000000 0.000000
0.674835 0.000000 0.000000
0.745955 0.000000 0.000000
0.817456 0.000000 0.000000
0.881049 0.000000 0.000000
0.951008 0.000000 0.000000
1.000000 0.000000 0.040075
1.000000 0.000000 0.082529
1.000000 0.067958 0.119705
1.000000 0.242695 0.163971
1.000000 0.346268 0.204805
1.000000 0.435667 0.258746
1.000000 0.525433 0.315260
1.000000 0.611920 0.382695
1.000000 0.689689 0.456910
1.000000 0.754688 0.524277
1.000000 0.807031 0.591468
0.000000 0.120883 0.000000
0.000000 0.119351 0.000000
0.000000 0.115047 0.000000
0.000000 0.112244 0.000000
0.000000 0.105136 0.000000
0.039529 0.100367 0.000000
0.106262 0.092676 0.000000
0.156154 0.079618 0.000000
0.203482 0.060389 0.000000
0.257464 0.000000 0.000000
0.301002 0.000000 0.000000
0.350825 0.000000 0.000000
0.400404 0.000000 0.000000
0.451326 0.000000 0.000000
0.516719 0.000000 0.000000
0.565021 0.000000 0.000000
0.615004 0.000000 0.000000
0.679258 0.000000 0.000000
0.741229 0.000000 0.000000
0.817389 0.000000 0.000000
0.880944 0.000000 0.000000
0.950794 0.000000 0.000000
1.000000 0.000000 0.041935
1.000000 0.000000 0.081279
1.000000 0.101861 0.118645
1.000000 0.252982 0.163059
1.000000 0.346268 0.204805
1.000000 0.439346 0.258402
1.000000 0.525433 0.315260
1.000000 0.611920 0.382695
1.000000 0.689689 0.456910
1.000000 0.754688 0.524277
1.000000 0.807031 0.591468
0.000000 0.149187 0.000000
0.000000 0.145966 0.000000
0.000000 0.144329 0.000000
0.000000 0.142707 0.000000
0.000000 0.133386 0.000000
0.000000 0.131172 0.000000
0.101229 0.123248 0.000000
0.153301 0.115132 0.000000
0.201769 0.101324 0.000000
0.259667 0.077777 0.000000
0.304023 0.042931 0.000000
0.354446 0.000000 0.000000
0.395601 0.000000 0.000000
0.448933 0.000000 0.000000
0.517344 0.000000 0.000000
0.565349 0.000000 0.000000
0.615267 0.000000 0.000000
0.679395 0.000000 0.000000
0.746006 0.000000 0.000000
0.817310 0.000000 0.000000
0.880716 0.000000 0.000000
0.954034 0.000000 0.000000
1.000000 0.000000 0.041115
1.000000 0.000000 0.081917
1.000000 0.114332 0.120071
1.000000 0.258016 0.162590
1.000000 0.354398 0.206111
1.000000 0.446695 0.260199
1.000000 0.528921 0.314970
1.000000 0.611920 0.382695
1.000000 0.689689 0.456910
1.000000 0.754688 0.524277
1.000000 0.807031 0.591468
0.000000 0.180759 0.000000
0.000000 0.176897 0.000000
0.000000 0.174955 0.000000
0.000000 0.172909 0.000000
0.000000 0.165290 0.000000
0.000000 0.162825 0.000000
0.084966 0.156205 0.000000
0.151245 0.150027 0.000000
0.203568 0.140670 0.000000
0.263568 0.121112 0.000000
0.311734 0.099452 0.000000
0.358701 0.072609 0.000000
0.397378 0.000000 0.000000
0.454042 0.000000 0.000000
0.514993 0.000000 0.000000
0.566423 0.000000 0.000000
0.615753 0.000000 0.000000
0.679650 0.000000 0.000000
0.746043 0.000000 0.000000
0.817204 0.000000 0.000000
0.880462 0.000000 0.000000
0.953518 0.000000 0.000000
1.000000 0.000000 0.038677
1.000000 0.000000 0.081852
1.000000 0.144539 0.120385
1.000000 0.267896 0.161627
1.000000 0.359646 0.206447
1.000000 0.450372 0.259849
1.000000 0.532413 0.314677
1.000000 0.615228 0.382468
1.000000 0.692494 0.456773
1.000000 0.757148 0.524225
1.000000 0.807031 0.591468
0.000000 0.213630 0.000000
0.000000 0.211374 0.000000
0.000000 0.206905 0.000000
0.000000 0.204611 0.000000
0.000000 0.200005 0.000000
0.000000 0.197263 0.000000
0.042206 0.194187 0.000000
0.141784 0.185785 0.000000
0.205030 0.175288 0.000000
0.258964 0.163102 0.000000
0.315819 0.141238 0.000000
0.365426 0.122592 0.000000
0.408448 0.102587 0.000000
0.463285 0.066355 0.000000
0.521011 0.000000 0.000000
0.571939 0.000000 0.000000
0.616920 0.000000 0.000000
0.684311 0.000000 0.000000
0.746086 0.000000 0.000000
0.817052 0.000000 0.000000
0.884389 0.000000 0.000000
0.953037 0.000000 0.000000
1.000000 0.000000 0.031535
1.000000 0.000000 0.080948
1.000000 0.169024 0.120644
1.000000 0.277545 0.162602
1.000000 0.367665 0.207760
1.000000 0.454049 0.259493
1.000000 0.539401 0.316608
1.000000 0.618541 0.382239
1.000000 0.695289 0.456637
1.000000 0.757148 0.524225
1.000000 0.809008 0.591497
0.000000 0.241722 0.000000
0.000000 0.241555 0.000000
0.000000 0.239330 0.000000
0.000000 0.239046 0.000000
0.000000 0.236464 0.000000
0.000000 0.233749 0.000000
0.000000 0.232658 0.000000
0.114705 0.224733 0.000000
0.199412 0.216786 0.000000
0.251295 0.206376 0.000000
0.309101 0.192909 0.000000
0.373951 0.168194 0.000000
0.422876 0.149556 0.000000
0.476463 0.130164 0.000000
0.531332 0.106076 0.000000
0.578352 0.079243 0.000000
0.630895 0.000000 0.000000
0.689326 0.000000 0.000000
0.746219 0.000000 0.000000
0.821555 0.000000 0.000000
0.883872 0.000000 0.000000
0.952473 0.000000 0.000000
1.000000 0.000000 0.029813
1.000000 0.000000 0.080309
1.000000 0.197142 0.120182
1.000000 0.291671 0.161061
1.000000 0.375647 0.206901
1.000000 0.457718 0.261668
1.000000 0.544068 0.317305
1.000000 0.623044 0.385895
1.000000 0.695289 0.456637
1.000000 0.759590 0.524178
1.000000 0.809008 0.591497
0.000000 0.278320 0.000000
0.000000 0.278147 0.000000
0.000000 0.277910 0.000000
0.000000 0.275298 0.000000
0.000000 0.274850 0.000000
0.000000 0.274235 0.000000
0.000000 0.271161 0.000000
0.045614 0.267478 0.000000
0.179738 0.259883 0.000000
0.239993 0.252042 0.000000
0.295836 0.240734 0.000000
0.364947 0.226107 0.000000
0.426740 0.204842 0.000000
0.490314 0.189626 0.000000
0.542323 0.171468 0.000000
0.588991 0.157093 0.000000
0.637443 0.149521 0.000000
0.694919 0.116404 0.000000
0.751273 0.016178 0.000000
0.821206 0.000000 0.000000
0.891448 0.000000 0.000000
0.954955 0.000000 0.000000
1.000000 0.000000 0.017068
1.000000 0.137500 0.078841
1.000000 0.233153 0.118177
1.000000 0.309957 0.158870
1.000000 0.383586 0.208215
1.000000 0.469874 0.264015
1.000000 0.551048 0.319258
1.000000 0.629656 0.385440
1.000000 0.698062 0.459192
1.000000 0.759579 0.526921
1.000000 0.810975 0.591530
0.000000 0.326205 0.000000
0.000000 0.325997 0.000000
0.000000 0.325776 0.000000
0.000000 0.325519 0.000000
0.000000 0.322374 0.000000
0.000000 0.321910 0.000000
0.000000 0.321241 0.000000
0.000000 0.317297 0.000000
0.134231 0.312807 0.000000
0.215047 0.307581 0.000000
0.283517 0.301250 0.000000
0.348468 0.288193 0.000000
0.415258 0.273118 0.000000
0.498858 0.247945 0.000000
0.560877 0.228595 0.000000
0.603890 0.216643 0.000000
0.648289 0.219511 0.000000
0.701080 0.209859 0.000000
0.756724 0.189062 0.000000
0.825312 0.143628 0.000000
0.890159 0.067370 0.000000
0.953183 0.000000 0.000000
1.000000 0.118749 0.000000
1.000000 0.191429 0.075878
1.000000 0.260304 0.117275
1.000000 0.336490 0.157388
1.000000 0.399375 0.208639
1.000000 0.480851 0.265521
1.000000 0.558049 0.318662
1.000000 0.636226 0.387775
1.000000 0.706335 0.458810
1.000000 0.762002 0.526877
1.000000 0.810963 0.594276
0.000000 0.377254 0.000000
0.000000 0.377110 0.000000
0.000000 0.379968 0.000000
0.000000 0.382788 0.000000
0.000000 0.379450 0.000000
0.000000 0.378994 0.000000
0.000000 0.375355 0.000000
0.000000 0.374286 0.000000
0.000000 0.370127 0.000000
0.153250 0.368601 0.000000
0.238426 0.363159 0.000000
0.317901 0.356421 0.000000
0.396964 0.339249 0.000000
0.483209 0.319309 0.000000
0.560727 0.293982 0.000000
0.621928 0.278136 0.000000
0.662350 0.278349 0.000000
0.715067 0.276406 0.000000
0.771203 0.280803 0.000000
0.828797 0.264676 0.000000
0.891358 0.231162 0.000000
0.953542 0.196665 0.000000
1.000000 0.207844 0.000000
1.000000 0.249324 0.070559
1.000000 0.294679 0.116176
1.000000 0.358730 0.159204
1.000000 0.415056 0.211332
1.000000 0.492992 0.267914
1.000000 0.569653 0.321350
1.000000 0.642761 0.387333
1.000000 0.709067 0.458688
1.000000 0.766791 0.526804
1.000000 0.815423 0.595473
0.000000 0.441804 0.000000
0.000000 0.441691 0.000000
0.000000 0.441503 0.000000
0.000000 0.441311 0.000000
0.000000 0.441127 0.000000
0.000000 0.437365 0.000000
0.000000 0.437005 0.000000
0.000000 0.436559 0.000000
0.000000 0.432361 0.000000
0.000000 0.431523 0.000000
0.174044 0.426508 0.000000
0.268272 0.424180 0.000000
0.357854 0.417132 0.000000
0.456346 0.400724 0.000000
0.530162 0.384036 0.000000
0.618914 0.353340 0.000000
0.678504 0.338596 0.000000
0.727539 0.346992 0.000000
0.780008 0.343865 0.000000
0.839824 0.343008 0.000000
0.895111 0.326322 0.000000
0.954847 0.299918 0.000000
1.000000 0.285410 0.000000
1.000000 0.299247 0.054700
1.000000 0.335971 0.115384
1.000000 0.388093 0.158928
1.000000 0.439352 0.213899
1.000000 0.513530 0.270438
1.000000 0.583666 0.325386
1.000000 0.652470 0.389490
1.000000 0.714605 0.458448
1.000000 0.774481 0.527854
1.000000 0.817349 0.595517
0.000000 0.508618 0.000000
0.000000 0.508520 0.000000
0.000000 0.508338 0.000000
0.000000 0.511906 0.000000
0.000000 0.511687 0.000000
0.000000 0.511511 0.000000
0.000000 0.507479 0.000000
0.000000 0.507145 0.000000
0.000000 0.506628 0.000000
0.000000 0.502159 0.000000
0.000000 0.501061 0.000000
0.188113 0.495900 0.000000
0.307593 0.489590 0.000000
0.412607 0.485453 0.000000
0.499864 0.476925 0.000000
0.588314 0.448078 0.000000
0.675897 0.420871 0.000000
0.742400 0.409821 0.000000
0.791363 0.416218 0.000000
0.848455 0.425668 0.000000
0.903996 0.411823 0.000000
0.950325 0.395263 0.000000
0.996848 0.384162 0.000000
1.000000 0.367198 0.029880
1.000000 0.379988 0.113742
1.000000 0.425680 0.160065
1.000000 0.470242 0.214675
1.000000 0.540259 0.273384
1.000000 0.601262 0.326538
1.000000 0.665244 0.391484
1.000000 0.720416 0.460913
1.000000 0.779023 0.530573
1.000000 0.821159 0.598358
0.000000 0.582748 0.000000
0.000000 0.586386 0.000000
0.000000 0.582450 0.000000
0.000000 0.582357 0.000000
0.000000 0.582210 0.000000
0.000000 0.582053 0.000000
0.000000 0.581886 0.000000
0.000000 0.581517 0.000000
0.000000 0.581171 0.000000
0.000000 0.580533 0.000000
0.000000 0.579668 0.000000
0.000000 0.574603 0.000000
0.226996 0.576410 0.000000
0.355866 0.573377 0.000000
0.447725 0.566175 0.000000
0.544284 0.553624 0.000000
0.641303 0.531652 0.000000
0.739686 0.507564 0.000000
0.811651 0.488895 0.000000
0.850792 0.497412 0.000000
0.899416 0.501527 0.000000
0.955647 0.481766 0.000000
0.995385 0.480780 0.000000
1.000000 0.465011 0.000000
1.000000 0.451805 0.108179
1.000000 0.475340 0.161875
1.000000 0.513833 0.219624
1.000000 0.566057 0.272990
1.000000 0.622458 0.330145
1.000000 0.677801 0.393542
1.000000 0.731840 0.460485
1.000000 0.785701 0.533327
1.000000 0.825431 0.602335
0.000000 0.650704 0.000000
0.000000 0.650597 0.000000
0.000000 0.650428 0.000000
0.000000 0.650309 0.000000
0.000000 0.650184 0.000000
0.000000 0.650055 0.000000
0.000000 0.649919 0.000000
0.000000 0.649630 0.000000
0.000000 0.649315 0.000000
0.000000 0.648790 0.000000
0.000000 0.647918 0.000000
0.000000 0.650614 0.000000
0.165210 0.644993 0.000000
0.304648 0.642895 0.000000
0.402223 0.636488 0.000000
0.503554 0.628791 0.000000
0.603842 0.623690 0.000000
0.702709 0.605550 0.000000
0.803046 0.569850 0.000000
0.856210 0.569522 0.000000
0.897628 0.566534 0.000000
0.949870 0.563974 0.000000
0.987440 0.563435 0.000000
1.000000 0.560357 0.000000
1.000000 0.547179 0.081564
1.000000 0.544552 0.155741
1.000000 0.561586 0.219637
1.000000 0.599305 0.271665
1.000000 0.647850 0.331860
1.000000 0.696976 0.399323
1.000000 0.742949 0.462849
1.000000 0.794460 0.536148
1.000000 0.830983 0.602540
0.000000 0.716061 0.000000
0.000000 0.715917 0.000000
0.000000 0.715843 0.000000
0.000000 0.715610 0.000000
0.000000 0.715528 0.000000
0.000000 0.715371 0.000000
0.000000 0.719237 0.000000
0.000000 0.718981 0.000000
0.000000 0.718613 0.000000
0.000000 0.722115 0.000000
0.000000 0.721201 0.000000
0.000000 0.715994 0.000000
0.110991 0.714630 0.000000
0.285846 0.708832 0.000000
0.391243 0.710481 0.000000
0.484251 0.711521 0.000000
0.590373 0.703107 0.000000
0.691177 0.689549 0.000000
0.778702 0.671305 0.000000
0.850858 0.646171 0.000000
0.900486 0.634885 0.000000
0.941823 0.640998 0.000000
0.975458 0.640501 0.000000
1.000000 0.641294 0.000000
1.000000 0.639671 0.000000
1.000000 0.627946 0.152602
1.000000 0.627922 0.222278
1.000000 0.641214 0.281913
1.000000 0.678159 0.340875
1.000000 0.719113 0.406904
1.000000 0.762156 0.469002
1.000000 0.805169 0.539088
1.000000 0.836850 0.609376
0.000000 0.794841 0.122154
0.000000 0.794748 0.115194
0.000000 0.794451 0.107933
0.000000 0.794350 0.099926
0.000000 0.794245 0.100018
0.000000 0.794030 0.091323
0.000000 0.793922 0.081400
0.000000 0.793582 0.070015
0.000000 0.793349 0.030561
0.000000 0.792857 0.000000
0.000000 0.792204 0.000000
0.000000 0.791504 0.000000
0.000000 0.787310 0.000000
0.224398 0.785608 0.000000
0.343032 0.780535 0.000000
0.461618 0.780830 0.000000
0.559537 0.780662 0.000000
0.660955 0.772868 0.000000
0.756399 0.760940 0.000000
0.827412 0.742523 0.000000
0.884401 0.731587 0.000000
0.933952 0.721413 0.000000
0.966468 0.720386 0.000000
0.993490 0.716870 0.000000
1.000000 0.721669 0.000000
1.000000 0.709323 0.141243
1.000000 0.706555 0.229876
1.000000 0.694603 0.284452
1.000000 0.716380 0.349309
1.000000 0.746642 0.418783
1.000000 0.782347 0.483788
1.000000 0.818039 0.548859
1.000000 0.844303 0.610880
0.000000 0.844327 0.223994
0.000000 0.844075 0.224091
0.000000 0.843951 0.219954
0.000000 0.843951 0.219954
0.000000 0.843821 0.220005
0.000000 0.843693 0.215843
0.000000 0.843559 0.215896
0.000000 0.843428 0.211706
0.000000 0.843155 0.207539
0.000000 0.842875 0.203340
0.000000 0.842443 0.194764
0.000000 0.839095 0.181784
0.080778 0.837923 0.168234
0.260181 0.836658 0.137683
0.379032 0.834664 0.093717
0.473545 0.834828 0.000000
0.570131 0.831601 0.000000
0.655306 0.825476 0.000000
0.741776 0.821139 0.000000
0.802870 0.817668 0.000000
0.868499 0.802984 0.000000
0.921074 0.791363 0.000000
0.956797 0.780827 0.000000
0.981516 0.783130 0.000000
1.000000 0.788880 0.000000
1.000000 0.781373 0.153102
1.000000 0.783200 0.234834
1.000000 0.775082 0.302296
1.000000 0.768985 0.362629
1.000000 0.784859 0.432589
1.000000 0.803361 0.496366
1.000000 0.832261 0.556149
1.000000 0.852914 0.619686
0.000000 0.882641 0.324676
0.000000 0.882496 0.320715
0.000000 0.882342 0.320761
0.000000 0.882355 0.312724
0.000000 0.882043 0.312822
0.000000 0.881884 0.312871
0.000000 0.881890 0.308841
0.000000 0.881736 0.304851
0.000000 0.881408 0.304958
0.000000 0.881085 0.296990
0.000000 0.878514 0.292738
0.162114 0.877820 0.280895
0.279724 0.876711 0.269216
0.363432 0.877567 0.257985
0.441694 0.875873 0.234227
0.521908 0.875789 0.214876
0.585341 0.871443 0.194046
0.671846 0.867888 0.174069
0.738207 0.864727 0.121527
0.800003 0.863633 0.000000
0.860990 0.857872 0.000000
0.911171 0.845635 0.000000
0.946753 0.831483 0.000000
0.973111 0.830266 0.000000
0.994782 0.829723 0.000000
1.000000 0.829859 0.158991
1.000000 0.828462 0.261288
1.000000 0.825512 0.328142
1.000000 0.823281 0.381120
1.000000 0.820640 0.440254
1.000000 0.827528 0.505160
1.000000 0.847947 0.567709
1.000000 0.866559 0.627518
0.064008 0.914531 0.405031
0.162267 0.914172 0.405118
0.162267 0.914172 0.405118
0.190295 0.913998 0.401552
0.190295 0.913998 0.401552
0.213118 0.913813 0.401598
0.251619 0.913447 0.398084
0.251619 0.913447 0.398084
0.284195 0.913081 0.390974
0.298872 0.912894 0.387423
0.337886 0.912310 0.383985
0.372566 0.911715 0.376963
0.413800 0.910890 0.370024
0.468579 0.909587 0.363214
0.518974 0.908193 0.352270
0.567186 0.906674 0.337637
0.623942 0.904633 0.319543
0.685252 0.902113 0.298132
0.741468 0.901188 0.274420
0.793946 0.896852 0.238569
0.856426 0.893334 0.218877
0.901956 0.888919 0.168671
0.936767 0.877813 0.085365
0.965642 0.872395 0.000000
0.988982 0.867443 0.000000
1.000000 0.867043 0.193036
1.000000 0.870951 0.279154
1.000000 0.865914 0.347729
1.000000 0.867044 0.409164
1.000000 0.863471 0.461097
1.000000 0.857355 0.518610
1.000000 0.867595 0.576581
1.000000 0.878748 0.637415
0.415592 0.938750 0.492326
0.415884 0.938759 0.488814
0.415884 0.938759 0.488814
0.425500 0.938550 0.488857
0.425500 0.938550 0.488857
0.444358 0.938134 0.485438
0.444358 0.938134 0.485438
0.453363 0.937919 0.485484
0.462440 0.937711 0.482029
0.471106 0.937492 0.482077
0.479831 0.937282 0.478631
0.488925 0.937070 0.471707
0.514940 0.936357 0.468401
0.547315 0.935406 0.461715
0.577926 0.933066 0.454334
0.631674 0.931136 0.448085
0.673508 0.929496 0.435052
0.720115 0.928878 0.416619
0.760815 0.927012 0.391270
0.812900 0.922990 0.368893
0.864322 0.918774 0.337963
0.894268 0.918450 0.316783
0.926708 0.916541 0.285474
0.954188 0.907763 0.240074
0.980032 0.900352 0.185592
1.000000 0.897878 0.220024
1.000000 0.899018 0.305543
1.000000 0.897570 0.373884
1.000000 0.898006 0.437731
1.000000 0.895889 0.492831
1.000000 0.891634 0.544925
1.000000 0.890392 0.589525
1.000000 0.894315 0.646920
0.562647 0.957598 0.589883
0.562647 0.957598 0.589883
0.569723 0.957371 0.589926
0.569723 0.957371 0.589926
0.569723 0.957371 0.589926
