Assets/Lutify-Free-LUTs-Pack/Lutify Free LUTs Pack/Commercial Pro - Claire/Lutify.me-Claire-BMDFilmGen4-to-Rec709.cube
# Created with: fylm.ai - Colour Grading and Collaboration Software in Cloud 
# Website: https://fylm.ai 
# META
# Option: Gamut compress
# Block 1: IDT | BMD Wide Gamut BMDFilm Gen 4
# Block 2: colourMatch | Blending Mode: Normal | {"ColorSpace":0,"CrossCovarianceLimit":50,"ReshapingIterations":1,"PercentSaturationShift":100,"PercentShadingShift":100,"ExtraShading":true,"PercentTint":100,"PercentModified":100}
# Block 3: HSL | Blending Mode: Normal | {"hue":{"Reds":0,"Yellows":0,"Greens":0,"Cyans":0,"Blues":0,"Magentas":0},"saturation":{"Reds":1,"Yellows":1,"Greens":1,"Cyans":1,"Blues":1,"Magentas":1},"luminance":{"Reds":0.9,"Yellows":0.9,"Greens":0.9,"Cyans":0.8,"Blues":0.8,"Magentas":0.9},"lum_sat":{"Blacks":1,"Shadows":1,"Midtones":1,"Highlights":1,"Whites":1},"sat_sat":{"10":1,"20":1,"30":1,"40":1,"50":1}}
# Block 4: subtractiveColour | Blending Mode: Normal | {"sliders":{"gainY":0.1,"C":0.05,"M":0.05,"Y":0.05}}
# Block 5: logPrimaries | Blending Mode: Normal | {"wheels":{"shadows":{"Y":"0","R":"1","G":"1","B":"1"},"midtones":{"Y":"0","R":"1","G":"1","B":"1"},"highlights":{"Y":"0","R":"1","G":"1","B":"1"},"offset":{"Y":"0","R":"1","G":"1","B":"1"}},"sliders":{"shadows":{"Y":0,"R":-0.05,"G":0,"B":0.1},"midtones":{"Y":0,"R":0,"G":0,"B":0},"highlights":{"Y":0,"R":0,"G":0,"B":0},"offset":{"Y":0,"R":0,"G":0,"B":0}}}
# Block 6: LUT | Filmic Curve Response: Standard Contrast 1 (100%)
# Block 7: LUT | Illuminant: D93 (100%)
# Block 8: LUT | Neutral Tint: Teal Tint 4 (100%)
# Block 9: ODT | Rec709
TITLE "Lutify.me-Claire-BMDFilmGen4-to-Rec709" 
LUT_3D_SIZE 9
0.000000 0.000000 0.000000
0.171141 0.000000 0.000000
0.338413 0.000000 0.000000
0.437045 0.000000 0.000000
0.569124 0.000000 0.000000
0.731786 0.000000 0.000000
0.916149 0.000000 0.000000
1.000000 0.191536 0.087001
1.000000 0.420152 0.188173
0.000000 0.098840 0.000000
0.113501 0.076993 0.000000
0.285358 0.000000 0.000000
0.419179 0.000000 0.000000
0.569977 0.000000 0.000000
0.736571 0.000000 0.000000
0.915598 0.000000 0.000000
1.000000 0.222156 0.081998
1.000000 0.428222 0.189386
0.000000 0.207194 0.000000
0.057772 0.194142 0.000000
0.303921 0.156183 0.000000
0.441150 0.118952 0.000000
0.585976 0.055945 0.000000
0.741675 0.000000 0.000000
0.917899 0.000000 0.000000
1.000000 0.259561 0.072379
1.000000 0.444298 0.186925
0.000000 0.312557 0.000000
0.000000 0.307661 0.000000
0.291483 0.284765 0.000000
0.495121 0.242834 0.000000
0.636303 0.222161 0.000000
0.766478 0.250872 0.000000
0.920223 0.256234 0.000000
1.000000 0.326852 0.036551
1.000000 0.477016 0.184798
0.000000 0.444797 0.000000
0.000000 0.443305 0.000000
0.238987 0.424688 0.000000
0.479707 0.398729 0.000000
0.690575 0.347637 0.000000
0.814372 0.377576 0.000000
0.926526 0.417838 0.000000
1.000000 0.451992 0.000000
1.000000 0.538514 0.178255
0.000000 0.604785 0.000000
0.000000 0.603886 0.000000
0.000000 0.601497 0.000000
0.396339 0.587153 0.000000
0.645122 0.562266 0.000000
0.877084 0.494205 0.000000
0.933680 0.564518 0.000000
1.000000 0.612936 0.000000
1.000000 0.649053 0.159123
0.000000 0.781212 0.000000
0.000000 0.783835 0.000000
0.000000 0.782030 0.000000
0.289926 0.774957 0.000000
0.547168 0.771354 0.000000
0.784726 0.752361 0.000000
0.951002 0.693359 0.000000
0.986967 0.751983 0.000000
1.000000 0.779080 0.113245
0.000000 0.889957 0.000000
0.000000 0.889277 0.000000
0.214976 0.890475 0.000000
0.389111 0.887928 0.000000
0.574999 0.880625 0.000000
0.754639 0.872700 0.000000
0.894735 0.860321 0.000000
0.986039 0.827320 0.000000
1.000000 0.861139 0.000000
0.556918 0.949758 0.286815
0.571486 0.949293 0.283709
0.592363 0.948593 0.280776
0.643212 0.946742 0.272005
0.692813 0.945951 0.252510
0.776770 0.943301 0.204187
0.883619 0.935086 0.144777
0.955619 0.930737 0.064024
1.000000 0.916377 0.000000
0.000000 0.000000 0.093714
0.108061 0.000000 0.050996
0.281512 0.000000 0.022309
0.394224 0.000000 0.000000
0.540994 0.000000 0.000000
0.722906 0.000000 0.012128
0.912017 0.000000 0.052823
1.000000 0.191518 0.115237
1.000000 0.420831 0.208136
0.000000 0.075818 0.132471
0.058380 0.084689 0.121130
0.235639 0.039651 0.063078
0.371798 0.000000 0.028565
0.529645 0.000000 0.000000
0.727211 0.000000 0.000000
0.911341 0.000000 0.047946
1.000000 0.227728 0.113259
1.000000 0.428886 0.207110
0.000000 0.177474 0.156630
0.000000 0.219129 0.078279
0.231104 0.202922 0.000000
0.379399 0.173734 0.000000
0.549945 0.128366 0.000000
0.731917 0.000000 0.000000
0.913787 0.000000 0.037540
1.000000 0.259573 0.111347
1.000000 0.444928 0.204970
0.000000 0.326452 0.083532
0.000000 0.333956 0.000000
0.153518 0.335081 0.000000
0.387821 0.310918 0.000000
0.568839 0.290738 0.000000
0.743038 0.268009 0.000000
0.916016 0.261800 0.000000
1.000000 0.326808 0.096615
1.000000 0.477007 0.202890
0.000000 0.473355 0.000000
0.000000 0.476045 0.000000
0.000000 0.473693 0.000000
0.351316 0.470178 0.000000
0.582026 0.437773 0.000000
0.772482 0.426270 0.000000
0.918872 0.426784 0.000000
1.000000 0.456148 0.051124
1.000000 0.538512 0.200617
0.000000 0.639575 0.000000
0.000000 0.634995 0.000000
0.000000 0.641080 0.000000
0.265078 0.632307 0.000000
0.544332 0.619151 0.000000
0.797595 0.574305 0.000000
0.914838 0.589802 0.000000
1.000000 0.612891 0.000000
1.000000 0.656299 0.187089
0.000000 0.794911 0.000000
0.000000 0.797330 0.000000
0.000000 0.795769 0.000000
0.127023 0.789657 0.000000
0.501787 0.786025 0.000000
0.750233 0.774572 0.000000
0.912467 0.740699 0.000000
0.985018 0.758558 0.000000
1.000000 0.781886 0.151514
0.000000 0.894203 0.082643
0.000000 0.895732 0.072232
0.175882 0.894688 0.000000
0.372586 0.892189 0.000000
0.563905 0.885053 0.000000
0.736479 0.879747 0.000000
0.888698 0.867055 0.000000
0.974227 0.844592 0.000000
1.000000 0.863152 0.000000
0.547460 0.952317 0.337052
0.562327 0.951856 0.333949
0.583934 0.949970 0.329411
0.635663 0.948120 0.323847
0.686397 0.947327 0.297367
0.771664 0.944647 0.261926
0.882617 0.936298 0.205773
0.954182 0.933197 0.158022
1.000000 0.919135 0.000000
0.000000 0.000000 0.145382
0.064491 0.000000 0.092217
0.265042 0.000000 0.071978
0.372522 0.000000 0.077232
0.519487 0.000000 0.098674
0.710184 0.000000 0.094544
0.904044 0.000000 0.110836
1.000000 0.191591 0.149394
1.000000 0.420788 0.235898
0.000000 0.047327 0.172894
0.000000 0.045819 0.165631
0.218371 0.000000 0.149270
0.348196 0.000000 0.136000
0.519361 0.000000 0.116387
0.714162 0.000000 0.099212
0.907327 0.000000 0.112344
1.000000 0.222202 0.151142
1.000000 0.428845 0.235056
0.000000 0.171081 0.273175
0.000000 0.187154 0.294569
0.164487 0.212533 0.287251
0.339824 0.190935 0.208692
0.520983 0.149989 0.148341
0.717763 0.000000 0.103397
0.909599 0.000000 0.113004
1.000000 0.259536 0.152187
1.000000 0.445549 0.236559
0.000000 0.286175 0.342506
0.000000 0.309553 0.323485
0.000000 0.354987 0.281338
0.337774 0.346640 0.212994
0.546269 0.316336 0.141215
0.731109 0.285540 0.095623
0.907568 0.268283 0.108823
1.000000 0.326793 0.145779
1.000000 0.477569 0.235582
0.000000 0.455775 0.303573
0.000000 0.494017 0.270372
0.000000 0.499208 0.220249
0.277791 0.497476 0.151918
0.540647 0.474144 0.000000
0.740583 0.456787 0.000000
0.906548 0.440269 0.049572
1.000000 0.460348 0.135372
1.000000 0.541971 0.233610
0.000000 0.658900 0.229575
0.000000 0.654499 0.207456
0.000000 0.652656 0.168501
0.138371 0.656445 0.050879
0.498932 0.644312 0.000000
0.745227 0.622174 0.000000
0.904326 0.610625 0.000000
0.999813 0.620957 0.056691
1.000000 0.656310 0.229982
0.000000 0.810885 0.214085
0.000000 0.810053 0.193440
0.000000 0.811622 0.171224
0.000000 0.805919 0.111132
0.466987 0.799403 0.000000
0.731218 0.791172 0.000000
0.894293 0.768747 0.000000
0.980259 0.768124 0.000000
1.000000 0.789874 0.208566
0.000000 0.898417 0.272210
0.000000 0.897768 0.268433
0.119202 0.896745 0.256733
0.355659 0.894294 0.225013
0.542390 0.891563 0.175731
0.727395 0.885985 0.045501
0.883496 0.877348 0.000000
0.966191 0.862428 0.000000
1.000000 0.867069 0.147092
0.537132 0.953606 0.401844
0.552370 0.953149 0.398822
0.574011 0.952452 0.399098
0.626905 0.950623 0.389966
0.688503 0.950521 0.374227
0.768894 0.948072 0.337405
0.877996 0.938826 0.284897
0.949555 0.938037 0.248420
1.000000 0.923087 0.154130
0.000000 0.000000 0.173248
0.050655 0.000000 0.123000
0.239368 0.000000 0.099457
0.386655 0.000000 0.087977
0.505164 0.000000 0.143876
0.695734 0.000000 0.189683
0.896186 0.000000 0.190240
1.000000 0.184689 0.218840
1.000000 0.424047 0.273402
0.000000 0.041532 0.210088
0.000000 0.043015 0.204048
0.187136 0.000000 0.202225
0.345190 0.000000 0.182961
0.496865 0.000000 0.208442
0.699885 0.000000 0.209894
0.895316 0.000000 0.193524
1.000000 0.222084 0.219651
1.000000 0.432113 0.275279
0.000000 0.144097 0.317147
0.000000 0.151354 0.336532
0.088465 0.161851 0.366088
0.325487 0.151270 0.343533
0.509001 0.098369 0.287008
0.697734 0.000000 0.235641
0.897406 0.000000 0.200185
1.000000 0.264534 0.220032
1.000000 0.444819 0.274786
0.000000 0.268113 0.426062
0.000000 0.289874 0.453222
0.000000 0.317295 0.462807
0.278899 0.351114 0.456865
0.495332 0.332529 0.360428
0.704578 0.294278 0.277863
0.898696 0.261546 0.214188
1.000000 0.331310 0.222793
1.000000 0.477511 0.277677
0.000000 0.430842 0.515588
0.000000 0.447684 0.514786
0.000000 0.481579 0.483620
0.166507 0.516564 0.456216
0.488997 0.515175 0.388095
0.730010 0.469585 0.284547
0.905412 0.452897 0.220588
1.000000 0.460568 0.227558
1.000000 0.541944 0.277354
0.000000 0.624427 0.485724
0.000000 0.639172 0.473609
0.000000 0.672307 0.452781
0.000000 0.676064 0.401301
0.454361 0.680052 0.324084
0.716300 0.651532 0.239047
0.894161 0.635359 0.193196
0.994655 0.629123 0.218250
1.000000 0.660068 0.286264
0.000000 0.819695 0.435771
0.000000 0.824864 0.424395
0.000000 0.826393 0.398212
0.000000 0.823241 0.361314
0.439914 0.814335 0.295913
0.704920 0.806832 0.221309
0.881269 0.784931 0.010254
0.973256 0.783246 0.169388
1.000000 0.795156 0.294904
0.000000 0.909772 0.442657
0.000000 0.909470 0.439053
0.000000 0.908529 0.424626
0.305927 0.905836 0.407036
0.531284 0.900842 0.365051
0.704158 0.896024 0.311754
0.871481 0.887165 0.240888
0.957970 0.872747 0.130095
1.000000 0.874545 0.270958
0.522336 0.958087 0.520610
0.530397 0.957868 0.517314
0.553434 0.957202 0.510804
0.608784 0.955412 0.498055
0.673976 0.953022 0.472809
0.768516 0.951052 0.449032
0.867855 0.944817 0.402067
0.943629 0.940443 0.344752
0.996525 0.930558 0.276040
0.000000 0.000000 0.176954
0.069239 0.000000 0.150296
0.195463 0.000000 0.132581
0.364538 0.000000 0.119126
0.546790 0.000000 0.117303
0.675166 0.000000 0.259200
0.882087 0.000000 0.317322
1.000000 0.182993 0.317150
1.000000 0.423773 0.348472
0.000000 0.041216 0.242600
0.000000 0.041703 0.240232
0.133405 0.000000 0.248796
0.318097 0.000000 0.234122
0.489847 0.000000 0.226405
0.682560 0.000000 0.298079
0.885016 0.000000 0.328179
1.000000 0.209291 0.319383
1.000000 0.435898 0.347794
0.000000 0.110933 0.334837
0.000000 0.114457 0.346373
0.000000 0.111092 0.373835
0.291882 0.083669 0.385766
0.499409 0.000000 0.349328
0.686923 0.000000 0.357772
0.895179 0.000000 0.351459
1.000000 0.268826 0.329434
1.000000 0.452591 0.350412
0.000000 0.244666 0.469057
0.000000 0.253181 0.493952
0.000000 0.270300 0.526244
0.203216 0.283389 0.543802
0.492989 0.280172 0.527703
0.707264 0.243945 0.455712
0.900828 0.230578 0.388749
1.000000 0.335470 0.339141
1.000000 0.484796 0.354752
0.000000 0.403215 0.599979
0.000000 0.423293 0.606777
0.000000 0.446289 0.625001
0.000000 0.484979 0.634523
0.441261 0.519053 0.636219
0.680929 0.493979 0.541689
0.885143 0.463028 0.438322
1.000000 0.460428 0.365458
1.000000 0.541321 0.371266
0.000000 0.597350 0.683186
0.000000 0.608427 0.682573
0.000000 0.630329 0.681325
0.000000 0.661614 0.667754
0.356614 0.705170 0.637694
0.673975 0.698056 0.578116
0.879754 0.656091 0.464354
0.984362 0.649401 0.385524
1.000000 0.663463 0.384484
0.000000 0.789076 0.672341
0.000000 0.794957 0.668191
0.000000 0.806352 0.667656
0.000000 0.834229 0.651175
0.353601 0.836081 0.600960
0.677906 0.828199 0.536874
0.858082 0.813401 0.444373
0.963872 0.797234 0.389429
1.000000 0.800233 0.403350
0.000000 0.914945 0.653007
0.000000 0.916081 0.645665
0.000000 0.916855 0.634583
0.153092 0.914880 0.608291
0.487575 0.909800 0.574976
0.691916 0.905929 0.521885
0.854551 0.894494 0.451331
0.947556 0.887425 0.377652
1.000000 0.881510 0.399175
0.502627 0.962107 0.664870
0.511131 0.961897 0.661480
0.534975 0.961237 0.658129
0.572100 0.960152 0.647909
0.654052 0.957346 0.627486
0.753768 0.954277 0.591677
0.858412 0.950098 0.546949
0.934036 0.945860 0.497044
0.989841 0.938518 0.422224
0.000000 0.000000 0.180640
0.110468 0.000000 0.170775
0.203247 0.000000 0.156146
0.332936 0.000000 0.144695
0.516697 0.000000 0.143753
0.712385 0.000000 0.164229
0.854973 0.000000 0.394861
1.000000 0.096233 0.470671
1.000000 0.421531 0.470980
0.000000 0.037288 0.277032
0.000000 0.030787 0.272336
0.133538 0.000000 0.276206
0.273695 0.000000 0.279106
0.477715 0.000000 0.273561
0.663538 0.000000 0.280451
0.864459 0.000000 0.427848
1.000000 0.148832 0.477230
1.000000 0.430303 0.474349
0.000000 0.107266 0.387160
0.000000 0.107807 0.397273
0.000000 0.107620 0.410431
0.215610 0.090989 0.436996
0.451974 0.000000 0.435419
0.673643 0.000000 0.404249
0.872543 0.000000 0.465111
1.000000 0.223116 0.490412
1.000000 0.446507 0.477099
0.000000 0.203744 0.499244
0.000000 0.203239 0.513847
0.000000 0.214805 0.531817
0.142167 0.214269 0.557302
0.432070 0.202154 0.582019
0.686203 0.089733 0.536311
0.875466 0.144568 0.531489
1.000000 0.318839 0.520604
1.000000 0.478927 0.485976
0.000000 0.373609 0.651563
0.000000 0.382858 0.658913
0.000000 0.401837 0.677423
0.000000 0.419266 0.710964
0.349351 0.447650 0.723406
0.679596 0.450205 0.706708
0.885283 0.429030 0.638164
1.000000 0.437202 0.557494
1.000000 0.543884 0.504109
0.000000 0.563125 0.761274
0.000000 0.570420 0.771369
0.000000 0.592462 0.780231
0.000000 0.624330 0.787909
0.090921 0.660549 0.794432
0.633117 0.702321 0.792986
0.842780 0.679135 0.714873
0.975556 0.657441 0.619954
1.000000 0.667378 0.534886
0.000000 0.765234 0.822647
0.000000 0.771969 0.824759
0.000000 0.784643 0.826367
0.000000 0.801709 0.822394
0.000000 0.822826 0.812630
0.603994 0.844200 0.807624
0.831211 0.836109 0.749180
0.944155 0.815424 0.653785
1.000000 0.810165 0.568320
0.000000 0.892098 0.817083
0.000000 0.893591 0.816960
0.000000 0.896794 0.814202
0.000000 0.904318 0.811189
0.387399 0.918385 0.807969
0.647248 0.916979 0.775463
0.833200 0.908390 0.720550
0.929216 0.901678 0.649622
0.993693 0.891002 0.583570
0.451753 0.965405 0.802742
0.470748 0.965968 0.800413
0.497228 0.965334 0.795413
0.551976 0.964794 0.790522
0.642183 0.960820 0.777216
0.734347 0.959106 0.755415
0.849359 0.953618 0.710178
0.922380 0.949684 0.664262
0.984453 0.943412 0.582380
0.123042 0.000000 0.199260
0.175054 0.000000 0.190638
0.240505 0.000000 0.187252
0.323804 0.000000 0.183324
0.468765 0.000000 0.182492
0.675464 0.000000 0.204306
0.850180 0.000000 0.267260
1.000000 0.000000 0.559642
1.000000 0.384482 0.638092
0.000000 0.027242 0.308851
0.067274 0.000000 0.316495
0.153866 0.000000 0.321300
0.257643 0.000000 0.328405
0.429873 0.000000 0.331866
0.647925 0.000000 0.349075
0.839754 0.000000 0.378202
1.000000 0.000000 0.574088
1.000000 0.397029 0.641457
0.000000 0.109916 0.458791
0.000000 0.108345 0.465807
0.000000 0.108766 0.465625
0.170448 0.100618 0.479325
0.395114 0.000000 0.506490
0.641523 0.000000 0.494061
0.848079 0.000000 0.483204
1.000000 0.000000 0.599791
1.000000 0.422508 0.644634
0.000000 0.199881 0.565824
0.000000 0.203652 0.576976
0.000000 0.206886 0.588258
0.000000 0.207136 0.610929
0.344151 0.193399 0.632753
0.639565 0.112453 0.630550
0.865428 0.000000 0.595584
1.000000 0.188259 0.640171
1.000000 0.451023 0.658585
0.000000 0.300148 0.673897
0.000000 0.305265 0.681427
0.000000 0.312821 0.696558
0.000000 0.324945 0.714953
0.286082 0.327000 0.732222
0.635404 0.321759 0.757271
0.873126 0.277817 0.713940
1.000000 0.370115 0.708627
1.000000 0.525220 0.689673
0.000000 0.528983 0.799912
0.000000 0.528790 0.806072
0.000000 0.539501 0.820114
0.000000 0.557000 0.832584
0.000000 0.586311 0.845610
0.545731 0.618451 0.853932
0.850854 0.629712 0.843819
0.971000 0.625247 0.790401
1.000000 0.657427 0.726483
0.000000 0.728350 0.868137
0.000000 0.731976 0.870003
0.000000 0.742908 0.875470
0.000000 0.766823 0.879672
0.000000 0.786271 0.885693
0.460132 0.818274 0.887769
0.797918 0.839281 0.888106
0.923885 0.823430 0.841290
0.996845 0.814745 0.774778
0.000000 0.882930 0.902372
0.000000 0.884703 0.902180
0.000000 0.888369 0.903408
0.000000 0.892894 0.901241
0.000000 0.901425 0.903048
0.522046 0.907908 0.895287
0.799360 0.918997 0.890246
0.913505 0.912849 0.863244
0.978989 0.901155 0.806745
0.109521 0.954576 0.898332
0.183967 0.955387 0.898258
0.268219 0.955811 0.896618
0.386976 0.957436 0.896372
0.517459 0.959801 0.894471
0.692217 0.963537 0.892477
0.830071 0.960734 0.878005
0.908188 0.958336 0.851617
0.969630 0.951411 0.809488
0.270785 0.000000 0.166503
0.293622 0.000000 0.164156
0.328825 0.000000 0.161521
0.390865 0.000000 0.165345
0.488320 0.000000 0.176546
0.654608 0.000000 0.204201
0.841468 0.000000 0.274184
0.992443 0.000000 0.404583
1.000000 0.216985 0.716903
0.168081 0.000000 0.313131
0.199325 0.000000 0.315431
0.241914 0.000000 0.317583
0.301746 0.000000 0.325019
0.419481 0.000000 0.329052
0.605763 0.000000 0.364727
0.810888 0.000000 0.411121
0.986853 0.000000 0.481620
1.000000 0.245936 0.727146
0.000000 0.098112 0.498021
0.000000 0.094490 0.501588
0.076278 0.091338 0.508650
0.205485 0.081757 0.526310
0.354414 0.000000 0.547226
0.589174 0.000000 0.548911
0.823266 0.000000 0.555353
0.991448 0.000000 0.567362
1.000000 0.287390 0.740248
0.000000 0.201663 0.630726
0.000000 0.200767 0.638404
0.000000 0.201440 0.649842
0.000000 0.202179 0.661053
0.277900 0.194319 0.675667
0.562640 0.149378 0.707829
0.823242 0.000000 0.687017
0.996516 0.000000 0.672038
1.000000 0.347054 0.769169
0.000000 0.296001 0.723793
0.000000 0.298278 0.731032
0.000000 0.302947 0.738018
0.000000 0.306117 0.755239
0.190249 0.311576 0.775390
0.527267 0.304893 0.793382
0.832076 0.245961 0.794134
1.000000 0.181892 0.763635
1.000000 0.433665 0.795690
0.000000 0.441728 0.819363
0.000000 0.444978 0.824922
0.000000 0.451477 0.830102
0.000000 0.464409 0.839957
0.000000 0.478931 0.853949
0.476767 0.479584 0.861568
0.814009 0.493898 0.877645
0.989558 0.474730 0.849738
1.000000 0.579783 0.841219
0.000000 0.676757 0.897815
0.000000 0.687979 0.898939
0.000000 0.695216 0.900255
0.000000 0.706509 0.904748
0.000000 0.724293 0.909968
0.293435 0.753425 0.919235
0.731996 0.777766 0.923966
0.927036 0.795263 0.918422
0.997713 0.791974 0.885042
0.000000 0.858824 0.930766
0.000000 0.860949 0.931892
0.000000 0.862794 0.931663
0.000000 0.868957 0.934915
0.000000 0.881169 0.939572
0.320755 0.890767 0.942408
0.718519 0.903124 0.941879
0.897848 0.917246 0.942484
0.964646 0.910071 0.914804
0.000000 0.947883 0.952716
0.000000 0.948877 0.952596
0.000000 0.949542 0.952449
0.000000 0.951804 0.953946
0.305581 0.954836 0.953270
0.571553 0.955493 0.953238
0.763857 0.955983 0.948385
0.895863 0.962427 0.948247
0.959387 0.959675 0.929118
0.386315 0.000000 0.181932
0.399733 0.000000 0.181668
0.425578 0.000000 0.183115
0.470236 0.000000 0.188256
0.525234 0.000000 0.204053
0.627103 0.000000 0.242649
0.782250 0.000000 0.325733
0.976002 0.000000 0.484823
1.000000 0.000000 0.600478
0.288032 0.000000 0.348217
0.307764 0.000000 0.350959
0.337665 0.000000 0.356644
0.386171 0.000000 0.365699
0.457888 0.000000 0.381615
0.584065 0.000000 0.431344
0.771594 0.000000 0.497421
0.968756 0.000000 0.570802
1.000000 0.000000 0.641127
0.148869 0.084082 0.567372
0.169704 0.082187 0.574732
0.210243 0.077809 0.582054
0.277861 0.061795 0.592960
0.371354 0.000000 0.611232
0.533105 0.000000 0.628730
0.766314 0.000000 0.646055
0.975236 0.000000 0.664885
1.000000 0.000000 0.693291
0.000000 0.206842 0.715089
0.000000 0.207837 0.718724
0.000000 0.205984 0.718585
0.162457 0.202380 0.718328
0.295634 0.194423 0.728800
0.485784 0.179702 0.755385
0.760108 0.000000 0.780511
0.986429 0.000000 0.765350
1.000000 0.000000 0.769236
0.000000 0.306893 0.796981
0.000000 0.309044 0.800079
0.000000 0.310893 0.803101
0.000000 0.311760 0.812251
0.207265 0.309844 0.820756
0.425851 0.308683 0.830670
0.734441 0.282526 0.853481
0.976416 0.215553 0.846342
1.000000 0.235026 0.830591
0.000000 0.443792 0.861202
0.000000 0.443518 0.863574
0.000000 0.446486 0.865718
0.000000 0.445267 0.872557
0.000000 0.460186 0.880324
0.373764 0.466236 0.893394
0.701418 0.461452 0.900553
0.960947 0.446925 0.908832
1.000000 0.439333 0.883689
0.000000 0.606703 0.910961
0.000000 0.606501 0.910937
0.000000 0.617600 0.913656
0.000000 0.620727 0.916664
0.000000 0.634053 0.920344
0.218069 0.636152 0.931463
0.643273 0.648390 0.936922
0.922920 0.678248 0.940369
1.000000 0.674197 0.927746
0.000000 0.830717 0.950028
0.000000 0.830605 0.950017
0.000000 0.832748 0.952000
0.000000 0.837150 0.953723
0.000000 0.845280 0.955948
0.000000 0.855369 0.958471
0.613753 0.870521 0.962821
0.859214 0.883814 0.966020
0.964194 0.895722 0.962683
0.000000 0.935307 0.969310
0.000000 0.936349 0.969957
0.000000 0.937139 0.969785
0.000000 0.937488 0.971143
0.000000 0.942174 0.972687
0.309354 0.944961 0.973826
0.667236 0.947416 0.975573
0.852888 0.952103 0.976490
0.950571 0.961406 0.975865
