Assets/Lutify-Free-LUTs-Pack/Lutify Free LUTs Pack/Commercial Pro - Claire/Lutify.me-Claire-SLog2-to-Rec709.cube
# Created with: fylm.ai - Colour Grading and Collaboration Software in Cloud 
# Website: https://fylm.ai 
# META
# Option: Gamut compress
# Block 1: IDT | Sony S-Log2 S-Gamut Daylight 10-bit
# Block 2: colourMatch | Blending Mode: Normal | {"ColorSpace":0,"CrossCovarianceLimit":50,"ReshapingIterations":1,"PercentSaturationShift":100,"PercentShadingShift":100,"ExtraShading":true,"PercentTint":100,"PercentModified":100}
# Block 3: HSL | Blending Mode: Normal | {"hue":{"Reds":0,"Yellows":0,"Greens":0,"Cyans":0,"Blues":0,"Magentas":0},"saturation":{"Reds":1,"Yellows":1,"Greens":1,"Cyans":1,"Blues":1,"Magentas":1},"luminance":{"Reds":0.9,"Yellows":0.9,"Greens":0.9,"Cyans":0.8,"Blues":0.8,"Magentas":0.9},"lum_sat":{"Blacks":1,"Shadows":1,"Midtones":1,"Highlights":1,"Whites":1},"sat_sat":{"10":1,"20":1,"30":1,"40":1,"50":1}}
# Block 4: subtractiveColour | Blending Mode: Normal | {"sliders":{"gainY":0.1,"C":0.05,"M":0.05,"Y":0.05}}
# Block 5: logPrimaries | Blending Mode: Normal | {"wheels":{"shadows":{"Y":"0","R":"1","G":"1","B":"1"},"midtones":{"Y":"0","R":"1","G":"1","B":"1"},"highlights":{"Y":"0","R":"1","G":"1","B":"1"},"offset":{"Y":"0","R":"1","G":"1","B":"1"}},"sliders":{"shadows":{"Y":0,"R":-0.05,"G":0,"B":0.1},"midtones":{"Y":0,"R":0,"G":0,"B":0},"highlights":{"Y":0,"R":0,"G":0,"B":0},"offset":{"Y":0,"R":0,"G":0,"B":0}}}
# Block 6: LUT | Filmic Curve Response: Standard Contrast 1 (100%)
# Block 7: LUT | Illuminant: D93 (100%)
# Block 8: LUT | Neutral Tint: Teal Tint 4 (100%)
# Block 9: ODT | Rec709
TITLE "Lutify.me-Claire-SLog2-to-Rec709" 
LUT_3D_SIZE 9
0.000000 0.000000 0.000000
0.299341 0.000000 0.000000
0.519255 0.000000 0.000000
0.560385 0.000000 0.000000
0.731880 0.000000 0.031337
0.941946 0.000000 0.129707
1.000000 0.277834 0.259378
1.000000 0.535580 0.428699
1.000000 0.746636 0.617783
0.000000 0.081136 0.000000
0.101541 0.050562 0.000000
0.402889 0.000000 0.000000
0.540947 0.000000 0.000000
0.727225 0.000000 0.014944
0.940818 0.000000 0.129228
1.000000 0.297198 0.260738
1.000000 0.543176 0.428292
1.000000 0.749424 0.621038
0.000000 0.229866 0.000000
0.000000 0.206721 0.000000
0.385224 0.121536 0.000000
0.554520 0.092391 0.000000
0.727544 0.054665 0.000000
0.938701 0.052851 0.128540
1.000000 0.338612 0.263121
1.000000 0.558354 0.430620
1.000000 0.757686 0.620817
0.000000 0.356905 0.000000
0.000000 0.345684 0.000000
0.284482 0.298311 0.000000
0.644557 0.223264 0.000000
0.735180 0.316875 0.000000
0.929105 0.321597 0.114368
1.000000 0.408230 0.263390
1.000000 0.592499 0.435073
1.000000 0.768314 0.623917
0.000000 0.513117 0.000000
0.000000 0.513117 0.000000
0.000000 0.472151 0.000000
0.585613 0.418296 0.000000
0.798343 0.445891 0.000000
0.919100 0.532960 0.000000
1.000000 0.573916 0.260498
1.000000 0.645382 0.438472
1.000000 0.786265 0.627619
0.000000 0.668403 0.000000
0.000000 0.668403 0.000000
0.000000 0.649086 0.000000
0.148474 0.625952 0.000000
0.724264 0.635188 0.000000
0.894866 0.696450 0.000000
0.992263 0.748875 0.201992
1.000000 0.775574 0.451588
1.000000 0.825210 0.638462
0.000000 0.821694 0.000000
0.000000 0.821694 0.000000
0.000000 0.821694 0.000000
0.000000 0.794589 0.000000
0.510949 0.782419 0.000000
0.811805 0.842239 0.000000
0.965516 0.853922 0.000000
1.000000 0.877977 0.448920
1.000000 0.891338 0.666173
0.000000 0.914971 0.000000
0.000000 0.914971 0.000000
0.000000 0.914971 0.000000
0.000000 0.914971 0.000000
0.000000 0.894683 0.000000
0.648188 0.916934 0.000000
0.913801 0.930892 0.000000
0.999111 0.936093 0.322605
1.000000 0.944670 0.676465
0.000000 0.973329 0.000000
0.000000 0.973329 0.000000
0.000000 0.973329 0.000000
0.000000 0.973329 0.000000
0.000000 0.973329 0.000000
0.577590 0.945835 0.000000
0.800513 0.974268 0.108566
0.970981 0.974111 0.414092
1.000000 0.975099 0.590301
0.000000 0.000000 0.159178
0.169363 0.000000 0.018478
0.399575 0.000000 0.000000
0.524908 0.000000 0.029109
0.723307 0.000000 0.081432
0.938333 0.000000 0.153982
1.000000 0.282628 0.278683
1.000000 0.535519 0.441348
1.000000 0.746602 0.624459
0.000000 0.055991 0.089331
0.037595 0.055911 0.083897
0.298305 0.000000 0.036322
0.491186 0.000000 0.048484
0.718536 0.000000 0.082923
0.937034 0.000000 0.155705
1.000000 0.297103 0.277986
1.000000 0.543117 0.440954
1.000000 0.749408 0.624378
0.000000 0.174101 0.082851
0.000000 0.212206 0.046029
0.259571 0.206823 0.000000
0.493651 0.169846 0.000000
0.718015 0.070787 0.083079
0.934618 0.092171 0.159693
1.000000 0.338545 0.280857
1.000000 0.558299 0.443347
1.000000 0.757670 0.624155
0.000000 0.295621 0.000000
0.000000 0.326829 0.000000
0.000000 0.374910 0.000000
0.481633 0.351693 0.000000
0.720713 0.337665 0.000000
0.927537 0.334858 0.156536
1.000000 0.407913 0.281537
1.000000 0.592464 0.444705
1.000000 0.768283 0.630606
0.000000 0.456455 0.000000
0.000000 0.442579 0.000000
0.000000 0.535284 0.000000
0.262457 0.545864 0.000000
0.704903 0.530485 0.000000
0.913405 0.545598 0.076304
1.000000 0.573939 0.284427
1.000000 0.645348 0.451496
1.000000 0.786236 0.634291
0.000000 0.660914 0.000000
0.000000 0.645589 0.000000
0.000000 0.695361 0.000000
0.000000 0.712697 0.000000
0.540256 0.724936 0.000000
0.882292 0.716761 0.000000
0.989108 0.752181 0.246314
1.000000 0.775554 0.464794
1.000000 0.825197 0.641779
0.000000 0.821726 0.000000
0.000000 0.824661 0.000000
0.000000 0.821725 0.000000
0.000000 0.842865 0.000000
0.000000 0.857853 0.000000
0.777342 0.862853 0.000000
0.963678 0.858296 0.000000
1.000000 0.877967 0.465010
1.000000 0.891223 0.671820
0.000000 0.914971 0.000000
0.000000 0.914971 0.000000
0.000000 0.914971 0.000000
0.000000 0.914971 0.000000
0.000000 0.927055 0.000000
0.527090 0.939668 0.000000
0.909377 0.934787 0.104763
0.998196 0.937173 0.353942
1.000000 0.944651 0.681894
0.000000 0.973329 0.000000
0.000000 0.973329 0.000000
0.000000 0.973329 0.000000
0.000000 0.973329 0.000000
0.000000 0.973329 0.000000
0.392889 0.963478 0.000000
0.788619 0.977879 0.216946
0.970276 0.974737 0.433130
1.000000 0.975075 0.597873
0.000000 0.000000 0.466759
0.099293 0.000000 0.068119
0.385971 0.000000 0.048035
0.507378 0.000000 0.088705
0.716637 0.000000 0.149960
0.934706 0.000000 0.203510
1.000000 0.282852 0.307827
1.000000 0.535434 0.457371
1.000000 0.746568 0.631158
0.000000 0.034003 0.204214
0.000000 0.036726 0.157347
0.278168 0.000000 0.134807
0.472127 0.000000 0.150610
0.715784 0.000000 0.167922
0.933399 0.000000 0.206736
1.000000 0.302025 0.312554
1.000000 0.543020 0.460228
1.000000 0.749374 0.631075
0.000000 0.176488 0.277667
0.000000 0.180043 0.284786
0.183033 0.231856 0.310156
0.453786 0.189015 0.218472
0.699585 0.090678 0.183654
0.930548 0.106242 0.217952
1.000000 0.338728 0.316522
1.000000 0.558208 0.462710
1.000000 0.757620 0.634204
0.000000 0.284337 0.316173
0.000000 0.294212 0.324153
0.000000 0.387376 0.321310
0.418287 0.406765 0.235086
0.704838 0.355225 0.196799
0.919297 0.336136 0.221845
1.000000 0.408098 0.321486
1.000000 0.592389 0.464205
1.000000 0.768251 0.637315
0.000000 0.385438 0.321036
0.000000 0.385428 0.324080
0.000000 0.520453 0.287769
0.000000 0.589514 0.150666
0.675433 0.575942 0.087505
0.907009 0.554285 0.205740
1.000000 0.573971 0.331931
1.000000 0.648990 0.471077
1.000000 0.786205 0.640983
0.000000 0.505812 0.350450
0.000000 0.505802 0.353902
0.000000 0.569139 0.341293
0.000000 0.766927 0.133722
0.465518 0.767348 0.000000
0.865039 0.747047 0.000000
0.986144 0.758718 0.315803
1.000000 0.775522 0.484811
1.000000 0.825158 0.651759
0.000000 0.633787 0.349269
0.000000 0.633779 0.352972
0.000000 0.633753 0.364216
0.000000 0.868076 0.184749
0.000000 0.884672 0.000000
0.756172 0.876639 0.000000
0.958873 0.864718 0.165229
1.000000 0.879651 0.487548
1.000000 0.891201 0.677976
0.000000 0.809372 0.228238
0.000000 0.806200 0.256575
0.000000 0.799752 0.288727
0.000000 0.789757 0.341206
0.000000 0.954740 0.000000
0.488316 0.950763 0.119282
0.903896 0.939687 0.250231
0.996458 0.939302 0.402843
1.000000 0.945555 0.693788
0.000000 0.973329 0.000000
0.000000 0.975586 0.000000
0.000000 0.977783 0.000000
0.000000 0.975579 0.000000
0.000000 0.932242 0.000000
0.000000 0.991115 0.167849
0.775674 0.981258 0.332488
0.967484 0.976028 0.473689
1.000000 0.975620 0.613149
0.000000 0.000000 0.411489
0.059597 0.000000 0.124400
0.316503 0.000000 0.092405
0.530194 0.000000 0.091906
0.689255 0.000000 0.240359
0.936192 0.000000 0.301640
1.000000 0.281588 0.376374
1.000000 0.538248 0.489478
1.000000 0.747096 0.648542
0.000000 0.041101 0.286435
0.000000 0.049210 0.226783
0.235214 0.000000 0.231084
0.453848 0.000000 0.213506
0.686449 0.000000 0.277693
0.934602 0.000000 0.314543
1.000000 0.300906 0.379097
1.000000 0.545881 0.489121
1.000000 0.749887 0.648459
0.000000 0.149345 0.354287
0.000000 0.165050 0.347739
0.000000 0.186650 0.418538
0.446494 0.148110 0.387364
0.689017 0.055124 0.329805
0.931321 0.099760 0.327510
1.000000 0.337803 0.384550
1.000000 0.561121 0.491728
1.000000 0.755377 0.651674
0.000000 0.285152 0.439266
0.000000 0.285152 0.439266
0.000000 0.356199 0.522847
0.336246 0.430312 0.532438
0.670062 0.381873 0.431896
0.920371 0.335382 0.369158
1.000000 0.407452 0.395213
1.000000 0.591568 0.500309
1.000000 0.766060 0.654777
0.000000 0.417558 0.490422
0.000000 0.417536 0.494078
0.000000 0.497588 0.568353
0.000000 0.601604 0.543628
0.617429 0.614723 0.471258
0.889201 0.579916 0.397629
1.000000 0.577864 0.416485
1.000000 0.648868 0.508069
1.000000 0.786094 0.664489
0.000000 0.531117 0.498802
0.000000 0.531100 0.502515
0.000000 0.553438 0.527340
0.000000 0.740947 0.504131
0.389930 0.791598 0.400653
0.844593 0.774538 0.348403
0.981819 0.765083 0.418609
1.000000 0.778392 0.536257
1.000000 0.826921 0.671053
0.000000 0.656214 0.536047
0.000000 0.656214 0.536047
0.000000 0.656199 0.539853
0.000000 0.811450 0.538321
0.000000 0.901277 0.443638
0.727953 0.887448 0.348198
0.950161 0.876607 0.363131
1.000000 0.881256 0.546928
1.000000 0.891135 0.696145
0.000000 0.782326 0.570774
0.000000 0.782311 0.574692
0.000000 0.785734 0.574514
0.000000 0.785705 0.582352
0.000000 0.961044 0.519564
0.444010 0.959404 0.423961
0.893916 0.945436 0.414754
0.993467 0.942349 0.479850
1.000000 0.946391 0.717925
0.000000 0.865650 0.564436
0.000000 0.865636 0.568333
0.000000 0.865622 0.572231
0.000000 0.868006 0.583939
0.000000 0.870405 0.603436
0.000000 0.997659 0.500620
0.760656 0.986150 0.486334
0.964445 0.977717 0.551290
1.000000 0.976655 0.651223
0.000000 0.000000 0.281910
0.000000 0.000000 0.210251
0.219622 0.000000 0.201535
0.447658 0.000000 0.192637
0.677560 0.000000 0.233268
0.912400 0.000000 0.418107
1.000000 0.276960 0.491988
1.000000 0.542299 0.561109
1.000000 0.749671 0.685237
0.000000 0.061124 0.353356
0.000000 0.072467 0.319105
0.128225 0.060869 0.337976
0.425317 0.000000 0.334819
0.671495 0.000000 0.331213
0.907500 0.000000 0.441204
1.000000 0.296810 0.498709
1.000000 0.549900 0.564262
1.000000 0.755164 0.688318
0.000000 0.122674 0.427234
0.000000 0.141420 0.406385
0.000000 0.160409 0.457519
0.388353 0.125821 0.480749
0.679517 0.000000 0.447961
0.909122 0.000000 0.478533
1.000000 0.338665 0.515242
1.000000 0.561318 0.567255
1.000000 0.760574 0.688145
0.000000 0.257619 0.519305
0.000000 0.269448 0.518874
0.000000 0.318101 0.588269
0.220512 0.364983 0.643480
0.664459 0.349928 0.622372
0.903999 0.307378 0.540074
1.000000 0.417997 0.534548
1.000000 0.591772 0.572908
1.000000 0.768450 0.694375
0.000000 0.413447 0.595605
0.000000 0.413447 0.595605
0.000000 0.458045 0.636001
0.000000 0.561024 0.729681
0.564036 0.635021 0.741239
0.870338 0.601189 0.640426
1.000000 0.589393 0.586577
1.000000 0.652709 0.584749
1.000000 0.788283 0.706562
0.000000 0.564165 0.642157
0.000000 0.564143 0.646048
0.000000 0.564143 0.646048
0.000000 0.700619 0.767211
0.000000 0.802557 0.746471
0.807348 0.807416 0.690945
0.967134 0.780239 0.624711
1.000000 0.783468 0.620554
1.000000 0.828831 0.715262
0.000000 0.678700 0.662908
0.000000 0.678700 0.662908
0.000000 0.678700 0.662908
0.000000 0.788269 0.737408
0.000000 0.888028 0.716509
0.697529 0.903388 0.636490
0.936353 0.890516 0.590036
1.000000 0.885918 0.641938
1.000000 0.892458 0.736603
0.000000 0.795233 0.701932
0.000000 0.798482 0.705398
0.000000 0.798482 0.705398
0.000000 0.798482 0.705398
0.000000 0.934963 0.740762
0.389064 0.966511 0.701947
0.876961 0.953697 0.608190
0.991047 0.945883 0.609604
1.000000 0.948075 0.753167
0.000000 0.881748 0.740199
0.000000 0.881748 0.740199
0.000000 0.881731 0.743683
0.000000 0.881731 0.743683
0.000000 0.881697 0.750540
0.000000 1.000000 0.750177
0.744632 0.989477 0.686182
0.956054 0.981050 0.668699
1.000000 0.979192 0.716435
0.000000 0.070709 0.371668
0.000000 0.074077 0.387731
0.101586 0.067742 0.397429
0.359067 0.000000 0.432774
0.645388 0.000000 0.417671
0.881752 0.000000 0.445231
1.000000 0.192052 0.614973
1.000000 0.527329 0.686827
1.000000 0.759601 0.749267
0.000000 0.110200 0.434384
0.000000 0.120108 0.448082
0.000000 0.121216 0.476050
0.321621 0.089903 0.506915
0.645469 0.000000 0.494001
0.889321 0.000000 0.493891
1.000000 0.234532 0.625769
1.000000 0.535008 0.690116
1.000000 0.759601 0.749267
0.000000 0.154562 0.486208
0.000000 0.178397 0.510937
0.000000 0.188459 0.547436
0.240621 0.185003 0.587759
0.630279 0.044345 0.592771
0.894043 0.000000 0.562077
1.000000 0.291514 0.647353
1.000000 0.551040 0.700328
1.000000 0.764924 0.751907
0.000000 0.219700 0.565187
0.000000 0.252221 0.571590
0.000000 0.274824 0.624544
0.000000 0.294959 0.673566
0.604584 0.271231 0.712820
0.901715 0.184640 0.658539
1.000000 0.378904 0.683239
1.000000 0.589452 0.709176
1.000000 0.772712 0.754428
0.000000 0.379845 0.670642
0.000000 0.379845 0.670642
0.000000 0.453859 0.720787
0.000000 0.505743 0.788164
0.415641 0.562683 0.827747
0.870226 0.558786 0.805304
1.000000 0.549121 0.745019
1.000000 0.661893 0.726316
1.000000 0.792281 0.768454
0.000000 0.544723 0.744717
0.000000 0.544723 0.744717
0.000000 0.544723 0.744717
0.000000 0.658525 0.832244
0.000000 0.763074 0.867018
0.768649 0.818682 0.872613
0.952231 0.791509 0.813314
1.000000 0.785351 0.771807
1.000000 0.830576 0.781430
0.000000 0.697319 0.787110
0.000000 0.697307 0.790248
0.000000 0.697307 0.790248
0.000000 0.729573 0.803261
0.000000 0.868353 0.884706
0.611452 0.908227 0.875829
0.916024 0.907028 0.844272
0.995314 0.896416 0.805288
1.000000 0.896485 0.801808
0.000000 0.816753 0.803399
0.000000 0.816741 0.806171
0.000000 0.816741 0.806171
0.000000 0.816741 0.806171
0.000000 0.918892 0.870121
0.000000 0.960612 0.865602
0.862285 0.960332 0.826231
0.976498 0.952923 0.796859
1.000000 0.951351 0.823780
0.000000 0.894704 0.827581
0.000000 0.894704 0.827581
0.000000 0.894704 0.827581
0.000000 0.894704 0.827581
0.000000 0.894704 0.827581
0.000000 0.988530 0.874050
0.731053 0.993719 0.858323
0.947418 0.984750 0.809590
1.000000 0.980866 0.803896
0.000000 0.166600 0.574268
0.000000 0.167232 0.589440
0.000000 0.174134 0.608193
0.211740 0.166692 0.626654
0.551585 0.089275 0.666240
0.871400 0.000000 0.645262
1.000000 0.000000 0.661357
1.000000 0.475962 0.795867
1.000000 0.751844 0.838291
0.000000 0.190575 0.600364
0.000000 0.200569 0.615411
0.000000 0.202668 0.638312
0.165489 0.203011 0.656834
0.529693 0.164495 0.704270
0.873693 0.000000 0.679226
1.000000 0.000000 0.679987
1.000000 0.483710 0.801436
1.000000 0.754641 0.838144
0.000000 0.226555 0.633931
0.000000 0.234591 0.649114
0.000000 0.241699 0.675842
0.000000 0.251545 0.713404
0.499926 0.226394 0.740401
0.872835 0.000000 0.727133
1.000000 0.000000 0.712904
1.000000 0.504230 0.806467
1.000000 0.760108 0.840080
0.000000 0.276962 0.674766
0.000000 0.291994 0.697443
0.000000 0.304430 0.727200
0.000000 0.317454 0.761627
0.434072 0.318228 0.793931
0.857894 0.256519 0.796818
1.000000 0.234513 0.770118
1.000000 0.543095 0.823641
1.000000 0.771220 0.841821
0.000000 0.325365 0.719029
0.000000 0.372868 0.735403
0.000000 0.411656 0.786237
0.000000 0.437484 0.819451
0.239296 0.467301 0.853859
0.825164 0.467844 0.869918
1.000000 0.443201 0.838547
1.000000 0.627801 0.842312
1.000000 0.791363 0.851540
0.000000 0.518253 0.800520
0.000000 0.518253 0.800520
0.000000 0.518253 0.800520
0.000000 0.650648 0.877418
0.000000 0.705140 0.902843
0.642814 0.762930 0.919846
0.951396 0.773786 0.907705
1.000000 0.769533 0.873378
1.000000 0.832227 0.861625
0.000000 0.697141 0.849809
0.000000 0.697141 0.849809
0.000000 0.697141 0.849809
0.000000 0.697141 0.849809
0.000000 0.842900 0.921027
0.368320 0.891892 0.938716
0.896300 0.915977 0.941543
0.984352 0.902285 0.910875
1.000000 0.898979 0.883804
0.000000 0.833649 0.877753
0.000000 0.833643 0.879771
0.000000 0.833643 0.879771
0.000000 0.833643 0.879771
0.000000 0.898333 0.918678
0.000000 0.953859 0.947691
0.824295 0.963057 0.943775
0.965607 0.961719 0.927804
1.000000 0.956140 0.905345
0.000000 0.906769 0.884479
0.000000 0.906769 0.884479
0.000000 0.906769 0.884479
0.000000 0.906761 0.886301
0.000000 0.906761 0.886301
0.000000 0.979759 0.939286
0.636563 0.991137 0.937638
0.936859 0.987744 0.918015
0.996202 0.984705 0.904512
0.000000 0.279201 0.770635
0.000000 0.286283 0.780943
0.000000 0.292704 0.790801
0.000000 0.293357 0.809674
0.372409 0.288408 0.817413
0.759587 0.243354 0.848926
1.000000 0.148576 0.833980
1.000000 0.294775 0.835368
1.000000 0.713379 0.904361
0.000000 0.295130 0.780719
0.000000 0.299953 0.787368
0.000000 0.304108 0.797095
0.000000 0.311272 0.815274
0.359303 0.304666 0.828624
0.750510 0.274828 0.855871
1.000000 0.202337 0.843696
1.000000 0.313661 0.842533
1.000000 0.716490 0.905747
0.000000 0.320603 0.793432
0.000000 0.326062 0.796471
0.000000 0.330887 0.808983
0.000000 0.338903 0.831839
0.331928 0.337269 0.841255
0.739585 0.313232 0.864693
1.000000 0.257331 0.857547
1.000000 0.348165 0.851463
1.000000 0.722824 0.905405
0.000000 0.365349 0.817016
0.000000 0.371251 0.822639
0.000000 0.379999 0.836194
0.000000 0.390368 0.853518
0.262429 0.402987 0.873375
0.697814 0.395209 0.889093
1.000000 0.355584 0.886223
1.000000 0.410632 0.870256
1.000000 0.734927 0.909327
0.000000 0.432023 0.841991
0.000000 0.442281 0.849210
0.000000 0.455898 0.858445
0.000000 0.479097 0.877946
0.000000 0.491863 0.897337
0.647834 0.498083 0.910700
0.985944 0.488233 0.917019
1.000000 0.508489 0.895176
1.000000 0.764010 0.915097
0.000000 0.470909 0.840112
0.000000 0.533016 0.854603
0.000000 0.563027 0.884660
0.000000 0.600407 0.904346
0.000000 0.635377 0.922068
0.504895 0.659206 0.940057
0.943628 0.689285 0.944530
1.000000 0.689402 0.928342
1.000000 0.811561 0.924770
0.000000 0.666465 0.892857
0.000000 0.666465 0.892857
0.000000 0.666465 0.892857
0.000000 0.725513 0.900464
0.000000 0.829111 0.946885
0.000000 0.860645 0.961038
0.837294 0.885083 0.968562
0.983618 0.896263 0.962551
1.000000 0.890649 0.944587
0.000000 0.819409 0.916971
0.000000 0.819409 0.916971
0.000000 0.822330 0.916764
0.000000 0.822330 0.916764
0.000000 0.822330 0.916764
0.000000 0.938931 0.968596
0.724047 0.952590 0.978059
0.956783 0.965645 0.979603
0.999986 0.960834 0.964257
0.000000 0.910461 0.930138
0.000000 0.910461 0.930138
0.000000 0.910461 0.930138
0.000000 0.910461 0.930138
0.000000 0.910461 0.930138
0.000000 0.968298 0.968503
0.448376 0.989862 0.981972
0.914064 0.988939 0.980945
0.990130 0.989036 0.973875
0.000000 0.436241 0.900920
0.000000 0.435829 0.902890
0.000000 0.434901 0.904766
0.000000 0.443112 0.911661
0.323322 0.461054 0.920316
0.590225 0.456562 0.924841
0.946436 0.449328 0.939830
1.000000 0.449659 0.932695
1.000000 0.566311 0.928892
0.000000 0.446912 0.902457
0.000000 0.446524 0.904401
0.000000 0.445553 0.906242
0.000000 0.453915 0.913018
0.301102 0.469066 0.923357
0.581749 0.464892 0.927727
0.943952 0.462676 0.940772
1.000000 0.463270 0.933683
1.000000 0.572754 0.931413
0.000000 0.457673 0.905922
0.000000 0.464438 0.905527
0.000000 0.463583 0.911136
0.000000 0.472208 0.915800
0.269312 0.484511 0.925957
0.570150 0.481079 0.931749
0.939487 0.484820 0.944071
1.000000 0.485088 0.935762
1.000000 0.583248 0.932347
0.000000 0.486735 0.912120
0.000000 0.489940 0.913701
0.000000 0.492886 0.916978
0.000000 0.502012 0.921293
0.207459 0.515387 0.930841
0.549310 0.517446 0.940516
0.925273 0.520482 0.949321
1.000000 0.524186 0.942423
1.000000 0.612115 0.936458
0.000000 0.539248 0.918321
0.000000 0.542732 0.921397
0.000000 0.545970 0.925934
0.000000 0.556076 0.932877
0.000000 0.574444 0.941274
0.504788 0.582081 0.950995
0.890412 0.590655 0.959621
1.000000 0.600913 0.956140
1.000000 0.670501 0.944947
0.000000 0.620065 0.929826
0.000000 0.623758 0.934038
0.000000 0.634847 0.937626
0.000000 0.645314 0.942359
0.000000 0.661510 0.952469
0.363275 0.687491 0.962010
0.842537 0.704533 0.967344
1.000000 0.722460 0.969817
1.000000 0.749243 0.957099
0.000000 0.651268 0.915513
0.000000 0.697445 0.931143
0.000000 0.729570 0.938848
0.000000 0.748358 0.952642
0.000000 0.785320 0.961833
0.000000 0.809577 0.972065
0.752053 0.826853 0.980294
0.982466 0.849382 0.982031
1.000000 0.851738 0.974004
0.000000 0.804289 0.940381
0.000000 0.804289 0.940381
0.000000 0.804289 0.940381
0.000000 0.804289 0.940381
0.000000 0.885306 0.961055
0.000000 0.924707 0.983413
0.550147 0.938287 0.989526
0.924165 0.948894 0.992545
1.000000 0.953535 0.989545
0.000000 0.910414 0.956310
0.000000 0.910414 0.956310
0.000000 0.910414 0.956310
0.000000 0.910414 0.956310
0.000000 0.910414 0.956310
0.000000 0.910414 0.956310
0.000000 0.985602 0.993265
0.866474 0.985192 0.996670
0.985666 0.990243 0.997823
