Assets/Lutify-Free-LUTs-Pack/Lutify Free LUTs Pack/Commercial Pro - Claire/Lutify.me-Claire-SLog1-to-Rec709.cube
# Created with: fylm.ai - Colour Grading and Collaboration Software in Cloud 
# Website: https://fylm.ai 
# META
# Option: Gamut compress
# Block 1: IDT | Sony S-Log S-Gamut 10-bit
# Block 2: colourMatch | Blending Mode: Normal | {"ColorSpace":0,"CrossCovarianceLimit":50,"ReshapingIterations":1,"PercentSaturationShift":100,"PercentShadingShift":100,"ExtraShading":true,"PercentTint":100,"PercentModified":100}
# Block 3: HSL | Blending Mode: Normal | {"hue":{"Reds":0,"Yellows":0,"Greens":0,"Cyans":0,"Blues":0,"Magentas":0},"saturation":{"Reds":1,"Yellows":1,"Greens":1,"Cyans":1,"Blues":1,"Magentas":1},"luminance":{"Reds":0.9,"Yellows":0.9,"Greens":0.9,"Cyans":0.8,"Blues":0.8,"Magentas":0.9},"lum_sat":{"Blacks":1,"Shadows":1,"Midtones":1,"Highlights":1,"Whites":1},"sat_sat":{"10":1,"20":1,"30":1,"40":1,"50":1}}
# Block 4: subtractiveColour | Blending Mode: Normal | {"sliders":{"gainY":0.1,"C":0.05,"M":0.05,"Y":0.05}}
# Block 5: logPrimaries | Blending Mode: Normal | {"wheels":{"shadows":{"Y":"0","R":"1","G":"1","B":"1"},"midtones":{"Y":"0","R":"1","G":"1","B":"1"},"highlights":{"Y":"0","R":"1","G":"1","B":"1"},"offset":{"Y":"0","R":"1","G":"1","B":"1"}},"sliders":{"shadows":{"Y":0,"R":-0.05,"G":0,"B":0.1},"midtones":{"Y":0,"R":0,"G":0,"B":0},"highlights":{"Y":0,"R":0,"G":0,"B":0},"offset":{"Y":0,"R":0,"G":0,"B":0}}}
# Block 6: LUT | Filmic Curve Response: Standard Contrast 1 (100%)
# Block 7: LUT | Illuminant: D93 (100%)
# Block 8: LUT | Neutral Tint: Teal Tint 4 (100%)
# Block 9: ODT | Rec709
TITLE "Lutify.me-Claire-SLog1-to-Rec709" 
LUT_3D_SIZE 33
0.000000 0.000000 0.000000
0.000000 0.000000 0.000000
0.098700 0.000000 0.000000
0.027963 0.000000 0.000000
0.152194 0.000000 0.000000
0.259736 0.000000 0.000000
0.335637 0.000000 0.000000
0.401611 0.000000 0.000000
0.453150 0.000000 0.000000
0.485366 0.000000 0.000000
0.515405 0.000000 0.000000
0.539236 0.000000 0.000000
0.555601 0.000000 0.000000
0.572151 0.000000 0.000000
0.588967 0.000000 0.000000
0.614386 0.000000 0.000000
0.644404 0.000000 0.000000
0.687717 0.000000 0.000000
0.736429 0.000000 0.000000
0.784189 0.000000 0.000000
0.836491 0.000000 0.000000
0.876789 0.000000 0.000000
0.929236 0.000000 0.041407
0.974505 0.000000 0.066257
1.000000 0.000000 0.092334
1.000000 0.000000 0.116436
1.000000 0.000000 0.143309
1.000000 0.205021 0.175705
1.000000 0.289664 0.210674
1.000000 0.362040 0.243253
1.000000 0.422820 0.282281
1.000000 0.480696 0.318095
1.000000 0.548944 0.360982
0.000000 0.000000 0.000000
0.000000 0.000000 0.000000
0.075332 0.000000 0.000000
0.010258 0.000000 0.000000
0.134893 0.000000 0.000000
0.231563 0.000000 0.000000
0.299365 0.000000 0.000000
0.361996 0.000000 0.000000
0.410800 0.000000 0.000000
0.449789 0.000000 0.000000
0.481778 0.000000 0.000000
0.500433 0.000000 0.000000
0.527420 0.000000 0.000000
0.559973 0.000000 0.000000
0.576649 0.000000 0.000000
0.601881 0.000000 0.000000
0.640206 0.000000 0.000000
0.683420 0.000000 0.000000
0.731688 0.000000 0.000000
0.779384 0.000000 0.000000
0.831730 0.000000 0.000000
0.876684 0.000000 0.000000
0.929112 0.000000 0.042021
0.974305 0.000000 0.066972
1.000000 0.000000 0.093714
1.000000 0.000000 0.117950
1.000000 0.049054 0.147027
1.000000 0.211327 0.177353
1.000000 0.294332 0.210320
1.000000 0.366177 0.242917
1.000000 0.426674 0.281980
1.000000 0.484362 0.317821
1.000000 0.548944 0.360982
0.000000 0.000000 0.000000
0.000000 0.000000 0.000000
0.000000 0.000000 0.000000
0.000000 0.000000 0.000000
0.119165 0.000000 0.000000
0.205428 0.000000 0.000000
0.272901 0.000000 0.000000
0.328051 0.000000 0.000000
0.378486 0.000000 0.000000
0.410930 0.000000 0.000000
0.443205 0.000000 0.000000
0.474718 0.000000 0.000000
0.508239 0.000000 0.000000
0.543873 0.000000 0.000000
0.568544 0.000000 0.000000
0.597809 0.000000 0.000000
0.635998 0.000000 0.000000
0.679132 0.000000 0.000000
0.727136 0.000000 0.000000
0.779366 0.000000 0.000000
0.831645 0.000000 0.000000
0.876610 0.000000 0.000000
0.928982 0.000000 0.042607
0.974097 0.000000 0.067675
1.000000 0.000000 0.092899
1.000000 0.000000 0.117171
1.000000 0.092012 0.146269
1.000000 0.217506 0.176960
1.000000 0.298961 0.209961
1.000000 0.366177 0.242917
1.000000 0.426674 0.281980
1.000000 0.484362 0.317821
1.000000 0.548934 0.363909
0.000000 0.020677 0.000000
0.000000 0.017058 0.000000
0.000000 0.013174 0.000000
0.000000 0.005259 0.000000
0.086596 0.000000 0.000000
0.173038 0.000000 0.000000
0.243819 0.000000 0.000000
0.301798 0.000000 0.000000
0.351753 0.000000 0.000000
0.384395 0.000000 0.000000
0.417475 0.000000 0.000000
0.450351 0.000000 0.000000
0.489763 0.000000 0.000000
0.524002 0.000000 0.000000
0.564606 0.000000 0.000000
0.589590 0.000000 0.000000
0.631833 0.000000 0.000000
0.674852 0.000000 0.000000
0.727148 0.000000 0.000000
0.774568 0.000000 0.000000
0.831589 0.000000 0.000000
0.876493 0.000000 0.000000
0.932620 0.000000 0.043298
0.973990 0.000000 0.067080
1.000000 0.000000 0.092040
1.000000 0.000000 0.116766
1.000000 0.105890 0.145876
1.000000 0.228888 0.176188
1.000000 0.298954 0.212233
1.000000 0.370291 0.245094
1.000000 0.434370 0.281367
1.000000 0.485455 0.318601
1.000000 0.552507 0.363667
0.000000 0.063623 0.000000
0.000000 0.062078 0.000000
0.000000 0.060578 0.000000
0.000000 0.056435 0.000000
0.054635 0.046313 0.000000
0.141261 0.000000 0.000000
0.203826 0.000000 0.000000
0.265121 0.000000 0.000000
0.316424 0.000000 0.000000
0.362735 0.000000 0.000000
0.405441 0.000000 0.000000
0.437171 0.000000 0.000000
0.486310 0.000000 0.000000
0.524219 0.000000 0.000000
0.556615 0.000000 0.000000
0.589695 0.000000 0.000000
0.627708 0.000000 0.000000
0.674929 0.000000 0.000000
0.722803 0.000000 0.000000
0.774547 0.000000 0.000000
0.831525 0.000000 0.000000
0.876368 0.000000 0.000000
0.932477 0.000000 0.041518
0.973769 0.000000 0.067752
1.000000 0.000000 0.091591
1.000000 0.000000 0.116351
1.000000 0.117796 0.147354
1.000000 0.228888 0.176188
1.000000 0.303548 0.211874
1.000000 0.370291 0.245094
1.000000 0.434361 0.283827
1.000000 0.489143 0.318324
1.000000 0.552507 0.363667
0.000000 0.099617 0.000000
0.000000 0.097128 0.000000
0.000000 0.094688 0.000000
0.000000 0.090042 0.000000
0.000000 0.079606 0.000000
0.123520 0.062476 0.000000
0.188778 0.029777 0.000000
0.252983 0.000000 0.000000
0.300608 0.000000 0.000000
0.347636 0.000000 0.000000
0.391252 0.000000 0.000000
0.424669 0.000000 0.000000
0.475719 0.000000 0.000000
0.520518 0.000000 0.000000
0.548719 0.000000 0.000000
0.589877 0.000000 0.000000
0.627868 0.000000 0.000000
0.675020 0.000000 0.000000
0.722841 0.000000 0.000000
0.769743 0.000000 0.000000
0.831436 0.000000 0.000000
0.876237 0.000000 0.000000
0.932250 0.000000 0.041010
0.973463 0.000000 0.066022
1.000000 0.000000 0.092054
1.000000 0.000000 0.117453
1.000000 0.128424 0.146949
1.000000 0.234402 0.177868
1.000000 0.308106 0.211510
1.000000 0.374403 0.244753
1.000000 0.438204 0.283520
1.000000 0.492852 0.318042
1.000000 0.556083 0.363423
0.000000 0.129816 0.000000
0.000000 0.128212 0.000000
0.000000 0.125097 0.000000
0.000000 0.120558 0.000000
0.000000 0.110317 0.000000
0.109734 0.097410 0.000000
0.183414 0.077423 0.000000
0.244786 0.050699 0.000000
0.296615 0.000000 0.000000
0.337848 0.000000 0.000000
0.380632 0.000000 0.000000
0.419156 0.000000 0.000000
0.472765 0.000000 0.000000
0.513289 0.000000 0.000000
0.549070 0.000000 0.000000
0.581928 0.000000 0.000000
0.628088 0.000000 0.000000
0.675173 0.000000 0.000000
0.722885 0.000000 0.000000
0.769701 0.000000 0.000000
0.831316 0.000000 0.000000
0.876050 0.000000 0.000000
0.931841 0.000000 0.040699
0.973141 0.000000 0.066174
1.000000 0.000000 0.090552
1.000000 0.000000 0.116565
1.000000 0.147102 0.148021
1.000000 0.245210 0.177061
1.000000 0.312626 0.213443
1.000000 0.378502 0.244407
1.000000 0.438204 0.283520
1.000000 0.492844 0.320722
1.000000 0.556083 0.363423
0.000000 0.162483 0.000000
0.000000 0.160681 0.000000
0.000000 0.157198 0.000000
0.000000 0.152148 0.000000
0.000000 0.145504 0.000000
0.079980 0.132779 0.000000
0.167836 0.123254 0.000000
0.238849 0.103378 0.000000
0.292567 0.080002 0.000000
0.336552 0.044410 0.000000
0.379253 0.000000 0.000000
0.417435 0.000000 0.000000
0.460034 0.000000 0.000000
0.506941 0.000000 0.000000
0.541867 0.000000 0.000000
0.578394 0.000000 0.000000
0.620035 0.000000 0.000000
0.675366 0.000000 0.000000
0.722938 0.000000 0.000000
0.769654 0.000000 0.000000
0.831129 0.000000 0.000000
0.875741 0.000000 0.000000
0.931484 0.000000 0.038464
0.976065 0.000000 0.066556
1.000000 0.000000 0.090886
1.000000 0.000000 0.117174
1.000000 0.163524 0.149089
1.000000 0.250483 0.180871
1.000000 0.317123 0.213073
1.000000 0.382583 0.246611
1.000000 0.442045 0.283209
1.000000 0.496553 0.320441
1.000000 0.559661 0.363177
0.000000 0.194645 0.000000
0.000000 0.192550 0.000000
0.000000 0.190456 0.000000
0.000000 0.184465 0.000000
0.000000 0.180386 0.000000
0.000000 0.171727 0.000000
0.147799 0.157160 0.000000
0.225961 0.143313 0.000000
0.286721 0.123482 0.000000
0.337616 0.103794 0.000000
0.378313 0.085045 0.000000
0.416349 0.055538 0.000000
0.462127 0.000000 0.000000
0.505035 0.000000 0.000000
0.535688 0.000000 0.000000
0.579552 0.000000 0.000000
0.620699 0.000000 0.000000
0.671339 0.000000 0.000000
0.722988 0.000000 0.000000
0.774328 0.000000 0.000000
0.830952 0.000000 0.000000
0.875397 0.000000 0.000000
0.931044 0.000000 0.038000
0.975701 0.000000 0.066583
1.000000 0.000000 0.093175
1.000000 0.077996 0.117231
1.000000 0.185502 0.147730
1.000000 0.260831 0.180046
1.000000 0.321585 0.215027
1.000000 0.386661 0.246263
1.000000 0.445875 0.285384
1.000000 0.500264 0.320159
1.000000 0.563231 0.365879
0.000000 0.224634 0.000000
0.000000 0.224472 0.000000
0.000000 0.222487 0.000000
0.000000 0.215752 0.000000
0.000000 0.213351 0.000000
0.000000 0.201876 0.000000
0.098705 0.195263 0.000000
0.208229 0.180838 0.000000
0.273272 0.167186 0.000000
0.334586 0.145993 0.000000
0.379748 0.132998 0.000000
0.418423 0.118515 0.000000
0.464463 0.102494 0.000000
0.507272 0.080700 0.000000
0.537665 0.049874 0.000000
0.581241 0.000000 0.000000
0.621795 0.000000 0.000000
0.671909 0.000000 0.000000
0.723115 0.000000 0.000000
0.774256 0.000000 0.000000
0.830724 0.000000 0.000000
0.879300 0.000000 0.000000
0.930577 0.000000 0.037436
0.974902 0.000000 0.068635
1.000000 0.000000 0.092844
1.000000 0.118396 0.120264
1.000000 0.205376 0.150262
1.000000 0.270909 0.179192
1.000000 0.334835 0.213883
1.000000 0.390722 0.248493
1.000000 0.449711 0.285071
1.000000 0.503966 0.322585
1.000000 0.566815 0.365633
0.000000 0.250479 0.000000
0.000000 0.250300 0.000000
0.000000 0.250130 0.000000
0.000000 0.241778 0.000000
0.000000 0.241500 0.000000
0.000000 0.238877 0.000000
0.000000 0.232785 0.000000
0.168421 0.220580 0.000000
0.250421 0.208724 0.000000
0.317718 0.194090 0.000000
0.379786 0.171974 0.000000
0.420038 0.160868 0.000000
0.466575 0.145673 0.000000
0.509677 0.137808 0.000000
0.540523 0.140794 0.000000
0.583351 0.123203 0.000000
0.631887 0.111847 0.000000
0.672923 0.071494 0.000000
0.723435 0.000000 0.000000
0.774190 0.000000 0.000000
0.830388 0.000000 0.000000
0.878849 0.000000 0.000000
0.929852 0.000000 0.033157
0.974320 0.000000 0.067643
1.000000 0.000000 0.094495
1.000000 0.155373 0.122369
1.000000 0.228844 0.150341
1.000000 0.281363 0.180950
1.000000 0.343549 0.215465
1.000000 0.398826 0.250398
1.000000 0.457373 0.284432
1.000000 0.511392 0.322014
1.000000 0.570400 0.365386
0.000000 0.274504 0.000000
0.000000 0.279053 0.000000
0.000000 0.276548 0.000000
0.000000 0.274015 0.000000
0.000000 0.271482 0.000000
0.000000 0.268794 0.000000
0.000000 0.267509 0.000000
0.062743 0.260695 0.000000
0.219718 0.248885 0.000000
0.287641 0.236997 0.000000
0.359288 0.222216 0.000000
0.413132 0.207207 0.000000
0.465284 0.195100 0.000000
0.512254 0.182213 0.000000
0.542867 0.183352 0.000000
0.586065 0.184298 0.000000
0.633788 0.173788 0.000000
0.674329 0.159641 0.000000
0.728371 0.133988 0.000000
0.774187 0.093987 0.000000
0.829945 0.000000 0.000000
0.878127 0.000000 0.000000
0.929021 0.000000 0.031533
0.973183 0.000000 0.068429
1.000000 0.128711 0.098442
1.000000 0.191632 0.126097
1.000000 0.245154 0.152963
1.000000 0.295730 0.181797
1.000000 0.357174 0.217178
1.000000 0.406903 0.249681
1.000000 0.465019 0.286311
1.000000 0.515097 0.324469
1.000000 0.573978 0.368105
0.000000 0.308345 0.000000
0.000000 0.316164 0.000000
0.000000 0.316146 0.000000
0.000000 0.313388 0.000000
0.000000 0.310525 0.000000
0.000000 0.310128 0.000000
0.000000 0.306840 0.000000
0.000000 0.302562 0.000000
0.151295 0.296790 0.000000
0.253134 0.289937 0.000000
0.332473 0.273800 0.000000
0.391878 0.262501 0.000000
0.464481 0.244755 0.000000
0.522022 0.232943 0.000000
0.556949 0.229703 0.000000
0.588682 0.236087 0.000000
0.636069 0.226686 0.000000
0.680221 0.219966 0.000000
0.729474 0.214091 0.000000
0.774374 0.187254 0.000000
0.833862 0.156344 0.000000
0.876985 0.138126 0.000000
0.927787 0.109817 0.018976
0.971490 0.135184 0.063685
1.000000 0.182506 0.098056
1.000000 0.233233 0.126351
1.000000 0.265983 0.152944
1.000000 0.314330 0.184412
1.000000 0.365676 0.221240
1.000000 0.415738 0.252195
1.000000 0.473548 0.286341
1.000000 0.526245 0.323599
1.000000 0.577568 0.367857
0.000000 0.332412 0.000000
0.000000 0.349100 0.000000
0.000000 0.351852 0.000000
0.000000 0.354608 0.000000
0.000000 0.351727 0.000000
0.000000 0.351542 0.000000
0.000000 0.348275 0.000000
0.000000 0.350116 0.000000
0.000000 0.344943 0.000000
0.181399 0.339343 0.000000
0.280414 0.335296 0.000000
0.358768 0.321556 0.000000
0.431914 0.306073 0.000000
0.516445 0.287302 0.000000
0.561383 0.281182 0.000000
0.593723 0.283160 0.000000
0.642030 0.282657 0.000000
0.682043 0.279588 0.000000
0.730520 0.274237 0.000000
0.774698 0.257150 0.000000
0.832884 0.242744 0.000000
0.874935 0.235870 0.000000
0.929031 0.204567 0.000000
0.969220 0.203858 0.061492
1.000000 0.235607 0.094967
1.000000 0.259538 0.125338
1.000000 0.290673 0.154458
1.000000 0.336892 0.184271
1.000000 0.383179 0.222598
1.000000 0.432474 0.253998
1.000000 0.485117 0.287888
1.000000 0.537385 0.328303
1.000000 0.584746 0.370346
0.000000 0.351821 0.000000
0.000000 0.377865 0.000000
0.000000 0.383904 0.000000
0.000000 0.390019 0.000000
0.000000 0.393069 0.000000
0.000000 0.389796 0.000000
0.000000 0.386432 0.000000
0.000000 0.395310 0.000000
0.000000 0.390768 0.000000
0.000000 0.388905 0.000000
0.205845 0.382796 0.000000
0.307827 0.375992 0.000000
0.396978 0.364525 0.000000
0.480906 0.351295 0.000000
0.548718 0.334470 0.000000
0.595985 0.328985 0.000000
0.641890 0.326759 0.000000
0.686579 0.327725 0.000000
0.731040 0.324847 0.000000
0.774828 0.314164 0.000000
0.831605 0.312189 0.000000
0.876721 0.299989 0.000000
0.925538 0.282257 0.000000
0.969134 0.265448 0.053991
1.000000 0.276028 0.091914
1.000000 0.294161 0.124994
1.000000 0.323694 0.155135
1.000000 0.354986 0.187395
1.000000 0.400431 0.223948
1.000000 0.448315 0.257638
1.000000 0.497525 0.290149
1.000000 0.546597 0.332111
1.000000 0.591932 0.372850
0.000000 0.371794 0.058534
0.000000 0.399428 0.000000
0.000000 0.425516 0.000000
0.000000 0.432220 0.000000
0.000000 0.435596 0.000000
0.000000 0.438937 0.000000
0.000000 0.435321 0.000000
0.000000 0.434977 0.000000
0.000000 0.441279 0.000000
0.000000 0.436381 0.000000
0.000000 0.431239 0.000000
0.237380 0.428578 0.000000
0.339063 0.425093 0.000000
0.441815 0.416072 0.000000
0.512905 0.400170 0.000000
0.579735 0.386829 0.000000
0.637865 0.380873 0.000000
0.688901 0.378781 0.000000
0.738953 0.376486 0.000000
0.783060 0.370855 0.000000
0.838458 0.363389 0.000000
0.873963 0.358571 0.000000
0.921132 0.352350 0.000000
0.964175 0.334590 0.015118
0.996064 0.332032 0.085193
1.000000 0.340306 0.121474
1.000000 0.355283 0.153251
1.000000 0.385535 0.186522
1.000000 0.421550 0.227437
1.000000 0.464795 0.259145
1.000000 0.517533 0.294389
1.000000 0.561394 0.333803
1.000000 0.606336 0.374871
0.000000 0.408932 0.123461
0.000000 0.435673 0.086980
0.000000 0.470438 0.000000
0.000000 0.477474 0.000000
0.000000 0.480965 0.000000
0.000000 0.487993 0.000000
0.000000 0.487841 0.000000
0.000000 0.483997 0.000000
0.000000 0.490707 0.000000
0.000000 0.489850 0.000000
0.000000 0.485006 0.000000
0.000000 0.482991 0.000000
0.267250 0.480051 0.000000
0.383720 0.479558 0.000000
0.471707 0.471386 0.000000
0.546780 0.459003 0.000000
0.623092 0.441534 0.000000
0.683968 0.428108 0.000000
0.741167 0.422018 0.000000
0.785547 0.428718 0.000000
0.844004 0.422294 0.000000
0.881984 0.414244 0.000000
0.916214 0.414893 0.000000
0.957481 0.407407 0.000000
0.990071 0.393049 0.079956
1.000000 0.388417 0.120800
1.000000 0.398957 0.151621
1.000000 0.419543 0.187322
1.000000 0.449924 0.229526
1.000000 0.489302 0.262329
1.000000 0.536689 0.295301
1.000000 0.572501 0.335814
1.000000 0.614386 0.378231
0.000000 0.452900 0.176027
0.000000 0.484584 0.148897
0.000000 0.509722 0.121793
0.000000 0.524441 0.096034
0.000000 0.528088 0.062057
0.000000 0.535428 0.000000
0.000000 0.542763 0.000000
0.000000 0.542522 0.000000
0.000000 0.542114 0.000000
0.000000 0.549005 0.000000
0.000000 0.548083 0.000000
0.000000 0.542736 0.000000
0.108982 0.540529 0.000000
0.304566 0.541114 0.000000
0.419786 0.537120 0.000000
0.507481 0.528997 0.000000
0.589027 0.508482 0.000000
0.667542 0.490659 0.000000
0.734514 0.480625 0.000000
0.780468 0.488048 0.000000
0.839914 0.482388 0.000000
0.881044 0.474682 0.000000
0.920872 0.467471 0.000000
0.955824 0.473671 0.000000
0.986821 0.464320 0.064056
1.000000 0.455970 0.116751
1.000000 0.453429 0.151117
1.000000 0.461214 0.189298
1.000000 0.482390 0.231088
1.000000 0.520907 0.266705
1.000000 0.556531 0.299695
1.000000 0.587317 0.340518
1.000000 0.628783 0.380283
0.000000 0.509687 0.214677
0.000000 0.531848 0.191991
0.000000 0.550479 0.174984
0.000000 0.565463 0.164353
0.000000 0.572947 0.144490
0.000000 0.580414 0.122333
0.000000 0.591656 0.098258
0.000000 0.591437 0.049652
0.000000 0.591102 0.000000
0.000000 0.594370 0.000000
0.000000 0.597492 0.000000
0.000000 0.592545 0.000000
0.000000 0.586911 0.000000
0.184923 0.591998 0.000000
0.355461 0.588497 0.000000
0.461907 0.580784 0.000000
0.557090 0.572120 0.000000
0.640342 0.562897 0.000000
0.721239 0.544895 0.000000
0.776855 0.540130 0.000000
0.833401 0.539222 0.000000
0.878662 0.531548 0.000000
0.916932 0.528976 0.000000
0.956529 0.531267 0.000000
0.985479 0.526617 0.019432
1.000000 0.522884 0.111988
1.000000 0.524424 0.149952
1.000000 0.522850 0.189776
1.000000 0.526814 0.236890
1.000000 0.548459 0.269004
1.000000 0.579425 0.303114
1.000000 0.609575 0.341744
1.000000 0.643047 0.388563
0.000000 0.565460 0.248504
0.000000 0.580547 0.234084
0.000000 0.591884 0.226054
0.000000 0.599439 0.212473
0.000000 0.618428 0.202180
0.000000 0.629800 0.193123
0.000000 0.637290 0.176267
0.000000 0.640888 0.155633
0.000000 0.644442 0.123660
0.000000 0.647828 0.073364
0.000000 0.647272 0.000000
0.000000 0.642538 0.000000
0.000000 0.637296 0.000000
0.000000 0.642859 0.000000
0.262302 0.639910 0.000000
0.394698 0.636707 0.000000
0.503319 0.628786 0.000000
0.603677 0.623687 0.000000
0.686613 0.618473 0.000000
0.757022 0.601476 0.000000
0.823736 0.592209 0.000000
0.870979 0.584569 0.000000
0.908685 0.586186 0.000000
0.948386 0.584479 0.000000
0.976018 0.584003 0.000000
1.000000 0.580268 0.098451
1.000000 0.581555 0.150910
1.000000 0.583607 0.196627
1.000000 0.571230 0.242631
1.000000 0.588133 0.273482
1.000000 0.609915 0.308847
1.000000 0.628786 0.347155
1.000000 0.657046 0.393889
0.000000 0.607034 0.293065
0.000000 0.622262 0.284443
0.000000 0.633690 0.272904
0.000000 0.645112 0.267892
0.000000 0.656542 0.256076
0.000000 0.667944 0.247432
0.000000 0.679271 0.235217
0.000000 0.682861 0.220894
0.000000 0.694079 0.204454
0.000000 0.697534 0.174507
0.000000 0.697113 0.143176
0.000000 0.692614 0.114086
0.000000 0.691563 0.060786
0.000000 0.693361 0.000000
0.000000 0.690932 0.000000
0.324352 0.687968 0.000000
0.447517 0.688558 0.000000
0.574107 0.679432 0.000000
0.668369 0.674388 0.000000
0.744635 0.653813 0.000000
0.815705 0.640761 0.000000
0.859043 0.641598 0.000000
0.899677 0.634975 0.000000
0.938993 0.637188 0.000000
0.969321 0.632604 0.000000
0.991020 0.632852 0.089690
1.000000 0.633916 0.154021
1.000000 0.631830 0.201085
1.000000 0.630652 0.251586
1.000000 0.630940 0.280106
1.000000 0.640809 0.318700
1.000000 0.654280 0.354494
1.000000 0.680835 0.398732
0.000000 0.652728 0.347557
0.000000 0.664198 0.338947
0.000000 0.675649 0.330321
0.000000 0.690922 0.321197
0.000000 0.702489 0.312450
0.000000 0.710585 0.304122
0.000000 0.722528 0.295250
0.000000 0.730267 0.283213
0.000000 0.737761 0.274864
0.000000 0.748901 0.262159
0.000000 0.744695 0.233374
0.000000 0.744137 0.211166
0.000000 0.739509 0.193336
0.000000 0.741968 0.155313
0.000000 0.743357 0.101715
0.216530 0.736756 0.000000
0.385509 0.737467 0.000000
0.517620 0.737049 0.000000
0.634736 0.728136 0.000000
0.728154 0.719107 0.000000
0.793370 0.707130 0.000000
0.842326 0.699841 0.000000
0.884502 0.697069 0.000000
0.927543 0.690699 0.000000
0.958212 0.685697 0.000000
0.979487 0.685619 0.080631
1.000000 0.690268 0.154397
1.000000 0.687458 0.204723
1.000000 0.681516 0.247750
1.000000 0.684527 0.283338
1.000000 0.685179 0.321085
1.000000 0.689964 0.361471
1.000000 0.705362 0.406968
0.000000 0.710698 0.397341
0.000000 0.718778 0.385586
0.000000 0.730659 0.380851
0.000000 0.738398 0.372786
0.000000 0.749754 0.368097
0.000000 0.757087 0.360066
0.000000 0.767863 0.359178
0.000000 0.774736 0.354948
0.000000 0.784813 0.346460
0.000000 0.791216 0.326113
0.000000 0.797410 0.309874
0.000000 0.793685 0.290777
0.000000 0.792973 0.271630
0.000000 0.795115 0.244404
0.000000 0.796512 0.208694
0.000000 0.790680 0.185272
0.278474 0.784801 0.140151
0.454222 0.787377 0.066590
0.582907 0.782833 0.000000
0.675375 0.778553 0.000000
0.767840 0.766882 0.000000
0.825380 0.756560 0.000000
0.873284 0.753479 0.000000
0.918132 0.747328 0.000000
0.949282 0.742406 0.000000
0.970007 0.741911 0.066657
0.990277 0.745432 0.150493
1.000000 0.742593 0.211336
1.000000 0.740333 0.258626
1.000000 0.739079 0.296918
1.000000 0.741563 0.327990
1.000000 0.731834 0.376080
1.000000 0.735530 0.412774
0.000000 0.760878 0.438183
0.000000 0.775156 0.433476
0.000000 0.782040 0.433060
0.000000 0.785373 0.429110
0.000000 0.792015 0.424966
0.000000 0.795205 0.421046
0.000000 0.801509 0.416984
0.000000 0.807589 0.412977
0.000000 0.816505 0.408887
0.000000 0.827815 0.397287
0.000000 0.832983 0.378422
0.000000 0.832485 0.363478
0.000000 0.831860 0.352330
0.000000 0.833534 0.328627
0.000000 0.834751 0.296775
0.000000 0.832627 0.273457
0.138953 0.827248 0.246484
0.370193 0.824374 0.202323
0.526716 0.822724 0.168438
0.639618 0.818254 0.134997
0.734687 0.813546 0.086705
0.807303 0.806699 0.000000
0.855922 0.798171 0.000000
0.906473 0.792170 0.000000
0.939770 0.784491 0.000000
0.960872 0.783577 0.062681
0.980460 0.788832 0.158873
0.997519 0.788820 0.223416
1.000000 0.783705 0.271562
1.000000 0.784837 0.314073
1.000000 0.786452 0.346369
1.000000 0.780438 0.393863
1.000000 0.777491 0.429773
0.000000 0.808053 0.488728
0.000000 0.811094 0.484799
0.000000 0.814067 0.480889
0.000000 0.816999 0.480803
0.000000 0.819867 0.476917
0.000000 0.828413 0.472890
0.000000 0.833786 0.469018
0.000000 0.838933 0.469009
0.000000 0.846534 0.465227
0.000000 0.853841 0.457749
0.000000 0.858406 0.442778
0.000000 0.857932 0.431558
0.000000 0.862069 0.420544
0.000000 0.863482 0.405807
0.000000 0.864599 0.379939
0.000000 0.860451 0.353921
0.000000 0.858240 0.334690
0.304076 0.852945 0.299203
0.484751 0.853830 0.268878
0.612637 0.849386 0.238702
0.712066 0.844893 0.212937
0.784856 0.843497 0.187426
0.837889 0.837966 0.144537
0.888738 0.829882 0.093276
0.927922 0.820083 0.000000
0.952971 0.816218 0.096867
0.971429 0.820428 0.177641
0.988787 0.820001 0.235575
1.000000 0.817559 0.294062
1.000000 0.818095 0.329903
1.000000 0.819064 0.364964
1.000000 0.815615 0.408437
1.000000 0.814990 0.450323
0.000000 0.842026 0.533813
0.000000 0.844531 0.529976
0.000000 0.847037 0.529972
0.000000 0.849469 0.526158
0.000000 0.854429 0.526170
