Assets/Lutify-Free-LUTs-Pack/Lutify Free LUTs Pack/Commercial Pro - Claire/Lutify.me-Claire-ProTune-to-Rec709.cube
# Created with: fylm.ai - Colour Grading and Collaboration Software in Cloud 
# Website: https://fylm.ai 
# META
# Option: Gamut compress
# Block 1: IDT | GoPro ProTune Native ProTune Flat
# Block 2: colourMatch | Blending Mode: Normal | {"ColorSpace":0,"CrossCovarianceLimit":50,"ReshapingIterations":1,"PercentSaturationShift":100,"PercentShadingShift":100,"ExtraShading":true,"PercentTint":100,"PercentModified":100}
# Block 3: HSL | Blending Mode: Normal | {"hue":{"Reds":0,"Yellows":0,"Greens":0,"Cyans":0,"Blues":0,"Magentas":0},"saturation":{"Reds":1,"Yellows":1,"Greens":1,"Cyans":1,"Blues":1,"Magentas":1},"luminance":{"Reds":0.9,"Yellows":0.9,"Greens":0.9,"Cyans":0.8,"Blues":0.8,"Magentas":0.9},"lum_sat":{"Blacks":1,"Shadows":1,"Midtones":1,"Highlights":1,"Whites":1},"sat_sat":{"10":1,"20":1,"30":1,"40":1,"50":1}}
# Block 4: subtractiveColour | Blending Mode: Normal | {"sliders":{"gainY":0.1,"C":0.05,"M":0.05,"Y":0.05}}
# Block 5: logPrimaries | Blending Mode: Normal | {"wheels":{"shadows":{"Y":"0","R":"1","G":"1","B":"1"},"midtones":{"Y":"0","R":"1","G":"1","B":"1"},"highlights":{"Y":"0","R":"1","G":"1","B":"1"},"offset":{"Y":"0","R":"1","G":"1","B":"1"}},"sliders":{"shadows":{"Y":0,"R":-0.05,"G":0,"B":0.1},"midtones":{"Y":0,"R":0,"G":0,"B":0},"highlights":{"Y":0,"R":0,"G":0,"B":0},"offset":{"Y":0,"R":0,"G":0,"B":0}}}
# Block 6: LUT | Filmic Curve Response: Standard Contrast 1 (100%)
# Block 7: LUT | Illuminant: D93 (100%)
# Block 8: LUT | Neutral Tint: Teal Tint 4 (100%)
# Block 9: ODT | Rec709
TITLE "Lutify.me-Claire-ProTune-to-Rec709" 
LUT_3D_SIZE 33
0.000000 0.000000 0.014579
0.000000 0.000000 0.011609
0.000000 0.000000 0.000000
0.029791 0.000000 0.000000
0.049110 0.000000 0.000000
0.068322 0.000000 0.000000
0.090385 0.000000 0.000000
0.113194 0.000000 0.000000
0.131792 0.000000 0.000000
0.153935 0.000000 0.000000
0.172355 0.000000 0.000000
0.195482 0.000000 0.000000
0.220059 0.000000 0.000000
0.242291 0.000000 0.000000
0.264732 0.000000 0.000000
0.288706 0.000000 0.000000
0.311389 0.000000 0.000000
0.331064 0.000000 0.000000
0.354708 0.000000 0.000000
0.373555 0.000000 0.000000
0.393518 0.000000 0.000000
0.421056 0.000000 0.000000
0.450725 0.000000 0.000000
0.482761 0.000000 0.000000
0.508890 0.000000 0.000000
0.540432 0.000000 0.000000
0.569048 0.000000 0.000000
0.598219 0.000000 0.012476
0.627865 0.000000 0.026258
0.662294 0.000000 0.039730
0.697076 0.000000 0.048070
0.737114 0.000000 0.056802
0.770635 0.000000 0.065295
0.000000 0.000000 0.012597
0.000000 0.000000 0.010845
0.000000 0.000000 0.000000
0.025506 0.000000 0.000000
0.047096 0.000000 0.000000
0.068976 0.000000 0.000000
0.089909 0.000000 0.000000
0.112847 0.000000 0.000000
0.131704 0.000000 0.000000
0.151322 0.000000 0.000000
0.170957 0.000000 0.000000
0.193658 0.000000 0.000000
0.216051 0.000000 0.000000
0.240354 0.000000 0.000000
0.262625 0.000000 0.000000
0.284411 0.000000 0.000000
0.309053 0.000000 0.000000
0.328563 0.000000 0.000000
0.349561 0.000000 0.000000
0.370838 0.000000 0.000000
0.387757 0.000000 0.000000
0.414836 0.000000 0.000000
0.443999 0.000000 0.000000
0.475529 0.000000 0.000000
0.505159 0.000000 0.000000
0.532434 0.000000 0.000000
0.564972 0.000000 0.000000
0.594078 0.000000 0.017794
0.619434 0.000000 0.029886
0.658029 0.000000 0.042189
0.697087 0.000000 0.048984
0.737123 0.000000 0.057747
0.770642 0.000000 0.066285
0.000000 0.011550 0.000000
0.000000 0.007608 0.000000
0.000000 0.000706 0.000000
0.014852 0.000000 0.000000
0.041630 0.000000 0.000000
0.063591 0.000000 0.000000
0.084060 0.000000 0.000000
0.107016 0.000000 0.000000
0.129148 0.000000 0.000000
0.150050 0.000000 0.000000
0.170915 0.000000 0.000000
0.190151 0.000000 0.000000
0.212125 0.000000 0.000000
0.236538 0.000000 0.000000
0.258460 0.000000 0.000000
0.280186 0.000000 0.000000
0.304425 0.000000 0.000000
0.326068 0.000000 0.000000
0.346896 0.000000 0.000000
0.365458 0.000000 0.000000
0.384951 0.000000 0.000000
0.408712 0.000000 0.000000
0.437384 0.000000 0.000000
0.471956 0.000000 0.000000
0.501459 0.000000 0.000000
0.532477 0.000000 0.000000
0.565014 0.000000 0.000000
0.589950 0.000000 0.021422
0.615252 0.000000 0.032700
0.653771 0.000000 0.044563
0.692766 0.000000 0.050988
0.732395 0.000000 0.059810
0.765872 0.000000 0.067339
0.000000 0.030772 0.000000
0.000000 0.028008 0.000000
0.000000 0.024701 0.000000
0.000000 0.021143 0.000000
0.036714 0.009726 0.000000
0.056389 0.000000 0.000000
0.075936 0.000000 0.000000
0.096859 0.000000 0.000000
0.121387 0.000000 0.000000
0.142606 0.000000 0.000000
0.163359 0.000000 0.000000
0.185010 0.000000 0.000000
0.204473 0.000000 0.000000
0.230376 0.000000 0.000000
0.254355 0.000000 0.000000
0.275741 0.000000 0.000000
0.299886 0.000000 0.000000
0.321146 0.000000 0.000000
0.339006 0.000000 0.000000
0.360199 0.000000 0.000000
0.379367 0.000000 0.000000
0.405701 0.000000 0.000000
0.430874 0.000000 0.000000
0.464870 0.000000 0.000000
0.494044 0.000000 0.000000
0.524554 0.000000 0.000000
0.556877 0.000000 0.000000
0.581691 0.000000 0.024738
0.611079 0.000000 0.035243
0.649517 0.000000 0.046653
0.688467 0.000000 0.053924
0.732420 0.000000 0.061755
0.765910 0.000000 0.070420
0.000000 0.046198 0.000000
0.000000 0.044623 0.000000
0.000000 0.043788 0.000000
0.000000 0.040528 0.000000
0.030086 0.036055 0.000000
0.050935 0.030667 0.000000
0.068006 0.020691 0.000000
0.091341 0.000000 0.000000
0.112760 0.000000 0.000000
0.133904 0.000000 0.000000
0.154295 0.000000 0.000000
0.176743 0.000000 0.000000
0.197143 0.000000 0.000000
0.220086 0.000000 0.000000
0.244363 0.000000 0.000000
0.269210 0.000000 0.000000
0.291018 0.000000 0.000000
0.313957 0.000000 0.000000
0.333890 0.000000 0.000000
0.357650 0.000000 0.000000
0.376645 0.000000 0.000000
0.399750 0.000000 0.000000
0.424487 0.000000 0.000000
0.457892 0.000000 0.000000
0.486707 0.000000 0.000000
0.516786 0.000000 0.000000
0.548801 0.000000 0.011937
0.573474 0.000000 0.027522
0.602741 0.000000 0.038857
0.645249 0.000000 0.047557
0.684157 0.000000 0.055860
0.727857 0.000000 0.062737
0.765911 0.000000 0.071391
0.000000 0.057786 0.000000
0.000000 0.056305 0.000000
0.000000 0.055500 0.000000
0.000000 0.053180 0.000000
0.025137 0.049890 0.000000
0.047721 0.046958 0.000000
0.064292 0.043060 0.000000
0.083610 0.036365 0.000000
0.107719 0.021269 0.000000
0.129142 0.000000 0.000000
0.149438 0.000000 0.000000
0.168115 0.000000 0.000000
0.188232 0.000000 0.000000
0.212361 0.000000 0.000000
0.240707 0.000000 0.000000
0.265152 0.000000 0.000000
0.286859 0.000000 0.000000
0.309399 0.000000 0.000000
0.328917 0.000000 0.000000
0.352513 0.000000 0.000000
0.371176 0.000000 0.000000
0.390985 0.000000 0.000000
0.421405 0.000000 0.000000
0.454493 0.000000 0.000000
0.483103 0.000000 0.000000
0.509239 0.000000 0.000000
0.540820 0.000000 0.022121
0.569389 0.000000 0.028731
0.598598 0.000000 0.040989
0.645275 0.000000 0.049252
0.684180 0.000000 0.057661
0.727851 0.000000 0.063568
0.761151 0.000000 0.073469
0.000000 0.069457 0.000000
0.000000 0.066907 0.000000
0.000000 0.066746 0.000000
0.000000 0.065571 0.000000
0.013919 0.062652 0.000000
0.044865 0.060429 0.000000
0.063399 0.056449 0.000000
0.084075 0.051486 0.000000
0.106302 0.043154 0.000000
0.125550 0.032897 0.000000
0.145681 0.000000 0.000000
0.164918 0.000000 0.000000
0.185633 0.000000 0.000000
0.208214 0.000000 0.000000
0.236981 0.000000 0.000000
0.259020 0.000000 0.000000
0.278480 0.000000 0.000000
0.302553 0.000000 0.000000
0.324003 0.000000 0.000000
0.344614 0.000000 0.000000
0.368511 0.000000 0.000000
0.388143 0.000000 0.000000
0.418314 0.000000 0.000000
0.451149 0.000000 0.000000
0.479528 0.000000 0.000000
0.509286 0.000000 0.011351
0.540863 0.000000 0.024259
0.569416 0.000000 0.029776
0.598615 0.000000 0.041800
0.641012 0.000000 0.050139
0.679870 0.000000 0.059522
0.723488 0.000000 0.065520
0.761157 0.000000 0.075495
0.000000 0.081445 0.000000
0.000000 0.080363 0.000000
0.000000 0.080116 0.000000
0.000000 0.078727 0.000000
0.000000 0.077350 0.000000
0.037850 0.074904 0.000000
0.060882 0.071212 0.000000
0.081847 0.066072 0.000000
0.104824 0.060035 0.000000
0.123321 0.053301 0.000000
0.144179 0.045079 0.000000
0.162953 0.032081 0.000000
0.184567 0.000000 0.000000
0.205815 0.000000 0.000000
0.232897 0.000000 0.000000
0.257121 0.000000 0.000000
0.276453 0.000000 0.000000
0.298090 0.000000 0.000000
0.316763 0.000000 0.000000
0.336810 0.000000 0.000000
0.360567 0.000000 0.000000
0.385347 0.000000 0.000000
0.415255 0.000000 0.000000
0.447803 0.000000 0.000000
0.479583 0.000000 0.000000
0.505566 0.000000 0.013577
0.532894 0.000000 0.026579
0.565381 0.000000 0.033454
0.594480 0.000000 0.043893
0.641053 0.000000 0.052753
0.679910 0.000000 0.062303
0.723525 0.000000 0.068483
0.761158 0.000000 0.077663
0.000000 0.096367 0.000000
0.000000 0.096226 0.000000
0.000000 0.093693 0.000000
0.000000 0.091171 0.000000
0.000000 0.089730 0.000000
0.030802 0.088213 0.000000
0.060366 0.085306 0.000000
0.086442 0.079642 0.000000
0.106301 0.075819 0.000000
0.126126 0.070198 0.000000
0.146196 0.062252 0.000000
0.164303 0.054200 0.000000
0.185056 0.043908 0.000000
0.207235 0.007665 0.000000
0.232861 0.000000 0.000000
0.255279 0.000000 0.000000
0.274560 0.000000 0.000000
0.296051 0.000000 0.000000
0.314515 0.000000 0.000000
0.336949 0.000000 0.000000
0.358022 0.000000 0.000000
0.382606 0.000000 0.000000
0.412241 0.000000 0.000000
0.444495 0.000000 0.000000
0.476004 0.000000 0.000000
0.501877 0.000000 0.016968
0.528939 0.000000 0.027321
0.561339 0.000000 0.035537
0.590352 0.000000 0.045780
0.636813 0.000000 0.054509
0.675600 0.000000 0.064135
0.719176 0.000000 0.071459
0.756401 0.000000 0.079954
0.000000 0.111162 0.000000
0.000000 0.111026 0.000000
0.000000 0.106893 0.000000
0.000000 0.104120 0.000000
0.000000 0.102589 0.000000
0.024585 0.100901 0.000000
0.063402 0.098911 0.000000
0.089296 0.094096 0.000000
0.110213 0.089052 0.000000
0.131371 0.084571 0.000000
0.151456 0.079434 0.000000
0.171201 0.070775 0.000000
0.191454 0.063072 0.000000
0.214917 0.049765 0.000000
0.238965 0.017615 0.000000
0.255457 0.000000 0.000000
0.272619 0.000000 0.000000
0.291875 0.000000 0.000000
0.312447 0.000000 0.000000
0.334584 0.000000 0.000000
0.355579 0.000000 0.000000
0.379923 0.000000 0.000000
0.409263 0.000000 0.000000
0.437902 0.000000 0.000000
0.472452 0.000000 0.000000
0.498203 0.000000 0.019374
0.525028 0.000000 0.029903
0.561399 0.000000 0.038062
0.590379 0.000000 0.047249
0.632573 0.000000 0.056136
0.675568 0.000000 0.063844
0.714817 0.000000 0.073440
0.756398 0.000000 0.082128
0.000000 0.125154 0.000000
0.000000 0.123544 0.000000
0.000000 0.120449 0.000000
0.000000 0.118818 0.000000
0.000000 0.117102 0.000000
0.019927 0.115235 0.000000
0.065293 0.114539 0.000000
0.093009 0.110725 0.000000
0.111809 0.108296 0.000000
0.132947 0.102538 0.000000
0.155470 0.094664 0.000000
0.176424 0.087498 0.000000
0.195800 0.082553 0.000000
0.218309 0.074219 0.000000
0.242882 0.058800 0.000000
0.262085 0.043660 0.000000
0.276940 0.000000 0.000000
0.292139 0.000000 0.000000
0.312818 0.000000 0.000000
0.332455 0.000000 0.000000
0.355880 0.000000 0.000000
0.377335 0.000000 0.000000
0.406391 0.000000 0.000000
0.434730 0.000000 0.000000
0.468943 0.000000 0.000000
0.494558 0.000000 0.022379
0.525079 0.000000 0.030214
0.557384 0.000000 0.040783
0.590391 0.000000 0.047519
0.636817 0.000000 0.056499
0.675550 0.000000 0.064487
0.714788 0.000000 0.074227
0.751602 0.000000 0.083126
0.000000 0.139608 0.000000
0.000000 0.139504 0.000000
0.000000 0.137880 0.000000
0.000000 0.137699 0.000000
0.000000 0.132987 0.000000
0.029820 0.131041 0.000000
0.072133 0.128955 0.000000
0.094248 0.128226 0.000000
0.118626 0.124115 0.000000
0.139633 0.121161 0.000000
0.160114 0.114701 0.000000
0.180955 0.107673 0.000000
0.202343 0.099858 0.000000
0.223785 0.094393 0.000000
0.246663 0.083917 0.000000
0.266281 0.069738 0.000000
0.283559 0.053795 0.000000
0.299319 0.037405 0.000000
0.313359 0.000000 0.000000
0.335561 0.000000 0.000000
0.356549 0.000000 0.000000
0.374998 0.000000 0.000000
0.403611 0.000000 0.000000
0.431667 0.000000 0.000000
0.465524 0.000000 0.000000
0.494643 0.000000 0.019458
0.521193 0.000000 0.030341
0.561481 0.000000 0.039733
0.590396 0.000000 0.046914
0.636808 0.000000 0.056905
0.675520 0.000000 0.064997
0.719097 0.000000 0.074817
0.751557 0.000000 0.085192
0.000000 0.155173 0.000000
0.000000 0.155066 0.000000
0.000000 0.153279 0.000000
0.000000 0.151363 0.000000
0.000000 0.149355 0.000000
0.043344 0.147243 0.000000
0.076417 0.145096 0.000000
0.101697 0.144331 0.000000
0.125972 0.141689 0.000000
0.144943 0.139020 0.000000
0.166476 0.135871 0.000000
0.187176 0.129209 0.000000
0.210754 0.120112 0.000000
0.236120 0.111301 0.000000
0.256375 0.105411 0.000000
0.272039 0.099579 0.000000
0.290344 0.087908 0.000000
0.306768 0.077135 0.000000
0.323782 0.060190 0.000000
0.339033 0.039512 0.000000
0.359890 0.000000 0.000000
0.381440 0.000000 0.000000
0.404305 0.000000 0.000000
0.431958 0.000000 0.000000
0.458722 0.000000 0.000000
0.491090 0.000000 0.000000
0.521302 0.000000 0.028150
0.557463 0.000000 0.038576
0.594576 0.000000 0.046867
0.641057 0.000000 0.057082
0.675498 0.000000 0.066456
0.719029 0.000000 0.075424
0.756215 0.000000 0.084689
0.000000 0.170640 0.000000
0.000000 0.170483 0.000000
0.000000 0.166603 0.000000
0.000000 0.164548 0.000000
0.000000 0.162385 0.000000
0.057735 0.160197 0.000000
0.092821 0.157756 0.000000
0.113879 0.157058 0.000000
0.133947 0.156198 0.000000
0.154762 0.153325 0.000000
0.173151 0.150338 0.000000
0.197542 0.144808 0.000000
0.222194 0.138721 0.000000
0.242219 0.130469 0.000000
0.263491 0.123018 0.000000
0.280124 0.117692 0.000000
0.299459 0.111174 0.000000
0.314316 0.107177 0.000000
0.332174 0.095250 0.000000
0.353434 0.079329 0.000000
0.366471 0.066300 0.000000
0.385442 0.032608 0.000000
0.411627 0.000000 0.000000
0.436192 0.000000 0.000000
0.466153 0.000000 0.000000
0.491352 0.000000 0.000000
0.521495 0.000000 0.020118
0.557577 0.000000 0.036209
0.590463 0.000000 0.045412
0.636782 0.000000 0.056265
0.675448 0.000000 0.065766
0.714600 0.000000 0.076062
0.756080 0.000000 0.085191
0.000000 0.183454 0.000000
0.000000 0.183295 0.000000
0.000000 0.183024 0.000000
0.000000 0.180828 0.000000
0.029566 0.178539 0.000000
0.077100 0.176127 0.000000
0.105637 0.173569 0.000000
0.125717 0.172895 0.000000
0.148850 0.169994 0.000000
0.168793 0.166995 0.000000
0.191398 0.163523 0.000000
0.211606 0.157711 0.000000
0.232613 0.153253 0.000000
0.255321 0.146238 0.000000
0.273412 0.137538 0.000000
0.296172 0.129221 0.000000
0.311421 0.125839 0.000000
0.329766 0.121420 0.000000
0.343259 0.115676 0.000000
0.362433 0.112291 0.000000
0.378647 0.099384 0.000000
0.395504 0.086955 0.000000
0.419226 0.066144 0.000000
0.447708 0.000000 0.000000
0.470937 0.000000 0.000000
0.495597 0.000000 0.000000
0.521830 0.000000 0.000000
0.557760 0.000000 0.031313
0.590569 0.000000 0.042813
0.632530 0.000000 0.053565
0.671079 0.000000 0.064707
0.710153 0.000000 0.076469
0.751202 0.000000 0.085773
0.000000 0.196996 0.000000
0.000000 0.196804 0.000000
0.000000 0.196591 0.000000
0.041515 0.194143 0.000000
0.080679 0.191657 0.000000
0.103454 0.191179 0.000000
0.125022 0.188489 0.000000
0.147525 0.185418 0.000000
0.166124 0.182322 0.000000
0.187082 0.178805 0.000000
0.209891 0.176744 0.000000
0.226536 0.173058 0.000000
0.250204 0.168268 0.000000
0.266300 0.164103 0.000000
0.285480 0.157152 0.000000
0.307501 0.147117 0.000000
0.329409 0.138425 0.000000
0.348916 0.133964 0.000000
0.362790 0.128229 0.000000
0.376741 0.126883 0.000000
0.391065 0.122847 0.000000
0.411904 0.116192 0.000000
0.426949 0.102326 0.000000
0.452768 0.086429 0.000000
0.479838 0.048320 0.000000
0.504275 0.000000 0.000000
0.530500 0.000000 0.000000
0.562189 0.000000 0.020550
0.590758 0.000000 0.037839
0.636812 0.000000 0.051136
0.675329 0.000000 0.062900
0.710037 0.000000 0.076478
0.746296 0.000000 0.086126
0.000000 0.210498 0.000000
0.048315 0.210063 0.000000
0.074159 0.207662 0.000000
0.093146 0.207235 0.000000
0.121134 0.202292 0.000000
0.136446 0.199630 0.000000
0.152392 0.198828 0.000000
0.169234 0.195817 0.000000
0.187404 0.194574 0.000000
0.206534 0.191017 0.000000
0.223701 0.187408 0.000000
0.245099 0.185214 0.000000
0.262029 0.181170 0.000000
0.279013 0.176878 0.000000
0.301689 0.171492 0.000000
0.324750 0.165573 0.000000
0.348383 0.156702 0.000000
0.365645 0.150796 0.000000
0.379997 0.147581 0.000000
0.391687 0.142334 0.000000
0.409861 0.140223 0.000000
0.425575 0.138647 0.000000
0.441539 0.131282 0.000000
0.461520 0.125013 0.000000
0.485475 0.109361 0.000000
0.510026 0.087825 0.000000
0.535864 0.000000 0.000000
0.566999 0.000000 0.000000
0.595272 0.000000 0.027854
0.641172 0.000000 0.045520
0.675293 0.000000 0.058962
0.714241 0.000000 0.075878
0.746095 0.000000 0.087383
0.104921 0.219195 0.000000
0.117332 0.218822 0.000000
0.130930 0.216445 0.000000
0.141762 0.216006 0.000000
0.152216 0.215536 0.000000
0.169080 0.214677 0.000000
0.182270 0.213916 0.000000
0.199824 0.210583 0.000000
0.217917 0.207036 0.000000
0.235822 0.203309 0.000000
0.252862 0.201684 0.000000
0.270845 0.197552 0.000000
0.285964 0.193542 0.000000
0.303577 0.191306 0.000000
0.325681 0.181271 0.000000
0.346900 0.177870 0.000000
0.365103 0.169880 0.000000
0.385934 0.160841 0.000000
0.401032 0.154964 0.000000
0.413484 0.154595 0.000000
0.426274 0.154106 0.000000
0.442721 0.152703 0.000000
0.463177 0.150046 0.000000
0.480389 0.142239 0.000000
0.494710 0.144427 0.000000
0.519687 0.129655 0.000000
0.545710 0.110418 0.000000
0.572414 0.062473 0.000000
0.604237 0.000000 0.000000
0.645643 0.000000 0.036367
0.679611 0.000000 0.052391
0.718458 0.000000 0.072434
0.750616 0.000000 0.085655
0.150998 0.229202 0.000000
0.161952 0.228717 0.000000
0.169099 0.228374 0.000000
0.187950 0.225357 0.000000
0.197386 0.224790 0.000000
0.207500 0.222123 0.000000
0.222297 0.221073 0.000000
0.235117 0.218050 0.000000
0.250794 0.214676 0.000000
0.262700 0.213566 0.000000
0.281427 0.209610 0.000000
0.296636 0.207921 0.000000
0.318828 0.203121 0.000000
0.334588 0.201022 0.000000
0.357353 0.193070 0.000000
0.372678 0.190606 0.000000
0.388519 0.182806 0.000000
0.410658 0.178566 0.000000
0.426887 0.175200 0.000000
0.440076 0.169551 0.000000
0.453745 0.169116 0.000000
0.474815 0.166759 0.000000
0.485396 0.164127 0.000000
0.500191 0.169160 0.000000
0.514958 0.168603 0.000000
0.529915 0.167971 0.000000
0.555823 0.154659 0.000000
0.582341 0.133961 0.000000
0.613661 0.092126 0.000000
0.650401 0.000000 0.000000
0.684051 0.000000 0.042278
0.722654 0.000000 0.066632
0.755102 0.000000 0.083156
0.177983 0.248785 0.000000
0.188020 0.248306 0.000000
0.194627 0.247970 0.000000
0.209103 0.244995 0.000000
0.221951 0.244212 0.000000
0.232750 0.241315 0.000000
0.242299 0.240638 0.000000
0.256095 0.237400 0.000000
0.273853 0.231530 0.000000
0.283428 0.230648 0.000000
0.300299 0.226786 0.000000
0.320525 0.222373 0.000000
0.340443 0.219991 0.000000
0.360773 0.212804 0.000000
0.380622 0.205352 0.000000
0.400462 0.197532 0.000000
0.416997 0.192253 0.000000
0.433720 0.186650 0.000000
0.454252 0.182340 0.000000
0.479021 0.179201 0.000000
0.496932 0.174801 0.000000
0.508289 0.177437 0.000000
0.519563 0.177468 0.000000
0.523247 0.176738 0.000000
0.531402 0.186240 0.000000
0.550686 0.187879 0.000000
0.565862 0.184761 0.000000
0.588480 0.175489 0.000000
0.623454 0.150112 0.000000
0.655733 0.122767 0.000000
0.693005 0.052827 0.009789
0.726972 0.000000 0.055706
0.759589 0.000000 0.079821
0.209136 0.269889 0.000000
0.217794 0.267084 0.000000
0.224742 0.266702 0.000000
0.235119 0.266100 0.000000
0.243373 0.263232 0.000000
0.254886 0.260120 0.000000
0.268530 0.259143 0.000000
0.279892 0.255914 0.000000
0.290210 0.255071 0.000000
0.304994 0.251415 0.000000
0.318971 0.250102 0.000000
0.337395 0.245848 0.000000
0.355107 0.241490 0.000000
0.373117 0.234499 0.000000
0.394415 0.226819 0.000000
0.418945 0.220732 0.000000
0.436903 0.210373 0.000000
0.461835 0.203289 0.000000
0.486826 0.192984 0.000000
0.512451 0.184633 0.000000
0.534859 0.176271 0.000000
0.557932 0.169856 0.000000
0.566173 0.176572 0.000000
0.566947 0.191502 0.000000
0.570944 0.193710 0.000000
0.571649 0.208882 0.000000
0.587384 0.212126 0.000000
0.598435 0.203907 0.000000
0.633791 0.198078 0.000000
0.665381 0.174531 0.000000
0.698097 0.149647 0.000000
0.731640 0.096869 0.034736
0.764126 0.000000 0.067153
0.239231 0.287934 0.000000
0.251873 0.284680 0.000000
0.259213 0.284238 0.000000
0.266563 0.283777 0.000000
0.276548 0.278051 0.000000
0.283838 0.277536 0.000000
0.294827 0.276725 0.000000
0.306973 0.273241 0.000000
0.314356 0.272630 0.000000
0.329246 0.271336 0.000000
0.341004 0.267698 0.000000
0.355242 0.266299 0.000000
0.370347 0.262149 0.000000
0.389649 0.254812 0.000000
0.412429 0.246798 0.000000
0.434860 0.241088 0.000000
0.457640 0.232369 0.000000
0.483868 0.225338 0.000000
0.502675 0.219372 0.000000
0.528982 0.211589 0.000000
0.563390 0.198281 0.000000
0.598501 0.186128 0.000000
0.626284 0.174413 0.000000
0.610708 0.189127 0.000000
0.603354 0.203922 0.000000
0.607850 0.215733 0.000000
0.604500 0.232709 0.000000
0.624257 0.232538 0.000000
0.643925 0.235338 0.000000
0.675466 0.221269 0.000000
0.703338 0.199194 0.000000
0.736821 0.171577 0.000000
0.768694 0.137244 0.051099
0.277606 0.304148 0.000000
0.283027 0.301099 0.000000
0.290835 0.300595 0.000000
0.294747 0.300336 0.000000
0.302591 0.299800 0.000000
0.315665 0.296138 0.000000
0.323544 0.295537 0.000000
0.331048 0.294946 0.000000
0.342304 0.294024 0.000000
0.350881 0.290548 0.000000
0.362229 0.289527 0.000000
0.378364 0.285239 0.000000
0.393746 0.283670 0.000000
0.409977 0.279138 0.000000
0.430655 0.271158 0.000000
0.450761 0.265794 0.000000
0.475269 0.254130 0.000000
0.495026 0.245627 0.000000
0.518214 0.239095 0.000000
0.545292 0.231459 0.000000
0.580317 0.221569 0.000000
0.611597 0.208207 0.000000
0.647534 0.195332 0.000000
0.675810 0.179274 0.000000
0.668087 0.196325 0.000000
0.656515 0.216985 0.000000
0.649013 0.235984 0.000000
0.649684 0.260083 0.000000
0.665733 0.264776 0.000000
0.685375 0.264750 0.000000
0.717291 0.250976 0.000000
0.742164 0.230019 0.000000
0.773498 0.209086 0.000000
0.315448 0.321448 0.000000
0.319394 0.321184 0.000000
0.324760 0.317912 0.000000
0.328696 0.317634 0.000000
0.336591 0.317063 0.000000
0.340551 0.316769 0.000000
0.348500 0.316165 0.000000
0.357673 0.312524 0.000000
0.365656 0.311866 0.000000
0.373681 0.311183 0.000000
0.390844 0.306717 0.000000
0.403039 0.305554 0.000000
0.416159 0.301301 0.000000
0.432836 0.299684 0.000000
0.454394 0.294442 0.000000
0.476021 0.285977 0.000000
0.492705 0.280919 0.000000
0.513363 0.272150 0.000000
0.537611 0.262565 0.000000
0.569485 0.254354 0.000000
0.597168 0.246271 0.000000
0.636911 0.235025 0.000000
0.660818 0.222773 0.000000
0.684991 0.209427 0.000000
0.717842 0.195818 0.000000
0.726147 0.193083 0.000000
0.702264 0.237664 0.000000
0.690419 0.258611 0.000000
0.690733 0.280776 0.000000
0.702917 0.297001 0.000000
0.726649 0.293006 0.000000
0.752197 0.284782 0.000000
0.782940 0.263403 0.000000
0.340499 0.342852 0.000000
0.344714 0.342569 0.000000
0.348951 0.342293 0.000000
0.354538 0.338957 0.000000
0.358785 0.338683 0.000000
0.363042 0.338403 0.000000
0.375877 0.337528 0.000000
0.380179 0.337224 0.000000
0.389924 0.333523 0.000000
0.398567 0.332865 0.000000
0.411629 0.331830 0.000000
0.421326 0.328025 0.000000
0.443255 0.326088 0.000000
0.457073 0.321770 0.000000
0.478648 0.319609 0.000000
0.496823 0.311546 0.000000
0.514533 0.303070 0.000000
0.535733 0.297206 0.000000
0.560993 0.287321 0.000000
0.589627 0.276532 0.000000
0.621790 0.267901 0.000000
0.649850 0.259399 0.000000
0.673977 0.251109 0.000000
0.698273 0.242229 0.000000
0.726904 0.231593 0.000000
0.762256 0.213889 0.000000
0.794065 0.199262 0.000000
0.753574 0.244191 0.000000
0.740561 0.285319 0.000000
0.731801 0.305693 0.000000
0.744522 0.322719 0.000000
0.761619 0.316340 0.000000
0.787731 0.315873 0.000000
0.374261 0.362288 0.000000
0.378780 0.362001 0.000000
0.383311 0.361708 0.000000
0.387852 0.361409 0.000000
0.392404 0.361104 0.000000
