Assets/Lutify-Free-LUTs-Pack/Lutify Free LUTs Pack/Commercial Pro - Claire/Lutify.me-Claire-CanonLog3-to-Rec709.cube
# Created with: fylm.ai - Colour Grading and Collaboration Software in Cloud 
# Website: https://fylm.ai 
# META
# Option: Gamut compress
# Block 1: IDT | CanonLog3 Cinema Gamut Daylight
# Block 2: colourMatch | Blending Mode: Normal | {"ColorSpace":0,"CrossCovarianceLimit":50,"ReshapingIterations":1,"PercentSaturationShift":100,"PercentShadingShift":100,"ExtraShading":true,"PercentTint":100,"PercentModified":100}
# Block 3: HSL | Blending Mode: Normal | {"hue":{"Reds":0,"Yellows":0,"Greens":0,"Cyans":0,"Blues":0,"Magentas":0},"saturation":{"Reds":1,"Yellows":1,"Greens":1,"Cyans":1,"Blues":1,"Magentas":1},"luminance":{"Reds":0.9,"Yellows":0.9,"Greens":0.9,"Cyans":0.8,"Blues":0.8,"Magentas":0.9},"lum_sat":{"Blacks":1,"Shadows":1,"Midtones":1,"Highlights":1,"Whites":1},"sat_sat":{"10":1,"20":1,"30":1,"40":1,"50":1}}
# Block 4: subtractiveColour | Blending Mode: Normal | {"sliders":{"gainY":0.1,"C":0.05,"M":0.05,"Y":0.05}}
# Block 5: logPrimaries | Blending Mode: Normal | {"wheels":{"shadows":{"Y":"0","R":"1","G":"1","B":"1"},"midtones":{"Y":"0","R":"1","G":"1","B":"1"},"highlights":{"Y":"0","R":"1","G":"1","B":"1"},"offset":{"Y":"0","R":"1","G":"1","B":"1"}},"sliders":{"shadows":{"Y":0,"R":-0.05,"G":0,"B":0.1},"midtones":{"Y":0,"R":0,"G":0,"B":0},"highlights":{"Y":0,"R":0,"G":0,"B":0},"offset":{"Y":0,"R":0,"G":0,"B":0}}}
# Block 6: LUT | Filmic Curve Response: Standard Contrast 1 (100%)
# Block 7: LUT | Illuminant: D93 (100%)
# Block 8: LUT | Neutral Tint: Teal Tint 4 (100%)
# Block 9: ODT | Rec709
TITLE "Lutify.me-Claire-CanonLog3-to-Rec709" 
LUT_3D_SIZE 33
0.000000 0.000000 0.000000
0.000000 0.000000 0.000000
0.000000 0.000000 0.000000
0.000000 0.000000 0.000000
0.268038 0.000000 0.000000
0.453096 0.000000 0.000000
0.580080 0.000000 0.000000
0.691218 0.000000 0.000000
0.788533 0.000000 0.000000
0.877831 0.000000 0.000000
0.939462 0.000000 0.000000
1.000000 0.000000 0.016165
1.000000 0.000000 0.048654
1.000000 0.000000 0.066070
1.000000 0.000000 0.051904
1.000000 0.000000 0.037507
0.979019 0.000000 0.000000
0.911789 0.000000 0.000000
0.895045 0.000000 0.000000
0.907371 0.000000 0.000000
0.945705 0.000000 0.000000
0.979888 0.000000 0.000000
1.000000 0.000000 0.046520
1.000000 0.000000 0.079635
1.000000 0.000000 0.112497
1.000000 0.000000 0.146658
1.000000 0.212857 0.184813
1.000000 0.308015 0.219934
1.000000 0.385347 0.261699
1.000000 0.444306 0.302948
1.000000 0.507579 0.350434
1.000000 0.580812 0.403584
1.000000 0.638281 0.453007
0.000000 0.000000 0.000000
0.000000 0.000000 0.000000
0.000000 0.000000 0.000000
0.000000 0.000000 0.000000
0.188287 0.000000 0.000000
0.449666 0.000000 0.000000
0.580080 0.000000 0.000000
0.691218 0.000000 0.000000
0.788533 0.000000 0.000000
0.864409 0.000000 0.000000
0.882230 0.000000 0.000000
0.903624 0.000000 0.000000
0.915961 0.000000 0.000000
0.919983 0.000000 0.000000
0.923952 0.000000 0.000000
0.943137 0.000000 0.000000
0.982227 0.000000 0.000000
0.911700 0.000000 0.000000
0.886384 0.000000 0.000000
0.907134 0.000000 0.000000
0.937851 0.000000 0.000000
0.982671 0.000000 0.000000
1.000000 0.000000 0.037749
1.000000 0.000000 0.076663
1.000000 0.000000 0.110896
1.000000 0.075864 0.146800
1.000000 0.230665 0.183688
1.000000 0.316723 0.219256
1.000000 0.393112 0.261084
1.000000 0.455142 0.304614
1.000000 0.514628 0.349961
1.000000 0.584224 0.403373
1.000000 0.641518 0.452826
0.000000 0.000000 0.000000
0.000000 0.000000 0.000000
0.000000 0.000000 0.000000
0.000000 0.000000 0.000000
0.141399 0.000000 0.000000
0.320521 0.000000 0.000000
0.429715 0.000000 0.000000
0.519201 0.000000 0.000000
0.584279 0.000000 0.000000
0.647881 0.000000 0.000000
0.686920 0.000000 0.000000
0.735774 0.000000 0.000000
0.774181 0.000000 0.000000
0.817507 0.000000 0.000000
0.859895 0.000000 0.000000
0.915846 0.000000 0.000000
0.964820 0.000000 0.000000
0.931459 0.000000 0.000000
0.903186 0.000000 0.000000
0.910951 0.000000 0.000000
0.941242 0.000000 0.000000
0.982197 0.000000 0.000000
1.000000 0.000000 0.028833
1.000000 0.000000 0.074979
1.000000 0.000000 0.107275
1.000000 0.120206 0.146165
1.000000 0.246643 0.182557
1.000000 0.326479 0.219191
1.000000 0.396986 0.260771
1.000000 0.458757 0.304342
1.000000 0.519362 0.350602
1.000000 0.587630 0.406128
1.000000 0.641518 0.452826
0.000000 0.028065 0.000000
0.000000 0.008916 0.000000
0.000000 0.000000 0.000000
0.000000 0.000000 0.000000
0.103071 0.000000 0.000000
0.239813 0.000000 0.000000
0.325552 0.000000 0.000000
0.404759 0.000000 0.000000
0.470917 0.000000 0.000000
0.527328 0.000000 0.000000
0.592904 0.000000 0.000000
0.665394 0.000000 0.000000
0.722184 0.000000 0.000000
0.779113 0.000000 0.000000
0.841392 0.000000 0.000000
0.907626 0.000000 0.000000
0.961112 0.000000 0.000000
0.942753 0.000000 0.000000
0.915328 0.000000 0.000000
0.914789 0.000000 0.000000
0.944571 0.000000 0.000000
0.981813 0.000000 0.000000
1.000000 0.000000 0.000000
1.000000 0.000000 0.069781
1.000000 0.000000 0.105777
1.000000 0.149058 0.144889
1.000000 0.256848 0.181772
1.000000 0.330729 0.218835
1.000000 0.400853 0.260453
1.000000 0.462374 0.304066
1.000000 0.522879 0.350361
1.000000 0.591050 0.405917
1.000000 0.644745 0.452646
0.000000 0.100377 0.000000
0.000000 0.096722 0.000000
0.000000 0.092050 0.000000
0.000000 0.082377 0.000000
0.031208 0.067075 0.000000
0.169575 0.000000 0.000000
0.256902 0.000000 0.000000
0.331529 0.000000 0.000000
0.405525 0.000000 0.000000
0.482405 0.000000 0.000000
0.556083 0.000000 0.000000
0.631251 0.000000 0.000000
0.696042 0.000000 0.000000
0.764775 0.000000 0.000000
0.827179 0.000000 0.000000
0.899255 0.000000 0.000000
0.953752 0.000000 0.000000
0.964461 0.000000 0.000000
0.927076 0.000000 0.000000
0.914551 0.000000 0.000000
0.944253 0.000000 0.000000
0.984662 0.000000 0.000000
1.000000 0.000000 0.000000
1.000000 0.000000 0.067480
1.000000 0.000000 0.104709
1.000000 0.165316 0.143983
1.000000 0.261847 0.181369
1.000000 0.334958 0.218474
1.000000 0.404715 0.260132
1.000000 0.465990 0.303788
1.000000 0.526399 0.350118
1.000000 0.591050 0.405917
1.000000 0.644745 0.452646
0.000000 0.141102 0.000000
0.000000 0.138113 0.000000
0.000000 0.135185 0.000000
0.000000 0.126378 0.000000
0.000000 0.111616 0.000000
0.163047 0.082445 0.000000
0.246903 0.041944 0.000000
0.322516 0.000000 0.000000
0.386050 0.000000 0.000000
0.454865 0.000000 0.000000
0.528480 0.000000 0.000000
0.610363 0.000000 0.000000
0.683131 0.000000 0.000000
0.755250 0.000000 0.000000
0.827182 0.000000 0.000000
0.899208 0.000000 0.000000
0.953645 0.000000 0.000000
0.988124 0.000000 0.000000
0.938365 0.000000 0.000000
0.918389 0.000000 0.000000
0.944081 0.000000 0.000000
0.984297 0.000000 0.000000
1.000000 0.000000 0.000000
1.000000 0.000000 0.064907
1.000000 0.000000 0.102989
1.000000 0.180119 0.143032
1.000000 0.271664 0.180543
1.000000 0.339168 0.218107
1.000000 0.408572 0.259806
1.000000 0.469607 0.303507
1.000000 0.526399 0.350118
1.000000 0.594475 0.405703
1.000000 0.647961 0.452467
0.000000 0.182389 0.000000
0.000000 0.180464 0.000000
0.000000 0.178556 0.000000
0.000000 0.165614 0.000000
0.000000 0.151782 0.000000
0.144307 0.134209 0.000000
0.245305 0.105794 0.000000
0.323839 0.061973 0.000000
0.384878 0.000000 0.000000
0.449541 0.000000 0.000000
0.517754 0.000000 0.000000
0.594326 0.000000 0.000000
0.674746 0.000000 0.000000
0.741026 0.000000 0.000000
0.817598 0.000000 0.000000
0.894895 0.000000 0.000000
0.953478 0.000000 0.000000
1.000000 0.000000 0.000000
0.949244 0.000000 0.000000
0.922129 0.000000 0.000000
0.947359 0.000000 0.000000
0.983797 0.000000 0.000000
1.000000 0.000000 0.000000
1.000000 0.000000 0.058473
1.000000 0.075967 0.100452
1.000000 0.200465 0.141508
1.000000 0.277496 0.180708
1.000000 0.351694 0.216973
1.000000 0.413548 0.260200
1.000000 0.473225 0.303222
1.000000 0.529923 0.349874
1.000000 0.594475 0.405703
1.000000 0.647961 0.452467
0.000000 0.220046 0.000000
0.000000 0.217796 0.000000
0.000000 0.215562 0.000000
0.000000 0.200423 0.000000
0.000000 0.187975 0.000000
0.126833 0.170892 0.000000
0.237808 0.150626 0.000000
0.324418 0.120460 0.000000
0.386965 0.086482 0.000000
0.451518 0.000000 0.000000
0.519527 0.000000 0.000000
0.595245 0.000000 0.000000
0.670991 0.000000 0.000000
0.741233 0.000000 0.000000
0.812795 0.000000 0.000000
0.881885 0.000000 0.000000
0.946047 0.000000 0.000000
0.997171 0.000000 0.000000
0.970510 0.000000 0.000000
0.937047 0.000000 0.000000
0.946858 0.000000 0.000000
0.983274 0.000000 0.000000
1.000000 0.000000 0.000000
1.000000 0.000000 0.052819
1.000000 0.119067 0.096850
1.000000 0.213139 0.138301
1.000000 0.291632 0.177328
1.000000 0.355837 0.216584
1.000000 0.417380 0.259867
1.000000 0.476844 0.302936
1.000000 0.536980 0.349379
1.000000 0.597903 0.405489
1.000000 0.651165 0.452290
0.000000 0.251912 0.000000
0.000000 0.249827 0.000000
0.000000 0.243655 0.000000
0.000000 0.231629 0.000000
0.000000 0.221591 0.000000
0.084166 0.207454 0.000000
0.225522 0.189302 0.000000
0.321867 0.166055 0.000000
0.388610 0.138007 0.000000
0.454235 0.107160 0.000000
0.521385 0.000000 0.000000
0.596592 0.000000 0.000000
0.671677 0.000000 0.000000
0.741477 0.000000 0.000000
0.812735 0.000000 0.000000
0.877202 0.000000 0.000000
0.942007 0.000000 0.000000
0.996766 0.000000 0.000000
0.996369 0.000000 0.000000
0.944230 0.000000 0.000000
0.953450 0.000000 0.000000
0.985772 0.000000 0.000000
1.000000 0.000000 0.000000
1.000000 0.000000 0.040700
1.000000 0.156514 0.091401
1.000000 0.241457 0.133210
1.000000 0.305408 0.173836
1.000000 0.364082 0.215788
1.000000 0.425035 0.259189
1.000000 0.484085 0.302353
1.000000 0.544049 0.348875
1.000000 0.601335 0.405274
1.000000 0.654358 0.452114
0.000000 0.280659 0.000000
0.000000 0.280659 0.000000
0.000000 0.271448 0.000000
0.000000 0.262428 0.000000
0.000000 0.251218 0.000000
0.000000 0.238357 0.000000
0.218264 0.223395 0.000000
0.315224 0.205690 0.000000
0.388406 0.185366 0.000000
0.456660 0.157060 0.000000
0.524196 0.121192 0.000000
0.598177 0.000000 0.000000
0.672477 0.000000 0.000000
0.741761 0.000000 0.000000
0.812598 0.000000 0.000000
0.876713 0.000000 0.000000
0.941228 0.000000 0.000000
0.996062 0.000000 0.000000
1.000000 0.000000 0.000000
0.968750 0.000000 0.000000
0.960046 0.000000 0.000000
0.984808 0.000000 0.000000
1.000000 0.000000 0.000000
1.000000 0.106059 0.000000
1.000000 0.193140 0.084086
1.000000 0.262297 0.128345
1.000000 0.318886 0.170223
1.000000 0.372275 0.214967
1.000000 0.436491 0.258140
1.000000 0.491365 0.301754
1.000000 0.547588 0.348621
1.000000 0.604771 0.405058
1.000000 0.657539 0.451939
0.000000 0.315501 0.000000
0.000000 0.315501 0.000000
0.000000 0.305059 0.000000
0.000000 0.294849 0.000000
0.000000 0.284616 0.000000
0.000000 0.275786 0.000000
0.191368 0.266063 0.000000
0.305865 0.248979 0.000000
0.387568 0.227773 0.000000
0.461835 0.203289 0.000000
0.531204 0.180067 0.000000
0.608736 0.142126 0.000000
0.673737 0.072267 0.000000
0.742246 0.000000 0.000000
0.812469 0.000000 0.000000
0.884565 0.000000 0.000000
0.940125 0.000000 0.000000
0.994817 0.000000 0.000000
1.000000 0.000000 0.000000
1.000000 0.000000 0.000000
0.969642 0.000000 0.000000
0.989836 0.000000 0.000000
1.000000 0.000000 0.000000
1.000000 0.155035 0.000000
1.000000 0.223994 0.075281
1.000000 0.282089 0.123085
1.000000 0.340817 0.165326
1.000000 0.384485 0.211372
1.000000 0.444116 0.257419
1.000000 0.498725 0.301137
1.000000 0.554675 0.348106
1.000000 0.609299 0.402778
1.000000 0.661733 0.452714
0.000000 0.351282 0.000000
0.000000 0.351282 0.000000
0.000000 0.334537 0.000000
0.000000 0.323264 0.000000
0.000000 0.319939 0.000000
0.000000 0.310453 0.000000
0.144651 0.304425 0.000000
0.297481 0.286822 0.000000
0.379216 0.269002 0.000000
0.464544 0.241903 0.000000
0.533378 0.224958 0.000000
0.619269 0.199791 0.000000
0.683828 0.168735 0.000000
0.747546 0.117427 0.000000
0.817049 0.000000 0.000000
0.883657 0.000000 0.000000
0.949345 0.000000 0.000000
0.995859 0.000000 0.000000
1.000000 0.000000 0.000000
1.000000 0.000000 0.000000
0.990622 0.000000 0.000000
0.991548 0.000000 0.000000
1.000000 0.151167 0.000000
1.000000 0.197995 0.000000
1.000000 0.257176 0.060930
1.000000 0.301710 0.118063
1.000000 0.353722 0.161341
1.000000 0.396602 0.210016
1.000000 0.451737 0.254072
1.000000 0.509774 0.300189
1.000000 0.561774 0.347584
1.000000 0.619597 0.402117
1.000000 0.664870 0.452545
0.000000 0.383395 0.000000
0.000000 0.383389 0.000000
0.000000 0.371274 0.000000
0.000000 0.356539 0.000000
0.000000 0.355824 0.000000
0.000000 0.346102 0.000000
0.058687 0.340973 0.000000
0.278153 0.323710 0.000000
0.374747 0.308175 0.000000
0.459079 0.290926 0.000000
0.533515 0.266224 0.000000
0.621154 0.244880 0.000000
0.685424 0.223701 0.000000
0.748360 0.193679 0.000000
0.826055 0.144751 0.000000
0.894904 0.000000 0.000000
0.947829 0.000000 0.000000
0.993969 0.000000 0.000000
1.000000 0.000000 0.000000
1.000000 0.000000 0.000000
1.000000 0.000000 0.000000
1.000000 0.159389 0.000000
1.000000 0.205693 0.000000
1.000000 0.249203 0.000000
1.000000 0.287135 0.031956
1.000000 0.320077 0.111799
1.000000 0.374895 0.153552
1.000000 0.409512 0.204603
1.000000 0.467886 0.253284
1.000000 0.525488 0.299712
1.000000 0.572442 0.346788
1.000000 0.626479 0.401671
1.000000 0.671106 0.452212
0.000000 0.421798 0.000000
0.000000 0.415175 0.000000
0.000000 0.398821 0.000000
0.000000 0.388975 0.000000
0.000000 0.382069 0.000000
0.000000 0.377853 0.000000
0.000000 0.372696 0.000000
0.246899 0.362515 0.000000
0.359105 0.347699 0.000000
0.453989 0.334273 0.000000
0.537935 0.316072 0.000000
0.621980 0.284735 0.000000
0.686602 0.266328 0.000000
0.749089 0.245284 0.000000
0.825763 0.215510 0.000000
0.893354 0.180645 0.000000
0.945653 0.126140 0.000000
0.991942 0.000000 0.000000
1.000000 0.000000 0.000000
1.000000 0.000000 0.000000
1.000000 0.000000 0.000000
1.000000 0.236975 0.000000
1.000000 0.264229 0.000000
1.000000 0.289502 0.000000
1.000000 0.315763 0.000000
1.000000 0.355520 0.093855
1.000000 0.392246 0.148999
1.000000 0.433355 0.199107
1.000000 0.484028 0.249811
1.000000 0.540207 0.298366
1.000000 0.583135 0.345975
1.000000 0.633348 0.401225
1.000000 0.677288 0.451886
0.000000 0.470027 0.000000
0.000000 0.448948 0.000000
0.000000 0.434978 0.000000
0.000000 0.431082 0.000000
0.000000 0.420207 0.000000
0.000000 0.419177 0.000000
0.000000 0.417746 0.000000
0.201368 0.408468 0.000000
0.348376 0.396577 0.000000
0.439424 0.380817 0.000000
0.533882 0.365891 0.000000
0.628540 0.337851 0.000000
0.691198 0.318543 0.000000
0.749647 0.301738 0.000000
0.825218 0.279299 0.000000
0.891403 0.255749 0.000000
0.942488 0.233735 0.000000
0.988635 0.188053 0.000000
1.000000 0.149711 0.000000
1.000000 0.128114 0.000000
1.000000 0.108329 0.000000
1.000000 0.234268 0.000000
1.000000 0.329884 0.000000
1.000000 0.340370 0.000000
1.000000 0.360466 0.000000
1.000000 0.386009 0.071886
1.000000 0.425088 0.137224
1.000000 0.457027 0.190782
1.000000 0.503149 0.244973
1.000000 0.555837 0.295244
1.000000 0.593848 0.345148
1.000000 0.643553 0.400565
1.000000 0.686454 0.451416
0.000000 0.498542 0.000000
0.000000 0.484120 0.000000
0.000000 0.480229 0.000000
0.000000 0.469012 0.000000
0.000000 0.461198 0.000000
0.000000 0.460188 0.000000
0.000000 0.458824 0.000000
0.168903 0.449938 0.000000
0.311161 0.439399 0.000000
0.438684 0.429629 0.000000
0.520441 0.416678 0.000000
0.630134 0.399188 0.000000
0.697389 0.376621 0.000000
0.758031 0.357292 0.000000
0.824206 0.335609 0.000000
0.889024 0.316668 0.000000
0.939154 0.299589 0.000000
0.989514 0.283389 0.000000
1.000000 0.260662 0.000000
1.000000 0.240477 0.000000
1.000000 0.232076 0.000000
1.000000 0.225055 0.019685
1.000000 0.369472 0.000000
1.000000 0.405854 0.000000
1.000000 0.412370 0.000000
1.000000 0.428224 0.000000
1.000000 0.458570 0.119637
1.000000 0.484753 0.181101
1.000000 0.529892 0.238953
1.000000 0.570556 0.291201
1.000000 0.612624 0.344680
1.000000 0.656961 0.399710
1.000000 0.695492 0.448099
0.000000 0.535314 0.000000
0.000000 0.520233 0.000000
0.000000 0.515988 0.000000
0.000000 0.504317 0.000000
0.000000 0.503424 0.000000
0.000000 0.498799 0.000000
0.000000 0.497696 0.000000
0.161365 0.492185 0.000000
0.286484 0.482518 0.000000
0.416905 0.473788 0.000000
0.518544 0.464047 0.000000
0.620308 0.448483 0.000000
0.691373 0.434027 0.000000
0.760639 0.407146 0.000000
0.830938 0.386661 0.000000
0.893586 0.370433 0.000000
0.941869 0.356118 0.000000
0.984961 0.343347 0.000000
1.000000 0.332738 0.000000
1.000000 0.320310 0.000000
1.000000 0.302916 0.000000
1.000000 0.300102 0.000000
1.000000 0.358104 0.000000
1.000000 0.460203 0.000000
1.000000 0.479824 0.000000
1.000000 0.478808 0.000000
1.000000 0.504080 0.090324
1.000000 0.521577 0.165242
1.000000 0.548986 0.230934
1.000000 0.588980 0.286692
1.000000 0.626935 0.340650
1.000000 0.666874 0.393113
1.000000 0.704750 0.447659
0.000000 0.561438 0.000000
0.000000 0.557157 0.000000
0.000000 0.548944 0.000000
0.000000 0.544410 0.000000
0.000000 0.543585 0.000000
0.000000 0.542621 0.000000
0.000000 0.537552 0.000000
0.133825 0.536212 0.000000
0.281738 0.526389 0.000000
0.391859 0.515323 0.000000
0.511538 0.505464 0.000000
0.618560 0.490233 0.000000
0.688494 0.476390 0.000000
0.755864 0.461978 0.000000
0.832404 0.438090 0.000000
0.893928 0.419442 0.000000
0.940832 0.406673 0.000000
0.982889 0.395309 0.000000
1.000000 0.385801 0.000000
1.000000 0.378359 0.000000
1.000000 0.366276 0.000000
1.000000 0.361621 0.000000
1.000000 0.360145 0.000000
1.000000 0.475042 0.000000
1.000000 0.529167 0.000000
1.000000 0.544260 0.000000
1.000000 0.548510 0.000000
1.000000 0.554670 0.146535
1.000000 0.584646 0.219322
1.000000 0.611120 0.276444
1.000000 0.644685 0.333443
1.000000 0.686959 0.389943
1.000000 0.714216 0.444372
0.000000 0.598946 0.000000
0.000000 0.586755 0.000000
0.000000 0.582136 0.000000
0.000000 0.581328 0.000000
0.000000 0.580383 0.000000
0.000000 0.575516 0.000000
0.000000 0.574518 0.000000
0.159051 0.573172 0.000000
0.275177 0.571339 0.000000
0.383255 0.560711 0.000000
0.488363 0.552373 0.000000
0.612855 0.537071 0.000000
0.691644 0.523112 0.000000
0.758428 0.509237 0.000000
0.831209 0.498302 0.000000
0.889975 0.468522 0.000000
0.935930 0.456559 0.000000
0.977333 0.445877 0.000000
1.000000 0.436886 0.000000
1.000000 0.434392 0.000000
1.000000 0.430609 0.000000
1.000000 0.425913 0.000000
1.000000 0.427327 0.000000
1.000000 0.419475 0.081812
1.000000 0.562760 0.000000
1.000000 0.597308 0.000000
1.000000 0.608249 0.000000
1.000000 0.601780 0.115122
1.000000 0.619373 0.200197
1.000000 0.641231 0.266060
1.000000 0.665428 0.323149
1.000000 0.703427 0.386031
1.000000 0.730210 0.441924
0.000000 0.636396 0.000000
0.000000 0.627818 0.000000
0.000000 0.626934 0.000000
0.000000 0.626122 0.000000
0.000000 0.625214 0.000000
0.000000 0.624375 0.000000
0.000000 0.623252 0.000000
0.160686 0.622067 0.000000
0.301950 0.616077 0.000000
0.385245 0.606191 0.000000
0.481230 0.594830 0.000000
0.593267 0.585007 0.000000
0.675596 0.575533 0.000000
0.757305 0.561124 0.000000
0.828405 0.546947 0.000000
0.889679 0.533766 0.000000
0.935116 0.514412 0.000000
0.972519 0.504522 0.000000
1.000000 0.495834 0.000000
1.000000 0.489145 0.000000
1.000000 0.480691 0.000000
1.000000 0.479072 0.000000
1.000000 0.483043 0.000000
1.000000 0.481944 0.049211
1.000000 0.494378 0.000000
1.000000 0.629907 0.000000
1.000000 0.659053 0.000000
1.000000 0.659498 0.000000
1.000000 0.657188 0.175510
1.000000 0.673630 0.255185
1.000000 0.693283 0.316273
1.000000 0.719717 0.382221
1.000000 0.747726 0.441377
0.000000 0.673736 0.000000
0.000000 0.672621 0.000000
0.000000 0.671739 0.000000
0.000000 0.671001 0.000000
0.000000 0.666378 0.000000
0.000000 0.665371 0.000000
0.056508 0.664204 0.000000
0.231062 0.662891 0.000000
0.322973 0.653602 0.000000
0.404831 0.647552 0.000000
0.485849 0.644596 0.000000
0.577484 0.640304 0.000000
0.658978 0.631671 0.000000
0.740854 0.618112 0.000000
0.825235 0.603553 0.000000
0.887486 0.590727 0.000000
0.931437 0.579991 0.000000
0.969723 0.558202 0.000000
1.000000 0.549862 0.000000
1.000000 0.547072 0.000000
1.000000 0.542153 0.000000
1.000000 0.539383 0.000000
1.000000 0.537975 0.000000
1.000000 0.538898 0.000000
1.000000 0.542128 0.095051
1.000000 0.606359 0.000000
1.000000 0.694581 0.000000
1.000000 0.712188 0.000000
1.000000 0.712190 0.130654
1.000000 0.719427 0.234129
1.000000 0.720446 0.305723
1.000000 0.748361 0.374467
1.000000 0.770559 0.443157
0.000000 0.711519 0.000000
0.000000 0.710585 0.000000
0.000000 0.709661 0.000000
0.000000 0.708817 0.000000
0.000000 0.708149 0.000000
0.000000 0.706972 0.000000
0.187436 0.705998 0.000000
0.280370 0.704759 0.000000
0.353476 0.699232 0.000000
0.432641 0.688840 0.000000
0.517359 0.681728 0.000000
0.585664 0.678609 0.000000
0.655795 0.674830 0.000000
0.728567 0.666356 0.000000
0.813193 0.648462 0.000000
0.878196 0.635721 0.000000
0.922678 0.629000 0.000000
0.959147 0.619545 0.000000
0.996664 0.603181 0.000000
1.000000 0.596359 0.000000
1.000000 0.591228 0.000000
1.000000 0.587563 0.000000
1.000000 0.589764 0.000000
1.000000 0.585141 0.000000
1.000000 0.587781 0.078158
1.000000 0.592015 0.144221
1.000000 0.700623 0.000000
1.000000 0.756473 0.000000
1.000000 0.761298 0.000000
1.000000 0.769538 0.205166
1.000000 0.766697 0.293313
1.000000 0.776509 0.366563
1.000000 0.790872 0.438833
0.000000 0.748833 0.000000
0.000000 0.747897 0.000000
0.000000 0.746839 0.000000
0.000000 0.745962 0.000000
0.000000 0.745174 0.000000
0.181148 0.744505 0.000000
0.259010 0.743609 0.000000
0.336353 0.742251 0.000000
0.402828 0.736952 0.000000
0.467688 0.731237 0.000000
0.539213 0.724767 0.000000
0.598636 0.718269 0.000000
0.666388 0.714767 0.000000
0.733375 0.706851 0.000000
0.801046 0.698366 0.000000
0.865043 0.685775 0.000000
0.915609 0.674314 0.000000
0.951714 0.668556 0.000000
0.985096 0.659727 0.000000
1.000000 0.640830 0.000000
1.000000 0.635659 0.000000
1.000000 0.631649 0.000000
1.000000 0.633245 0.000000
1.000000 0.631733 0.000000
1.000000 0.632385 0.030057
1.000000 0.639451 0.136449
1.000000 0.643402 0.185700
1.000000 0.763287 0.000000
1.000000 0.792459 0.000000
1.000000 0.801775 0.153066
1.000000 0.803982 0.274578
1.000000 0.803765 0.353210
1.000000 0.812456 0.427564
0.000000 0.782107 0.000000
0.000000 0.781075 0.000000
0.000000 0.780277 0.000000
0.168586 0.779592 0.000000
0.255864 0.778684 0.000000
0.305799 0.777918 0.000000
0.348083 0.777115 0.000000
0.394572 0.776059 0.000000
0.460027 0.774249 0.000000
0.507162 0.769335 0.000000
0.557696 0.764012 0.000000
0.624561 0.757604 0.000000
0.678172 0.751373 0.000000
0.747010 0.747435 0.000000
0.798197 0.740620 0.000000
0.859515 0.725489 0.000000
0.909971 0.718513 0.000000
0.947263 0.709023 0.000000
0.976993 0.704503 0.000000
1.000000 0.697182 0.000000
1.000000 0.683275 0.000000
1.000000 0.678213 0.000000
1.000000 0.674578 0.000000
1.000000 0.675473 0.000000
1.000000 0.678099 0.000000
1.000000 0.680471 0.124851
1.000000 0.680530 0.185233
1.000000 0.688065 0.243381
1.000000 0.805701 0.000000
1.000000 0.828021 0.000000
1.000000 0.831877 0.243472
1.000000 0.833450 0.334196
1.000000 0.836258 0.411329
0.000000 0.811375 0.000000
0.232119 0.810130 0.000000
0.301692 0.809177 0.000000
0.346339 0.808375 0.000000
0.385641 0.807537 0.000000
0.421378 0.806664 0.000000
0.454544 0.805754 0.000000
0.478113 0.805048 0.000000
0.508141 0.804076 0.000000
0.546031 0.799769 0.000000
0.602399 0.794489 0.000000
0.651631 0.789177 0.000000
0.708278 0.783161 0.000000
0.751922 0.780703 0.000000
0.801507 0.774515 0.000000
0.851068 0.768099 0.000000
0.906994 0.757916 0.000000
0.943047 0.752574 0.000000
0.970075 0.748244 0.000000
0.995039 0.741367 0.000000
1.000000 0.735390 0.000000
1.000000 0.723280 0.000000
1.000000 0.719276 0.000000
1.000000 0.715870 0.000000
1.000000 0.713856 0.000000
1.000000 0.717111 0.107204
1.000000 0.719561 0.185160
1.000000 0.724327 0.246150
1.000000 0.729671 0.296651
1.000000 0.837289 0.000000
1.000000 0.857449 0.175984
1.000000 0.860393 0.313754
1.000000 0.863917 0.395416
0.362020 0.835185 0.000000
0.419081 0.833899 0.000000
0.453309 0.832999 0.000000
0.477535 0.832301 0.000000
0.493120 0.831825 0.000000
