Assets/Lutify-Free-LUTs-Pack/Lutify Free LUTs Pack/Commercial Pro - Claire/Lutify.me-Claire-CanonLog1-to-Rec709.cube
# Created with: fylm.ai - Colour Grading and Collaboration Software in Cloud 
# Website: https://fylm.ai 
# META
# Option: Gamut compress
# Block 1: IDT | CanonLog Cinema Gamut Daylight
# Block 2: colourMatch | Blending Mode: Normal | {"ColorSpace":0,"CrossCovarianceLimit":50,"ReshapingIterations":1,"PercentSaturationShift":100,"PercentShadingShift":100,"ExtraShading":true,"PercentTint":100,"PercentModified":100}
# Block 3: HSL | Blending Mode: Normal | {"hue":{"Reds":0,"Yellows":0,"Greens":0,"Cyans":0,"Blues":0,"Magentas":0},"saturation":{"Reds":1,"Yellows":1,"Greens":1,"Cyans":1,"Blues":1,"Magentas":1},"luminance":{"Reds":0.9,"Yellows":0.9,"Greens":0.9,"Cyans":0.8,"Blues":0.8,"Magentas":0.9},"lum_sat":{"Blacks":1,"Shadows":1,"Midtones":1,"Highlights":1,"Whites":1},"sat_sat":{"10":1,"20":1,"30":1,"40":1,"50":1}}
# Block 4: subtractiveColour | Blending Mode: Normal | {"sliders":{"gainY":0.1,"C":0.05,"M":0.05,"Y":0.05}}
# Block 5: logPrimaries | Blending Mode: Normal | {"wheels":{"shadows":{"Y":"0","R":"1","G":"1","B":"1"},"midtones":{"Y":"0","R":"1","G":"1","B":"1"},"highlights":{"Y":"0","R":"1","G":"1","B":"1"},"offset":{"Y":"0","R":"1","G":"1","B":"1"}},"sliders":{"shadows":{"Y":0,"R":-0.05,"G":0,"B":0.1},"midtones":{"Y":0,"R":0,"G":0,"B":0},"highlights":{"Y":0,"R":0,"G":0,"B":0},"offset":{"Y":0,"R":0,"G":0,"B":0}}}
# Block 6: LUT | Filmic Curve Response: Standard Contrast 1 (100%)
# Block 7: LUT | Illuminant: D93 (100%)
# Block 8: LUT | Neutral Tint: Teal Tint 4 (100%)
# Block 9: ODT | Rec709
TITLE "Lutify.me-Claire-CanonLog1-to-Rec709" 
LUT_3D_SIZE 9
0.000000 0.000000 0.000000
0.281561 0.000000 0.000000
0.817423 0.000000 0.000000
1.000000 0.000000 0.046963
1.000000 0.000000 0.046627
0.907497 0.000000 0.000000
1.000000 0.000000 0.040970
1.000000 0.084299 0.156188
1.000000 0.416916 0.286739
0.000000 0.104160 0.000000
0.035769 0.069613 0.000000
0.414776 0.000000 0.000000
0.691688 0.000000 0.000000
0.923686 0.000000 0.000000
0.926662 0.000000 0.000000
1.000000 0.000000 0.000000
1.000000 0.196902 0.153755
1.000000 0.443043 0.284708
0.000000 0.258273 0.000000
0.000000 0.229145 0.000000
0.397707 0.143140 0.000000
0.667619 0.000000 0.000000
0.906748 0.000000 0.000000
0.983047 0.000000 0.000000
1.000000 0.000000 0.000000
1.000000 0.264534 0.139194
1.000000 0.457940 0.283471
0.000000 0.380353 0.000000
0.000000 0.352985 0.000000
0.395823 0.303328 0.000000
0.677052 0.218709 0.000000
0.914847 0.000000 0.000000
1.000000 0.000000 0.000000
1.000000 0.199187 0.000000
1.000000 0.335283 0.123956
1.000000 0.497302 0.281720
0.000000 0.513096 0.000000
0.000000 0.478673 0.000000
0.328093 0.452765 0.000000
0.691186 0.399954 0.000000
0.909954 0.334694 0.000000
1.000000 0.276531 0.000000
1.000000 0.366759 0.000000
1.000000 0.455009 0.000000
1.000000 0.558172 0.263933
0.000000 0.632956 0.000000
0.000000 0.613931 0.000000
0.319816 0.600481 0.000000
0.670734 0.560165 0.000000
0.908408 0.512007 0.000000
1.000000 0.471528 0.000000
1.000000 0.468105 0.000000
1.000000 0.625790 0.000000
1.000000 0.657413 0.226254
0.000000 0.748940 0.000000
0.098879 0.745010 0.000000
0.418928 0.736506 0.000000
0.660094 0.715114 0.000000
0.885271 0.684436 0.000000
1.000000 0.648441 0.000000
1.000000 0.633245 0.000000
1.000000 0.642184 0.150293
1.000000 0.801253 0.000000
0.408416 0.844158 0.000000
0.515242 0.841150 0.000000
0.602659 0.837934 0.000000
0.730426 0.824358 0.000000
0.866426 0.808414 0.000000
0.980025 0.791310 0.000000
1.000000 0.776995 0.000000
1.000000 0.765191 0.129928
1.000000 0.772848 0.321920
0.728861 0.905500 0.000000
0.770678 0.901775 0.000000
0.799584 0.898575 0.000000
0.851893 0.893903 0.000000
0.903490 0.889031 0.000000
0.959272 0.882051 0.000000
1.000000 0.868912 0.000000
1.000000 0.863957 0.154641
1.000000 0.857345 0.339402
0.000000 0.000000 0.438791
0.000000 0.000000 0.055318
0.474657 0.000000 0.000000
0.750199 0.000000 0.000000
0.911969 0.000000 0.000000
0.873703 0.000000 0.039625
1.000000 0.000000 0.109861
1.000000 0.111758 0.197592
1.000000 0.418119 0.307054
0.000000 0.019476 0.033675
0.000000 0.000000 0.014133
0.343979 0.000000 0.000000
0.497585 0.000000 0.000000
0.679277 0.000000 0.000000
0.859247 0.000000 0.042955
1.000000 0.000000 0.107688
1.000000 0.208507 0.196194
1.000000 0.436714 0.305775
0.000000 0.232622 0.000000
0.000000 0.224255 0.000000
0.336706 0.158963 0.000000
0.519011 0.092059 0.000000
0.680284 0.000000 0.000000
0.862315 0.000000 0.000000
1.000000 0.000000 0.096052
1.000000 0.264398 0.193171
1.000000 0.458975 0.306710
0.000000 0.371378 0.000000
0.000000 0.345182 0.000000
0.370891 0.297077 0.000000
0.668445 0.206860 0.000000
0.771336 0.219588 0.000000
0.871141 0.245986 0.000000
1.000000 0.235222 0.055159
1.000000 0.344037 0.179388
1.000000 0.496255 0.303772
0.000000 0.520505 0.000000
0.000000 0.475708 0.000000
0.291572 0.450548 0.000000
0.683254 0.393334 0.000000
0.906625 0.330928 0.000000
0.977707 0.361385 0.000000
1.000000 0.459744 0.000000
1.000000 0.458259 0.143794
1.000000 0.566413 0.297437
0.000000 0.629416 0.000000
0.000000 0.606879 0.000000
0.283442 0.597548 0.000000
0.660372 0.560939 0.000000
0.902514 0.508353 0.000000
1.000000 0.467319 0.000000
1.000000 0.468768 0.000000
1.000000 0.652887 0.000000
1.000000 0.659825 0.271944
0.000000 0.749446 0.000000
0.000000 0.745653 0.000000
0.394569 0.737172 0.000000
0.647410 0.715801 0.000000
0.883197 0.680434 0.000000
1.000000 0.648335 0.000000
1.000000 0.633245 0.000000
1.000000 0.638772 0.151445
1.000000 0.806016 0.169591
0.392439 0.842064 0.000000
0.509714 0.838858 0.000000
0.597129 0.835676 0.000000
0.725060 0.824644 0.000000
0.862889 0.808641 0.000000
0.979087 0.788534 0.000000
1.000000 0.776836 0.000000
1.000000 0.762421 0.130723
1.000000 0.772848 0.321920
0.728861 0.905500 0.000000
0.766430 0.901996 0.000000
0.795715 0.898787 0.000000
0.845055 0.894307 0.000000
0.903490 0.889031 0.000000
0.957424 0.882161 0.000000
1.000000 0.868895 0.000000
1.000000 0.863957 0.154641
1.000000 0.857345 0.339402
0.000000 0.000000 0.606929
0.000000 0.000000 0.129189
0.369104 0.000000 0.044592
0.653121 0.000000 0.000000
0.899645 0.000000 0.000000
0.865332 0.000000 0.081816
1.000000 0.000000 0.155194
1.000000 0.079349 0.232158
1.000000 0.414293 0.328058
0.000000 0.000000 0.229376
0.000000 0.000000 0.147172
0.290412 0.000000 0.074997
0.473892 0.000000 0.082707
0.659724 0.000000 0.107010
0.850942 0.000000 0.119583
1.000000 0.000000 0.158024
1.000000 0.200881 0.231655
1.000000 0.434119 0.333062
0.000000 0.181961 0.284694
0.000000 0.181882 0.287169
0.180382 0.225843 0.303194
0.431254 0.159840 0.191467
0.649431 0.000000 0.133097
0.848739 0.000000 0.129405
1.000000 0.000000 0.160159
1.000000 0.263453 0.231530
1.000000 0.460010 0.331419
0.000000 0.294786 0.298959
0.000000 0.323830 0.316523
0.000000 0.419424 0.220244
0.432766 0.388850 0.120283
0.670009 0.337491 0.082449
0.851706 0.272150 0.111623
0.999850 0.236029 0.152943
1.000000 0.347751 0.228553
1.000000 0.497158 0.331645
0.000000 0.382660 0.262548
0.000000 0.554121 0.109905
0.000000 0.574939 0.000000
0.355630 0.565836 0.000000
0.678741 0.520888 0.000000
0.871712 0.499755 0.000000
0.993355 0.472604 0.077042
1.000000 0.462812 0.210212
1.000000 0.565548 0.327190
0.000000 0.660619 0.000000
0.000000 0.655014 0.000000
0.000000 0.648156 0.000000
0.483721 0.629336 0.000000
0.830431 0.558873 0.000000
1.000000 0.504143 0.000000
0.975673 0.652442 0.000000
1.000000 0.664327 0.101063
1.000000 0.659793 0.305924
0.000000 0.749816 0.000000
0.000000 0.742322 0.000000
0.377578 0.737604 0.000000
0.641018 0.716140 0.000000
0.879934 0.680646 0.000000
1.000000 0.648335 0.000000
1.000000 0.629403 0.000000
1.000000 0.777877 0.000000
1.000000 0.810705 0.245358
0.372879 0.842488 0.000000
0.494470 0.839341 0.000000
0.582551 0.836256 0.000000
0.719619 0.824931 0.000000
0.855668 0.809103 0.000000
0.979087 0.788534 0.000000
1.000000 0.773985 0.000000
1.000000 0.762002 0.124136
1.000000 0.844766 0.049332
0.723912 0.905739 0.000000
0.762105 0.902220 0.000000
0.791797 0.899000 0.000000
0.841567 0.894511 0.000000
0.900859 0.889195 0.000000
0.957424 0.882161 0.000000
1.000000 0.868895 0.000000
1.000000 0.863957 0.154641
1.000000 0.857345 0.339402
0.000000 0.000000 0.695641
0.000000 0.000000 0.175093
0.296998 0.000000 0.072247
0.582471 0.000000 0.054790
0.846708 0.000000 0.024241
0.900345 0.000000 0.082015
1.000000 0.000000 0.218422
1.000000 0.000000 0.282861
1.000000 0.414023 0.373720
0.000000 0.000000 0.319698
0.000000 0.000000 0.200520
0.244664 0.000000 0.112086
0.525949 0.000000 0.074139
0.647360 0.000000 0.138811
0.830383 0.000000 0.222539
1.000000 0.000000 0.246717
1.000000 0.180846 0.287994
1.000000 0.436367 0.375666
0.000000 0.138209 0.354635
0.000000 0.135851 0.334106
0.048056 0.144417 0.379425
0.412361 0.000000 0.326167
0.622900 0.000000 0.287508
0.842678 0.000000 0.270446
1.000000 0.000000 0.256838
1.000000 0.258677 0.296140
1.000000 0.462376 0.377379
0.000000 0.292758 0.445969
0.000000 0.300531 0.456238
0.000000 0.361534 0.533740
0.327404 0.420372 0.521823
0.622166 0.354583 0.409219
0.839300 0.266385 0.311717
0.996123 0.236013 0.273374
1.000000 0.344260 0.300978
1.000000 0.493229 0.376374
0.000000 0.417644 0.475870
0.000000 0.483434 0.538857
0.000000 0.541316 0.532026
0.073410 0.614023 0.482934
0.608254 0.587619 0.380606
0.837068 0.535279 0.290922
0.985173 0.477291 0.266121
1.000000 0.458173 0.299463
1.000000 0.565421 0.375740
0.000000 0.568645 0.492785
0.000000 0.678983 0.437027
0.000000 0.744613 0.402342
0.000000 0.755187 0.299625
0.538648 0.750643 0.199907
0.832052 0.716114 0.073340
0.962485 0.681672 0.166652
1.000000 0.672184 0.269908
1.000000 0.659158 0.366783
0.000000 0.852629 0.145994
0.000000 0.856478 0.000000
0.000000 0.852506 0.000000
0.000000 0.853881 0.000000
0.490430 0.844374 0.000000
0.807960 0.825121 0.000000
0.950312 0.803498 0.000000
1.000000 0.815065 0.000000
1.000000 0.817784 0.336848
0.306337 0.843708 0.000000
0.470832 0.840051 0.000000
0.567679 0.836827 0.000000
0.708501 0.825508 0.000000
0.851985 0.809338 0.000000
0.977347 0.788573 0.000000
1.000000 0.773985 0.000000
1.000000 0.762002 0.124136
1.000000 0.883643 0.097192
0.713771 0.906221 0.000000
0.753226 0.902673 0.000000
0.783828 0.899429 0.000000
0.838033 0.894718 0.000000
0.898184 0.889362 0.000000
0.956265 0.880428 0.000000
1.000000 0.868895 0.000000
1.000000 0.863957 0.154641
1.000000 0.857345 0.339402
0.000000 0.000000 0.776279
0.000000 0.000000 0.200457
0.239669 0.000000 0.099459
0.510297 0.000000 0.081161
0.790015 0.000000 0.066318
0.992441 0.000000 0.056941
0.979215 0.000000 0.282344
1.000000 0.000000 0.378975
1.000000 0.404674 0.438394
0.000000 0.000000 0.411561
0.000000 0.000000 0.233729
0.188919 0.000000 0.140733
0.484468 0.000000 0.095754
0.789993 0.000000 0.065286
0.816153 0.000000 0.209599
0.979427 0.000000 0.355235
1.000000 0.144711 0.394559
1.000000 0.427115 0.450013
0.000000 0.103913 0.407267
0.000000 0.107853 0.377330
0.000000 0.118766 0.400271
0.349650 0.000000 0.402221
0.601048 0.000000 0.328392
0.800578 0.000000 0.371261
0.985459 0.000000 0.396861
1.000000 0.244876 0.405991
1.000000 0.453287 0.455271
0.000000 0.250838 0.512207
0.000000 0.262393 0.511790
0.000000 0.304232 0.577325
0.213487 0.323620 0.621985
0.594579 0.280026 0.582806
0.822066 0.169846 0.491714
0.989368 0.186674 0.441468
1.000000 0.337017 0.419888
1.000000 0.491747 0.460522
0.000000 0.406754 0.588221
0.000000 0.420244 0.595283
0.000000 0.496744 0.680691
0.000000 0.559340 0.715175
0.534483 0.605695 0.714992
0.800081 0.550424 0.600513
0.969740 0.473068 0.496693
1.000000 0.456840 0.435626
1.000000 0.560516 0.464204
0.000000 0.541709 0.620055
0.000000 0.636074 0.714864
0.000000 0.669927 0.734238
0.000000 0.725952 0.716650
0.418671 0.786027 0.687231
0.767856 0.768459 0.604606
0.939986 0.717503 0.496991
1.000000 0.684532 0.449464
1.000000 0.669095 0.465537
0.000000 0.774474 0.669161
0.000000 0.816159 0.651620
0.000000 0.840305 0.643104
0.000000 0.876481 0.615939
0.346119 0.881120 0.548041
0.739067 0.868213 0.469069
0.915151 0.851753 0.374215
0.991111 0.831993 0.403572
1.000000 0.822153 0.467090
0.000000 0.937952 0.488465
0.000000 0.940959 0.465276
0.000000 0.938007 0.447095
0.000000 0.934017 0.411515
0.390428 0.929950 0.360661
0.732163 0.920220 0.280008
0.899076 0.911211 0.198077
0.982092 0.895655 0.120346
1.000000 0.898949 0.374140
0.698755 0.905304 0.000000
0.739329 0.903370 0.000000
0.771501 0.900082 0.000000
0.827984 0.893585 0.000000
0.892701 0.889704 0.000000
0.954371 0.880541 0.000000
1.000000 0.868881 0.000000
1.000000 0.861957 0.147458
1.000000 0.855555 0.339017
0.000000 0.000000 0.829076
0.000000 0.000000 0.208300
0.217247 0.000000 0.126342
0.414269 0.000000 0.106314
0.720622 0.000000 0.097183
0.958443 0.000000 0.087932
1.000000 0.000000 0.092127
1.000000 0.000000 0.469424
1.000000 0.378638 0.545091
0.000000 0.000000 0.546572
0.000000 0.000000 0.242781
0.190605 0.000000 0.149347
0.414271 0.000000 0.106314
0.720563 0.000000 0.095936
0.958443 0.000000 0.087932
0.972929 0.000000 0.299552
1.000000 0.000000 0.499566
1.000000 0.406912 0.551489
0.000000 0.092764 0.469684
0.000000 0.102116 0.417434
0.000000 0.108529 0.441322
0.234825 0.071646 0.450883
0.550109 0.000000 0.394662
0.780989 0.000000 0.271275
0.964880 0.000000 0.443066
1.000000 0.095627 0.530348
1.000000 0.430997 0.554542
0.000000 0.196560 0.539818
0.000000 0.212209 0.531921
0.000000 0.240515 0.575816
0.000000 0.246004 0.621241
0.528926 0.197405 0.630813
0.794724 0.000000 0.558325
0.973052 0.000000 0.558461
1.000000 0.275889 0.575313
1.000000 0.476316 0.566782
0.000000 0.364511 0.648052
0.000000 0.380071 0.647378
0.000000 0.443251 0.721297
0.000000 0.479952 0.768949
0.376092 0.511423 0.795875
0.786295 0.481593 0.768004
0.969033 0.400044 0.669954
1.000000 0.445475 0.619551
1.000000 0.555064 0.585858
0.000000 0.518734 0.717555
0.000000 0.541115 0.720056
0.000000 0.624166 0.797753
0.000000 0.672523 0.833777
0.000000 0.738688 0.843316
0.719044 0.776225 0.841462
0.908031 0.733081 0.773501
1.000000 0.691267 0.681179
1.000000 0.669061 0.599768
0.000000 0.737278 0.814021
0.000000 0.787515 0.841452
0.000000 0.806358 0.851864
0.000000 0.836094 0.856353
0.000000 0.864549 0.840128
0.675260 0.886946 0.835013
0.883954 0.876404 0.773523
0.971795 0.852237 0.700078
1.000000 0.828574 0.633698
0.000000 0.895041 0.801757
0.000000 0.908117 0.801198
0.000000 0.917640 0.800850
0.000000 0.929970 0.792598
0.000000 0.942393 0.784685
0.674464 0.938353 0.731437
0.873327 0.928829 0.666268
0.961508 0.918747 0.589743
1.000000 0.911295 0.608563
0.000000 0.981847 0.709578
0.000000 0.982451 0.707586
0.000000 0.981952 0.702036
0.328870 0.980697 0.677611
0.509900 0.977143 0.648620
0.698238 0.971739 0.611187
0.865221 0.964702 0.549416
0.951405 0.958959 0.496631
1.000000 0.950595 0.442586
0.000000 0.000000 0.874236
0.000000 0.000000 0.210311
0.212133 0.000000 0.159460
0.380522 0.000000 0.137051
0.616953 0.000000 0.124486
0.913356 0.000000 0.116586
1.000000 0.000000 0.120395
1.000000 0.000000 0.151798
1.000000 0.257758 0.644674
0.000000 0.000000 0.854097
0.000000 0.000000 0.212360
0.209847 0.000000 0.159473
0.377607 0.000000 0.135488
0.616953 0.000000 0.124486
0.913356 0.000000 0.116586
1.000000 0.000000 0.120397
1.000000 0.000000 0.435675
1.000000 0.320961 0.665650
0.000000 0.080483 0.531326
0.000000 0.091917 0.459103
0.000000 0.095243 0.469609
0.189213 0.059635 0.468923
0.459104 0.000000 0.418435
0.748959 0.000000 0.268693
1.000000 0.000000 0.119109
1.000000 0.000000 0.548336
1.000000 0.363059 0.683223
0.000000 0.180337 0.600647
0.000000 0.206610 0.584544
0.000000 0.226516 0.626203
0.000000 0.228702 0.664440
0.358410 0.203958 0.682469
0.737836 0.000000 0.657007
0.946322 0.000000 0.548362
1.000000 0.000000 0.646442
1.000000 0.424174 0.707094
0.000000 0.295138 0.677961
0.000000 0.317195 0.680987
0.000000 0.360390 0.732324
0.000000 0.373956 0.773919
0.208948 0.395111 0.805143
0.711885 0.358785 0.808478
0.956383 0.233132 0.746065
1.000000 0.345275 0.741614
1.000000 0.514570 0.738337
0.000000 0.481927 0.776037
0.000000 0.510930 0.781387
0.000000 0.578239 0.836975
0.000000 0.623193 0.865844
0.000000 0.661150 0.882186
0.589155 0.698946 0.896782
0.913587 0.682693 0.879717
1.000000 0.617714 0.829396
1.000000 0.654399 0.780849
0.000000 0.647255 0.825065
0.000000 0.654934 0.827254
0.000000 0.752267 0.873063
0.000000 0.796766 0.897283
0.000000 0.836597 0.911881
0.472368 0.866672 0.917993
0.854782 0.884472 0.917041
0.953053 0.858774 0.877921
1.000000 0.832625 0.825914
0.000000 0.873292 0.906880
0.000000 0.888795 0.914833
0.000000 0.896757 0.915643
0.000000 0.907023 0.920372
0.000000 0.925470 0.921246
0.461011 0.933234 0.916359
0.835385 0.942155 0.912892
0.939380 0.935290 0.881972
0.994866 0.919844 0.832038
0.000000 0.961984 0.894364
0.000000 0.964496 0.894152
0.000000 0.966957 0.892388
0.000000 0.970267 0.892096
0.155639 0.973489 0.886915
0.610320 0.977170 0.885071
0.832363 0.973137 0.861570
0.929670 0.968696 0.822095
0.987561 0.961739 0.773895
0.000000 0.000000 0.909617
0.031277 0.000000 0.228988
0.228185 0.000000 0.187524
0.374545 0.000000 0.162192
0.560468 0.000000 0.150320
0.834872 0.000000 0.141698
1.000000 0.000000 0.145280
1.000000 0.000000 0.159493
1.000000 0.000000 0.423019
0.000000 0.000000 0.909617
0.005436 0.000000 0.229021
0.225779 0.000000 0.187581
0.374545 0.000000 0.162192
0.560468 0.000000 0.150320
0.834872 0.000000 0.141698
1.000000 0.000000 0.145280
1.000000 0.000000 0.159493
1.000000 0.000000 0.576845
0.000000 0.047876 0.576169
0.000000 0.068290 0.459437
0.000000 0.058519 0.455880
0.207367 0.000000 0.444503
0.440225 0.000000 0.352772
0.749300 0.000000 0.196455
1.000000 0.000000 0.145280
1.000000 0.000000 0.159493
1.000000 0.000000 0.645101
0.000000 0.170284 0.662616
0.000000 0.205335 0.638453
0.000000 0.218980 0.672823
0.000000 0.222008 0.691768
0.267214 0.200526 0.710224
0.625553 0.048684 0.715116
0.923862 0.000000 0.611578
1.000000 0.000000 0.325462
1.000000 0.165111 0.723588
0.000000 0.266159 0.724979
0.000000 0.310817 0.730695
0.000000 0.339191 0.768443
0.000000 0.358372 0.795091
0.000000 0.364631 0.827674
0.554453 0.337967 0.839076
0.921805 0.229954 0.825953
1.000000 0.000000 0.751480
1.000000 0.382188 0.801467
0.000000 0.388368 0.790674
0.000000 0.442816 0.801166
0.000000 0.485090 0.839368
0.000000 0.513447 0.860326
0.000000 0.528731 0.883709
0.467728 0.556211 0.902120
0.886683 0.540194 0.906037
1.000000 0.477295 0.874248
1.000000 0.562566 0.858776
0.000000 0.608856 0.852784
0.000000 0.639522 0.862747
0.000000 0.717385 0.899148
0.000000 0.755439 0.918197
0.000000 0.781654 0.930734
0.000000 0.810404 0.941667
0.787607 0.834337 0.945065
0.955690 0.829450 0.938292
1.000000 0.793415 0.902000
0.000000 0.759795 0.884810
0.000000 0.767039 0.884322
0.000000 0.846628 0.920952
0.000000 0.873011 0.937824
0.000000 0.899257 0.948297
0.000000 0.917774 0.956635
0.735172 0.928483 0.957780
0.924210 0.937831 0.957955
0.982908 0.924879 0.932686
0.000000 0.950985 0.953874
0.000000 0.955588 0.955325
0.000000 0.957284 0.956918
0.000000 0.960715 0.960019
0.000000 0.967712 0.960707
0.231048 0.969416 0.961253
0.731855 0.970815 0.959294
0.911314 0.975378 0.957246
0.973532 0.971179 0.938481
0.000000 0.000000 0.398224
0.128450 0.000000 0.246441
0.260520 0.000000 0.217125
0.386404 0.000000 0.195681
0.536529 0.000000 0.181967
0.753475 0.000000 0.175231
0.983697 0.000000 0.172036
1.000000 0.000000 0.186082
1.000000 0.000000 0.213658
0.000000 0.000000 0.418249
0.124336 0.000000 0.248870
0.258141 0.000000 0.217173
0.383734 0.000000 0.195735
0.536529 0.000000 0.181967
0.753475 0.000000 0.175231
0.983697 0.000000 0.172036
1.000000 0.000000 0.186082
1.000000 0.000000 0.213658
0.000000 0.000000 0.459775
0.000000 0.000000 0.324958
0.189938 0.000000 0.299871
0.355946 0.000000 0.237911
0.536529 0.000000 0.181967
0.753475 0.000000 0.175231
0.983697 0.000000 0.172036
1.000000 0.000000 0.186082
1.000000 0.000000 0.213658
0.000000 0.161826 0.674425
0.000000 0.190545 0.685285
0.000000 0.195797 0.708253
0.000000 0.199041 0.719213
0.250206 0.172125 0.718518
0.543714 0.000000 0.720098
0.840340 0.000000 0.607837
1.000000 0.000000 0.186082
1.000000 0.000000 0.213658
0.000000 0.265446 0.764138
0.000000 0.312770 0.790495
0.000000 0.329768 0.812435
0.000000 0.339998 0.835186
0.000000 0.349808 0.857447
0.434318 0.332806 0.860786
0.816223 0.257629 0.871701
1.000000 0.000000 0.819002
1.000000 0.000000 0.651985
0.000000 0.368891 0.831458
0.000000 0.446091 0.851614
0.000000 0.470667 0.869721
0.000000 0.487899 0.888519
0.000000 0.503433 0.903435
0.295447 0.520822 0.919121
0.738087 0.501998 0.925872
1.000000 0.451024 0.919654
1.000000 0.370558 0.881725
0.000000 0.510705 0.874550
0.000000 0.589787 0.889314
0.000000 0.628000 0.910106
0.000000 0.654449 0.923150
0.000000 0.671921 0.936552
0.000000 0.701366 0.945744
0.650881 0.719825 0.958190
0.949346 0.727577 0.957960
1.000000 0.677021 0.936955
0.000000 0.729519 0.912156
0.000000 0.770676 0.917302
0.000000 0.822232 0.940351
0.000000 0.851187 0.953372
0.000000 0.876130 0.963209
0.000000 0.891233 0.970070
0.536580 0.902019 0.976282
0.878137 0.908251 0.978175
0.982382 0.910796 0.973774
0.000000 0.854365 0.931578
0.000000 0.854365 0.931578
0.000000 0.910277 0.952272
0.000000 0.934962 0.966177
0.000000 0.948894 0.974297
0.000000 0.958046 0.980300
0.529705 0.963754 0.984119
0.857957 0.966726 0.985234
0.965570 0.973152 0.984521
