Assets/Lutify-Free-LUTs-Pack/Lutify Free LUTs Pack/Commercial Pro - Claire/Lutify.me-Claire-FLog-to-Rec709.cube
# Created with: fylm.ai - Colour Grading and Collaboration Software in Cloud 
# Website: https://fylm.ai 
# META
# Option: Gamut compress
# Block 1: IDT | Fujifilm F-Gamut F-Log
# Block 2: colourMatch | Blending Mode: Normal | {"ColorSpace":0,"CrossCovarianceLimit":50,"ReshapingIterations":1,"PercentSaturationShift":100,"PercentShadingShift":100,"ExtraShading":true,"PercentTint":100,"PercentModified":100}
# Block 3: HSL | Blending Mode: Normal | {"hue":{"Reds":0,"Yellows":0,"Greens":0,"Cyans":0,"Blues":0,"Magentas":0},"saturation":{"Reds":1,"Yellows":1,"Greens":1,"Cyans":1,"Blues":1,"Magentas":1},"luminance":{"Reds":0.9,"Yellows":0.9,"Greens":0.9,"Cyans":0.8,"Blues":0.8,"Magentas":0.9},"lum_sat":{"Blacks":1,"Shadows":1,"Midtones":1,"Highlights":1,"Whites":1},"sat_sat":{"10":1,"20":1,"30":1,"40":1,"50":1}}
# Block 4: subtractiveColour | Blending Mode: Normal | {"sliders":{"gainY":0.1,"C":0.05,"M":0.05,"Y":0.05}}
# Block 5: logPrimaries | Blending Mode: Normal | {"wheels":{"shadows":{"Y":"0","R":"1","G":"1","B":"1"},"midtones":{"Y":"0","R":"1","G":"1","B":"1"},"highlights":{"Y":"0","R":"1","G":"1","B":"1"},"offset":{"Y":"0","R":"1","G":"1","B":"1"}},"sliders":{"shadows":{"Y":0,"R":-0.05,"G":0,"B":0.1},"midtones":{"Y":0,"R":0,"G":0,"B":0},"highlights":{"Y":0,"R":0,"G":0,"B":0},"offset":{"Y":0,"R":0,"G":0,"B":0}}}
# Block 6: LUT | Filmic Curve Response: Standard Contrast 1 (100%)
# Block 7: LUT | Illuminant: D93 (100%)
# Block 8: LUT | Neutral Tint: Teal Tint 4 (100%)
# Block 9: ODT | Rec709
TITLE "Lutify.me-Claire-FLog-to-Rec709" 
LUT_3D_SIZE 5
0.000000 0.000000 0.000000
0.255798 0.000000 0.000000
0.508596 0.000000 0.000000
0.896984 0.000000 0.055196
1.000000 0.476473 0.303622
0.000000 0.115848 0.000000
0.163533 0.081187 0.000000
0.484094 0.000000 0.000000
0.900140 0.000000 0.056375
1.000000 0.485069 0.306357
0.000000 0.351726 0.000000
0.000000 0.359282 0.000000
0.483815 0.323118 0.000000
0.896503 0.274924 0.049458
1.000000 0.535911 0.313984
0.000000 0.733806 0.380840
0.000000 0.755918 0.364250
0.000000 0.764547 0.253288
0.866550 0.732631 0.000000
1.000000 0.738271 0.374377
0.000000 0.967547 0.794719
0.000000 0.969039 0.794982
0.304311 0.970200 0.785414
0.764281 0.959925 0.715456
0.995692 0.945749 0.587955
0.000000 0.000000 0.109428
0.173037 0.000000 0.054683
0.469150 0.000000 0.040514
0.892789 0.000000 0.098790
1.000000 0.477312 0.315130
0.000000 0.105022 0.174954
0.085644 0.119500 0.171892
0.445098 0.000000 0.064582
0.895824 0.000000 0.101512
1.000000 0.485036 0.317316
0.000000 0.302933 0.280019
0.000000 0.373387 0.228604
0.442851 0.361427 0.082072
0.891429 0.284736 0.121331
1.000000 0.535871 0.331340
0.000000 0.717950 0.449009
0.000000 0.744676 0.435912
0.000000 0.771641 0.340793
0.859988 0.740217 0.151180
1.000000 0.741507 0.391108
0.000000 0.966560 0.807150
0.000000 0.968101 0.804890
0.287387 0.970330 0.795666
0.766958 0.960626 0.730685
0.995088 0.945691 0.605499
0.000000 0.059219 0.242311
0.010074 0.054490 0.244518
0.426133 0.000000 0.211808
0.893555 0.000000 0.263579
1.000000 0.481804 0.381025
0.000000 0.116247 0.307394
0.000000 0.123328 0.334501
0.427174 0.000000 0.312189
0.883561 0.000000 0.274526
1.000000 0.493378 0.380374
0.000000 0.325168 0.480245
0.000000 0.356386 0.526518
0.339274 0.433642 0.535987
0.888134 0.327897 0.330386
1.000000 0.543375 0.393573
0.000000 0.689367 0.674068
0.000000 0.704729 0.665384
0.000000 0.782083 0.645413
0.836442 0.768156 0.476686
1.000000 0.747820 0.459679
0.000000 0.961823 0.837201
0.000000 0.964362 0.837285
0.127646 0.966215 0.835205
0.762171 0.963161 0.789776
0.992278 0.948312 0.674458
0.000000 0.233223 0.587504
0.000000 0.240878 0.602522
0.279031 0.233669 0.636141
0.869680 0.000000 0.584038
1.000000 0.524577 0.627398
0.000000 0.255559 0.605945
0.000000 0.256832 0.621242
0.259618 0.259467 0.654780
0.874047 0.000000 0.610092
1.000000 0.532346 0.630739
0.000000 0.379004 0.709267
0.000000 0.388135 0.720070
0.000000 0.415544 0.764284
0.871002 0.383803 0.736370
1.000000 0.580087 0.651247
0.000000 0.692800 0.847613
0.000000 0.704455 0.851612
0.000000 0.751851 0.870368
0.777569 0.825734 0.877989
1.000000 0.779860 0.730952
0.000000 0.953351 0.924710
0.000000 0.954154 0.923292
0.000000 0.956527 0.920157
0.719595 0.966636 0.917865
0.978551 0.958298 0.861986
0.000000 0.554903 0.909920
0.000000 0.558105 0.911434
0.000000 0.563112 0.919227
0.709056 0.576654 0.927239
1.000000 0.551759 0.907649
0.000000 0.562453 0.911291
0.000000 0.565772 0.912786
0.000000 0.570840 0.920439
0.698545 0.589419 0.929669
1.000000 0.559807 0.908962
0.000000 0.600724 0.919295
0.000000 0.604202 0.920640
0.000000 0.613181 0.925960
0.679333 0.622532 0.935274
1.000000 0.612424 0.917648
0.000000 0.766823 0.943507
0.000000 0.770045 0.944490
0.000000 0.778378 0.949623
0.594183 0.805319 0.960122
1.000000 0.815127 0.952128
0.000000 0.952827 0.977104
0.000000 0.952399 0.977752
0.000000 0.955184 0.979808
0.571739 0.959482 0.983170
0.965210 0.971933 0.983674
