Assets/Lutify-Free-LUTs-Pack/Lutify Free LUTs Pack/Commercial Pro - Claire/Lutify.me-Claire-Cineon-to-Rec709.cube
# Created with: fylm.ai - Colour Grading and Collaboration Software in Cloud 
# Website: https://fylm.ai 
# META
# Option: Gamut compress
# Block 1: IDT | ADX10
# Block 2: colourMatch | Blending Mode: Normal | {"ColorSpace":0,"CrossCovarianceLimit":50,"ReshapingIterations":1,"PercentSaturationShift":100,"PercentShadingShift":100,"ExtraShading":true,"PercentTint":100,"PercentModified":100}
# Block 3: HSL | Blending Mode: Normal | {"hue":{"Reds":0,"Yellows":0,"Greens":0,"Cyans":0,"Blues":0,"Magentas":0},"saturation":{"Reds":1,"Yellows":1,"Greens":1,"Cyans":1,"Blues":1,"Magentas":1},"luminance":{"Reds":0.9,"Yellows":0.9,"Greens":0.9,"Cyans":0.8,"Blues":0.8,"Magentas":0.9},"lum_sat":{"Blacks":1,"Shadows":1,"Midtones":1,"Highlights":1,"Whites":1},"sat_sat":{"10":1,"20":1,"30":1,"40":1,"50":1}}
# Block 4: subtractiveColour | Blending Mode: Normal | {"sliders":{"gainY":0.1,"C":0.05,"M":0.05,"Y":0.05}}
# Block 5: logPrimaries | Blending Mode: Normal | {"wheels":{"shadows":{"Y":"0","R":"1","G":"1","B":"1"},"midtones":{"Y":"0","R":"1","G":"1","B":"1"},"highlights":{"Y":"0","R":"1","G":"1","B":"1"},"offset":{"Y":"0","R":"1","G":"1","B":"1"}},"sliders":{"shadows":{"Y":0,"R":-0.05,"G":0,"B":0.1},"midtones":{"Y":0,"R":0,"G":0,"B":0},"highlights":{"Y":0,"R":0,"G":0,"B":0},"offset":{"Y":0,"R":0,"G":0,"B":0}}}
# Block 6: LUT | Filmic Curve Response: Standard Contrast 1 (100%)
# Block 7: LUT | Illuminant: D93 (100%)
# Block 8: LUT | Neutral Tint: Teal Tint 4 (100%)
# Block 9: ODT | Rec709
TITLE "Lutify.me-Claire-Cineon-to-Rec709" 
LUT_3D_SIZE 33
0.000000 0.000000 0.014579
0.000000 0.000000 0.014579
0.000000 0.000000 0.014895
0.000000 0.000000 0.014516
0.000000 0.000000 0.007210
0.037952 0.000000 0.000000
0.070084 0.000000 0.000000
0.107445 0.000000 0.000000
0.132660 0.000000 0.000000
0.159199 0.000000 0.000000
0.186612 0.000000 0.000000
0.206284 0.000000 0.000000
0.236558 0.000000 0.000000
0.265062 0.000000 0.000000
0.286912 0.000000 0.000000
0.314237 0.000000 0.000000
0.344684 0.000000 0.000000
0.368743 0.000000 0.000000
0.400247 0.000000 0.000000
0.431606 0.000000 0.000000
0.472819 0.000000 0.000000
0.509921 0.000000 0.000000
0.557838 0.000000 0.000000
0.603318 0.000000 0.017625
0.666817 0.000000 0.026706
0.722769 0.000000 0.043744
0.773840 0.000000 0.062657
0.834524 0.000000 0.078455
0.881860 0.000000 0.096772
0.935007 0.078449 0.119608
0.975853 0.183815 0.142852
1.000000 0.260986 0.168698
1.000000 0.322287 0.196566
0.000000 0.000000 0.014579
0.000000 0.000000 0.014579
0.000000 0.000000 0.014452
0.000000 0.000000 0.015019
0.000000 0.000000 0.000000
0.045450 0.000000 0.000000
0.080247 0.000000 0.000000
0.114556 0.000000 0.000000
0.140445 0.000000 0.000000
0.167752 0.000000 0.000000
0.191735 0.000000 0.000000
0.214017 0.000000 0.000000
0.244376 0.000000 0.000000
0.269455 0.000000 0.000000
0.297952 0.000000 0.000000
0.324007 0.000000 0.000000
0.352722 0.000000 0.000000
0.374273 0.000000 0.000000
0.409377 0.000000 0.000000
0.444878 0.000000 0.000000
0.480136 0.000000 0.000000
0.521609 0.000000 0.000000
0.570166 0.000000 0.000000
0.628514 0.000000 0.021707
0.683967 0.000000 0.032634
0.736278 0.000000 0.049330
0.787892 0.000000 0.067225
0.847921 0.000000 0.083959
0.901975 0.000000 0.105661
0.944686 0.125033 0.126442
0.986988 0.205378 0.150236
1.000000 0.279917 0.174985
1.000000 0.340784 0.205944
0.000000 0.000000 0.014580
0.000000 0.000000 0.014580
0.000000 0.000000 0.014452
0.000000 0.000000 0.014195
0.006979 0.000000 0.000000
0.054687 0.000000 0.000000
0.089389 0.000000 0.000000
0.120961 0.000000 0.000000
0.148583 0.000000 0.000000
0.173747 0.000000 0.000000
0.195255 0.000000 0.000000
0.222051 0.000000 0.000000
0.252507 0.000000 0.000000
0.276147 0.000000 0.000000
0.302530 0.000000 0.000000
0.329084 0.000000 0.000000
0.358022 0.000000 0.000000
0.382772 0.000000 0.000000
0.415641 0.000000 0.000000
0.455162 0.000000 0.000000
0.494939 0.000000 0.000000
0.533621 0.000000 0.000000
0.582603 0.000000 0.000000
0.645495 0.000000 0.023120
0.696883 0.000000 0.036795
0.750332 0.000000 0.056611
0.811349 0.000000 0.069582
0.860789 0.000000 0.090652
0.917074 0.000000 0.112400
0.961170 0.148169 0.134379
0.994088 0.236869 0.156757
1.000000 0.294199 0.183722
1.000000 0.359200 0.218262
0.000000 0.000000 0.013661
0.000000 0.000000 0.013369
0.000000 0.000000 0.013739
0.000000 0.000000 0.014266
0.018388 0.000000 0.000000
0.057395 0.000000 0.000000
0.089103 0.000000 0.000000
0.116427 0.000000 0.000000
0.143793 0.000000 0.000000
0.169038 0.000000 0.000000
0.191874 0.000000 0.000000
0.220348 0.000000 0.000000
0.252802 0.000000 0.000000
0.278497 0.000000 0.000000
0.304973 0.000000 0.000000
0.334388 0.000000 0.000000
0.360866 0.000000 0.000000
0.388673 0.000000 0.000000
0.425295 0.000000 0.000000
0.465834 0.000000 0.000000
0.506281 0.000000 0.000000
0.553888 0.000000 0.000000
0.599268 0.000000 0.016526
0.662572 0.000000 0.027383
0.718440 0.000000 0.042423
0.769091 0.000000 0.062163
0.825210 0.000000 0.077990
0.877646 0.000000 0.096705
0.927720 0.087473 0.119325
0.969801 0.179337 0.142870
1.000000 0.256240 0.164440
1.000000 0.322241 0.193830
1.000000 0.377839 0.228847
0.000000 0.015685 0.000000
0.000000 0.017781 0.000000
0.000000 0.019939 0.000000
0.000000 0.021723 0.000000
0.000000 0.021639 0.000000
0.050292 0.013246 0.000000
0.079471 0.000000 0.000000
0.109968 0.000000 0.000000
0.137087 0.000000 0.000000
0.164854 0.000000 0.000000
0.189656 0.000000 0.000000
0.220308 0.000000 0.000000
0.252993 0.000000 0.000000
0.278669 0.000000 0.000000
0.307555 0.000000 0.000000
0.334647 0.000000 0.000000
0.363751 0.000000 0.000000
0.394713 0.000000 0.000000
0.431903 0.000000 0.000000
0.476755 0.000000 0.000000
0.517925 0.000000 0.000000
0.566314 0.000000 0.000000
0.620240 0.000000 0.024671
0.675457 0.000000 0.031846
0.731562 0.000000 0.047366
0.783073 0.000000 0.067343
0.843277 0.000000 0.084866
0.893792 0.000000 0.105038
0.941033 0.135670 0.125842
0.983705 0.211959 0.149542
1.000000 0.280364 0.171881
1.000000 0.340554 0.202813
1.000000 0.400111 0.241546
0.000000 0.041744 0.014779
0.000000 0.043840 0.014394
0.000000 0.045149 0.009400
0.000000 0.047470 0.000000
0.000000 0.048758 0.000000
0.044856 0.047321 0.000000
0.071276 0.044126 0.000000
0.104076 0.039391 0.000000
0.132883 0.028964 0.000000
0.162930 0.000000 0.000000
0.188831 0.000000 0.000000
0.222315 0.000000 0.000000
0.253312 0.000000 0.000000
0.281004 0.000000 0.000000
0.307859 0.000000 0.000000
0.337572 0.000000 0.000000
0.366813 0.000000 0.000000
0.403974 0.000000 0.000000
0.448823 0.000000 0.000000
0.487998 0.000000 0.000000
0.530127 0.000000 0.000000
0.578809 0.000000 0.008813
0.637192 0.000000 0.024943
0.692619 0.000000 0.037761
0.745571 0.000000 0.055940
0.801789 0.000000 0.069912
0.856228 0.000000 0.091582
0.909080 0.083897 0.111290
0.953948 0.165574 0.133109
0.990883 0.242479 0.156051
1.000000 0.299003 0.180633
1.000000 0.358827 0.215023
1.000000 0.418320 0.251782
0.000000 0.059659 0.019817
0.000000 0.061044 0.019489
0.000000 0.062463 0.017375
0.000000 0.064666 0.000000
0.000000 0.065950 0.000000
0.037687 0.064606 0.000000
0.069820 0.062826 0.000000
0.102148 0.059324 0.000000
0.132417 0.054974 0.000000
0.160362 0.052293 0.000000
0.191468 0.043749 0.000000
0.226471 0.021532 0.000000
0.257793 0.000000 0.000000
0.285555 0.000000 0.000000
0.312989 0.000000 0.000000
0.346022 0.000000 0.000000
0.375505 0.000000 0.000000
0.416688 0.000000 0.000000
0.459634 0.000000 0.000000
0.503202 0.000000 0.000000
0.550536 0.000000 0.000000
0.595503 0.000000 0.021054
0.654261 0.000000 0.030044
0.709824 0.000000 0.041585
0.759549 0.000000 0.060324
0.820393 0.000000 0.078361
0.868812 0.054754 0.099106
0.923374 0.130699 0.119539
0.966110 0.192924 0.141761
0.998215 0.261567 0.163719
1.000000 0.322216 0.191104
1.000000 0.381368 0.227382
1.000000 0.436453 0.264663
0.000000 0.079266 0.027780
0.000000 0.080240 0.027553
0.000000 0.083221 0.023243
0.000000 0.085314 0.000000
0.000000 0.086122 0.000000
0.000000 0.088488 0.000000
0.060407 0.088407 0.000000
0.100743 0.084929 0.000000
0.135428 0.082526 0.000000
0.163875 0.079626 0.000000
0.197860 0.074321 0.000000
0.235164 0.067074 0.000000
0.262453 0.058224 0.000000
0.290318 0.051718 0.000000
0.323289 0.031229 0.000000
0.354803 0.027264 0.000000
0.387618 0.000000 0.000000
0.427001 0.000000 0.000000
0.470929 0.000000 0.000000
0.515320 0.000000 0.000000
0.563051 0.000000 0.000000
0.612354 0.000000 0.023060
0.671349 0.000000 0.034833
0.727025 0.000000 0.047732
0.778246 0.000000 0.064491
0.833854 0.000000 0.086175
0.889221 0.095056 0.107163
0.936949 0.159672 0.126514
0.973702 0.230268 0.147462
1.000000 0.285406 0.173440
1.000000 0.344938 0.202057
1.000000 0.399795 0.241176
1.000000 0.454092 0.275017
0.000000 0.098445 0.033287
0.000000 0.100822 0.032668
0.000000 0.104492 0.027795
0.000000 0.107066 0.000000
0.000000 0.108099 0.000000
0.000000 0.107630 0.000000
0.048525 0.110690 0.000000
0.097981 0.108884 0.000000
0.134297 0.106241 0.000000
0.167469 0.102823 0.000000
0.199682 0.099900 0.000000
0.236592 0.094846 0.000000
0.266439 0.093160 0.000000
0.292947 0.091089 0.000000
0.331753 0.086280 0.000000
0.360864 0.085972 0.000000
0.397219 0.081826 0.000000
0.437644 0.069934 0.000000
0.482701 0.052131 0.000000
0.527781 0.030980 0.000000
0.575773 0.000000 0.000000
0.633528 0.000000 0.028531
0.688570 0.000000 0.035893
0.740780 0.000000 0.055953
0.792069 0.040130 0.073030
0.851317 0.094533 0.092443
0.904283 0.142547 0.114655
0.946063 0.193405 0.134930
0.987328 0.253045 0.157054
1.000000 0.308542 0.181483
1.000000 0.367429 0.213834
1.000000 0.422136 0.251003
1.000000 0.476829 0.289065
0.000000 0.117683 0.043316
0.000000 0.119086 0.042996
0.000000 0.126349 0.034603
0.000000 0.129394 0.014265
0.000000 0.130671 0.000000
0.000000 0.131766 0.000000
0.000000 0.133842 0.000000
0.088185 0.133978 0.000000
0.132823 0.131890 0.000000
0.168090 0.133832 0.000000
0.206119 0.131695 0.000000
0.240052 0.130706 0.000000
0.268984 0.130834 0.000000
0.302031 0.127857 0.000000
0.334917 0.126278 0.000000
0.367163 0.122108 0.000000
0.410384 0.115822 0.000000
0.452551 0.117307 0.000000
0.498592 0.110483 0.000000
0.544594 0.102581 0.000000
0.588754 0.104209 0.012699
0.650836 0.100579 0.023412
0.701431 0.096485 0.046388
0.754680 0.097550 0.061328
0.815113 0.111517 0.081376
0.863669 0.139793 0.103186
0.914633 0.181825 0.122465
0.961556 0.222663 0.143329
0.993998 0.281516 0.166040
1.000000 0.335824 0.191849
1.000000 0.389740 0.226200
1.000000 0.440184 0.263881
1.000000 0.502569 0.302533
0.000000 0.142421 0.050312
0.000000 0.147007 0.047114
0.000000 0.153369 0.039727
0.000000 0.159949 0.023194
0.000000 0.159776 0.000000
0.000000 0.161208 0.000000
0.000000 0.164110 0.000000
0.062699 0.163078 0.000000
0.112750 0.165393 0.000000
0.159774 0.166938 0.000000
0.203736 0.167429 0.000000
0.239306 0.165272 0.000000
0.273987 0.162531 0.000000
0.307576 0.159287 0.000000
0.340012 0.157822 0.000000
0.376349 0.155093 0.000000
0.421387 0.154675 0.000000
0.464627 0.154266 0.000000
0.515334 0.151422 0.000000
0.561777 0.146090 0.000000
0.606103 0.149974 0.000000
0.668012 0.142596 0.033153
0.722845 0.146860 0.052896
0.773046 0.155658 0.071056
0.828259 0.164809 0.089626
0.879242 0.190364 0.110888
0.927900 0.215762 0.132642
0.968839 0.260809 0.150806
1.000000 0.309220 0.175416
1.000000 0.358224 0.208319
1.000000 0.416391 0.239189
1.000000 0.466081 0.276181
1.000000 0.524520 0.317505
0.000000 0.166889 0.064350
0.000000 0.174116 0.060356
0.000000 0.181623 0.054683
0.000000 0.189286 0.040647
0.000000 0.191202 0.000000
0.000000 0.195009 0.000000
0.000000 0.198670 0.000000
0.000000 0.199953 0.000000
0.069053 0.203070 0.000000
0.138938 0.202859 0.000000
0.191459 0.199755 0.000000
0.239333 0.195673 0.000000
0.273242 0.198651 0.000000
0.309894 0.198815 0.000000
0.355194 0.194869 0.000000
0.388022 0.194345 0.000000
0.432495 0.193373 0.000000
0.484188 0.187677 0.000000
0.528480 0.185752 0.000000
0.575105 0.182593 0.000000
0.631680 0.185568 0.000000
0.685288 0.182682 0.038551
0.736123 0.188660 0.063226
0.786513 0.209276 0.078207
0.844889 0.217176 0.101645
0.893619 0.235680 0.121433
0.939378 0.261586 0.140800
0.978327 0.297312 0.163336
1.000000 0.340516 0.185024
1.000000 0.384757 0.217300
1.000000 0.438441 0.256717
1.000000 0.487815 0.289457
1.000000 0.549819 0.329280
0.000000 0.193336 0.089417
0.000000 0.199456 0.085524
0.000000 0.207827 0.076624
0.000000 0.220458 0.063903
0.000000 0.224409 0.048838
0.000000 0.229936 0.022039
0.000000 0.231391 0.000000
0.000000 0.234584 0.000000
0.000000 0.235493 0.000000
0.114694 0.235619 0.000000
0.185621 0.234809 0.000000
0.230734 0.234075 0.000000
0.265009 0.237860 0.000000
0.315385 0.237646 0.000000
0.358315 0.235186 0.000000
0.404718 0.231557 0.000000
0.446322 0.227846 0.000000
0.497215 0.230133 0.000000
0.542390 0.227939 0.000000
0.589079 0.227879 0.000000
0.649154 0.224433 0.000000
0.698449 0.230071 0.043823
0.749784 0.243766 0.072245
0.808763 0.253467 0.089197
0.855944 0.271202 0.111691
0.906341 0.286135 0.130316
0.953209 0.304987 0.149446
0.986565 0.337220 0.171244
1.000000 0.371176 0.198015
1.000000 0.419450 0.231390
1.000000 0.464633 0.266451
1.000000 0.518285 0.309492
1.000000 0.571436 0.342417
0.000000 0.220037 0.116395
0.000000 0.227912 0.111635
0.000000 0.235751 0.101652
0.000000 0.245797 0.092575
0.000000 0.256186 0.080941
0.000000 0.262589 0.063500
0.000000 0.266666 0.045227
0.000000 0.268345 0.019025
0.000000 0.267455 0.000000
0.055879 0.268234 0.000000
0.151995 0.273249 0.000000
0.212046 0.275559 0.000000
0.260035 0.275252 0.000000
0.305520 0.274436 0.000000
0.356303 0.269877 0.000000
0.413949 0.266184 0.000000
0.462456 0.268343 0.000000
0.512422 0.273586 0.000000
0.559322 0.276239 0.000000
0.606600 0.275482 0.000000
0.666680 0.275583 0.016230
0.719560 0.280453 0.054175
0.767638 0.293268 0.077586
0.825298 0.301725 0.098082
0.866686 0.306334 0.120043
0.917703 0.331917 0.139661
0.961693 0.352393 0.160239
0.994229 0.371674 0.182742
1.000000 0.409962 0.213223
1.000000 0.449761 0.246257
1.000000 0.498648 0.281011
1.000000 0.547632 0.323720
1.000000 0.597290 0.356389
0.000000 0.245291 0.145211
0.000000 0.255869 0.140051
0.000000 0.264638 0.132864
0.000000 0.273648 0.125295
0.000000 0.285286 0.119000
0.000000 0.299898 0.105400
0.000000 0.304694 0.089304
0.000000 0.306905 0.075053
0.000000 0.308783 0.058744
0.000000 0.310255 0.040474
0.082275 0.319609 0.000000
0.172713 0.323367 0.000000
0.236511 0.323865 0.000000
0.305148 0.323072 0.000000
0.357177 0.319402 0.000000
0.418579 0.314108 0.000000
0.475134 0.320967 0.000000
0.519453 0.328729 0.000000
0.573726 0.325747 0.000000
0.622613 0.326280 0.000000
0.679101 0.325580 0.040355
0.731721 0.328840 0.072352
0.780060 0.340654 0.094619
0.836220 0.348114 0.108550
0.883312 0.357652 0.126888
0.927905 0.372815 0.150527
0.972711 0.389901 0.173478
1.000000 0.414022 0.199830
1.000000 0.448265 0.230004
1.000000 0.492197 0.261611
1.000000 0.532251 0.302473
1.000000 0.573146 0.336328
1.000000 0.622424 0.373459
0.000000 0.282453 0.177625
0.000000 0.289716 0.174586
0.000000 0.302239 0.168642
0.000000 0.312633 0.160752
0.000000 0.323324 0.154790
0.000000 0.340047 0.147512
0.000000 0.353690 0.138205
0.000000 0.356237 0.124391
0.000000 0.358547 0.109660
0.000000 0.363608 0.089454
0.000000 0.371249 0.073620
0.084128 0.372901 0.057466
0.198887 0.373941 0.032876
0.282372 0.374065 0.012869
0.346810 0.377487 0.000000
0.416525 0.373226 0.000000
0.475532 0.372064 0.000000
0.523645 0.374708 0.000000
0.581576 0.369028 0.000000
0.640158 0.377156 0.021022
0.693745 0.382200 0.061411
0.743667 0.387688 0.085218
0.796312 0.389009 0.106043
0.850022 0.394253 0.123794
0.897959 0.404868 0.143743
0.936207 0.421659 0.158107
0.978115 0.439782 0.185625
1.000000 0.464473 0.216774
1.000000 0.503056 0.249191
1.000000 0.538377 0.281127
1.000000 0.566155 0.317091
1.000000 0.606285 0.348940
1.000000 0.646702 0.386934
0.000000 0.322898 0.211423
0.000000 0.331254 0.208022
0.000000 0.339833 0.202126
0.000000 0.353717 0.197883
0.000000 0.365186 0.193847
0.000000 0.383084 0.186225
0.000000 0.395418 0.179241
0.000000 0.404816 0.170091
0.000000 0.404312 0.155375
0.000000 0.413441 0.138212
0.000000 0.419338 0.123676
0.000000 0.421593 0.109252
0.142030 0.423523 0.102604
0.250125 0.424757 0.095633
0.327952 0.432413 0.071368
0.402335 0.435906 0.041272
0.468234 0.431949 0.032416
0.532280 0.427271 0.017904
0.583819 0.426582 0.039777
0.650437 0.431517 0.069862
0.710480 0.436889 0.086048
0.754700 0.436178 0.099623
0.815334 0.437577 0.117666
0.861767 0.448671 0.139011
0.909377 0.464597 0.154128
0.947622 0.478537 0.177114
0.980673 0.498024 0.203550
1.000000 0.518892 0.236669
1.000000 0.548971 0.268085
1.000000 0.579648 0.299365
1.000000 0.603002 0.331349
1.000000 0.639018 0.368777
1.000000 0.677922 0.407094
0.000000 0.361895 0.244965
0.000000 0.370741 0.241602
0.000000 0.382849 0.237817
0.000000 0.395333 0.236320
0.000000 0.411617 0.234371
0.000000 0.425034 0.230310
0.000000 0.435148 0.226242
0.000000 0.448707 0.218790
0.000000 0.455238 0.206619
0.000000 0.461636 0.188855
0.000000 0.474961 0.175083
0.000000 0.474039 0.166831
0.000000 0.479985 0.153927
0.181233 0.481680 0.144558
0.292101 0.489935 0.135693
0.380454 0.490407 0.125441
0.456021 0.490419 0.114592
0.525525 0.486241 0.104645
0.590956 0.485329 0.092016
0.661164 0.491160 0.103471
0.720263 0.493762 0.112553
0.772255 0.492919 0.122898
0.830778 0.499544 0.140959
0.877982 0.507684 0.158999
0.917519 0.525246 0.178987
0.956348 0.535723 0.198728
0.984405 0.551624 0.227004
1.000000 0.572527 0.259636
1.000000 0.598389 0.291554
1.000000 0.616664 0.319921
1.000000 0.643597 0.350123
1.000000 0.678328 0.392172
1.000000 0.711985 0.432915
0.000000 0.411622 0.284165
0.000000 0.418331 0.283579
0.000000 0.431905 0.282330
0.000000 0.445633 0.278189
0.000000 0.455994 0.277166
0.000000 0.469930 0.275734
0.000000 0.480403 0.277524
0.000000 0.501662 0.272263
0.000000 0.515939 0.264774
0.000000 0.522819 0.252410
0.000000 0.529517 0.240147
0.000000 0.532361 0.234142
0.000000 0.542437 0.218453
0.000000 0.552208 0.201329
0.231299 0.557437 0.190410
0.352146 0.558229 0.183468
0.438034 0.558819 0.173103
0.517918 0.558763 0.169424
0.599419 0.557755 0.152022
0.670261 0.560599 0.135969
0.731051 0.559810 0.143461
0.793690 0.558631 0.147540
0.838392 0.563015 0.168211
0.883753 0.567772 0.185480
0.923912 0.581689 0.201831
0.955448 0.588696 0.218985
0.980765 0.608724 0.246482
0.999525 0.629461 0.285094
1.000000 0.643113 0.314613
1.000000 0.664871 0.345140
1.000000 0.687510 0.380526
1.000000 0.716779 0.412434
1.000000 0.747066 0.458039
0.000000 0.462970 0.337356
0.000000 0.477055 0.336223
0.000000 0.484126 0.335654
0.000000 0.498399 0.334450
0.000000 0.512867 0.329883
0.000000 0.523844 0.328906
0.000000 0.534815 0.327922
0.000000 0.549508 0.329924
0.000000 0.571829 0.324353
0.000000 0.590358 0.315676
0.000000 0.597441 0.308223
0.000000 0.600379 0.297989
0.000000 0.603124 0.281362
0.000000 0.613004 0.260742
0.118011 0.618620 0.243968
0.300955 0.619922 0.237396
0.393594 0.625045 0.226905
0.487756 0.629205 0.222889
0.582243 0.628531 0.206984
0.665125 0.627529 0.194336
0.727408 0.623290 0.188135
0.792132 0.622484 0.188979
0.836485 0.631151 0.195438
0.885360 0.631872 0.210244
0.925761 0.633898 0.228494
0.956113 0.649085 0.251719
0.979342 0.665302 0.282605
0.996543 0.682315 0.311590
1.000000 0.691602 0.340208
1.000000 0.708781 0.376467
1.000000 0.735686 0.404685
1.000000 0.757400 0.443452
1.000000 0.777577 0.483480
0.000000 0.523911 0.387838
0.000000 0.531288 0.390789
0.000000 0.542426 0.389965
0.000000 0.553608 0.389124
0.000000 0.564814 0.388271
0.000000 0.572264 0.384191
0.000000 0.583456 0.383320
0.000000 0.598464 0.382110
0.000000 0.621090 0.383780
0.000000 0.635965 0.382569
0.000000 0.650770 0.374171
0.000000 0.661562 0.366109
0.000000 0.668168 0.358177
0.000000 0.670484 0.339293
0.000000 0.676098 0.316818
0.241635 0.681450 0.309075
0.368870 0.686534 0.294246
0.460318 0.691875 0.279489
0.569408 0.691582 0.265797
0.657640 0.691180 0.248857
0.727456 0.691085 0.242560
0.794281 0.686668 0.234087
0.845234 0.695417 0.234324
0.889337 0.692640 0.244103
0.931419 0.694592 0.260961
0.957160 0.705629 0.290500
0.975849 0.720592 0.320844
0.991437 0.735264 0.349022
1.000000 0.742964 0.375162
1.000000 0.757071 0.406578
1.000000 0.779581 0.439765
1.000000 0.797164 0.472869
1.000000 0.811276 0.519389
0.000000 0.583658 0.444115
0.000000 0.591185 0.447246
0.000000 0.598741 0.446723
0.000000 0.606268 0.446208
0.000000 0.617612 0.445409
0.000000 0.628973 0.444596
0.000000 0.640332 0.443775
0.000000 0.655470 0.442668
0.000000 0.666676 0.441865
0.000000 0.681678 0.440760
0.000000 0.696573 0.439662
0.000000 0.716211 0.438221
0.000000 0.731056 0.429743
0.000000 0.737553 0.418196
0.000000 0.735737 0.399941
0.000000 0.737274 0.377867
0.295873 0.746169 0.366301
0.423787 0.754116 0.358630
0.546020 0.753589 0.339926
0.640098 0.756462 0.328796
0.727682 0.758735 0.314462
0.787553 0.758577 0.304563
0.842424 0.755108 0.292079
0.889249 0.755554 0.295169
0.925236 0.756871 0.313308
0.950953 0.762311 0.346215
0.970523 0.774349 0.364370
0.984820 0.783098 0.385371
1.000000 0.791653 0.417549
1.000000 0.800071 0.445932
1.000000 0.813664 0.469590
1.000000 0.826543 0.512881
1.000000 0.841283 0.549278
0.000000 0.644347 0.495456
0.000000 0.651940 0.494954
0.000000 0.655690 0.498472
0.000000 0.663251 0.501740
0.000000 0.674671 0.500972
0.000000 0.689915 0.499933
0.000000 0.701426 0.502940
0.000000 0.709453 0.502417
0.000000 0.721339 0.505434
0.000000 0.732833 0.504712
0.000000 0.743938 0.507844
0.000000 0.765537 0.506571
0.000000 0.785448 0.501735
0.000000 0.793955 0.489996
0.000000 0.798589 0.478521
0.000000 0.799815 0.467266
0.211039 0.803545 0.440978
0.406755 0.806162 0.433826
0.531991 0.805340 0.423237
0.627097 0.807266 0.412808
0.710855 0.808798 0.402859
0.767704 0.816405 0.396901
0.830083 0.815368 0.384734
0.884499 0.809395 0.370020
0.917964 0.809966 0.376849
0.944615 0.811100 0.394483
0.967117 0.815295 0.412613
0.981101 0.822351 0.430144
0.997350 0.829512 0.455805
1.000000 0.839178 0.478347
1.000000 0.846354 0.514415
1.000000 0.857458 0.551108
1.000000 0.865971 0.584302
0.000000 0.713929 0.547772
0.000000 0.721924 0.551135
0.000000 0.729773 0.554543
0.000000 0.737501 0.554073
0.000000 0.741232 0.557756
0.000000 0.748676 0.561224
0.000000 0.755963 0.564715
0.000000 0.770257 0.567829
0.000000 0.777017 0.571394
0.000000 0.790327 0.570740
0.000000 0.799606 0.574251
0.000000 0.811462 0.577704
0.000000 0.825058 0.581210
0.000000 0.837421 0.577107
0.000000 0.843673 0.569353
0.000000 0.846616 0.557869
0.000000 0.851613 0.546525
0.364952 0.850977 0.527895
0.514589 0.849593 0.509604
0.609356 0.851095 0.499094
0.707669 0.849118 0.492810
0.769213 0.853081 0.483279
0.827757 0.854406 0.478177
0.884524 0.848760 0.455610
0.915945 0.851445 0.448191
0.939700 0.852321 0.447998
0.963126 0.853325 0.459241
0.980446 0.856936 0.477552
0.991757 0.862820 0.499027
1.000000 0.866676 0.528473
1.000000 0.872457 0.553993
1.000000 0.881440 0.591134
1.000000 0.886676 0.620848
0.000000 0.774173 0.614504
0.000000 0.777587 0.618243
0.000000 0.784329 0.621818
0.000000 0.787615 0.625571
0.000000 0.790796 0.629335
0.000000 0.797235 0.632943
0.000000 0.803442 0.636577
0.000000 0.809461 0.640230
0.000000 0.815247 0.643908
0.000000 0.826530 0.643509
0.000000 0.836926 0.647118
0.000000 0.846604 0.646928
0.000000 0.855849 0.646815
0.000000 0.866964 0.642927
0.000000 0.877122 0.643103
0.000000 0.882039 0.639490
0.000000 0.887962 0.632282
0.363416 0.886628 0.617331
0.502997 0.885387 0.598695
0.594777 0.888354 0.580591
0.694543 0.886174 0.570279
0.762884 0.884780 0.560281
0.826062 0.883283 0.547427
0.874624 0.884141 0.542973
0.908528 0.885713 0.531843
0.935459 0.884136 0.520722
0.956424 0.882934 0.520411
0.973594 0.887096 0.535652
0.988303 0.889683 0.550681
1.000000 0.890868 0.579476
1.000000 0.895433 0.605353
1.000000 0.901434 0.631256
1.000000 0.904515 0.659841
0.000000 0.815778 0.686245
0.000000 0.818679 0.689845
0.000000 0.827257 0.689488
0.000000 0.832659 0.689284
0.000000 0.837925 0.692785
0.000000 0.843048 0.696271
