Assets/Lutify-Free-LUTs-Pack/Lutify Free LUTs Pack/Commercial Pro - Claire/Lutify.me-Claire-SLog3Venice-to-Rec709.cube
# Created with: fylm.ai - Colour Grading and Collaboration Software in Cloud 
# Website: https://fylm.ai 
# META
# Option: Gamut compress
# Block 1: IDT | Sony Venice S-Log3 S-Gamut3
# Block 2: colourMatch | Blending Mode: Normal | {"ColorSpace":0,"CrossCovarianceLimit":50,"ReshapingIterations":1,"PercentSaturationShift":100,"PercentShadingShift":100,"ExtraShading":true,"PercentTint":100,"PercentModified":100}
# Block 3: HSL | Blending Mode: Normal | {"hue":{"Reds":0,"Yellows":0,"Greens":0,"Cyans":0,"Blues":0,"Magentas":0},"saturation":{"Reds":1,"Yellows":1,"Greens":1,"Cyans":1,"Blues":1,"Magentas":1},"luminance":{"Reds":0.9,"Yellows":0.9,"Greens":0.9,"Cyans":0.8,"Blues":0.8,"Magentas":0.9},"lum_sat":{"Blacks":1,"Shadows":1,"Midtones":1,"Highlights":1,"Whites":1},"sat_sat":{"10":1,"20":1,"30":1,"40":1,"50":1}}
# Block 4: subtractiveColour | Blending Mode: Normal | {"sliders":{"gainY":0.1,"C":0.05,"M":0.05,"Y":0.05}}
# Block 5: logPrimaries | Blending Mode: Normal | {"wheels":{"shadows":{"Y":"0","R":"1","G":"1","B":"1"},"midtones":{"Y":"0","R":"1","G":"1","B":"1"},"highlights":{"Y":"0","R":"1","G":"1","B":"1"},"offset":{"Y":"0","R":"1","G":"1","B":"1"}},"sliders":{"shadows":{"Y":0,"R":-0.05,"G":0,"B":0.1},"midtones":{"Y":0,"R":0,"G":0,"B":0},"highlights":{"Y":0,"R":0,"G":0,"B":0},"offset":{"Y":0,"R":0,"G":0,"B":0}}}
# Block 6: LUT | Filmic Curve Response: Standard Contrast 1 (100%)
# Block 7: LUT | Illuminant: D93 (100%)
# Block 8: LUT | Neutral Tint: Teal Tint 4 (100%)
# Block 9: ODT | Rec709
TITLE "Lutify.me-Claire-SLog3Venice-to-Rec709" 
LUT_3D_SIZE 5
0.000000 0.000000 0.000000
0.333084 0.000000 0.000000
0.657384 0.000000 0.000000
1.000000 0.256873 0.186896
1.000000 0.858456 0.704781
0.000000 0.147996 0.000000
0.190570 0.101472 0.000000
0.645186 0.000000 0.000000
1.000000 0.281545 0.189166
1.000000 0.861660 0.704917
0.000000 0.350630 0.233561
0.000000 0.495223 0.091982
0.618435 0.460633 0.000000
1.000000 0.439709 0.199486
1.000000 0.868209 0.711248
0.000000 0.756843 0.685424
0.000000 0.834199 0.721393
0.000000 0.935880 0.669950
0.972486 0.906407 0.368873
1.000000 0.912438 0.748774
0.000000 1.000000 0.961931
0.000000 1.000000 0.964788
0.000000 1.000000 0.967592
0.829948 1.000000 0.964060
1.000000 1.000000 0.895918
0.000000 0.000000 0.133850
0.236117 0.000000 0.040629
0.632290 0.000000 0.036782
1.000000 0.261843 0.208153
1.000000 0.858443 0.707404
0.000000 0.115487 0.190123
0.092535 0.127881 0.182988
0.603103 0.000000 0.054857
1.000000 0.286252 0.210958
1.000000 0.861648 0.707534
0.000000 0.355008 0.323065
0.000000 0.438757 0.310949
0.590118 0.489244 0.000000
1.000000 0.440204 0.228848
1.000000 0.868197 0.713822
0.000000 0.756792 0.696694
0.000000 0.834144 0.734986
0.000000 0.931539 0.694211
0.969608 0.907913 0.407519
1.000000 0.912428 0.751059
0.000000 1.000000 0.961933
0.000000 1.000000 0.964830
0.000000 1.000000 0.967592
0.829948 1.000000 0.964060
1.000000 1.000000 0.896873
0.000000 0.000000 0.194547
0.133806 0.000000 0.153329
0.685478 0.000000 0.087657
1.000000 0.251514 0.333187
1.000000 0.858353 0.725516
0.000000 0.078536 0.308361
0.000000 0.081114 0.316183
0.565842 0.000000 0.252445
1.000000 0.276534 0.338153
1.000000 0.861558 0.725606
0.000000 0.362397 0.552241
0.000000 0.413534 0.584059
0.477095 0.555018 0.668911
1.000000 0.450540 0.388037
1.000000 0.867769 0.730884
0.000000 0.752844 0.746574
0.000000 0.822603 0.803037
0.000000 0.914147 0.808801
0.961265 0.918724 0.596541
1.000000 0.912356 0.766708
0.000000 1.000000 0.962904
0.000000 1.000000 0.965666
0.000000 1.000000 0.970455
0.821040 1.000000 0.967403
1.000000 1.000000 0.904241
0.000000 0.155423 0.604765
0.000000 0.142737 0.600960
0.441885 0.000000 0.614133
1.000000 0.000000 0.410790
1.000000 0.860932 0.831710
0.000000 0.197403 0.657761
0.000000 0.200155 0.665251
0.405965 0.146213 0.679108
1.000000 0.000000 0.531119
1.000000 0.862518 0.831660
0.000000 0.365343 0.791591
0.000000 0.371033 0.797864
0.197233 0.384687 0.837373
1.000000 0.231410 0.780587
1.000000 0.869020 0.835764
0.000000 0.759796 0.886807
0.000000 0.759796 0.886807
0.000000 0.882112 0.941981
0.926587 0.939860 0.959502
1.000000 0.916540 0.861380
0.000000 0.981173 0.954850
0.000000 0.981173 0.954850
0.000000 1.000000 0.983995
0.768386 1.000000 0.984313
1.000000 1.000000 0.952256
0.476800 0.561123 0.970816
0.483409 0.560807 0.970784
0.566952 0.552345 0.969475
0.958202 0.527637 0.976679
1.000000 0.507255 0.910908
0.469768 0.573060 0.972297
0.483191 0.572444 0.972233
0.569299 0.560076 0.971152
0.955303 0.540591 0.977087
1.000000 0.519674 0.915029
0.402373 0.637417 0.978650
0.418288 0.636963 0.979493
0.536647 0.636182 0.980544
0.927950 0.613819 0.981876
1.000000 0.603399 0.940666
0.000000 0.852937 0.992296
0.000000 0.852635 0.992266
0.000000 0.855345 0.993356
0.802688 0.862155 0.997598
1.000000 0.855752 0.987256
0.000000 0.981850 0.990598
0.000000 0.981850 0.990598
0.000000 0.981850 0.990598
0.454605 1.000000 1.000000
1.000000 1.000000 1.000000
