Assets/Lutify-Free-LUTs-Pack/Lutify Free LUTs Pack/Cine World Pro Warm - Amy/Lutify.me-Amy-LogC4-to-Rec709.cube
# Created with: fylm.ai - Colour Grading and Collaboration Software in Cloud 
# Website: https://fylm.ai 
# META
# Option: Gamut compress
# Block 1: IDT | Arri Alexa 35 - LogC4
# Block 2: colourMatch | Blending Mode: Normal | {"ColorSpace":0,"CrossCovarianceLimit":50,"ReshapingIterations":1,"PercentSaturationShift":100,"PercentShadingShift":100,"ExtraShading":true,"PercentTint":100,"PercentModified":100}
# Block 3: LUT | Filmic Curve Response: Standard Contrast 1 (100%)
# Block 4: LUT | Illuminant: D60 (100%)
# Block 5: hueSaturation | Blending Mode: Normal | {"hue":0,"saturation":-0.15}
# Block 6: logPrimaries | Blending Mode: Normal | {"wheels":{"shadows":{"Y":"0","R":"1","G":"1","B":"1"},"midtones":{"Y":"0","R":"1","G":"1","B":"1"},"highlights":{"Y":"0","R":"1","G":"1","B":"1"},"offset":{"Y":"0","R":"1","G":"1","B":"1"}},"sliders":{"shadows":{"Y":0,"R":-0.097,"G":0,"B":0.158},"midtones":{"Y":0,"R":0.024,"G":0.024,"B":-0.036},"highlights":{"Y":0,"R":0.154,"G":-0.084,"B":-0.024},"offset":{"Y":0.048,"R":0,"G":0,"B":0}}}
# Block 7: smartCurves | Blending Mode: Average | [[{"x":0,"y":0},{"x":0.11328125,"y":0.085540771484375},{"x":0.21484375,"y":0.218353271484375},{"x":0.37109375,"y":0.382415771484375},{"x":0.62109375,"y":0.589447021484375},{"x":0.8125,"y":0.765228271484375},{"x":1,"y":1}],[{"x":0,"y":0},{"x":1,"y":1}],[{"x":0,"y":0},{"x":1,"y":1}],[{"x":0,"y":0},{"x":1,"y":1}]]
# Block 8: LUT | Neutral Tint: Teal Tint 4 (100%)
# Block 9: contrast | Blending Mode: Normal | {"contrast":0.1}
# Block 10: ODT | Rec709
TITLE "Lutify.me-Amy-LogC4-to-Rec709" 
LUT_3D_SIZE 33
0.000000 0.000000 0.000000
0.000000 0.000000 0.000000
0.000000 0.000000 0.000000
0.000000 0.000000 0.000000
0.091716 0.000000 0.000000
0.193025 0.000000 0.000000
0.300163 0.000000 0.000000
0.386871 0.000000 0.000000
0.486360 0.000000 0.000000
0.574391 0.000000 0.000000
0.660670 0.000000 0.000000
0.732818 0.000000 0.000000
0.868656 0.000000 0.000000
0.954676 0.000000 0.042334
1.000000 0.000000 0.087166
1.000000 0.000000 0.139538
1.000000 0.070291 0.202056
1.000000 0.320122 0.264941
1.000000 0.467078 0.358927
1.000000 0.588864 0.450853
1.000000 0.693797 0.540697
1.000000 0.775478 0.642927
1.000000 0.835146 0.732589
1.000000 0.880096 0.800609
1.000000 0.914361 0.856407
1.000000 0.938272 0.891808
1.000000 0.956333 0.922137
1.000000 0.970209 0.943687
1.000000 0.982624 0.966408
1.000000 0.990305 0.980108
1.000000 0.994368 0.989359
1.000000 0.998342 0.998349
1.000000 1.000000 1.000000
0.000000 0.000000 0.000000
0.000000 0.000000 0.000000
0.000000 0.000000 0.000000
0.000000 0.000000 0.000000
0.087292 0.000000 0.000000
0.189065 0.000000 0.000000
0.290056 0.000000 0.000000
0.384087 0.000000 0.000000
0.475603 0.000000 0.000000
0.566431 0.000000 0.000000
0.656509 0.000000 0.000000
0.728558 0.000000 0.000000
0.864607 0.000000 0.000000
0.957734 0.000000 0.042711
1.000000 0.000000 0.086308
1.000000 0.000000 0.140674
1.000000 0.086161 0.201858
1.000000 0.323713 0.264725
1.000000 0.467078 0.358927
1.000000 0.591541 0.453179
1.000000 0.693797 0.540697
1.000000 0.777067 0.642901
1.000000 0.835146 0.732589
1.000000 0.880096 0.800609
1.000000 0.914361 0.856407
1.000000 0.938272 0.891808
1.000000 0.956333 0.922137
1.000000 0.970209 0.943687
1.000000 0.982624 0.966408
1.000000 0.990305 0.980108
1.000000 0.994368 0.989359
1.000000 0.998342 0.998349
1.000000 1.000000 1.000000
0.000000 0.000000 0.000000
0.000000 0.000000 0.000000
0.000000 0.000000 0.000000
0.000000 0.000000 0.000000
0.082219 0.000000 0.000000
0.180238 0.000000 0.000000
0.284163 0.000000 0.000000
0.375881 0.000000 0.000000
0.454811 0.000000 0.000000
0.562476 0.000000 0.000000
0.644044 0.000000 0.000000
0.724309 0.000000 0.000000
0.864561 0.000000 0.000000
0.957620 0.000000 0.041489
1.000000 0.000000 0.086350
1.000000 0.000000 0.141284
1.000000 0.109854 0.202885
1.000000 0.329108 0.265252
1.000000 0.470104 0.358749
1.000000 0.591541 0.453179
1.000000 0.693797 0.540697
1.000000 0.777067 0.642901
1.000000 0.836313 0.734642
1.000000 0.880096 0.800609
1.000000 0.914361 0.856407
1.000000 0.938272 0.891808
1.000000 0.956333 0.922137
1.000000 0.970209 0.943687
1.000000 0.982624 0.966408
1.000000 0.990305 0.980108
1.000000 0.994368 0.989359
1.000000 0.998342 0.998349
1.000000 1.000000 1.000000
0.000000 0.000000 0.000000
0.000000 0.000000 0.000000
0.000000 0.000000 0.000000
0.000000 0.000000 0.000000
0.075812 0.000000 0.000000
0.167366 0.000000 0.000000
0.270341 0.000000 0.000000
0.362696 0.000000 0.000000
0.448149 0.000000 0.000000
0.562561 0.000000 0.000000
0.644095 0.000000 0.000000
0.728589 0.000000 0.000000
0.864476 0.000000 0.000000
0.960455 0.000000 0.041070
1.000000 0.000000 0.087324
1.000000 0.000000 0.141881
1.000000 0.136763 0.202247
1.000000 0.336180 0.266598
1.000000 0.473126 0.360935
1.000000 0.594239 0.453031
1.000000 0.696016 0.540602
1.000000 0.777053 0.645444
1.000000 0.836313 0.734642
1.000000 0.880096 0.800609
1.000000 0.915015 0.856408
1.000000 0.938272 0.891808
1.000000 0.956333 0.922137
1.000000 0.970209 0.943687
1.000000 0.982624 0.966408
1.000000 0.990305 0.980108
1.000000 0.994368 0.989359
1.000000 0.998342 0.998349
1.000000 1.000000 1.000000
0.000000 0.052324 0.000000
0.000000 0.050606 0.000000
0.000000 0.047648 0.000000
0.000000 0.044698 0.000000
0.053800 0.031291 0.000000
0.156004 0.000000 0.000000
0.258797 0.000000 0.000000
0.355026 0.000000 0.000000
0.441653 0.000000 0.000000
0.546912 0.000000 0.000000
0.644160 0.000000 0.000000
0.732859 0.000000 0.000000
0.864359 0.000000 0.000000
0.960033 0.000000 0.041289
1.000000 0.000000 0.087801
1.000000 0.000000 0.141067
1.000000 0.165386 0.202799
1.000000 0.346779 0.267723
1.000000 0.479198 0.362962
1.000000 0.594226 0.455518
1.000000 0.698219 0.543044
1.000000 0.778637 0.645419
1.000000 0.836313 0.734642
1.000000 0.880096 0.800609
1.000000 0.915015 0.856408
1.000000 0.938272 0.891808
1.000000 0.956333 0.922137
1.000000 0.970209 0.943687
1.000000 0.982624 0.966408
1.000000 0.990305 0.980108
1.000000 0.994368 0.989359
1.000000 0.998342 0.998349
1.000000 1.000000 1.000000
0.000000 0.104514 0.000000
0.000000 0.101971 0.000000
0.000000 0.097896 0.000000
0.000000 0.091706 0.000000
0.000000 0.081198 0.000000
0.149159 0.062737 0.000000
0.264551 0.000000 0.000000
0.357872 0.000000 0.000000
0.448638 0.000000 0.000000
0.547188 0.000000 0.000000
0.640144 0.000000 0.000000
0.741383 0.000000 0.000000
0.868102 0.000000 0.000000
0.962537 0.000000 0.040607
1.000000 0.000000 0.089407
1.000000 0.000000 0.143628
1.000000 0.192127 0.203903
1.000000 0.357329 0.268848
1.000000 0.482250 0.362781
1.000000 0.599650 0.455221
1.000000 0.700432 0.542951
1.000000 0.780214 0.645396
1.000000 0.837491 0.734637
1.000000 0.880912 0.800612
1.000000 0.915015 0.856408
1.000000 0.938778 0.891810
1.000000 0.956333 0.922137
1.000000 0.970209 0.943687
1.000000 0.982624 0.966408
1.000000 0.990305 0.980108
1.000000 0.994368 0.989359
1.000000 0.998342 0.998349
1.000000 1.000000 1.000000
0.000000 0.168815 0.000000
0.000000 0.164647 0.000000
0.000000 0.156626 0.000000
0.000000 0.151503 0.000000
0.000000 0.140412 0.000000
0.128908 0.127122 0.000000
0.268111 0.103861 0.000000
0.367419 0.055086 0.000000
0.460527 0.000000 0.000000
0.567938 0.000000 0.000000
0.648840 0.000000 0.000000
0.741345 0.000000 0.000000
0.859634 0.000000 0.000000
0.961720 0.000000 0.038295
1.000000 0.000000 0.089987
1.000000 0.000000 0.142835
1.000000 0.224244 0.205321
1.000000 0.371337 0.269728
1.000000 0.488348 0.367247
1.000000 0.602362 0.457572
1.000000 0.704836 0.545315
1.000000 0.781790 0.645375
1.000000 0.837491 0.734637
1.000000 0.880903 0.802101
1.000000 0.915668 0.856410
1.000000 0.938778 0.891810
1.000000 0.956333 0.922137
1.000000 0.970209 0.943687
1.000000 0.982624 0.966408
1.000000 0.990305 0.980108
1.000000 0.994368 0.989359
1.000000 0.998342 0.998349
1.000000 1.000000 1.000000
0.000000 0.230319 0.000000
0.000000 0.228584 0.000000
0.000000 0.223455 0.000000
0.000000 0.216418 0.000000
0.000000 0.204292 0.000000
0.000000 0.195979 0.000000
0.252619 0.172682 0.000000
0.373002 0.146859 0.000000
0.471216 0.119148 0.000000
0.578470 0.057691 0.000000
0.666546 0.000000 0.000000
0.749785 0.000000 0.000000
0.866782 0.000000 0.000000
0.954320 0.000000 0.027409
1.000000 0.000000 0.089009
1.000000 0.000000 0.143367
1.000000 0.263845 0.206690
1.000000 0.390217 0.272986
1.000000 0.502116 0.367424
1.000000 0.607838 0.457271
1.000000 0.707039 0.545226
1.000000 0.784940 0.645335
1.000000 0.837491 0.734637
1.000000 0.881720 0.802103
1.000000 0.915661 0.857562
1.000000 0.938778 0.891810
1.000000 0.956736 0.922137
1.000000 0.970205 0.944227
1.000000 0.982624 0.966408
1.000000 0.990305 0.980108
1.000000 0.994368 0.989359
1.000000 0.998342 0.998349
1.000000 1.000000 1.000000
0.000000 0.291187 0.000000
0.000000 0.288978 0.000000
0.000000 0.280323 0.000000
0.000000 0.276080 0.000000
0.000000 0.271793 0.000000
0.000000 0.262774 0.000000
0.174801 0.249054 0.000000
0.342642 0.233828 0.000000
0.479736 0.206235 0.000000
0.590688 0.189287 0.000000
0.677103 0.168167 0.000000
0.758615 0.139013 0.000000
0.868725 0.000000 0.000000
0.957924 0.000000 0.000000
1.000000 0.000000 0.084139
1.000000 0.156080 0.145229
1.000000 0.306916 0.208228
1.000000 0.417890 0.278669
1.000000 0.517549 0.371358
1.000000 0.620358 0.460215
1.000000 0.713611 0.547524
1.000000 0.787415 0.646448
1.000000 0.839831 0.736681
1.000000 0.882537 0.802106
1.000000 0.916314 0.857565
1.000000 0.939278 0.892678
1.000000 0.956736 0.922137
1.000000 0.970522 0.944226
1.000000 0.982624 0.966408
1.000000 0.990305 0.980108
1.000000 0.994368 0.989359
1.000000 0.998342 0.998349
1.000000 1.000000 1.000000
0.000000 0.366791 0.000000
0.000000 0.366790 0.000000
0.000000 0.355585 0.000000
0.000000 0.352830 0.000000
0.000000 0.350029 0.000000
0.000000 0.344334 0.000000
0.000000 0.342182 0.000000
0.257078 0.330019 0.000000
0.437084 0.311367 0.000000
0.594650 0.283346 0.000000
0.688379 0.277247 0.000000
0.759789 0.273798 0.000000
0.873195 0.247437 0.000000
0.957499 0.230670 0.000000
1.000000 0.202303 0.079966
1.000000 0.250433 0.144434
1.000000 0.360486 0.212431
1.000000 0.446841 0.285331
1.000000 0.534435 0.378732
1.000000 0.631429 0.462124
1.000000 0.725576 0.553364
1.000000 0.790522 0.648958
1.000000 0.842175 0.736676
1.000000 0.884164 0.803599
1.000000 0.916967 0.857567
1.000000 0.939783 0.892679
1.000000 0.957134 0.922830
1.000000 0.970522 0.944226
1.000000 0.982862 0.966407
1.000000 0.990305 0.980108
1.000000 0.994528 0.989356
1.000000 0.998342 0.998349
1.000000 1.000000 1.000000
0.000000 0.438420 0.000000
0.000000 0.438419 0.000000
0.000000 0.431691 0.000000
0.000000 0.435040 0.000000
0.000000 0.431647 0.000000
0.000000 0.431536 0.000000
0.000000 0.430919 0.000000
0.000000 0.424871 0.000000
0.320715 0.411786 0.000000
0.527845 0.391652 0.000000
0.679247 0.375934 0.000000
0.763430 0.372948 0.000000
0.871708 0.374249 0.000000
0.953612 0.368980 0.000000
1.000000 0.361493 0.004004
1.000000 0.356665 0.142105
1.000000 0.417760 0.214439
1.000000 0.486067 0.291344
1.000000 0.559610 0.382159
1.000000 0.647955 0.466311
1.000000 0.734072 0.558249
1.000000 0.793610 0.654038
1.000000 0.845662 0.738721
1.000000 0.884983 0.803604
1.000000 0.918263 0.858721
1.000000 0.940288 0.892682
1.000000 0.957536 0.922831
1.000000 0.970837 0.944226
1.000000 0.982862 0.966407
1.000000 0.990488 0.980106
1.000000 0.994528 0.989356
1.000000 0.998342 0.998349
1.000000 1.000000 1.000000
0.000000 0.525746 0.000000
0.000000 0.525746 0.000000
0.000000 0.529340 0.000000
0.000000 0.529322 0.000000
0.000000 0.529282 0.000000
0.000000 0.525590 0.000000
0.000000 0.532473 0.000000
0.000000 0.531282 0.000000
0.000000 0.524271 0.000000
0.409355 0.508942 0.000000
0.601713 0.486241 0.000000
0.753258 0.468837 0.000000
0.875585 0.468500 0.000000
0.940706 0.471508 0.000000
1.000000 0.473871 0.000000
1.000000 0.483975 0.136970
1.000000 0.489588 0.214036
1.000000 0.530475 0.295343
1.000000 0.592671 0.386069
1.000000 0.670903 0.473928
1.000000 0.747555 0.564166
1.000000 0.801341 0.659109
1.000000 0.849778 0.741682
1.000000 0.886930 0.804388
1.000000 0.918811 0.858852
1.000000 0.940788 0.893549
1.000000 0.957938 0.922832
1.000000 0.971152 0.944227
1.000000 0.983099 0.966407
1.000000 0.990488 0.980106
1.000000 0.994527 0.989610
1.000000 0.998478 0.998344
1.000000 1.000000 1.000000
0.000000 0.628358 0.000000
0.000000 0.632066 0.000000
0.000000 0.632053 0.000000
0.000000 0.635747 0.000000
0.000000 0.635705 0.000000
0.000000 0.628189 0.000000
0.000000 0.635362 0.000000
0.000000 0.634667 0.000000
0.000000 0.632618 0.000000
0.152540 0.627929 0.000000
0.485988 0.612303 0.000000
0.680796 0.597407 0.000000
0.845766 0.576778 0.000000
0.926387 0.579314 0.000000
0.991392 0.589921 0.000000
1.000000 0.594556 0.116655
1.000000 0.600620 0.221010
1.000000 0.600436 0.301927
1.000000 0.640291 0.392327
1.000000 0.704486 0.482306
1.000000 0.763637 0.569031
1.000000 0.811280 0.662713
1.000000 0.854316 0.743722
1.000000 0.890227 0.805908
1.000000 0.920131 0.858862
1.000000 0.941798 0.893555
1.000000 0.958740 0.922835
1.000000 0.971463 0.944766
1.000000 0.983334 0.966817
1.000000 0.990670 0.980104
1.000000 0.994685 0.989607
1.000000 0.998478 0.998344
1.000000 1.000000 1.000000
0.000000 0.724581 0.143313
0.000000 0.728128 0.133284
0.000000 0.728109 0.124319
0.000000 0.731619 0.095752
0.000000 0.731563 0.055080
0.000000 0.734957 0.000000
0.000000 0.734715 0.000000
0.000000 0.734187 0.000000
0.000000 0.732790 0.000000
0.000000 0.729455 0.000000
0.334622 0.719986 0.000000
0.584850 0.708069 0.000000
0.793915 0.684871 0.000000
0.907976 0.673597 0.000000
0.973342 0.678957 0.000000
1.000000 0.688378 0.089014
1.000000 0.698104 0.220778
1.000000 0.700653 0.317733
1.000000 0.704413 0.406506
1.000000 0.739854 0.495249
1.000000 0.781550 0.577798
1.000000 0.823266 0.667843
1.000000 0.861574 0.746695
1.000000 0.894347 0.807446
1.000000 0.922758 0.858891
1.000000 0.943071 0.894800
1.000000 0.959353 0.923815
1.000000 0.971777 0.944766
1.000000 0.983570 0.966817
1.000000 0.990670 0.980104
1.000000 0.994685 0.989607
1.000000 0.998477 0.998510
1.000000 1.000000 1.000000
0.000000 0.804956 0.271787
0.000000 0.807770 0.264256
0.000000 0.807742 0.257036
0.000000 0.807688 0.249826
0.000000 0.810384 0.234906
0.000000 0.812989 0.219751
0.000000 0.812722 0.204774
0.000000 0.814947 0.184968
0.000000 0.816613 0.155155
0.000000 0.814545 0.087750
0.000000 0.804003 0.000000
0.479934 0.799772 0.000000
0.710038 0.781747 0.000000
0.858533 0.769921 0.000000
0.947150 0.756040 0.000000
1.000000 0.758646 0.097299
1.000000 0.763943 0.227499
1.000000 0.771876 0.329409
1.000000 0.774295 0.428600
1.000000 0.783581 0.509828
1.000000 0.809682 0.590638
1.000000 0.838348 0.679113
1.000000 0.871203 0.752802
1.000000 0.900082 0.810506
1.000000 0.926004 0.860090
1.000000 0.945065 0.895674
1.000000 0.960536 0.924504
1.000000 0.973023 0.945729
1.000000 0.983803 0.967226
1.000000 0.991030 0.980408
1.000000 0.994843 0.989604
1.000000 0.998613 0.998504
1.000000 1.000000 1.000000
0.000000 0.876245 0.378318
0.000000 0.876208 0.378338
0.000000 0.878189 0.374809
0.000000 0.878105 0.371155
0.000000 0.877971 0.360115
0.000000 0.877780 0.349080
0.000000 0.879512 0.341957
0.000000 0.879008 0.331017
0.000000 0.880042 0.312895
0.000000 0.878343 0.287300
0.000000 0.876821 0.255092
0.320150 0.869238 0.222870
0.633534 0.858298 0.183798
0.797503 0.846068 0.158677
0.906924 0.837368 0.123181
0.981712 0.827265 0.132065
1.000000 0.829535 0.252769
1.000000 0.833322 0.355103
1.000000 0.842812 0.452098
1.000000 0.843944 0.535347
1.000000 0.845844 0.602736
1.000000 0.860519 0.690712
1.000000 0.883777 0.757958
1.000000 0.907375 0.812176
1.000000 0.929827 0.862445
1.000000 0.947052 0.896552
1.000000 0.961719 0.924515
1.000000 0.973628 0.946262
1.000000 0.984504 0.967633
1.000000 0.991210 0.980407
1.000000 0.994998 0.989851
1.000000 0.998749 0.998499
1.000000 1.000000 1.000000
0.000000 0.924366 0.488291
0.000000 0.924315 0.484664
0.000000 0.922787 0.480710
0.000000 0.922699 0.473455
0.000000 0.921049 0.469529
0.000000 0.920831 0.462317
0.000000 0.920466 0.458784
0.000000 0.919891 0.451673
0.000000 0.920559 0.437769
0.000000 0.920070 0.424190
0.000000 0.917589 0.399671
0.000000 0.913396 0.372297
0.555290 0.908568 0.347685
0.743163 0.896509 0.318825
0.864584 0.889848 0.307059
0.951921 0.881550 0.290902
1.000000 0.877858 0.290368
1.000000 0.880901 0.381505
1.000000 0.881983 0.475630
1.000000 0.885305 0.557816
1.000000 0.886607 0.626670
1.000000 0.887803 0.704955
1.000000 0.899566 0.768977
1.000000 0.916371 0.818950
1.000000 0.935428 0.865963
1.000000 0.949990 0.899144
1.000000 0.964051 0.925899
1.000000 0.974825 0.947847
1.000000 0.985194 0.968040
1.000000 0.991210 0.980407
1.000000 0.995153 0.989848
1.000000 0.998885 0.998493
1.000000 1.000000 1.000000
0.000000 0.955848 0.588628
0.000000 0.955787 0.588636
0.000000 0.955704 0.585079
0.000000 0.955581 0.581533
0.000000 0.955333 0.578006
0.000000 0.956152 0.574924
0.000000 0.955640 0.567894
0.000000 0.954895 0.557367
0.000000 0.955152 0.547381
0.000000 0.953601 0.533549
0.000000 0.949301 0.522286
0.000000 0.945872 0.508866
0.473034 0.940497 0.478920
0.690772 0.934242 0.454968
0.827053 0.928704 0.437697
0.919591 0.919946 0.419941
0.976991 0.916508 0.412286
1.000000 0.912776 0.420297
1.000000 0.913993 0.502909
1.000000 0.915267 0.580161
1.000000 0.917664 0.659033
1.000000 0.918561 0.726000
1.000000 0.920626 0.781152
1.000000 0.928586 0.827302
1.000000 0.941830 0.871412
1.000000 0.954351 0.900928
1.000000 0.966339 0.927281
1.000000 0.977135 0.949302
1.000000 0.985971 0.968574
1.000000 0.991738 0.981012
1.000000 0.995459 0.990090
1.000000 0.999156 0.998647
1.000000 1.000000 1.000000
0.000000 0.978039 0.698677
0.000000 0.977923 0.698680
0.000000 0.977682 0.698687
0.000000 0.978269 0.695919
0.000000 0.978083 0.692759
0.000000 0.977819 0.689584
0.000000 0.977243 0.683184
0.000000 0.976586 0.679975
0.000000 0.976593 0.673939
0.000000 0.975362 0.664133
0.000000 0.974476 0.658087
0.000000 0.971911 0.641476
0.459121 0.968115 0.625645
0.651619 0.960640 0.595394
0.784174 0.954020 0.570812
0.887445 0.949342 0.551578
0.953021 0.943661 0.547545
0.993690 0.941302 0.539174
1.000000 0.940383 0.541865
1.000000 0.938939 0.602235
1.000000 0.939791 0.677685
1.000000 0.943090 0.752709
1.000000 0.945099 0.799519
1.000000 0.945672 0.838211
1.000000 0.951078 0.875457
1.000000 0.959834 0.904124
1.000000 0.969696 0.928693
1.000000 0.979114 0.950866
1.000000 0.986861 0.969374
1.000000 0.992431 0.981312
1.000000 0.995758 0.990331
1.000000 0.999426 0.998798
1.000000 1.000000 1.000000
0.000000 0.995496 0.781907
0.000000 0.995419 0.779597
0.000000 0.995238 0.779592
0.000000 0.995159 0.777258
0.000000 0.995565 0.777548
0.000000 0.995276 0.777542
0.000000 0.994796 0.772814
0.000000 0.994163 0.770410
0.000000 0.993379 0.765547
0.000000 0.992271 0.760596
0.000000 0.991366 0.753406
0.324536 0.989203 0.745702
0.509729 0.986184 0.730362
0.631111 0.982489 0.714223
0.744943 0.978550 0.701664
0.858480 0.972324 0.680971
0.928058 0.968414 0.660499
0.972630 0.965710 0.655537
1.000000 0.962089 0.645172
1.000000 0.961412 0.651090
1.000000 0.962176 0.709543
1.000000 0.962673 0.768395
1.000000 0.963563 0.814921
1.000000 0.963487 0.851567
1.000000 0.963745 0.884144
1.000000 0.967207 0.909190
1.000000 0.974313 0.931478
1.000000 0.981978 0.952132
1.000000 0.988466 0.970682
1.000000 0.993442 0.981911
1.000000 0.996341 0.990808
1.000000 0.999967 0.998936
1.000000 1.000000 1.000000
0.000000 1.000000 0.840869
0.000000 1.000000 0.840863
0.000000 1.000000 0.840863
0.000000 1.000000 0.839099
0.000000 1.000000 0.839093
0.000000 1.000000 0.837316
0.000000 1.000000 0.835532
0.000000 1.000000 0.835508
0.232248 1.000000 0.833929
0.319745 1.000000 0.828217
0.410338 1.000000 0.822351
0.482222 0.999430 0.814428
0.576648 0.996854 0.808577
0.660555 0.994014 0.800725
0.740977 0.991250 0.791259
0.830050 0.987549 0.773796
0.905169 0.983948 0.761441
0.955013 0.980102 0.746950
0.986669 0.978189 0.740773
1.000000 0.975916 0.735364
1.000000 0.975571 0.742508
1.000000 0.976153 0.785592
1.000000 0.976613 0.829117
1.000000 0.977371 0.862386
1.000000 0.977555 0.893760
1.000000 0.977155 0.916875
1.000000 0.979952 0.936433
1.000000 0.984942 0.954879
1.000000 0.990142 0.971857
1.000000 0.994415 0.982801
1.000000 0.997043 0.991277
1.000000 1.000000 0.999072
1.000000 1.000000 1.000000
0.410814 1.000000 0.891030
0.410814 1.000000 0.891030
0.417736 1.000000 0.891021
0.431207 1.000000 0.891003
0.437934 1.000000 0.889784
0.450726 1.000000 0.889767
0.463270 1.000000 0.888532
0.483796 1.000000 0.887418
0.506366 1.000000 0.886157
0.538179 1.000000 0.883635
0.572457 1.000000 0.881070
0.608485 1.000000 0.877143
0.652776 1.000000 0.873089
0.699609 1.000000 0.866336
0.755758 1.000000 0.862275
0.823450 0.997144 0.851537
0.885449 0.993532 0.840952
0.937584 0.991299 0.828722
0.973163 0.989553 0.817507
0.998643 0.987328 0.809634
1.000000 0.986532 0.809108
1.000000 0.985306 0.811097
1.000000 0.985769 0.842942
1.000000 0.985991 0.875977
1.000000 0.986161 0.901813
1.000000 0.986234 0.924947
1.000000 0.986817 0.941802
1.000000 0.989086 0.957517
1.000000 0.992607 0.973261
1.000000 0.995805 0.983684
1.000000 0.997987 0.991740
1.000000 1.000000 0.999354
1.000000 1.000000 1.000000
0.619179 1.000000 0.925652
0.619179 1.000000 0.925652
0.626057 1.000000 0.925636
0.626057 1.000000 0.925636
0.629452 1.000000 0.925629
0.632895 1.000000 0.924705
0.639539 1.000000 0.924690
0.642894 1.000000 0.923759
0.652629 1.000000 0.922807
0.665372 1.000000 0.920899
0.683922 1.000000 0.918952
0.701780 1.000000 0.917950
0.721972 1.000000 0.914981
0.751938 1.000000 0.909921
0.788759 1.000000 0.905763
0.834225 1.000000 0.903834
0.874413 1.000000 0.895581
0.921663 1.000000 0.885684
0.960119 0.997802 0.876602
0.987565 0.996398 0.869965
1.000000 0.995120 0.865711
1.000000 0.994386 0.861350
1.000000 0.994205 0.861683
1.000000 0.994379 0.886040
1.000000 0.994401 0.912241
1.000000 0.994390 0.931881
1.000000 0.994349 0.948597
1.000000 0.994150 0.962584
1.000000 0.995256 0.975519
1.000000 0.997494 0.985128
1.000000 0.999471 0.992644
1.000000 1.000000 0.999479
1.000000 1.000000 1.000000
0.721681 1.000000 0.953186
0.724137 1.000000 0.953179
0.724137 1.000000 0.953179
0.724179 1.000000 0.952518
0.726623 1.000000 0.952511
0.731478 1.000000 0.952497
0.733888 1.000000 0.952490
0.733888 1.000000 0.952490
0.738758 1.000000 0.951141
0.743537 1.000000 0.950453
0.755244 1.000000 0.949058
0.766617 1.000000 0.947646
0.781877 1.000000 0.946203
0.805363 1.000000 0.943436
0.825588 1.000000 0.940473
0.854695 1.000000 0.936743
0.884990 1.000000 0.932015
0.919140 1.000000 0.926487
0.948273 1.000000 0.920962
0.977769 1.000000 0.911488
0.997641 1.000000 0.906113
1.000000 1.000000 0.903101
1.000000 0.999362 0.899817
1.000000 0.999176 0.897756
1.000000 0.999176 0.919727
1.000000 0.999270 0.939165
1.000000 0.999347 0.955106
1.000000 0.999218 0.967756
1.000000 0.999000 0.978592
1.000000 0.999510 0.986817
1.000000 1.000000 0.993940
1.000000 1.000000 1.000000
1.000000 1.000000 1.000000
0.800413 1.000000 0.973636
0.800413 1.000000 0.973636
0.800413 1.000000 0.973636
0.800413 1.000000 0.973636
0.802117 1.000000 0.973163
0.802117 1.000000 0.973163
0.803787 1.000000 0.973158
0.809386 1.000000 0.973170
0.811023 1.000000 0.972695
0.817416 1.000000 0.972199
0.820601 1.000000 0.971709
0.829997 1.000000 0.971195
0.839225 1.000000 0.970186
0.851204 1.000000 0.969153
0.863147 1.000000 0.967637
0.878290 1.000000 0.964979
0.898567 1.000000 0.961649
0.921529 1.000000 0.958649
0.943449 1.000000 0.955205
0.968266 1.000000 0.949970
0.990486 1.000000 0.944377
1.000000 1.000000 0.939210
1.000000 1.000000 0.933320
1.000000 1.000000 0.932191
1.000000 1.000000 0.929837
1.000000 1.000000 0.944040
1.000000 1.000000 0.959231
1.000000 1.000000 0.971489
1.000000 1.000000 0.982024
1.000000 1.000000 0.988987
1.000000 1.000000 0.994761
1.000000 1.000000 1.000000
1.000000 1.000000 1.000000
0.862194 1.000000 0.985005
0.862194 1.000000 0.985005
0.862194 1.000000 0.985005
0.863895 1.000000 0.985015
