Assets/Lutify-Free-LUTs-Pack/Lutify Free LUTs Pack/Cine World Pro Warm - Amy/Lutify.me-Amy-CanonLog2-to-Rec709.cube
# Created with: fylm.ai - Colour Grading and Collaboration Software in Cloud 
# Website: https://fylm.ai 
# META
# Option: Gamut compress
# Block 1: IDT | CanonLog2 Cinema Gamut Daylight
# Block 2: colourMatch | Blending Mode: Normal | {"ColorSpace":0,"CrossCovarianceLimit":50,"ReshapingIterations":1,"PercentSaturationShift":100,"PercentShadingShift":100,"ExtraShading":true,"PercentTint":100,"PercentModified":100}
# Block 3: LUT | Filmic Curve Response: Standard Contrast 1 (100%)
# Block 4: LUT | Illuminant: D60 (100%)
# Block 5: hueSaturation | Blending Mode: Normal | {"hue":0,"saturation":-0.15}
# Block 6: logPrimaries | Blending Mode: Normal | {"wheels":{"shadows":{"Y":"0","R":"1","G":"1","B":"1"},"midtones":{"Y":"0","R":"1","G":"1","B":"1"},"highlights":{"Y":"0","R":"1","G":"1","B":"1"},"offset":{"Y":"0","R":"1","G":"1","B":"1"}},"sliders":{"shadows":{"Y":0,"R":-0.097,"G":0,"B":0.158},"midtones":{"Y":0,"R":0.024,"G":0.024,"B":-0.036},"highlights":{"Y":0,"R":0.154,"G":-0.084,"B":-0.024},"offset":{"Y":0.048,"R":0,"G":0,"B":0}}}
# Block 7: smartCurves | Blending Mode: Average | [[{"x":0,"y":0},{"x":0.11328125,"y":0.085540771484375},{"x":0.21484375,"y":0.218353271484375},{"x":0.37109375,"y":0.382415771484375},{"x":0.62109375,"y":0.589447021484375},{"x":0.8125,"y":0.765228271484375},{"x":1,"y":1}],[{"x":0,"y":0},{"x":1,"y":1}],[{"x":0,"y":0},{"x":1,"y":1}],[{"x":0,"y":0},{"x":1,"y":1}]]
# Block 8: LUT | Neutral Tint: Teal Tint 4 (100%)
# Block 9: contrast | Blending Mode: Normal | {"contrast":0.1}
# Block 10: ODT | Rec709
TITLE "Lutify.me-Amy-CanonLog2-to-Rec709" 
LUT_3D_SIZE 5
0.000000 0.000000 0.000000
0.227280 0.000000 0.000000
0.822925 0.000000 0.000000
1.000000 0.562325 0.418801
1.000000 0.955258 0.913393
0.000000 0.136015 0.000000
0.234384 0.076381 0.000000
0.851806 0.000000 0.000000
1.000000 0.577787 0.419057
1.000000 0.955258 0.913393
0.000000 0.543452 0.000000
0.000000 0.529070 0.000000
1.000000 0.441548 0.000000
1.000000 0.690092 0.405206
1.000000 0.957130 0.914474
0.805726 0.930726 0.000000
0.833858 0.928066 0.000000
0.974364 0.916155 0.000000
1.000000 0.922583 0.666557
1.000000 0.974204 0.912976
1.000000 0.999588 0.749226
1.000000 0.999588 0.749226
1.000000 0.999320 0.756093
1.000000 0.998822 0.821910
1.000000 0.998322 0.941985
0.000000 0.000000 0.117098
0.148870 0.000000 0.046172
0.780710 0.000000 0.074616
1.000000 0.557833 0.437588
1.000000 0.954840 0.914108
0.000000 0.145031 0.201297
0.047737 0.105327 0.142297
0.792936 0.000000 0.081969
1.000000 0.571778 0.436823
1.000000 0.955254 0.914112
0.000000 0.576555 0.000000
0.000000 0.571715 0.000000
0.983433 0.477412 0.000000
1.000000 0.686333 0.428319
1.000000 0.957126 0.915186
0.802488 0.930899 0.000000
0.830926 0.928230 0.000000
0.973093 0.916232 0.000000
1.000000 0.922583 0.666557
1.000000 0.974199 0.913654
1.000000 0.999588 0.749226
1.000000 0.999588 0.749226
1.000000 0.999320 0.756093
1.000000 0.998822 0.821910
1.000000 0.998322 0.941985
0.000000 0.000000 0.377109
0.066798 0.000000 0.101422
0.857883 0.000000 0.099816
1.000000 0.532621 0.569936
1.000000 0.954807 0.919122
0.000000 0.056372 0.455327
0.000000 0.047724 0.307944
0.732829 0.000000 0.215964
1.000000 0.548550 0.576117
1.000000 0.954807 0.919122
0.000000 0.733347 0.817082
0.000000 0.667395 0.775392
0.572717 0.616122 0.711089
1.000000 0.671290 0.588215
1.000000 0.956870 0.919129
0.000000 0.986462 0.223654
0.000000 0.985615 0.217775
0.664838 0.973159 0.176262
1.000000 0.943298 0.427448
1.000000 0.973814 0.919711
1.000000 0.999619 0.746452
1.000000 0.999588 0.749226
1.000000 0.999334 0.754735
1.000000 0.998822 0.821910
1.000000 0.998322 0.941985
0.000000 0.000000 0.264213
0.129401 0.000000 0.240073
0.619928 0.000000 0.219029
1.000000 0.241664 0.380322
1.000000 0.950829 0.960494
0.000000 0.000000 0.264218
0.128012 0.000000 0.240091
0.619928 0.000000 0.219029
1.000000 0.241664 0.380322
1.000000 0.950829 0.960494
0.000000 0.502039 0.929523
0.000000 0.494747 0.925810
0.181098 0.459773 0.920123
1.000000 0.295861 0.863175
1.000000 0.953680 0.960997
0.000000 1.000000 1.000000
0.000000 1.000000 1.000000
0.000000 0.999960 1.000000
0.978392 0.962726 0.985357
1.000000 0.973054 0.963915
0.943148 1.000000 0.881986
0.943965 1.000000 0.882016
0.948796 1.000000 0.881496
0.988614 1.000000 0.872490
1.000000 1.000000 0.915068
0.636671 0.000000 0.430718
0.660985 0.000000 0.430674
0.834604 0.000000 0.434247
1.000000 0.000000 0.483516
1.000000 0.872408 0.846835
0.632578 0.000000 0.430728
0.656962 0.000000 0.430680
0.834604 0.000000 0.434247
1.000000 0.000000 0.483516
1.000000 0.872408 0.846835
0.628476 0.000000 0.430738
0.652927 0.000000 0.430687
0.830405 0.000000 0.430891
1.000000 0.000000 0.483516
1.000000 0.872408 0.846835
0.000000 0.965818 1.000000
0.000000 0.966001 1.000000
0.000000 0.958089 1.000000
0.907538 0.923908 1.000000
1.000000 0.912344 1.000000
0.766170 1.000000 1.000000
0.766170 1.000000 1.000000
0.729655 1.000000 1.000000
0.889446 1.000000 1.000000
1.000000 1.000000 1.000000
