Assets/Lutify-Free-LUTs-Pack/Lutify Free LUTs Pack/Cine World Pro Warm - Amy/Lutify.me-Amy-RWG-to-RWG.cube
# Created with: fylm.ai - Colour Grading and Collaboration Software in Cloud 
# Website: https://fylm.ai 
# META
# Option: Gamut compress
# Block 1: colourMatch | Blending Mode: Normal | {"ColorSpace":0,"CrossCovarianceLimit":50,"ReshapingIterations":1,"PercentSaturationShift":100,"PercentShadingShift":100,"ExtraShading":true,"PercentTint":100,"PercentModified":100}
# Block 2: LUT | Filmic Curve Response: Standard Contrast 1 (100%)
# Block 3: LUT | Illuminant: D60 (100%)
# Block 4: hueSaturation | Blending Mode: Normal | {"hue":0,"saturation":-0.15}
# Block 5: logPrimaries | Blending Mode: Normal | {"wheels":{"shadows":{"Y":"0","R":"1","G":"1","B":"1"},"midtones":{"Y":"0","R":"1","G":"1","B":"1"},"highlights":{"Y":"0","R":"1","G":"1","B":"1"},"offset":{"Y":"0","R":"1","G":"1","B":"1"}},"sliders":{"shadows":{"Y":0,"R":-0.097,"G":0,"B":0.158},"midtones":{"Y":0,"R":0.024,"G":0.024,"B":-0.036},"highlights":{"Y":0,"R":0.154,"G":-0.084,"B":-0.024},"offset":{"Y":0.048,"R":0,"G":0,"B":0}}}
# Block 6: smartCurves | Blending Mode: Average | [[{"x":0,"y":0},{"x":0.11328125,"y":0.085540771484375},{"x":0.21484375,"y":0.218353271484375},{"x":0.37109375,"y":0.382415771484375},{"x":0.62109375,"y":0.589447021484375},{"x":0.8125,"y":0.765228271484375},{"x":1,"y":1}],[{"x":0,"y":0},{"x":1,"y":1}],[{"x":0,"y":0},{"x":1,"y":1}],[{"x":0,"y":0},{"x":1,"y":1}]]
# Block 7: LUT | Neutral Tint: Teal Tint 4 (100%)
# Block 8: contrast | Blending Mode: Normal | {"contrast":0.1}
TITLE "Lutify.me-Amy-ACEScct-to-ACEScct" 
LUT_3D_SIZE 33
0.057803 0.074463 0.087371
0.057803 0.074463 0.087371
0.067596 0.075003 0.090518
0.070655 0.079900 0.092366
0.106845 0.081309 0.093202
0.152140 0.084780 0.097780
0.199851 0.090673 0.105054
0.246819 0.097870 0.114749
0.285358 0.106806 0.125567
0.317867 0.115846 0.136907
0.346013 0.127342 0.148921
0.381968 0.144784 0.167121
0.406879 0.163163 0.182868
0.436788 0.185146 0.203021
0.470577 0.211878 0.228199
0.498483 0.239169 0.251672
0.530096 0.271794 0.279453
0.568934 0.305490 0.313539
0.602801 0.338247 0.345051
0.636476 0.370067 0.377205
0.668716 0.400811 0.408533
0.706547 0.433967 0.444777
0.738004 0.463450 0.475658
0.770067 0.494632 0.507922
0.802712 0.524000 0.539568
0.834884 0.555788 0.571267
0.862309 0.585067 0.599193
0.889471 0.613113 0.626535
0.915346 0.639920 0.652725
0.946418 0.671125 0.683659
0.969915 0.699723 0.708797
0.994413 0.726107 0.733938
1.005124 0.747156 0.749031
0.057803 0.074463 0.087371
0.057803 0.074463 0.087371
0.067599 0.075360 0.090206
0.070659 0.080257 0.092055
0.105332 0.081250 0.093111
0.151188 0.085624 0.097872
0.195708 0.090693 0.104510
0.245892 0.098497 0.114402
0.285366 0.107456 0.125695
0.316756 0.116489 0.136665
0.347161 0.129103 0.149648
0.381983 0.146460 0.167611
0.409254 0.165249 0.184525
0.440392 0.187748 0.205476
0.470582 0.212767 0.228375
0.498490 0.240346 0.251868
0.531313 0.272798 0.280401
0.568936 0.305955 0.313639
0.602800 0.338234 0.344994
0.636479 0.370572 0.377313
0.668715 0.400794 0.408469
0.706547 0.433967 0.444777
0.738007 0.463977 0.475769
0.770067 0.494632 0.507922
0.802712 0.524000 0.539568
0.834883 0.555763 0.571170
0.862309 0.585067 0.599193
0.889471 0.613113 0.626535
0.915346 0.639920 0.652725
0.946418 0.671125 0.683659
0.969915 0.699723 0.708797
0.994413 0.726107 0.733938
1.005124 0.747156 0.749031
0.058163 0.078211 0.088161
0.058756 0.077751 0.088082
0.061819 0.076797 0.087616
0.070618 0.080153 0.091651
0.103505 0.082114 0.093198
0.150236 0.086477 0.097972
0.193501 0.091362 0.104376
0.244049 0.099541 0.114274
0.281079 0.107208 0.124509
0.315657 0.118078 0.136611
0.349490 0.131573 0.151048
0.382001 0.148799 0.168066
0.412812 0.167942 0.186724
0.441598 0.189140 0.206402
0.473004 0.214748 0.230054
0.499713 0.242451 0.252956
0.531316 0.273236 0.280496
0.570147 0.307010 0.314629
0.602803 0.338708 0.345042
0.636478 0.370558 0.377253
0.668715 0.400794 0.408469
0.706547 0.433947 0.444688
0.738007 0.463977 0.475769
0.770067 0.494632 0.507922
0.802712 0.524000 0.539568
0.834883 0.555763 0.571170
0.862309 0.585067 0.599193
0.889471 0.613113 0.626535
0.915346 0.639920 0.652725
0.946418 0.671125 0.683659
0.969915 0.699723 0.708797
0.994413 0.726107 0.733938
1.005124 0.747156 0.749031
0.063861 0.087545 0.093373
0.063861 0.087545 0.093373
0.065032 0.087089 0.092946
0.069187 0.086680 0.092642
0.095355 0.087318 0.097201
0.145021 0.088953 0.098090
0.190655 0.093763 0.104535
0.243159 0.101555 0.114542
0.281129 0.110554 0.125193
0.316811 0.121182 0.137593
0.349519 0.134799 0.151674
0.384387 0.152738 0.169882
0.414015 0.171188 0.187923
0.444008 0.192124 0.208284
0.474219 0.216472 0.230987
0.499727 0.244812 0.253350
0.532538 0.275101 0.281573
0.570152 0.307928 0.314775
0.604007 0.339777 0.345943
0.636481 0.371049 0.377302
0.668718 0.401291 0.408513
0.706549 0.434468 0.444797
0.738007 0.463977 0.475769
0.770067 0.494632 0.507922
0.802714 0.524526 0.539676
0.834883 0.555763 0.571170
0.862309 0.585067 0.599193
0.889471 0.613113 0.626535
0.915346 0.639920 0.652725
0.946418 0.671125 0.683659
0.969915 0.699723 0.708797
0.994413 0.726107 0.733938
1.005124 0.747156 0.749031
0.066523 0.110015 0.098492
0.067095 0.109664 0.098416
0.068946 0.109703 0.098493
0.071647 0.107959 0.098125
0.093414 0.107151 0.104025
0.141693 0.106629 0.102563
0.188301 0.108242 0.108153
0.238758 0.112182 0.116705
0.282309 0.117574 0.127197
0.319131 0.128284 0.140018
0.351887 0.140988 0.153858
0.389142 0.157882 0.173217
0.417592 0.175354 0.190449
0.447618 0.195950 0.210975
0.475441 0.219422 0.232187
0.502166 0.247885 0.255382
0.532543 0.275982 0.281650
0.571364 0.309481 0.315872
0.604012 0.340762 0.346100
0.636486 0.372045 0.377458
0.668720 0.401789 0.408557
0.706549 0.434448 0.444708
0.738009 0.464483 0.475789
0.770070 0.495137 0.507937
0.803825 0.525104 0.540497
0.834883 0.555763 0.571170
0.862309 0.585067 0.599193
0.889471 0.613113 0.626535
0.915346 0.639920 0.652725
0.946418 0.671125 0.683659
0.969915 0.699723 0.708797
0.994413 0.726107 0.733938
1.005124 0.747156 0.749031
0.072638 0.138163 0.107253
0.073065 0.137257 0.106978
0.074507 0.135481 0.106459
0.077707 0.134081 0.106123
0.099330 0.130214 0.105799
0.145078 0.128744 0.109618
0.192072 0.129505 0.114860
0.245764 0.132336 0.123526
0.289046 0.136300 0.133919
0.327138 0.143016 0.145998
0.358896 0.150108 0.158996
0.393919 0.165280 0.176941
0.423610 0.181380 0.194736
0.451231 0.200602 0.213843
0.481491 0.225113 0.236800
0.508235 0.252727 0.259938
0.533770 0.278844 0.282940
0.571376 0.311869 0.316231
0.604017 0.341742 0.346202
0.637681 0.372647 0.378318
0.669906 0.402384 0.409405
0.706551 0.434950 0.444734
0.738009 0.464483 0.475789
0.770070 0.495137 0.507937
0.803825 0.525104 0.540497
0.834886 0.556290 0.571278
0.862309 0.585067 0.599193
0.889471 0.613113 0.626535
0.915346 0.639920 0.652725
0.946418 0.671125 0.683659
0.969915 0.699723 0.708797
0.994413 0.726107 0.733938
1.005124 0.747156 0.749031
0.078882 0.165302 0.117244
0.079783 0.164135 0.116813
0.080835 0.162348 0.115878
0.083756 0.158923 0.114757
0.101514 0.155288 0.114753
0.148330 0.151254 0.117333
0.198138 0.150269 0.122142
0.251957 0.152786 0.130707
0.297943 0.155986 0.141736
0.332954 0.159841 0.152560
0.369467 0.167667 0.167464
0.403446 0.176671 0.184016
0.429646 0.189797 0.199732
0.458498 0.208680 0.219482
0.488761 0.233591 0.242868
0.513094 0.258323 0.263906
0.536200 0.281346 0.284716
0.571385 0.313470 0.316354
0.605225 0.343370 0.347281
0.637689 0.374218 0.378498
0.669908 0.402886 0.409455
0.706551 0.434933 0.444668
0.738011 0.464989 0.475809
0.771205 0.495729 0.508779
0.803828 0.525630 0.540605
0.834886 0.556290 0.571278
0.862309 0.585067 0.599193
0.889471 0.613113 0.626535
0.915346 0.639920 0.652725
0.946418 0.671125 0.683659
0.969915 0.699723 0.708797
0.994413 0.726107 0.733938
1.005124 0.747156 0.749031
0.087803 0.196236 0.130849
0.088158 0.194624 0.130113
0.089655 0.192220 0.129048
0.093586 0.190724 0.128494
0.106196 0.186676 0.127673
0.146494 0.180660 0.128588
0.200752 0.179684 0.133112
0.252965 0.180504 0.140453
0.299617 0.182078 0.150240
0.336756 0.186901 0.161700
0.375495 0.190184 0.175830
0.417781 0.198494 0.195886
0.447707 0.208999 0.213568
0.473060 0.224166 0.231263
0.502142 0.245162 0.253537
0.517950 0.263486 0.267770
0.543484 0.288639 0.290788
0.575023 0.317837 0.319492
0.607639 0.346157 0.349306
0.637692 0.374768 0.378351
0.669910 0.403361 0.409381
0.706555 0.435943 0.444757
0.738014 0.465496 0.475829
0.771207 0.496238 0.508798
0.803828 0.525630 0.540605
0.834886 0.556290 0.571278
0.863397 0.586162 0.600105
0.889471 0.613113 0.626535
0.915346 0.639920 0.652725
0.946418 0.671125 0.683659
0.970978 0.700305 0.709683
0.994413 0.726107 0.733938
1.005124 0.747156 0.749031
0.097616 0.226733 0.146721
0.098843 0.224926 0.145800
0.099141 0.222212 0.144371
0.103438 0.220444 0.143567
0.113621 0.215304 0.141685
0.143938 0.210941 0.141885
0.198837 0.208234 0.145148
0.253296 0.207313 0.151245
0.300404 0.208924 0.160279
0.341712 0.211718 0.171532
0.377010 0.214810 0.183942
0.419214 0.222083 0.202960
0.457455 0.230179 0.223920
0.497300 0.244977 0.250431
0.515491 0.256214 0.264300
0.536160 0.275495 0.282093
0.550768 0.295960 0.296961
0.577453 0.321668 0.321622
0.608854 0.349023 0.350524
0.638900 0.377692 0.379540
0.671100 0.404947 0.410267
0.708910 0.437670 0.446623
0.738015 0.465981 0.475758
0.771209 0.496747 0.508816
0.803830 0.526131 0.540617
0.834889 0.556818 0.571386
0.863397 0.586162 0.600105
0.889471 0.613113 0.626535
0.915346 0.639920 0.652725
0.946418 0.671125 0.683659
0.970978 0.700305 0.709683
0.994413 0.726107 0.733938
1.005124 0.747156 0.749031
0.108239 0.252148 0.161696
0.108909 0.252153 0.161717
0.109311 0.249174 0.159939
0.113770 0.246244 0.158309
0.124332 0.242574 0.156898
0.146245 0.240146 0.157114
0.194347 0.238291 0.159737
0.250694 0.236350 0.164429
0.301417 0.235362 0.171794
0.343452 0.236228 0.181617
0.378648 0.241084 0.193931
0.420694 0.244790 0.210719
0.457659 0.251856 0.230155
0.498639 0.263413 0.255656
0.541003 0.278230 0.285773
0.560398 0.292153 0.301836
0.568933 0.307684 0.311377
0.587136 0.330316 0.329671
0.611283 0.354209 0.353061
0.641303 0.381126 0.381572
0.671112 0.407214 0.410503
0.708914 0.438643 0.446529
0.739177 0.468144 0.476884
0.771214 0.497765 0.508853
0.803830 0.526131 0.540617
0.834891 0.557325 0.571402
0.863399 0.586669 0.600120
0.889473 0.613640 0.626643
0.915348 0.640444 0.652833
0.946420 0.671626 0.683673
0.970981 0.700827 0.709792
0.994413 0.726107 0.733938
1.005124 0.747156 0.749031
0.120859 0.280495 0.179855
0.121404 0.279451 0.179327
0.123886 0.278408 0.178692
0.127613 0.275253 0.176678
0.137943 0.272330 0.175479
0.155165 0.268549 0.174219
0.188150 0.267030 0.175613
0.246295 0.265262 0.179325
0.300835 0.264339 0.186010
0.343254 0.263145 0.193626
0.379280 0.267211 0.204869
0.423471 0.270192 0.221276
0.460364 0.277722 0.239897
0.501243 0.285646 0.263342
0.544751 0.298402 0.292993
0.587051 0.316257 0.325662
0.603936 0.329233 0.340511
0.604004 0.341639 0.343478
0.617321 0.361564 0.358467
0.642515 0.384644 0.382768
0.672309 0.410137 0.411472
0.710088 0.440235 0.447354
0.739182 0.469147 0.476907
0.771215 0.498253 0.508781
0.803832 0.526637 0.540632
0.834893 0.557834 0.571419
0.863402 0.587200 0.600232
0.889473 0.613640 0.626643
0.915348 0.640444 0.652833
0.946420 0.671626 0.683673
0.970981 0.700827 0.709792
0.994412 0.726085 0.733844
1.005124 0.747156 0.749031
0.133708 0.303950 0.196283
0.135163 0.302893 0.195609
0.137523 0.300777 0.194249
0.141786 0.298688 0.193124
0.152292 0.296666 0.192393
0.168366 0.296821 0.193411
0.193801 0.294990 0.193647
0.238279 0.292519 0.195112
0.298728 0.292004 0.201210
0.342322 0.290905 0.207774
0.381168 0.291562 0.217213
0.423944 0.293867 0.231314
0.463080 0.300434 0.249507
0.501466 0.306644 0.270259
0.550953 0.321729 0.303150
0.587151 0.333134 0.329660
0.625636 0.351782 0.361080
0.644776 0.363951 0.377740
0.634081 0.371194 0.371775
0.646120 0.389838 0.385928
0.675884 0.414743 0.414455
0.711260 0.442819 0.448156
0.740343 0.471268 0.477826
0.772345 0.499329 0.509545
0.804947 0.528237 0.541494
0.834895 0.558322 0.571343
0.863404 0.587709 0.600249
0.889475 0.614145 0.626657
0.915350 0.640947 0.652845
0.946419 0.671604 0.683578
0.970980 0.700805 0.709698
0.994412 0.726085 0.733844
1.005124 0.747130 0.748905
0.149052 0.326154 0.213214
0.150492 0.325050 0.212435
0.152703 0.322848 0.210983
0.158395 0.320661 0.209528
0.168125 0.320743 0.210161
0.183015 0.320863 0.210933
0.204608 0.318861 0.210636
0.238702 0.317083 0.211422
0.289124 0.313709 0.213680
0.338376 0.314264 0.220694
0.380923 0.314355 0.229247
0.422185 0.316562 0.241608
0.463475 0.321433 0.258710
0.501736 0.326896 0.277863
0.551106 0.338625 0.308416
0.588471 0.350106 0.334969
0.630479 0.366490 0.367792
0.668612 0.385042 0.400001
0.685219 0.398208 0.415398
0.659218 0.397998 0.396410
0.678275 0.419427 0.416436
0.712441 0.446693 0.449263
0.742644 0.474479 0.479561
0.772350 0.500790 0.509349
0.804954 0.529769 0.541549
0.835994 0.559429 0.572270
0.863406 0.588197 0.600171
0.889477 0.614653 0.626674
0.915353 0.641453 0.652861
0.946422 0.672130 0.683688
0.970983 0.701327 0.709807
0.994412 0.726085 0.733844
1.005127 0.747751 0.749051
0.167693 0.349936 0.231894
0.170218 0.348810 0.231202
0.172871 0.346533 0.229535
0.178222 0.345420 0.228871
0.187053 0.345485 0.229359
0.200622 0.344446 0.229203
0.219714 0.343474 0.229414
0.246339 0.343759 0.231127
0.286263 0.339884 0.231229
0.333980 0.337797 0.235269
0.379938 0.339570 0.243971
0.420691 0.341019 0.254413
0.462809 0.343859 0.269195
0.504496 0.349415 0.288590
0.552504 0.357711 0.315644
0.593434 0.369861 0.343760
0.631766 0.381943 0.372523
0.669862 0.398136 0.403768
0.709971 0.420283 0.438895
0.719319 0.429099 0.447943
0.688901 0.428486 0.425440
0.714796 0.452667 0.451437
0.744942 0.477754 0.481278
0.773484 0.503379 0.510098
0.804959 0.531263 0.541451
0.835997 0.560405 0.572118
0.863410 0.589237 0.600300
0.889482 0.615692 0.626801
0.915355 0.641959 0.652877
0.946424 0.672656 0.683798
0.970982 0.701305 0.709712
0.994412 0.726085 0.733844
1.005127 0.747751 0.749051
0.190425 0.373068 0.251211
0.193007 0.373086 0.251364
0.195983 0.371951 0.250545
0.200684 0.370832 0.249862
0.209787 0.370895 0.250331
0.220330 0.368672 0.249011
0.238060 0.368819 0.249968
0.261291 0.369044 0.251334
0.293971 0.366044 0.251194
0.327768 0.364428 0.253233
0.371767 0.363402 0.258209
0.420641 0.365663 0.269257
0.462321 0.367531 0.281714
0.507288 0.371196 0.299740
0.551568 0.377394 0.322827
0.595995 0.387757 0.351274
0.631886 0.398204 0.377130
0.672321 0.414507 0.409416
0.711192 0.432453 0.442323
0.742511 0.450864 0.470358
0.756276 0.461293 0.483244
0.721799 0.458841 0.456994
0.747243 0.481765 0.482779
0.775750 0.507603 0.511798
0.806081 0.534400 0.542416
0.837105 0.563077 0.573254
0.864503 0.591358 0.601253
0.889486 0.616708 0.626834
0.916430 0.643053 0.653786
0.946426 0.673137 0.683719
0.970985 0.701827 0.709822
0.994415 0.726653 0.733884
1.005127 0.747725 0.748925
0.215943 0.396664 0.271746
0.218878 0.396681 0.271893
0.222396 0.396701 0.272013
0.226218 0.395549 0.271208
0.233001 0.394418 0.270534
0.242406 0.393310 0.269992
0.257929 0.392254 0.269735
0.279895 0.391296 0.270178
0.303042 0.390406 0.270941
0.333220 0.389713 0.272829
0.365475 0.386945 0.274237
0.411832 0.387384 0.281839
0.460797 0.389960 0.294562
0.504224 0.391456 0.309110
0.553098 0.397839 0.332539
0.596189 0.405114 0.357639
0.633208 0.414063 0.382873
0.677146 0.429436 0.416617
0.712415 0.444209 0.445803
0.745992 0.462537 0.475380
0.777858 0.480952 0.504139
0.794740 0.495199 0.520333
0.754125 0.487857 0.487989
0.779142 0.512084 0.514201
0.807201 0.537460 0.542949
0.838207 0.565143 0.573982
0.864508 0.592828 0.601064
0.890569 0.618292 0.627669
0.916434 0.644087 0.653912
0.947492 0.673677 0.684418
0.970986 0.702305 0.709742
0.994419 0.727280 0.734032
1.005130 0.748319 0.748945
0.245775 0.421662 0.294034
0.248215 0.421675 0.294117
0.251753 0.421695 0.294248
0.255717 0.421718 0.294396
0.262506 0.421761 0.294710
0.270119 0.420629 0.294124
0.283934 0.419547 0.293823
0.302227 0.418527 0.293898
0.321676 0.417558 0.294277
0.343162 0.415490 0.294171
0.370826 0.413644 0.295347
0.405070 0.412191 0.298564
0.453786 0.411783 0.307019
0.500214 0.413676 0.320594
0.552344 0.419955 0.342940
0.595265 0.425381 0.365275
0.634581 0.433095 0.390188
0.677266 0.445230 0.421265
0.714830 0.459374 0.451336
0.749483 0.475123 0.480786
0.782413 0.493647 0.510196
0.817060 0.515528 0.542066
0.828128 0.525817 0.552897
0.783671 0.519042 0.517843
0.809447 0.543726 0.544881
0.840418 0.569960 0.576054
0.864515 0.594835 0.600980
0.890578 0.620325 0.627735
0.916441 0.645606 0.653960
0.947495 0.674663 0.684354
0.970992 0.703460 0.709914
0.994422 0.727884 0.734086
1.005129 0.748293 0.748818
0.279941 0.449290 0.319388
0.282084 0.449302 0.319466
0.286077 0.449326 0.319623
0.289323 0.448148 0.318733
0.295278 0.448186 0.318984
0.303289 0.447045 0.318337
0.312087 0.445918 0.317733
0.324861 0.444847 0.317493
0.340256 0.443818 0.317509
0.358741 0.444048 0.318990
0.380244 0.443203 0.320107
0.409252 0.441442 0.321821
0.447862 0.440203 0.326357
0.494335 0.440043 0.336003
0.546973 0.441674 0.352783
0.594465 0.447386 0.375260
0.636033 0.454732 0.399554
0.677435 0.464054 0.427454
0.718437 0.477700 0.458856
0.751854 0.490530 0.486175
0.783598 0.506208 0.513740
0.818206 0.525979 0.544935
0.847944 0.545421 0.572535
0.856696 0.553398 0.581089
0.816125 0.550339 0.549821
0.842627 0.574792 0.577520
0.866696 0.598048 0.602756
0.891665 0.623510 0.628679
0.917519 0.647668 0.654711
0.947502 0.676196 0.684495
0.970998 0.704657 0.709928
0.994429 0.729114 0.734287
1.005133 0.748914 0.748965
0.318742 0.474754 0.343540
0.320446 0.474764 0.343611
0.322152 0.474775 0.343682
0.325252 0.474797 0.343828
0.327470 0.473616 0.342874
0.334337 0.473668 0.343245
0.339391 0.472508 0.342432
0.348879 0.471400 0.341970
0.359730 0.470307 0.341602
0.375962 0.469309 0.341877
0.394001 0.467174 0.341461
0.419658 0.466434 0.343291
0.451193 0.464833 0.345970
0.487746 0.463770 0.351408
0.539631 0.466518 0.365807
0.592604 0.470230 0.386467
0.633983 0.474906 0.407409
0.677629 0.482570 0.434240
0.718561 0.493854 0.463706
0.753084 0.504895 0.490698
0.787042 0.520346 0.519539
0.820460 0.537339 0.548986
0.849070 0.554406 0.575100
0.876309 0.572243 0.600461
0.886062 0.581632 0.610100
0.845940 0.581148 0.579922
0.867802 0.602829 0.603684
0.892752 0.626400 0.629385
0.917528 0.649825 0.654719
0.947510 0.678210 0.684556
0.971009 0.706506 0.710186
0.994436 0.730322 0.734394
1.005136 0.749509 0.748985
0.352413 0.500271 0.367991
0.354481 0.500287 0.368095
0.355861 0.500297 0.368164
0.357936 0.500313 0.368269
0.360314 0.499128 0.367303
0.364557 0.499160 0.367543
0.367880 0.497985 0.366648
0.375903 0.498060 0.367147
0.382842 0.496923 0.366534
0.395494 0.495860 0.366381
0.413204 0.493677 0.365703
0.434969 0.494032 0.367981
0.461711 0.492207 0.369468
0.491040 0.491845 0.373452
0.531624 0.492265 0.381553
0.587400 0.493674 0.398309
0.632083 0.498316 0.418179
0.677896 0.503451 0.442878
0.718736 0.512000 0.470060
0.755496 0.522555 0.497517
0.789361 0.535113 0.524945
0.821621 0.549298 0.552479
0.853484 0.567127 0.581082
0.878506 0.581977 0.604006
0.906574 0.600828 0.630296
0.913030 0.608166 0.636883
0.873254 0.610795 0.607929
0.894921 0.631025 0.631056
0.918623 0.654641 0.655949
0.947525 0.681141 0.684768
0.971014 0.707659 0.710010
0.994446 0.732135 0.734553
1.005137 0.750051 0.748751
0.386094 0.524597 0.391593
0.386803 0.524602 0.391629
0.387512 0.524607 0.391664
0.388947 0.524618 0.391736
0.391112 0.524633 0.391845
0.394350 0.524663 0.392044
0.398905 0.523499 0.391233
0.403008 0.523539 0.391509
0.409210 0.522390 0.390802
0.420384 0.521311 0.390566
0.434806 0.520284 0.390665
0.451265 0.519338 0.391254
0.471356 0.518503 0.392536
0.496707 0.517880 0.395102
0.534357 0.516763 0.400502
0.577835 0.516614 0.410514
0.626790 0.520315 0.428405
0.672402 0.524775 0.450169
0.717830 0.533008 0.477715
0.754524 0.541298 0.503029
0.789486 0.552698 0.529965
0.823908 0.564106 0.557777
0.855722 0.579543 0.585501
0.881797 0.594412 0.609044
0.908754 0.610537 0.633800
0.934483 0.628063 0.657993
0.939837 0.635267 0.663656
0.899246 0.637832 0.634302
0.920790 0.661161 0.658025
0.947552 0.686093 0.685398
0.971025 0.710066 0.709989
0.995515 0.734411 0.735467
1.005145 0.751809 0.748682
0.420833 0.557363 0.423290
0.421557 0.557368 0.423327
0.422283 0.557373 0.423363
0.423831 0.557386 0.423449
0.425494 0.557401 0.423554
0.428824 0.557432 0.423763
0.432158 0.557464 0.423999
0.436789 0.556301 0.423182
0.444283 0.556370 0.423653
0.453004 0.555268 0.423243
0.463870 0.554201 0.423049
0.476038 0.553171 0.423102
0.491942 0.552235 0.423755
0.512476 0.550269 0.424359
0.541614 0.549839 0.428035
0.580807 0.550110 0.435542
0.620869 0.549989 0.445539
0.664864 0.551436 0.461410
0.717060 0.558429 0.488669
0.755932 0.565983 0.513151
0.791896 0.574525 0.538531
0.826244 0.584655 0.564996
0.856907 0.596973 0.590516
0.885108 0.609884 0.614941
0.912025 0.624233 0.639066
0.936655 0.638879 0.661694
0.960127 0.654659 0.683737
0.963334 0.659965 0.687304
0.925086 0.667953 0.661302
0.948638 0.690839 0.686370
0.973171 0.715267 0.711966
0.995522 0.736150 0.735193
1.005157 0.754193 0.748802
0.457424 0.580478 0.446555
0.458264 0.580486 0.446608
0.459105 0.580494 0.446661
0.459946 0.580501 0.446714
0.461628 0.580517 0.446820
0.462469 0.580524 0.446873
0.464991 0.580547 0.447032
0.468832 0.579384 0.446181
0.474336 0.579448 0.446614
0.479905 0.579515 0.447064
0.488973 0.578428 0.446727
0.500285 0.577389 0.446696
0.513173 0.576406 0.447019
0.530530 0.575541 0.448092
0.555044 0.576082 0.451557
0.586936 0.574722 0.455644
0.621978 0.573972 0.462726
0.656515 0.578343 0.475353
0.711764 0.580459 0.497460
0.752783 0.584520 0.519246
0.789854 0.592339 0.543607
0.826376 0.601730 0.570210
0.859184 0.612898 0.596351
0.887341 0.624091 0.619975
0.913156 0.636784 0.642627
0.940970 0.651942 0.667683
0.964422 0.666697 0.689402
0.986756 0.680976 0.710259
0.985709 0.684492 0.710013
0.955045 0.699212 0.691547
0.975304 0.718564 0.713271
0.996604 0.740857 0.736390
1.005175 0.757350 0.749084
0.492355 0.607089 0.473060
0.492355 0.607089 0.473060
0.493200 0.607096 0.473113
0.494892 0.607112 0.473220
0.495737 0.607119 0.473273
0.496583 0.607127 0.473327
0.499356 0.607159 0.473547
0.502160 0.607193 0.473787
0.505892 0.607238 0.474090
0.510555 0.607293 0.474468
0.518697 0.606200 0.474050
0.528405 0.606335 0.474959
0.541295 0.605355 0.475281
0.555423 0.604418 0.475865
0.577618 0.603726 0.477981
0.601613 0.603248 0.481288
0.625965 0.601820 0.484743
0.657605 0.602223 0.492489
0.702087 0.604298 0.507686
0.748710 0.609322 0.529407
0.790129 0.614117 0.552725
0.826557 0.620682 0.576894
0.861485 0.630454 0.603102
0.889593 0.640170 0.625698
0.916447 0.651865 0.648638
0.943157 0.664217 0.671982
0.966589 0.677479 0.693223
0.987851 0.689978 0.712760
1.004852 0.701390 0.728732
1.004870 0.706108 0.729581
0.977456 0.725579 0.715096
0.997683 0.745459 0.736989
1.005202 0.761471 0.749207
0.530012 0.634799 0.500950
0.530949 0.634810 0.501027
0.530949 0.634810 0.501027
0.532822 0.634833 0.501179
0.533757 0.634844 0.501255
0.534691 0.634855 0.501331
0.535626 0.634866 0.501408
0.537494 0.634888 0.501560
0.540022 0.633734 0.500681
0.545628 0.633801 0.501138
0.552269 0.633884 0.501709
0.560336 0.634014 0.502577
0.571208 0.633008 0.502686
0.585430 0.632094 0.503378
0.600292 0.632420 0.505496
0.619549 0.631752 0.507651
0.641367 0.631256 0.510799
0.666978 0.630045 0.515292
0.703038 0.630952 0.525449
0.740373 0.635056 0.540722
0.787202 0.637603 0.562382
0.823545 0.643054 0.584043
0.861684 0.652232 0.610577
0.890805 0.658757 0.631991
0.917618 0.668756 0.653792
0.946431 0.679990 0.678075
0.967713 0.690704 0.696898
0.993210 0.704488 0.719872
1.004892 0.711210 0.730580
1.004883 0.709085 0.730164
1.004919 0.717563 0.731825
1.000887 0.751766 0.739358
1.005238 0.767035 0.749591
0.571324 0.660047 0.527036
0.571324 0.660047 0.527036
0.573192 0.660069 0.527189
0.573192 0.660069 0.527189
0.574126 0.660080 0.527265
0.575060 0.660092 0.527341
0.575719 0.658925 0.526318
