Assets/Lutify-Free-LUTs-Pack/Lutify Free LUTs Pack/Cine World Pro Warm - Amy/Lutify.me-Amy-SLog3-to-Rec709.cube
# Created with: fylm.ai - Colour Grading and Collaboration Software in Cloud 
# Website: https://fylm.ai 
# META
# Option: Gamut compress
# Block 1: IDT | Sony S-Log3 S-Gamut3
# Block 2: colourMatch | Blending Mode: Normal | {"ColorSpace":0,"CrossCovarianceLimit":50,"ReshapingIterations":1,"PercentSaturationShift":100,"PercentShadingShift":100,"ExtraShading":true,"PercentTint":100,"PercentModified":100}
# Block 3: LUT | Filmic Curve Response: Standard Contrast 1 (100%)
# Block 4: LUT | Illuminant: D60 (100%)
# Block 5: hueSaturation | Blending Mode: Normal | {"hue":0,"saturation":-0.15}
# Block 6: logPrimaries | Blending Mode: Normal | {"wheels":{"shadows":{"Y":"0","R":"1","G":"1","B":"1"},"midtones":{"Y":"0","R":"1","G":"1","B":"1"},"highlights":{"Y":"0","R":"1","G":"1","B":"1"},"offset":{"Y":"0","R":"1","G":"1","B":"1"}},"sliders":{"shadows":{"Y":0,"R":-0.097,"G":0,"B":0.158},"midtones":{"Y":0,"R":0.024,"G":0.024,"B":-0.036},"highlights":{"Y":0,"R":0.154,"G":-0.084,"B":-0.024},"offset":{"Y":0.048,"R":0,"G":0,"B":0}}}
# Block 7: smartCurves | Blending Mode: Average | [[{"x":0,"y":0},{"x":0.11328125,"y":0.085540771484375},{"x":0.21484375,"y":0.218353271484375},{"x":0.37109375,"y":0.382415771484375},{"x":0.62109375,"y":0.589447021484375},{"x":0.8125,"y":0.765228271484375},{"x":1,"y":1}],[{"x":0,"y":0},{"x":1,"y":1}],[{"x":0,"y":0},{"x":1,"y":1}],[{"x":0,"y":0},{"x":1,"y":1}]]
# Block 8: LUT | Neutral Tint: Teal Tint 4 (100%)
# Block 9: contrast | Blending Mode: Normal | {"contrast":0.1}
# Block 10: ODT | Rec709
TITLE "Lutify.me-Amy-SLog3-to-Rec709" 
LUT_3D_SIZE 5
0.000000 0.000000 0.000000
0.213123 0.000000 0.000000
0.749963 0.000000 0.000000
1.000000 0.474845 0.330629
1.000000 0.933611 0.870874
0.000000 0.125272 0.000000
0.171279 0.083888 0.000000
0.758399 0.000000 0.000000
1.000000 0.491970 0.334889
1.000000 0.934177 0.871898
0.000000 0.547431 0.000000
0.000000 0.547252 0.000000
0.752468 0.503391 0.000000
1.000000 0.608559 0.355074
1.000000 0.936443 0.872956
0.000000 0.974377 0.696882
0.000000 0.974075 0.684390
0.000000 0.967763 0.628510
1.000000 0.936984 0.518521
1.000000 0.958252 0.887444
0.828063 1.000000 0.982497
0.830967 1.000000 0.982486
0.850884 1.000000 0.980909
0.938511 1.000000 0.969974
1.000000 1.000000 0.941641
0.000000 0.000000 0.084386
0.145934 0.000000 0.044521
0.707946 0.000000 0.061525
1.000000 0.473259 0.355020
1.000000 0.934197 0.873833
0.000000 0.137204 0.193845
0.048131 0.101857 0.137606
0.707750 0.000000 0.077008
1.000000 0.490443 0.362233
1.000000 0.934171 0.872904
0.000000 0.569036 0.334246
0.000000 0.569081 0.221778
0.700051 0.534783 0.000000
1.000000 0.608473 0.383632
1.000000 0.936437 0.873955
0.000000 0.975194 0.730944
0.000000 0.974139 0.712898
0.000000 0.968660 0.659640
1.000000 0.937835 0.544535
1.000000 0.958247 0.888338
0.828036 1.000000 0.983231
0.830952 1.000000 0.982855
0.850866 1.000000 0.981290
0.938522 1.000000 0.970496
1.000000 1.000000 0.941641
0.000000 0.000000 0.233944
0.057454 0.000000 0.157534
0.726823 0.000000 0.128648
1.000000 0.463738 0.490903
1.000000 0.934153 0.880660
0.000000 0.098288 0.401027
0.000000 0.081864 0.337479
0.667518 0.000000 0.307423
1.000000 0.484647 0.496767
1.000000 0.934147 0.881618
0.000000 0.667443 0.769365
0.000000 0.607963 0.727209
0.510943 0.578346 0.665502
1.000000 0.610049 0.529852
1.000000 0.936940 0.882593
0.000000 0.977723 0.866081
0.000000 0.976855 0.855698
0.000000 0.969843 0.814173
1.000000 0.940119 0.686899
1.000000 0.958215 0.893682
0.825033 1.000000 0.986050
0.827954 1.000000 0.985701
0.848406 1.000000 0.984601
0.938263 1.000000 0.975069
1.000000 1.000000 0.946774
0.000000 0.245890 0.780220
0.000000 0.244671 0.776927
0.491721 0.154812 0.761854
1.000000 0.000000 0.663552
1.000000 0.930251 0.928120
0.000000 0.299123 0.813876
0.000000 0.298303 0.810997
0.471130 0.232995 0.806499
1.000000 0.000000 0.736994
1.000000 0.930833 0.928910
0.000000 0.541156 0.910126
0.000000 0.540873 0.911629
0.228321 0.515894 0.909627
1.000000 0.445306 0.881133
1.000000 0.933752 0.929597
0.000000 0.994839 0.992747
0.000000 0.990540 0.992726
0.000000 0.984006 0.991988
0.963887 0.945732 0.972514
1.000000 0.957463 0.941837
0.811180 1.000000 1.000000
0.812580 1.000000 1.000000
0.832983 1.000000 1.000000
0.930110 1.000000 0.996404
1.000000 1.000000 0.977184
0.491940 0.801213 1.000000
0.521623 0.800222 1.000000
0.642580 0.787452 1.000000
0.998247 0.748391 1.000000
1.000000 0.844366 0.988968
0.488252 0.806455 1.000000
0.520149 0.802919 1.000000
0.638182 0.795592 1.000000
0.995838 0.751503 1.000000
1.000000 0.847795 0.990397
0.450738 0.844146 1.000000
0.475837 0.843493 1.000000
0.622722 0.834035 1.000000
0.974138 0.796975 1.000000
1.000000 0.863420 0.995696
0.316927 0.956093 1.000000
0.353668 0.955552 1.000000
0.518295 0.952793 1.000000
0.909272 0.929608 1.000000
1.000000 0.928412 1.000000
0.656318 1.000000 1.000000
0.657946 1.000000 1.000000
0.698404 1.000000 1.000000
0.870327 1.000000 1.000000
1.000000 1.000000 1.000000
