Assets/Lutify-Free-LUTs-Pack/Lutify Free LUTs Pack/Cine World Pro Warm - Amy/Lutify.me-Amy-VLog-to-Rec709.cube
# Created with: fylm.ai - Colour Grading and Collaboration Software in Cloud 
# Website: https://fylm.ai 
# META
# Option: Gamut compress
# Block 1: IDT | Panasonic V-Gamut V-Log
# Block 2: colourMatch | Blending Mode: Normal | {"ColorSpace":0,"CrossCovarianceLimit":50,"ReshapingIterations":1,"PercentSaturationShift":100,"PercentShadingShift":100,"ExtraShading":true,"PercentTint":100,"PercentModified":100}
# Block 3: LUT | Filmic Curve Response: Standard Contrast 1 (100%)
# Block 4: LUT | Illuminant: D60 (100%)
# Block 5: hueSaturation | Blending Mode: Normal | {"hue":0,"saturation":-0.15}
# Block 6: logPrimaries | Blending Mode: Normal | {"wheels":{"shadows":{"Y":"0","R":"1","G":"1","B":"1"},"midtones":{"Y":"0","R":"1","G":"1","B":"1"},"highlights":{"Y":"0","R":"1","G":"1","B":"1"},"offset":{"Y":"0","R":"1","G":"1","B":"1"}},"sliders":{"shadows":{"Y":0,"R":-0.097,"G":0,"B":0.158},"midtones":{"Y":0,"R":0.024,"G":0.024,"B":-0.036},"highlights":{"Y":0,"R":0.154,"G":-0.084,"B":-0.024},"offset":{"Y":0.048,"R":0,"G":0,"B":0}}}
# Block 7: smartCurves | Blending Mode: Average | [[{"x":0,"y":0},{"x":0.11328125,"y":0.085540771484375},{"x":0.21484375,"y":0.218353271484375},{"x":0.37109375,"y":0.382415771484375},{"x":0.62109375,"y":0.589447021484375},{"x":0.8125,"y":0.765228271484375},{"x":1,"y":1}],[{"x":0,"y":0},{"x":1,"y":1}],[{"x":0,"y":0},{"x":1,"y":1}],[{"x":0,"y":0},{"x":1,"y":1}]]
# Block 8: LUT | Neutral Tint: Teal Tint 4 (100%)
# Block 9: contrast | Blending Mode: Normal | {"contrast":0.1}
# Block 10: ODT | Rec709
TITLE "Lutify.me-Amy-VLog-to-Rec709" 
LUT_3D_SIZE 33
0.000000 0.000000 0.000000
0.000000 0.000000 0.000000
0.000000 0.000000 0.000000
0.000000 0.000000 0.000000
0.000000 0.000000 0.000000
0.000000 0.000000 0.000000
0.083601 0.000000 0.000000
0.139863 0.000000 0.000000
0.198508 0.000000 0.000000
0.262636 0.000000 0.000000
0.340162 0.000000 0.000000
0.407108 0.000000 0.000000
0.464992 0.000000 0.000000
0.546591 0.000000 0.000000
0.619026 0.000000 0.000000
0.681665 0.000000 0.000000
0.749851 0.000000 0.000000
0.835657 0.000000 0.000000
0.921165 0.000000 0.000000
0.996845 0.000000 0.044064
1.000000 0.000000 0.087632
1.000000 0.000000 0.135914
1.000000 0.202245 0.190500
1.000000 0.359339 0.248344
1.000000 0.476335 0.329367
1.000000 0.581866 0.417656
1.000000 0.678092 0.496996
1.000000 0.759289 0.582681
1.000000 0.816052 0.673585
1.000000 0.859904 0.750131
1.000000 0.893782 0.802987
1.000000 0.922845 0.851880
1.000000 0.942311 0.886693
0.000000 0.000000 0.000000
0.000000 0.000000 0.000000
0.000000 0.000000 0.000000
0.000000 0.000000 0.000000
0.000000 0.000000 0.000000
0.000000 0.000000 0.000000
0.080852 0.000000 0.000000
0.135739 0.000000 0.000000
0.191695 0.000000 0.000000
0.255122 0.000000 0.000000
0.328386 0.000000 0.000000
0.398288 0.000000 0.000000
0.458142 0.000000 0.000000
0.527149 0.000000 0.000000
0.610864 0.000000 0.000000
0.677482 0.000000 0.000000
0.745579 0.000000 0.000000
0.827139 0.000000 0.000000
0.924580 0.000000 0.000000
0.999241 0.000000 0.043516
1.000000 0.000000 0.088601
1.000000 0.000000 0.137132
1.000000 0.212877 0.191321
1.000000 0.362857 0.249784
1.000000 0.479457 0.329149
1.000000 0.584693 0.417488
1.000000 0.680504 0.496881
1.000000 0.761109 0.582642
1.000000 0.816052 0.673585
1.000000 0.860943 0.750143
1.000000 0.893782 0.802987
1.000000 0.922845 0.851880
1.000000 0.942311 0.886693
0.000000 0.000000 0.000000
0.000000 0.000000 0.000000
0.000000 0.000000 0.000000
0.000000 0.000000 0.000000
0.000000 0.000000 0.000000
0.000000 0.000000 0.000000
0.076740 0.000000 0.000000
0.132554 0.000000 0.000000
0.185211 0.000000 0.000000
0.249626 0.000000 0.000000
0.323829 0.000000 0.000000
0.384089 0.000000 0.000000
0.448072 0.000000 0.000000
0.523311 0.000000 0.000000
0.606812 0.000000 0.000000
0.677513 0.000000 0.000000
0.745586 0.000000 0.000000
0.827114 0.000000 0.000000
0.924488 0.000000 0.000000
0.999076 0.000000 0.043181
1.000000 0.000000 0.088619
1.000000 0.000000 0.136319
1.000000 0.218045 0.191024
1.000000 0.367929 0.250292
1.000000 0.482584 0.328929
1.000000 0.584693 0.417488
1.000000 0.680504 0.496881
1.000000 0.761109 0.582642
1.000000 0.816052 0.673585
1.000000 0.860943 0.750143
1.000000 0.893782 0.802987
1.000000 0.922845 0.851880
1.000000 0.942311 0.886693
0.000000 0.000000 0.000000
0.000000 0.000000 0.000000
0.000000 0.000000 0.000000
0.000000 0.000000 0.000000
0.000000 0.000000 0.000000
0.000000 0.000000 0.000000
0.075241 0.000000 0.000000
0.128906 0.000000 0.000000
0.179011 0.000000 0.000000
0.242490 0.000000 0.000000
0.317159 0.000000 0.000000
0.375892 0.000000 0.000000
0.444790 0.000000 0.000000
0.515818 0.000000 0.000000
0.606846 0.000000 0.000000
0.673326 0.000000 0.000000
0.745592 0.000000 0.000000
0.827088 0.000000 0.000000
0.924389 0.000000 0.000000
0.998854 0.000000 0.042285
1.000000 0.000000 0.088799
1.000000 0.000000 0.137215
1.000000 0.223115 0.190722
1.000000 0.371426 0.250014
1.000000 0.484035 0.332049
1.000000 0.587529 0.417318
1.000000 0.681824 0.498028
1.000000 0.761109 0.582642
1.000000 0.816052 0.673585
1.000000 0.860943 0.750143
1.000000 0.894583 0.803003
1.000000 0.922845 0.851880
1.000000 0.942311 0.886693
0.000000 0.000000 0.000000
0.000000 0.000000 0.000000
0.000000 0.000000 0.000000
0.000000 0.000000 0.000000
0.000000 0.000000 0.000000
0.000000 0.000000 0.000000
0.071113 0.000000 0.000000
0.123513 0.000000 0.000000
0.170724 0.000000 0.000000
0.237247 0.000000 0.000000
0.308502 0.000000 0.000000
0.370567 0.000000 0.000000
0.431867 0.000000 0.000000
0.512120 0.000000 0.000000
0.606903 0.000000 0.000000
0.669149 0.000000 0.000000
0.745596 0.000000 0.000000
0.835543 0.000000 0.000000
0.927712 0.000000 0.000000
1.000000 0.000000 0.041638
1.000000 0.000000 0.089406
1.000000 0.000000 0.136639
1.000000 0.228087 0.191840
1.000000 0.371418 0.251744
1.000000 0.484035 0.332049
1.000000 0.587529 0.417318
1.000000 0.681824 0.498028
1.000000 0.762923 0.582605
1.000000 0.816052 0.673585
1.000000 0.860943 0.750143
1.000000 0.894583 0.803003
1.000000 0.922845 0.851880
1.000000 0.942823 0.886703
0.000000 0.012884 0.000000
0.000000 0.011783 0.000000
0.000000 0.009382 0.000000
0.000000 0.006927 0.000000
0.000000 0.000287 0.000000
0.000000 0.000000 0.014314
0.067615 0.000000 0.000000
0.117801 0.000000 0.000000
0.164888 0.000000 0.000000
0.227206 0.000000 0.000000
0.302248 0.000000 0.000000
0.367960 0.000000 0.000000
0.438314 0.000000 0.000000
0.508470 0.000000 0.000000
0.602880 0.000000 0.000000
0.673381 0.000000 0.000000
0.749875 0.000000 0.000000
0.835505 0.000000 0.000000
0.927583 0.000000 0.000000
1.000000 0.000000 0.040297
1.000000 0.000000 0.090283
1.000000 0.000000 0.137235
1.000000 0.237812 0.191218
1.000000 0.374913 0.251466
1.000000 0.487152 0.331831
1.000000 0.590373 0.417147
1.000000 0.681824 0.498028
1.000000 0.762911 0.585090
1.000000 0.817429 0.675947
1.000000 0.860943 0.750143
1.000000 0.894583 0.803003
1.000000 0.922845 0.851880
1.000000 0.942823 0.886703
0.000000 0.050577 0.000000
0.000000 0.047582 0.000000
0.000000 0.045861 0.000000
0.000000 0.044085 0.000000
0.000000 0.041883 0.000000
0.000000 0.034337 0.000000
0.056667 0.028747 0.000000
0.109572 0.000000 0.000000
0.159293 0.000000 0.000000
0.227016 0.000000 0.000000
0.300082 0.000000 0.000000
0.365325 0.000000 0.000000
0.428770 0.000000 0.000000
0.512258 0.000000 0.000000
0.602933 0.000000 0.000000
0.677619 0.000000 0.000000
0.745598 0.000000 0.000000
0.839654 0.000000 0.000000
0.930874 0.000000 0.000000
1.000000 0.000000 0.042371
1.000000 0.000000 0.089257
1.000000 0.000000 0.136616
1.000000 0.244321 0.191559
1.000000 0.378396 0.252932
1.000000 0.490265 0.333815
1.000000 0.590373 0.417147
1.000000 0.684213 0.497916
1.000000 0.762911 0.585090
1.000000 0.817429 0.675947
1.000000 0.860943 0.750143
1.000000 0.894583 0.803003
1.000000 0.922845 0.851880
1.000000 0.942823 0.886703
0.000000 0.074371 0.000000
0.000000 0.072537 0.000000
0.000000 0.069572 0.000000
0.000000 0.066245 0.000000
0.000000 0.063188 0.000000
0.000000 0.057938 0.000000
0.047007 0.053639 0.000000
0.104155 0.044626 0.000000
0.161209 0.015341 0.000000
0.229961 0.000000 0.000000
0.295886 0.000000 0.000000
0.368055 0.000000 0.000000
0.438517 0.000000 0.000000
0.516082 0.000000 0.000000
0.607073 0.000000 0.000000
0.681858 0.000000 0.000000
0.745599 0.000000 0.000000
0.839588 0.000000 0.000000
0.927216 0.000000 0.000000
1.000000 0.000000 0.041355
1.000000 0.000000 0.088155
1.000000 0.000000 0.137189
1.000000 0.253554 0.192356
1.000000 0.385371 0.252362
1.000000 0.490265 0.333815
1.000000 0.590362 0.419563
1.000000 0.684213 0.497916
1.000000 0.764717 0.585055
1.000000 0.817429 0.675947
1.000000 0.861978 0.750157
1.000000 0.894583 0.803003
1.000000 0.922845 0.851880
1.000000 0.942823 0.886703
0.000000 0.101137 0.000000
0.000000 0.097895 0.000000
0.000000 0.094751 0.000000
0.000000 0.091706 0.000000
0.000000 0.088046 0.000000
0.000000 0.081847 0.000000
0.029612 0.076284 0.000000
0.098210 0.069559 0.000000
0.160034 0.057887 0.000000
0.233062 0.000000 0.000000
0.300064 0.000000 0.000000
0.370943 0.000000 0.000000
0.445335 0.000000 0.000000
0.516320 0.000000 0.000000
0.603137 0.000000 0.000000
0.677702 0.000000 0.000000
0.741331 0.000000 0.000000
0.843627 0.000000 0.000000
0.926964 0.000000 0.000000
1.000000 0.000000 0.038579
1.000000 0.000000 0.088599
1.000000 0.000000 0.137998
1.000000 0.262574 0.193155
1.000000 0.392339 0.251777
1.000000 0.496527 0.333372
1.000000 0.593214 0.419392
1.000000 0.686599 0.497804
1.000000 0.764717 0.585055
1.000000 0.817429 0.675947
1.000000 0.861978 0.750157
1.000000 0.894583 0.803003
1.000000 0.923490 0.851895
1.000000 0.942823 0.886703
0.000000 0.139427 0.000000
0.000000 0.132700 0.000000
0.000000 0.129464 0.000000
0.000000 0.126305 0.000000
0.000000 0.121207 0.000000
0.000000 0.113501 0.000000
0.000000 0.107442 0.000000
0.087653 0.101755 0.000000
0.157938 0.092226 0.000000
0.236199 0.074689 0.000000
0.306806 0.025165 0.000000
0.379714 0.000000 0.000000
0.449297 0.000000 0.000000
0.524555 0.000000 0.000000
0.607527 0.000000 0.000000
0.682026 0.000000 0.000000
0.749851 0.000000 0.000000
0.847552 0.000000 0.000000
0.923100 0.000000 0.000000
0.996986 0.000000 0.035383
1.000000 0.000000 0.087657
1.000000 0.007376 0.137824
1.000000 0.271411 0.193956
1.000000 0.399294 0.252957
1.000000 0.499657 0.335377
1.000000 0.596073 0.419220
1.000000 0.688981 0.497694
1.000000 0.766515 0.585022
1.000000 0.818816 0.675951
1.000000 0.861978 0.750157
1.000000 0.894583 0.803003
1.000000 0.923490 0.851895
1.000000 0.942823 0.886703
0.000000 0.182043 0.000000
0.000000 0.174587 0.000000
0.000000 0.168814 0.000000
0.000000 0.163280 0.000000
0.000000 0.155329 0.000000
0.000000 0.151535 0.000000
0.000000 0.146236 0.000000
0.042541 0.141311 0.000000
0.146232 0.135245 0.000000
0.235973 0.119546 0.000000
0.312096 0.098485 0.000000
0.386801 0.059769 0.000000
0.457667 0.000000 0.000000
0.529714 0.000000 0.000000
0.620518 0.000000 0.000000
0.682391 0.000000 0.000000
0.754072 0.000000 0.000000
0.847178 0.000000 0.000000
0.922571 0.000000 0.000000
0.993540 0.000000 0.025861
1.000000 0.000000 0.086760
1.000000 0.115075 0.136576
1.000000 0.288624 0.195565
1.000000 0.407599 0.254944
1.000000 0.505953 0.334928
1.000000 0.600373 0.420115
1.000000 0.691348 0.500051
1.000000 0.768305 0.584991
1.000000 0.820201 0.675957
1.000000 0.863000 0.752049
1.000000 0.894583 0.803003
1.000000 0.923490 0.851895
1.000000 0.942823 0.886703
0.000000 0.225167 0.000000
0.000000 0.218192 0.000000
0.000000 0.211167 0.000000
0.000000 0.207728 0.000000
0.000000 0.202686 0.000000
0.000000 0.197750 0.000000
0.000000 0.189574 0.000000
0.000000 0.182630 0.000000
0.109885 0.178867 0.000000
0.221433 0.167103 0.000000
0.309187 0.151133 0.000000
0.391948 0.126584 0.000000
0.470569 0.103619 0.000000
0.543221 0.049351 0.000000
0.629738 0.000000 0.000000
0.691261 0.000000 0.000000
0.758297 0.000000 0.000000
0.850633 0.000000 0.000000
0.925189 0.000000 0.000000
0.992555 0.000000 0.000000
1.000000 0.000000 0.082866
1.000000 0.165268 0.137958
1.000000 0.310812 0.194393
1.000000 0.421437 0.255522
1.000000 0.512261 0.336725
1.000000 0.606090 0.422193
1.000000 0.693722 0.499943
1.000000 0.770087 0.584962
1.000000 0.821582 0.675965
1.000000 0.863593 0.752984
1.000000 0.895383 0.803019
1.000000 0.923483 0.853048
1.000000 0.943334 0.886712
0.000000 0.267880 0.000000
0.000000 0.261866 0.000000
0.000000 0.255980 0.000000
0.000000 0.254029 0.000000
0.000000 0.244581 0.000000
0.000000 0.242638 0.000000
0.000000 0.240620 0.000000
0.000000 0.236446 0.000000
0.000000 0.231084 0.000000
0.169887 0.223158 0.000000
0.288906 0.210006 0.000000
0.381297 0.195524 0.000000
0.477713 0.169450 0.000000
0.565584 0.151470 0.000000
0.639947 0.133838 0.000000
0.700662 0.106114 0.000000
0.762753 0.088931 0.000000
0.857423 0.000000 0.000000
0.926841 0.000000 0.000000
0.993167 0.000000 0.000000
1.000000 0.042967 0.080047
1.000000 0.208035 0.138173
1.000000 0.339018 0.196297
1.000000 0.435311 0.257935
1.000000 0.523069 0.336980
1.000000 0.611848 0.421844
1.000000 0.698455 0.499732
1.000000 0.774501 0.586112
1.000000 0.822960 0.675974
1.000000 0.864612 0.752999
1.000000 0.895383 0.803019
1.000000 0.924126 0.853063
1.000000 0.943334 0.886712
0.000000 0.319204 0.000000
0.000000 0.316755 0.000000
0.000000 0.309530 0.000000
0.000000 0.302474 0.000000
0.000000 0.300121 0.000000
0.000000 0.300051 0.000000
0.000000 0.297655 0.000000
0.000000 0.297366 0.000000
0.000000 0.294318 0.000000
0.000000 0.285053 0.000000
0.237799 0.275037 0.000000
0.355373 0.258832 0.000000
0.458478 0.240920 0.000000
0.573325 0.221106 0.000000
0.650659 0.212096 0.000000
0.722784 0.208769 0.000000
0.775668 0.203340 0.000000
0.859829 0.190006 0.000000
0.929946 0.171556 0.000000
0.994615 0.151944 0.000000
1.000000 0.177140 0.073773
1.000000 0.260776 0.135441
1.000000 0.370384 0.199383
1.000000 0.453844 0.262784
1.000000 0.535760 0.340636
1.000000 0.620531 0.423763
1.000000 0.705504 0.501906
1.000000 0.776229 0.588576
1.000000 0.825051 0.679464
1.000000 0.865628 0.753016
1.000000 0.896983 0.803055
1.000000 0.924768 0.853079
1.000000 0.943844 0.886723
0.000000 0.381351 0.000000
0.000000 0.372539 0.000000
0.000000 0.369643 0.000000
0.000000 0.366754 0.000000
0.000000 0.363879 0.000000
0.000000 0.361008 0.000000
0.000000 0.360924 0.000000
0.000000 0.360782 0.000000
0.000000 0.363259 0.000000
0.000000 0.356465 0.000000
0.108440 0.350471 0.000000
0.277122 0.339863 0.000000
0.413004 0.324922 0.000000
0.534404 0.309596 0.000000
0.665174 0.291093 0.000000
0.728377 0.290373 0.000000
0.784187 0.294478 0.000000
0.857514 0.295936 0.000000
0.931044 0.295122 0.000000
0.992266 0.296159 0.000000
1.000000 0.290712 0.054877
1.000000 0.325682 0.132730
1.000000 0.405018 0.196850
1.000000 0.478131 0.264297
1.000000 0.551788 0.341779
1.000000 0.635073 0.425345
1.000000 0.715879 0.507660
1.000000 0.777947 0.591052
1.000000 0.825051 0.679464
1.000000 0.866640 0.753034
1.000000 0.896975 0.804497
1.000000 0.924768 0.853079
1.000000 0.943839 0.887596
0.000000 0.438416 0.000000
0.000000 0.431688 0.000000
0.000000 0.431682 0.000000
0.000000 0.425137 0.000000
0.000000 0.428353 0.000000
0.000000 0.431619 0.000000
0.000000 0.428260 0.000000
0.000000 0.424921 0.000000
0.000000 0.428039 0.000000
0.000000 0.427564 0.000000
0.000000 0.426239 0.000000
0.097765 0.420231 0.000000
0.310997 0.412183 0.000000
0.471453 0.399687 0.000000
0.612451 0.379872 0.000000
0.724100 0.366749 0.000000
0.787507 0.369749 0.000000
0.858294 0.371968 0.000000
0.930480 0.387569 0.000000
0.990854 0.391566 0.000000
1.000000 0.392321 0.000000
1.000000 0.401588 0.134230
1.000000 0.445343 0.196751
1.000000 0.509497 0.265056
1.000000 0.572283 0.346039
1.000000 0.650656 0.430526
1.000000 0.727276 0.509742
1.000000 0.783080 0.593513
1.000000 0.829116 0.681838
1.000000 0.868641 0.754928
1.000000 0.898573 0.804535
1.000000 0.925408 0.853096
1.000000 0.944349 0.887606
0.000000 0.507871 0.000000
0.000000 0.511419 0.000000
0.000000 0.511405 0.000000
0.000000 0.514948 0.000000
0.000000 0.511360 0.000000
0.000000 0.507774 0.000000
0.000000 0.507738 0.000000
0.000000 0.511240 0.000000
0.000000 0.514691 0.000000
0.000000 0.517986 0.000000
0.000000 0.510256 0.000000
0.000000 0.508761 0.000000
0.074091 0.502199 0.000000
0.355801 0.489719 0.000000
0.517734 0.477695 0.000000
0.657830 0.466642 0.000000
0.783999 0.450377 0.000000
0.857461 0.450579 0.000000
0.926180 0.464368 0.000000
0.981683 0.469738 0.000000
1.000000 0.478972 0.000000
1.000000 0.494328 0.120621
1.000000 0.510987 0.201647
1.000000 0.542930 0.267962
1.000000 0.600583 0.350173
1.000000 0.670460 0.434416
1.000000 0.737151 0.515638
1.000000 0.790627 0.599677
1.000000 0.834494 0.684241
1.000000 0.871625 0.754998
1.000000 0.900169 0.804577
1.000000 0.926048 0.853114
1.000000 0.944858 0.887617
0.000000 0.602405 0.000000
0.000000 0.606083 0.000000
0.000000 0.606064 0.000000
0.000000 0.606040 0.000000
0.000000 0.602323 0.000000
0.000000 0.602289 0.000000
0.000000 0.602252 0.000000
0.000000 0.602191 0.000000
0.000000 0.602068 0.000000
0.000000 0.605532 0.000000
0.000000 0.605162 0.000000
0.000000 0.608013 0.000000
0.000000 0.598996 0.000000
0.000000 0.595692 0.000000
0.415265 0.585490 0.000000
0.570787 0.578029 0.000000
0.717200 0.560215 0.000000
0.847110 0.549293 0.000000
0.915690 0.552236 0.000000
0.971125 0.558091 0.000000
1.000000 0.570932 0.000000
1.000000 0.584708 0.105784
1.000000 0.593580 0.199780
1.000000 0.607594 0.277214
1.000000 0.639347 0.356276
1.000000 0.698013 0.438044
1.000000 0.754451 0.522820
1.000000 0.798992 0.604745
1.000000 0.840421 0.687747
1.000000 0.874559 0.756923
1.000000 0.903335 0.806108
1.000000 0.927951 0.853172
1.000000 0.945870 0.888512
0.000000 0.687816 0.000000
0.000000 0.691511 0.000000
0.000000 0.691488 0.000000
0.000000 0.687738 0.000000
0.000000 0.691426 0.000000
0.000000 0.691384 0.000000
0.000000 0.691338 0.000000
0.000000 0.694986 0.000000
0.000000 0.691141 0.000000
0.000000 0.687211 0.000000
0.000000 0.686882 0.000000
0.000000 0.686219 0.000000
0.000000 0.688704 0.000000
0.000000 0.686399 0.000000
0.255694 0.681829 0.000000
0.484629 0.668311 0.000000
0.636232 0.664836 0.000000
0.795693 0.642817 0.000000
0.898575 0.635587 0.000000
0.953563 0.644958 0.000000
1.000000 0.649463 0.000000
1.000000 0.664714 0.064274
1.000000 0.674962 0.197601
1.000000 0.687933 0.284695
1.000000 0.696771 0.368928
1.000000 0.730214 0.450664
1.000000 0.769666 0.528837
1.000000 0.809542 0.608508
1.000000 0.846907 0.692509
1.000000 0.879809 0.759814
1.000000 0.905697 0.807620
1.000000 0.929204 0.854358
1.000000 0.946850 0.890191
0.000000 0.765356 0.124828
0.000000 0.765307 0.114436
0.000000 0.768490 0.106936
0.000000 0.768440 0.094386
0.000000 0.768390 0.079514
0.000000 0.768342 0.059951
0.000000 0.768278 0.019313
0.000000 0.771417 0.000000
0.000000 0.771268 0.000000
0.000000 0.771083 0.000000
0.000000 0.770741 0.000000
0.000000 0.770208 0.000000
0.000000 0.772422 0.000000
0.000000 0.767407 0.000000
0.000000 0.760426 0.000000
0.368595 0.755876 0.000000
0.562943 0.743162 0.000000
0.736808 0.737522 0.000000
0.861468 0.719417 0.000000
0.940060 0.714957 0.000000
0.982321 0.720885 0.000000
1.000000 0.729415 0.065155
1.000000 0.739277 0.197128
1.000000 0.748274 0.293884
1.000000 0.756180 0.384365
1.000000 0.768507 0.465637
1.000000 0.793472 0.537691
1.000000 0.825529 0.613921
1.000000 0.856256 0.700684
1.000000 0.884524 0.761813
1.000000 0.908822 0.810590
1.000000 0.931073 0.855564
1.000000 0.947844 0.890217
0.000000 0.836188 0.258435
0.000000 0.836143 0.251038
0.000000 0.836063 0.247372
0.000000 0.835997 0.247424
0.000000 0.835948 0.239973
0.000000 0.838285 0.239868
0.000000 0.838222 0.236145
0.000000 0.838136 0.232424
0.000000 0.837979 0.228738
0.000000 0.837802 0.221209
0.000000 0.839827 0.213508
0.000000 0.839216 0.202095
0.000000 0.838553 0.182084
0.000000 0.837065 0.156472
0.000000 0.831975 0.116583
0.186390 0.827933 0.063494
0.474412 0.822687 0.000000
0.671315 0.815023 0.000000
0.805371 0.800292 0.000000
0.902208 0.794211 0.000000
0.966032 0.788408 0.000000
1.000000 0.790668 0.057994
1.000000 0.794787 0.215506
1.000000 0.802281 0.310682
1.000000 0.808995 0.399967
1.000000 0.816047 0.477399
1.000000 0.827220 0.550641
1.000000 0.844691 0.622052
1.000000 0.869445 0.705837
1.000000 0.893292 0.766658
1.000000 0.913801 0.814313
1.000000 0.934408 0.858475
1.000000 0.949819 0.891130
0.000000 0.887332 0.368667
0.000000 0.887256 0.365012
0.000000 0.887191 0.365042
0.000000 0.887128 0.361379
0.000000 0.887062 0.357715
0.000000 0.886931 0.357771
0.000000 0.886854 0.354110
0.000000 0.886773 0.350447
0.000000 0.888559 0.347031
0.000000 0.888293 0.339735
0.000000 0.887895 0.332473
0.000000 0.887416 0.325215
0.000000 0.886434 0.314367
0.000000 0.885221 0.296049
0.000000 0.885235 0.278333
0.000000 0.883656 0.253759
0.404127 0.875269 0.236209
0.621191 0.868520 0.205174
0.758727 0.862086 0.179156
0.868268 0.849939 0.157726
0.939543 0.847576 0.132973
0.991490 0.841429 0.140203
1.000000 0.843529 0.240911
1.000000 0.848595 0.334408
1.000000 0.854402 0.416710
1.000000 0.861691 0.500424
1.000000 0.868116 0.571400
1.000000 0.871351 0.637619
1.000000 0.884502 0.711171
1.000000 0.902683 0.771554
1.000000 0.919112 0.815993
1.000000 0.937405 0.860834
1.000000 0.951774 0.892900
0.000000 0.924582 0.463555
0.000000 0.924469 0.463583
0.000000 0.924400 0.459983
0.000000 0.924236 0.460022
0.000000 0.925570 0.456818
0.000000 0.925481 0.456839
0.000000 0.925388 0.456860
0.000000 0.925201 0.453298
0.000000 0.925107 0.449718
0.000000 0.924897 0.446166
0.000000 0.924363 0.439093
0.000000 0.925275 0.432457
0.000000 0.924307 0.425505
0.000000 0.923056 0.418630
0.000000 0.921584 0.404714
0.000000 0.919260 0.387578
0.320796 0.916915 0.361011
0.579831 0.911857 0.346428
0.717537 0.904877 0.324666
0.824236 0.896565 0.308624
0.910457 0.891445 0.296742
0.970257 0.883559 0.281449
1.000000 0.883699 0.284402
1.000000 0.883747 0.358677
1.000000 0.889961 0.442700
1.000000 0.893088 0.522324
1.000000 0.895964 0.591745
1.000000 0.899682 0.659914
1.000000 0.903712 0.727625
1.000000 0.913401 0.781590
1.000000 0.927658 0.821989
1.000000 0.941724 0.863744
1.000000 0.954685 0.893863
0.000000 0.954852 0.550312
0.000000 0.954715 0.550329
0.000000 0.954657 0.546811
0.000000 0.954586 0.546820
0.000000 0.954515 0.546829
0.000000 0.954368 0.546847
0.000000 0.954305 0.543334
0.000000 0.954153 0.543353
0.000000 0.953846 0.539875
0.000000 0.953521 0.536403
0.000000 0.954357 0.533450
0.000000 0.952631 0.526006
0.000000 0.952029 0.522593
0.000000 0.949805 0.518719
0.000000 0.947432 0.511381
0.000000 0.945254 0.501280
0.336624 0.942166 0.484578
0.542165 0.938612 0.462392
0.691020 0.934258 0.448298
0.796006 0.930395 0.432738
0.880276 0.924613 0.415830
0.947211 0.918320 0.398779
0.988136 0.915949 0.403617
1.000000 0.912785 0.398917
1.000000 0.914022 0.467436
1.000000 0.917078 0.544304
1.000000 0.919706 0.611305
1.000000 0.923059 0.680699
1.000000 0.925190 0.740648
1.000000 0.928993 0.788890
1.000000 0.937805 0.831381
1.000000 0.947962 0.867369
1.000000 0.958011 0.896550
0.000000 0.973522 0.655439
0.000000 0.973425 0.655445
0.000000 0.973327 0.655451
0.000000 0.974176 0.655928
0.000000 0.974077 0.655933
0.000000 0.973990 0.652556
0.000000 0.973888 0.652562
0.000000 0.973681 0.652575
0.000000 0.973575 0.652582
0.000000 0.973249 0.652602
0.000000 0.972926 0.649228
0.000000 0.972471 0.645849
0.000000 0.971742 0.642480
0.000000 0.970976 0.635686
0.000000 0.970570 0.626096
0.180675 0.968853 0.619460
0.397076 0.966229 0.602836
0.556070 0.962323 0.586670
0.673435 0.956482 0.563109
0.772842 0.952071 0.548728
0.859026 0.948440 0.537325
0.923013 0.943871 0.518526
0.970230 0.940082 0.517009
0.999768 0.938475 0.508905
1.000000 0.937854 0.510601
1.000000 0.937985 0.570656
1.000000 0.938702 0.633455
1.000000 0.941540 0.702964
1.000000 0.944751 0.760737
1.000000 0.946638 0.801411
1.000000 0.949716 0.838625
1.000000 0.955331 0.873988
1.000000 0.962610 0.899328
0.000000 0.989674 0.740161
0.000000 0.989564 0.737453
0.000000 0.989313 0.737455
0.000000 0.989313 0.737455
