Assets/Lutify-Free-LUTs-Pack/Lutify Free LUTs Pack/Cine World Pro Warm - Amy/Lutify.me-Amy-CanonLog3-to-Rec709.cube
# Created with: fylm.ai - Colour Grading and Collaboration Software in Cloud 
# Website: https://fylm.ai 
# META
# Option: Gamut compress
# Block 1: IDT | CanonLog3 Cinema Gamut Daylight
# Block 2: colourMatch | Blending Mode: Normal | {"ColorSpace":0,"CrossCovarianceLimit":50,"ReshapingIterations":1,"PercentSaturationShift":100,"PercentShadingShift":100,"ExtraShading":true,"PercentTint":100,"PercentModified":100}
# Block 3: LUT | Filmic Curve Response: Standard Contrast 1 (100%)
# Block 4: LUT | Illuminant: D60 (100%)
# Block 5: hueSaturation | Blending Mode: Normal | {"hue":0,"saturation":-0.15}
# Block 6: logPrimaries | Blending Mode: Normal | {"wheels":{"shadows":{"Y":"0","R":"1","G":"1","B":"1"},"midtones":{"Y":"0","R":"1","G":"1","B":"1"},"highlights":{"Y":"0","R":"1","G":"1","B":"1"},"offset":{"Y":"0","R":"1","G":"1","B":"1"}},"sliders":{"shadows":{"Y":0,"R":-0.097,"G":0,"B":0.158},"midtones":{"Y":0,"R":0.024,"G":0.024,"B":-0.036},"highlights":{"Y":0,"R":0.154,"G":-0.084,"B":-0.024},"offset":{"Y":0.048,"R":0,"G":0,"B":0}}}
# Block 7: smartCurves | Blending Mode: Average | [[{"x":0,"y":0},{"x":0.11328125,"y":0.085540771484375},{"x":0.21484375,"y":0.218353271484375},{"x":0.37109375,"y":0.382415771484375},{"x":0.62109375,"y":0.589447021484375},{"x":0.8125,"y":0.765228271484375},{"x":1,"y":1}],[{"x":0,"y":0},{"x":1,"y":1}],[{"x":0,"y":0},{"x":1,"y":1}],[{"x":0,"y":0},{"x":1,"y":1}]]
# Block 8: LUT | Neutral Tint: Teal Tint 4 (100%)
# Block 9: contrast | Blending Mode: Normal | {"contrast":0.1}
# Block 10: ODT | Rec709
TITLE "Lutify.me-Amy-CanonLog3-to-Rec709" 
LUT_3D_SIZE 33
0.000000 0.000000 0.000000
0.000000 0.000000 0.000000
0.000000 0.000000 0.000000
0.000000 0.000000 0.000000
0.068023 0.000000 0.000000
0.193043 0.000000 0.000000
0.298114 0.000000 0.000000
0.395394 0.000000 0.000000
0.486308 0.000000 0.000000
0.586375 0.000000 0.000000
0.694240 0.000000 0.000000
0.801290 0.000000 0.000000
0.896060 0.000000 0.000000
0.964966 0.000000 0.000000
1.000000 0.000000 0.013689
1.000000 0.000000 0.047619
1.000000 0.000000 0.051420
1.000000 0.000000 0.038447
1.000000 0.000000 0.033270
1.000000 0.000000 0.045382
1.000000 0.000000 0.063495
1.000000 0.000000 0.096007
1.000000 0.000000 0.134810
1.000000 0.126035 0.174588
1.000000 0.282313 0.218181
1.000000 0.387166 0.265802
1.000000 0.471456 0.326131
1.000000 0.550483 0.392888
1.000000 0.621934 0.456419
1.000000 0.683623 0.507985
1.000000 0.738968 0.563726
1.000000 0.784148 0.625386
1.000000 0.819383 0.686374
0.000000 0.000000 0.000000
0.000000 0.000000 0.000000
0.000000 0.000000 0.000000
0.000000 0.000000 0.000000
0.056294 0.000000 0.000000
0.193043 0.000000 0.000000
0.298114 0.000000 0.000000
0.395394 0.000000 0.000000
0.486308 0.000000 0.000000
0.582345 0.000000 0.000000
0.677328 0.000000 0.000000
0.762577 0.000000 0.000000
0.844090 0.000000 0.000000
0.921801 0.000000 0.000000
0.970988 0.000000 0.000000
1.000000 0.000000 0.036862
1.000000 0.000000 0.064009
1.000000 0.000000 0.048864
1.000000 0.000000 0.034418
1.000000 0.000000 0.040087
1.000000 0.000000 0.058895
1.000000 0.000000 0.092044
1.000000 0.000000 0.131366
1.000000 0.178965 0.171270
1.000000 0.309927 0.217158
1.000000 0.399694 0.266485
1.000000 0.483116 0.325305
1.000000 0.555898 0.392553
1.000000 0.624483 0.456276
1.000000 0.685866 0.507882
1.000000 0.742725 0.563613
1.000000 0.785674 0.625372
1.000000 0.819383 0.686374
0.000000 0.000000 0.000000
0.000000 0.000000 0.000000
0.000000 0.000000 0.000000
0.000000 0.000000 0.000000
0.042225 0.000000 0.000000
0.169689 0.000000 0.000000
0.262636 0.000000 0.000000
0.365225 0.000000 0.000000
0.448021 0.000000 0.000000
0.527104 0.000000 0.000000
0.614884 0.000000 0.000000
0.719773 0.000000 0.000000
0.805611 0.000000 0.000000
0.884492 0.000000 0.000000
0.964825 0.000000 0.000000
1.000000 0.000000 0.030378
1.000000 0.000000 0.066927
1.000000 0.000000 0.057610
1.000000 0.000000 0.045327
1.000000 0.000000 0.037853
1.000000 0.000000 0.055379
1.000000 0.000000 0.086955
1.000000 0.000000 0.128726
1.000000 0.210647 0.169384
1.000000 0.326038 0.216874
1.000000 0.410848 0.266676
1.000000 0.491940 0.324661
1.000000 0.561348 0.392214
1.000000 0.629585 0.455989
1.000000 0.688107 0.507779
1.000000 0.742725 0.563613
1.000000 0.787199 0.625359
1.000000 0.819383 0.686374
0.000000 0.000000 0.000000
0.000000 0.000000 0.000000
0.000000 0.000000 0.000000
0.000000 0.000000 0.000000
0.024389 0.000000 0.000000
0.150356 0.000000 0.000000
0.240725 0.000000 0.000000
0.330696 0.000000 0.000000
0.413176 0.000000 0.000000
0.500975 0.000000 0.000000
0.598609 0.000000 0.000000
0.698556 0.000000 0.000000
0.797018 0.000000 0.000000
0.884440 0.000000 0.000000
0.958487 0.000000 0.000000
1.000000 0.000000 0.029962
1.000000 0.000000 0.067219
1.000000 0.000000 0.066463
1.000000 0.000000 0.048789
1.000000 0.000000 0.033066
1.000000 0.000000 0.054268
1.000000 0.000000 0.081768
1.000000 0.000000 0.126400
1.000000 0.232160 0.168834
1.000000 0.340001 0.215658
1.000000 0.423396 0.265620
1.000000 0.496507 0.325518
1.000000 0.568459 0.393041
1.000000 0.632136 0.455847
1.000000 0.690348 0.507677
1.000000 0.744597 0.563558
1.000000 0.788724 0.625348
1.000000 0.820661 0.688600
0.000000 0.071884 0.000000
0.000000 0.068337 0.000000
0.000000 0.064435 0.000000
0.000000 0.056508 0.000000
0.000000 0.046931 0.000000
0.135328 0.000000 0.000000
0.226829 0.000000 0.000000
0.317130 0.000000 0.000000
0.401365 0.000000 0.000000
0.490147 0.000000 0.000000
0.586605 0.000000 0.000000
0.694387 0.000000 0.000000
0.797016 0.000000 0.000000
0.884376 0.000000 0.000000
0.961483 0.000000 0.000000
1.000000 0.000000 0.024175
1.000000 0.000000 0.063262
1.000000 0.000000 0.078272
1.000000 0.000000 0.052917
1.000000 0.000000 0.029368
1.000000 0.000000 0.052726
1.000000 0.000000 0.079202
1.000000 0.101815 0.124354
1.000000 0.245676 0.167743
1.000000 0.346968 0.215021
1.000000 0.432848 0.264793
1.000000 0.499453 0.325299
1.000000 0.571199 0.392868
1.000000 0.634699 0.453375
1.000000 0.692587 0.507576
1.000000 0.749439 0.564731
1.000000 0.790248 0.625338
1.000000 0.822775 0.689774
0.000000 0.121206 0.000000
0.000000 0.118241 0.000000
0.000000 0.113453 0.000000
0.000000 0.101969 0.000000
0.000000 0.088093 0.000000
0.128984 0.071435 0.000000
0.233018 0.023293 0.000000
0.321760 0.000000 0.000000
0.407670 0.000000 0.000000
0.501490 0.000000 0.000000
0.590878 0.000000 0.000000
0.698692 0.000000 0.000000
0.796998 0.000000 0.000000
0.884295 0.000000 0.000000
0.964410 0.000000 0.000000
1.000000 0.000000 0.022526
1.000000 0.000000 0.063065
1.000000 0.000000 0.091568
1.000000 0.000000 0.059023
1.000000 0.000000 0.037111
1.000000 0.000000 0.051600
1.000000 0.000000 0.074196
1.000000 0.142125 0.121346
1.000000 0.260717 0.166256
1.000000 0.359070 0.214931
1.000000 0.436007 0.264510
1.000000 0.505366 0.324854
1.000000 0.576705 0.392517
1.000000 0.639802 0.453088
1.000000 0.692587 0.507576
1.000000 0.751279 0.564683
1.000000 0.790248 0.625338
1.000000 0.822775 0.689774
0.000000 0.171676 0.000000
0.000000 0.170238 0.000000
0.000000 0.167412 0.000000
0.000000 0.146550 0.000000
0.000000 0.132723 0.000000
0.116776 0.118217 0.000000
0.235610 0.097336 0.000000
0.327338 0.057642 0.000000
0.417885 0.000000 0.000000
0.506039 0.000000 0.000000
0.607574 0.000000 0.000000
0.715765 0.000000 0.000000
0.805508 0.000000 0.000000
0.895586 0.000000 0.000000
0.970189 0.000000 0.000000
1.000000 0.000000 0.014298
1.000000 0.000000 0.061854
1.000000 0.000000 0.096055
1.000000 0.000000 0.069520
1.000000 0.000000 0.042059
1.000000 0.000000 0.045970
1.000000 0.000000 0.071852
1.000000 0.169896 0.117203
1.000000 0.273268 0.165044
1.000000 0.365951 0.214250
1.000000 0.443884 0.264920
1.000000 0.511307 0.324401
1.000000 0.582256 0.392160
1.000000 0.639802 0.453088
1.000000 0.697057 0.507377
1.000000 0.753101 0.567025
1.000000 0.790248 0.625338
1.000000 0.824051 0.689777
0.000000 0.218192 0.000000
0.000000 0.216417 0.000000
0.000000 0.211167 0.000000
0.000000 0.191339 0.000000
0.000000 0.174567 0.000000
0.085455 0.159438 0.000000
0.234086 0.143856 0.000000
0.333467 0.117882 0.000000
0.429300 0.073112 0.000000
0.522656 0.000000 0.000000
0.612459 0.000000 0.000000
0.724398 0.000000 0.000000
0.813841 0.000000 0.000000
0.898754 0.000000 0.000000
0.972419 0.000000 0.000000
1.000000 0.000000 0.000000
1.000000 0.000000 0.059922
1.000000 0.000000 0.094153
1.000000 0.000000 0.081515
1.000000 0.000000 0.040873
1.000000 0.000000 0.041291
1.000000 0.000000 0.067888
1.000000 0.207118 0.111340
1.000000 0.289563 0.160891
1.000000 0.376250 0.213194
1.000000 0.453377 0.262332
1.000000 0.520312 0.326151
1.000000 0.585044 0.391980
1.000000 0.644902 0.452802
1.000000 0.699288 0.507280
1.000000 0.753101 0.567025
1.000000 0.790248 0.625338
1.000000 0.825327 0.689781
0.000000 0.256003 0.000000
0.000000 0.256003 0.000000
0.000000 0.248369 0.000000
0.000000 0.230303 0.000000
0.000000 0.216356 0.000000
0.000000 0.204363 0.000000
0.215106 0.189529 0.000000
0.338008 0.168437 0.000000
0.438695 0.141929 0.000000
0.532710 0.097794 0.000000
0.621923 0.000000 0.000000
0.733024 0.000000 0.000000
0.822001 0.000000 0.000000
0.905249 0.000000 0.000000
0.979675 0.000000 0.000000
1.000000 0.000000 0.000000
1.000000 0.000000 0.055090
1.000000 0.000000 0.093957
1.000000 0.000000 0.097385
1.000000 0.000000 0.054672
1.000000 0.000000 0.035491
1.000000 0.113315 0.062612
1.000000 0.234589 0.104366
1.000000 0.314842 0.155277
1.000000 0.391472 0.211202
1.000000 0.462925 0.259704
1.000000 0.529239 0.321417
1.000000 0.592159 0.392809
1.000000 0.650008 0.450196
1.000000 0.705015 0.508336
1.000000 0.756752 0.566939
1.000000 0.791771 0.625329
1.000000 0.826601 0.689787
0.000000 0.297926 0.000000
0.000000 0.297926 0.000000
0.000000 0.284630 0.000000
0.000000 0.271937 0.000000
0.000000 0.255718 0.000000
0.000000 0.248374 0.000000
0.196415 0.234501 0.000000
0.337546 0.215903 0.000000
0.447935 0.191962 0.000000
0.535946 0.166294 0.000000
0.631846 0.130391 0.000000
0.741798 0.000000 0.000000
0.834013 0.000000 0.000000
0.907522 0.000000 0.000000
0.980727 0.000000 0.000000
1.000000 0.000000 0.000000
1.000000 0.000000 0.043380
1.000000 0.000000 0.088348
1.000000 0.000000 0.125207
1.000000 0.000000 0.069526
1.000000 0.000000 0.028493
1.000000 0.166452 0.060451
1.000000 0.262679 0.094458
1.000000 0.341646 0.148908
1.000000 0.408504 0.206320
1.000000 0.472509 0.258736
1.000000 0.538214 0.320684
1.000000 0.597763 0.392441
1.000000 0.656524 0.451155
1.000000 0.707217 0.508243
1.000000 0.760378 0.566860
1.000000 0.794815 0.625317
1.000000 0.827873 0.689794
0.000000 0.350150 0.000000
0.000000 0.350150 0.000000
0.000000 0.334300 0.000000
0.000000 0.314303 0.000000
0.000000 0.302230 0.000000
0.000000 0.296573 0.000000
0.159603 0.282909 0.000000
0.333624 0.265569 0.000000
0.454705 0.243916 0.000000
0.550692 0.222924 0.000000
0.638457 0.202980 0.000000
0.746671 0.158418 0.000000
0.845465 0.080880 0.000000
0.916175 0.000000 0.000000
0.986257 0.000000 0.000000
1.000000 0.000000 0.000000
1.000000 0.000000 0.000000
1.000000 0.000000 0.082961
1.000000 0.000000 0.121448
1.000000 0.000000 0.097333
1.000000 0.123921 0.034269
1.000000 0.222657 0.051269
1.000000 0.305956 0.073895
1.000000 0.362911 0.138836
1.000000 0.428962 0.199320
1.000000 0.485361 0.253973
1.000000 0.548664 0.317088
1.000000 0.606228 0.391881
1.000000 0.664082 0.450740
1.000000 0.713797 0.507975
1.000000 0.762182 0.566824
1.000000 0.795686 0.626583
1.000000 0.830409 0.689813
0.000000 0.396523 0.000000
0.000000 0.396523 0.000000
0.000000 0.372550 0.000000
0.000000 0.350075 0.000000
0.000000 0.344434 0.000000
0.000000 0.340833 0.000000
0.092570 0.326947 0.000000
0.320287 0.315762 0.000000
0.452346 0.295874 0.000000
0.559786 0.276698 0.000000
0.648743 0.261993 0.000000
0.751662 0.232659 0.000000
0.852280 0.201861 0.000000
0.927121 0.166493 0.000000
0.985587 0.113516 0.000000
1.000000 0.082027 0.000000
1.000000 0.064971 0.000000
1.000000 0.057087 0.067110
1.000000 0.116132 0.113983
1.000000 0.158371 0.131352
1.000000 0.217935 0.061683
1.000000 0.283963 0.028536
1.000000 0.344429 0.063984
1.000000 0.390160 0.130519
1.000000 0.450758 0.191564
1.000000 0.506032 0.249449
1.000000 0.560779 0.312080
1.000000 0.616182 0.390288
1.000000 0.671616 0.450333
1.000000 0.720334 0.507720
1.000000 0.768496 0.565634
1.000000 0.798702 0.626578
1.000000 0.831675 0.689825
0.000000 0.445195 0.000000
0.000000 0.438411 0.000000
0.000000 0.405906 0.000000
0.000000 0.390270 0.000000
0.000000 0.389956 0.000000
0.000000 0.386032 0.000000
0.000000 0.377729 0.000000
0.299206 0.361560 0.000000
0.439249 0.349626 0.000000
0.560445 0.331319 0.000000
0.665440 0.310880 0.000000
0.760342 0.287995 0.000000
0.854865 0.268191 0.000000
0.927644 0.246668 0.000000
0.984789 0.218902 0.000000
1.000000 0.211570 0.000000
1.000000 0.219292 0.000000
1.000000 0.221705 0.033517
1.000000 0.243408 0.105146
1.000000 0.274155 0.149924
1.000000 0.300615 0.092552
1.000000 0.334874 0.000000
1.000000 0.377475 0.053119
1.000000 0.424327 0.112895
1.000000 0.472446 0.186423
1.000000 0.527912 0.245925
1.000000 0.577350 0.309929
1.000000 0.630477 0.384861
1.000000 0.680383 0.451204
1.000000 0.727918 0.508755
1.000000 0.773741 0.565565
1.000000 0.803213 0.626585
1.000000 0.832938 0.689839
0.000000 0.493709 0.000000
0.000000 0.469237 0.000000
0.000000 0.452014 0.000000
0.000000 0.438309 0.000000
0.000000 0.431273 0.000000
0.000000 0.427138 0.000000
0.000000 0.418609 0.000000
0.266962 0.407148 0.000000
0.427028 0.396013 0.000000
0.561564 0.378066 0.000000
0.668239 0.359116 0.000000
0.760261 0.350706 0.000000
0.856798 0.328280 0.000000
0.927086 0.317115 0.000000
0.982136 0.305536 0.000000
1.000000 0.298471 0.000000
1.000000 0.305393 0.000000
1.000000 0.313439 0.000000
1.000000 0.322396 0.089323
1.000000 0.348472 0.143813
1.000000 0.365202 0.156553
1.000000 0.403097 0.000000
1.000000 0.422806 0.038166
1.000000 0.455478 0.084549
1.000000 0.496410 0.173158
1.000000 0.551841 0.235711
1.000000 0.592730 0.304558
1.000000 0.643135 0.383141
1.000000 0.692715 0.448273
1.000000 0.736406 0.508471
1.000000 0.777196 0.565532
1.000000 0.806211 0.626598
1.000000 0.836890 0.692236
0.000000 0.543803 0.000000
0.000000 0.514993 0.000000
0.000000 0.493667 0.000000
0.000000 0.486429 0.000000
0.000000 0.482501 0.000000
0.000000 0.481699 0.000000
0.000000 0.465894 0.000000
0.212540 0.459030 0.000000
0.407264 0.448700 0.000000
0.551705 0.435534 0.000000
0.666172 0.421333 0.000000
0.762516 0.410797 0.000000
0.857551 0.395653 0.000000
0.928381 0.383500 0.000000
0.980793 0.379000 0.000000
1.000000 0.373942 0.000000
1.000000 0.371670 0.000000
1.000000 0.381839 0.000000
1.000000 0.391158 0.067208
1.000000 0.403134 0.135251
1.000000 0.424287 0.183867
1.000000 0.452491 0.121595
1.000000 0.481777 0.000000
1.000000 0.506238 0.074541
1.000000 0.526478 0.149374
1.000000 0.573753 0.222770
1.000000 0.617642 0.294295
1.000000 0.663902 0.378736
1.000000 0.708375 0.448883
1.000000 0.745737 0.509519
1.000000 0.783132 0.566813
1.000000 0.812210 0.629205
1.000000 0.840586 0.692298
0.000000 0.587693 0.000000
0.000000 0.554704 0.000000
0.000000 0.543648 0.000000
0.000000 0.536074 0.000000
0.000000 0.539170 0.000000
0.000000 0.534611 0.000000
0.000000 0.521878 0.000000
0.154093 0.515707 0.000000
0.368667 0.503461 0.000000
0.537075 0.490959 0.000000
0.662769 0.484900 0.000000
0.762003 0.467942 0.000000
0.857794 0.450497 0.000000
0.926316 0.440243 0.000000
0.985794 0.440767 0.000000
1.000000 0.436928 0.000000
1.000000 0.438052 0.000000
1.000000 0.451921 0.000000
1.000000 0.457996 0.000000
1.000000 0.465164 0.124349
1.000000 0.483494 0.175889
1.000000 0.505421 0.233091
1.000000 0.537367 0.040534
1.000000 0.558379 0.045099
1.000000 0.571693 0.121215
1.000000 0.604578 0.209052
1.000000 0.644713 0.286683
1.000000 0.686794 0.372170
1.000000 0.723570 0.447327
1.000000 0.755927 0.506924
1.000000 0.788184 0.566805
1.000000 0.818051 0.629285
1.000000 0.844266 0.690218
0.000000 0.617261 0.000000
0.000000 0.602362 0.000000
0.000000 0.591014 0.000000
0.000000 0.586799 0.000000
0.000000 0.586074 0.000000
0.000000 0.577606 0.000000
0.000000 0.572424 0.000000
0.145110 0.562388 0.000000
0.336310 0.558797 0.000000
0.507876 0.544302 0.000000
0.644822 0.531600 0.000000
0.776107 0.516614 0.000000
0.852601 0.509671 0.000000
0.922750 0.500317 0.000000
0.981261 0.493605 0.000000
1.000000 0.489947 0.000000
1.000000 0.494610 0.000000
1.000000 0.503006 0.000000
1.000000 0.510860 0.000000
1.000000 0.518808 0.107757
1.000000 0.540420 0.175665
1.000000 0.561351 0.230693
1.000000 0.578621 0.192795
1.000000 0.614974 0.000000
1.000000 0.636693 0.094575
1.000000 0.646151 0.187269
1.000000 0.678708 0.275080
1.000000 0.708855 0.361747
1.000000 0.739131 0.445091
1.000000 0.764732 0.503470
1.000000 0.796375 0.567161
1.000000 0.823084 0.630671
1.000000 0.849725 0.691562
0.000000 0.646950 0.000000
0.000000 0.642978 0.000000
0.000000 0.635042 0.000000
0.000000 0.630528 0.000000
0.000000 0.625822 0.000000
0.000000 0.621013 0.000000
0.000000 0.615715 0.000000
0.159890 0.609555 0.000000
0.345840 0.606193 0.000000
0.486163 0.593665 0.000000
0.620954 0.582462 0.000000
0.765629 0.567807 0.000000
0.852391 0.560582 0.000000
0.918165 0.555972 0.000000
0.975174 0.549787 0.000000
1.000000 0.550330 0.000000
1.000000 0.546343 0.000000
1.000000 0.553948 0.000000
1.000000 0.559736 0.000000
1.000000 0.564749 0.081683
1.000000 0.584229 0.168037
1.000000 0.608768 0.235559
1.000000 0.625856 0.295324
1.000000 0.653333 0.142332
1.000000 0.678477 0.092996
1.000000 0.695891 0.154281
1.000000 0.710190 0.258680
1.000000 0.732417 0.345748
1.000000 0.754514 0.438065
1.000000 0.777736 0.499294
1.000000 0.806878 0.564050
1.000000 0.831619 0.628569
1.000000 0.854467 0.691732
0.000000 0.695170 0.000000
0.000000 0.687215 0.000000
0.000000 0.678926 0.000000
0.000000 0.674088 0.000000
0.000000 0.669450 0.000000
0.000000 0.664483 0.000000
0.000000 0.662960 0.000000
0.183174 0.657042 0.000000
0.359524 0.650163 0.000000
0.480978 0.638647 0.000000
0.610886 0.628503 0.000000
0.748897 0.611614 0.000000
0.843140 0.608204 0.000000
0.913095 0.603453 0.000000
0.967246 0.597471 0.000000
1.000000 0.598144 0.000000
1.000000 0.601790 0.000000
1.000000 0.600142 0.000000
1.000000 0.608357 0.000000
1.000000 0.611612 0.035409
1.000000 0.628418 0.158904
1.000000 0.649373 0.231889
1.000000 0.662447 0.294358
1.000000 0.682870 0.348063
1.000000 0.714587 0.138132
1.000000 0.734156 0.150963
1.000000 0.746498 0.233982
1.000000 0.760826 0.332885
1.000000 0.774011 0.426449
1.000000 0.795406 0.495640
1.000000 0.816462 0.562005
1.000000 0.841122 0.629274
1.000000 0.860829 0.691100
0.000000 0.741494 0.000000
0.000000 0.733627 0.000000
0.000000 0.732426 0.000000
0.000000 0.731180 0.000000
0.000000 0.726786 0.000000
0.000000 0.722045 0.000000
0.000000 0.717158 0.000000
0.222771 0.711363 0.000000
0.386161 0.704666 0.000000
0.488929 0.697776 0.000000
0.601806 0.689180 0.000000
0.731022 0.674185 0.000000
0.831143 0.667229 0.000000
0.903424 0.662456 0.000000
0.958846 0.652474 0.000000
1.000000 0.656707 0.000000
1.000000 0.659692 0.000000
1.000000 0.656887 0.000000
1.000000 0.663726 0.000000
1.000000 0.668531 0.000000
1.000000 0.677704 0.146680
1.000000 0.693958 0.227537
1.000000 0.706365 0.296331
1.000000 0.716807 0.348844
1.000000 0.732352 0.354870
1.000000 0.769749 0.174842
1.000000 0.782559 0.206755
1.000000 0.796608 0.318272
1.000000 0.799739 0.408117
1.000000 0.812251 0.492606
1.000000 0.830037 0.560870
1.000000 0.849719 0.622095
1.000000 0.868059 0.690648
0.000000 0.791782 0.000000
0.000000 0.784503 0.000000
0.000000 0.780014 0.000000
0.000000 0.775637 0.000000
0.000000 0.771308 0.000000
0.000000 0.770216 0.000000
0.000000 0.765825 0.000000
0.286270 0.760716 0.000000
0.411886 0.754866 0.000000
0.516026 0.748329 0.000000
0.610709 0.744350 0.000000
0.718878 0.735346 0.000000
0.820005 0.722221 0.000000
0.892466 0.714050 0.000000
0.947403 0.704319 0.000000
0.992602 0.707317 0.000000
1.000000 0.709152 0.000000
1.000000 0.709193 0.000000
1.000000 0.713860 0.000000
1.000000 0.720896 0.000000
1.000000 0.723998 0.144668
1.000000 0.733227 0.228415
1.000000 0.747532 0.303273
1.000000 0.758936 0.356955
1.000000 0.769164 0.424100
1.000000 0.782854 0.319954
1.000000 0.813702 0.237603
1.000000 0.828007 0.293046
1.000000 0.832751 0.395092
1.000000 0.835312 0.485688
1.000000 0.843882 0.556656
1.000000 0.861699 0.620075
1.000000 0.877710 0.687335
0.000000 0.817861 0.000000
0.000000 0.813657 0.000000
0.000000 0.809379 0.000000
0.000000 0.808048 0.000000
0.000000 0.804257 0.000000
0.159297 0.800330 0.000000
0.277613 0.799085 0.000000
0.376682 0.794500 0.000000
0.461939 0.789469 0.000000
0.555329 0.783407 0.000000
0.648529 0.779327 0.000000
0.731927 0.769085 0.000000
0.812138 0.761218 0.000000
0.881680 0.756733 0.000000
0.938772 0.753437 0.000000
0.982830 0.752165 0.000000
1.000000 0.752935 0.000000
1.000000 0.749159 0.000000
1.000000 0.752379 0.000000
1.000000 0.760302 0.000000
1.000000 0.761617 0.138264
1.000000 0.767992 0.227771
1.000000 0.778640 0.305268
1.000000 0.785956 0.363403
1.000000 0.794328 0.427287
1.000000 0.806175 0.490448
1.000000 0.825234 0.309992
1.000000 0.850817 0.309761
1.000000 0.859326 0.375744
1.000000 0.863161 0.478392
1.000000 0.867141 0.548868
1.000000 0.874421 0.622285
1.000000 0.887288 0.685637
0.000000 0.844447 0.000000
0.000000 0.840356 0.000000
0.000000 0.836688 0.000000
0.173812 0.835199 0.000000
0.267820 0.831937 0.000000
0.339769 0.830792 0.000000
0.400715 0.827181 0.000000
0.474753 0.825208 0.000000
0.540067 0.823066 0.000000
0.620198 0.817522 0.000000
0.690234 0.811819 0.000000
0.759701 0.805623 0.000000
0.817483 0.799674 0.000000
0.869891 0.796365 0.000000
0.928974 0.792705 0.000000
0.973942 0.790663 0.000000
1.000000 0.788022 0.000000
1.000000 0.786657 0.000000
1.000000 0.786185 0.000000
1.000000 0.792072 0.000000
1.000000 0.792470 0.142695
1.000000 0.796581 0.229838
1.000000 0.804372 0.305190
1.000000 0.812138 0.367311
1.000000 0.818245 0.431216
1.000000 0.828798 0.501433
1.000000 0.838697 0.560615
1.000000 0.862356 0.351866
1.000000 0.877710 0.377161
1.000000 0.884372 0.452965
1.000000 0.887157 0.543948
1.000000 0.891133 0.614418
1.000000 0.897826 0.679957
0.000000 0.871100 0.000000
0.182813 0.867254 0.000000
0.311133 0.865787 0.000000
0.378848 0.862546 0.000000
0.442135 0.861075 0.000000
0.484307 0.857877 0.000000
0.536184 0.856236 0.000000
0.584260 0.854502 0.000000
0.641449 0.850093 0.000000
0.687035 0.845910 0.000000
0.740969 0.843188 0.000000
0.784553 0.838664 0.000000
0.829052 0.833898 0.000000
0.879282 0.828599 0.000000
0.921718 0.825947 0.000000
0.965689 0.823574 0.000000
1.000000 0.820504 0.000000
1.000000 0.823195 0.000000
1.000000 0.820246 0.000000
1.000000 0.820227 0.000000
1.000000 0.820133 0.151918
1.000000 0.823559 0.245919
1.000000 0.830511 0.310489
1.000000 0.835201 0.375910
1.000000 0.839497 0.449888
1.000000 0.847375 0.505990
1.000000 0.856350 0.565109
1.000000 0.864307 0.626767
1.000000 0.888893 0.411996
1.000000 0.900817 0.443732
1.000000 0.903763 0.524505
1.000000 0.909848 0.609279
1.000000 0.912166 0.675032
0.346601 0.889425 0.000000
0.444435 0.885593 0.000000
0.494605 0.882463 0.000000
0.539297 0.881068 0.000000
0.580764 0.879619 0.000000
0.612664 0.878402 0.000000
0.637717 0.875583 0.000000
0.671285 0.874125 0.000000
0.708206 0.870572 0.000000
0.736350 0.869174 0.000000
0.771313 0.865479 0.000000
0.809408 0.861473 0.000000
0.846430 0.857386 0.000000
0.886478 0.854923 0.000000
0.926818 0.850483 0.000000
0.961226 0.846579 0.000000
0.994126 0.845298 0.000000
1.000000 0.847192 0.000000
1.000000 0.846134 0.000000
1.000000 0.845598 0.000000
1.000000 0.848470 0.166589
1.000000 0.850574 0.257569
1.000000 0.854087 0.317827
1.000000 0.859045 0.386241
1.000000 0.862526 0.456039
1.000000 0.866247 0.514910
1.000000 0.872750 0.570232
1.000000 0.878108 0.634800
1.000000 0.884094 0.687043
1.000000 0.909927 0.467956
1.000000 0.918519 0.504855
1.000000 0.922688 0.595553
1.000000 0.926210 0.670366
0.560231 0.901741 0.000000
0.605808 0.900100 0.000000
0.636514 0.897368 0.000000
0.658917 0.896433 0.000000
