Assets/Lutify-Free-LUTs-Pack/Lutify Free LUTs Pack/Cine World Pro Warm - Amy/Lutify.me-Amy-BMDFilmGen4-to-Rec709.cube
# Created with: fylm.ai - Colour Grading and Collaboration Software in Cloud 
# Website: https://fylm.ai 
# META
# Option: Gamut compress
# Block 1: IDT | BMD Wide Gamut BMDFilm Gen 4
# Block 2: colourMatch | Blending Mode: Normal | {"ColorSpace":0,"CrossCovarianceLimit":50,"ReshapingIterations":1,"PercentSaturationShift":100,"PercentShadingShift":100,"ExtraShading":true,"PercentTint":100,"PercentModified":100}
# Block 3: LUT | Filmic Curve Response: Standard Contrast 1 (100%)
# Block 4: LUT | Illuminant: D60 (100%)
# Block 5: hueSaturation | Blending Mode: Normal | {"hue":0,"saturation":-0.15}
# Block 6: logPrimaries | Blending Mode: Normal | {"wheels":{"shadows":{"Y":"0","R":"1","G":"1","B":"1"},"midtones":{"Y":"0","R":"1","G":"1","B":"1"},"highlights":{"Y":"0","R":"1","G":"1","B":"1"},"offset":{"Y":"0","R":"1","G":"1","B":"1"}},"sliders":{"shadows":{"Y":0,"R":-0.097,"G":0,"B":0.158},"midtones":{"Y":0,"R":0.024,"G":0.024,"B":-0.036},"highlights":{"Y":0,"R":0.154,"G":-0.084,"B":-0.024},"offset":{"Y":0.048,"R":0,"G":0,"B":0}}}
# Block 7: smartCurves | Blending Mode: Average | [[{"x":0,"y":0},{"x":0.11328125,"y":0.085540771484375},{"x":0.21484375,"y":0.218353271484375},{"x":0.37109375,"y":0.382415771484375},{"x":0.62109375,"y":0.589447021484375},{"x":0.8125,"y":0.765228271484375},{"x":1,"y":1}],[{"x":0,"y":0},{"x":1,"y":1}],[{"x":0,"y":0},{"x":1,"y":1}],[{"x":0,"y":0},{"x":1,"y":1}]]
# Block 8: LUT | Neutral Tint: Teal Tint 4 (100%)
# Block 9: contrast | Blending Mode: Normal | {"contrast":0.1}
# Block 10: ODT | Rec709
TITLE "Lutify.me-Amy-BMDFilmGen4-to-Rec709" 
LUT_3D_SIZE 5
0.000000 0.000000 0.000000
0.280303 0.000000 0.000000
0.677706 0.000000 0.000000
1.000000 0.000000 0.070875
1.000000 0.618270 0.352093
0.000000 0.199389 0.000000
0.326000 0.153072 0.000000
0.720745 0.000000 0.000000
1.000000 0.164595 0.033887
1.000000 0.637674 0.354118
0.000000 0.496729 0.000000
0.254554 0.471884 0.000000
0.860179 0.411075 0.000000
1.000000 0.516626 0.000000
1.000000 0.706860 0.355442
0.000000 0.852281 0.000000
0.000000 0.848735 0.000000
0.690091 0.821320 0.000000
1.000000 0.786785 0.000000
1.000000 0.858321 0.361497
0.678558 0.975687 0.401940
0.707935 0.974478 0.397816
0.788744 0.970783 0.382132
0.955473 0.960720 0.349435
1.000000 0.951302 0.418334
0.000000 0.000000 0.104347
0.216221 0.000000 0.066635
0.602159 0.000000 0.114894
1.000000 0.000000 0.166915
1.000000 0.613872 0.395751
0.000000 0.222458 0.297424
0.116950 0.199528 0.253359
0.614944 0.120759 0.157369
1.000000 0.170181 0.167681
1.000000 0.636428 0.397832
0.000000 0.532635 0.262354
0.000000 0.545168 0.177980
0.640159 0.513041 0.000000
1.000000 0.535444 0.136697
1.000000 0.703708 0.403784
0.000000 0.870340 0.214296
0.000000 0.869491 0.178624
0.576916 0.852523 0.000000
0.981145 0.823026 0.000000
1.000000 0.861201 0.417356
0.666506 0.978535 0.495485
0.688430 0.977676 0.490356
0.773549 0.971935 0.464265
0.942112 0.963381 0.434590
1.000000 0.956113 0.434792
0.000000 0.000000 0.152562
0.154151 0.000000 0.125086
0.613895 0.000000 0.143246
1.000000 0.000000 0.406284
1.000000 0.610606 0.502507
0.000000 0.121162 0.381662
0.000000 0.108597 0.378828
0.606100 0.000000 0.382251
1.000000 0.100950 0.433883
1.000000 0.630533 0.505208
0.000000 0.556518 0.686624
0.000000 0.559319 0.671423
0.467897 0.547234 0.633410
0.996704 0.534711 0.501351
1.000000 0.704638 0.521852
0.000000 0.878499 0.699468
0.000000 0.876263 0.674695
0.429267 0.869448 0.600883
0.933251 0.847043 0.505005
1.000000 0.866125 0.558594
0.600780 0.981759 0.698179
0.637022 0.980540 0.689599
0.729021 0.977546 0.676317
0.918198 0.967283 0.627180
1.000000 0.960976 0.591730
0.086842 0.000000 0.198427
0.211964 0.000000 0.197785
0.539105 0.000000 0.224455
1.000000 0.000000 0.375838
1.000000 0.562974 0.774056
0.000000 0.111720 0.528917
0.000000 0.106662 0.528695
0.510363 0.000000 0.547296
1.000000 0.000000 0.594310
1.000000 0.586560 0.781322
0.000000 0.418008 0.794625
0.000000 0.417114 0.800334
0.412398 0.400023 0.807215
1.000000 0.330217 0.792886
1.000000 0.662479 0.795386
0.000000 0.885150 0.937249
0.000000 0.885657 0.935926
0.000000 0.872299 0.921887
0.865021 0.850279 0.895814
1.000000 0.860192 0.840320
0.502654 0.986451 0.931332
0.541233 0.985404 0.929320
0.655437 0.981076 0.917756
0.868780 0.972492 0.893015
1.000000 0.965777 0.849527
0.406193 0.000000 0.222419
0.471444 0.000000 0.234248
0.625516 0.000000 0.272376
0.976642 0.000000 0.439780
1.000000 0.000000 0.784035
0.231995 0.054912 0.672389
0.322638 0.000000 0.675400
0.527137 0.000000 0.695718
0.970776 0.000000 0.755535
1.000000 0.230146 0.843206
0.000000 0.414489 0.904458
0.000000 0.408540 0.905986
0.394957 0.400047 0.904569
0.937666 0.320009 0.906616
1.000000 0.452229 0.914006
0.000000 0.791091 0.976230
0.000000 0.787253 0.976329
0.000000 0.784797 0.975565
0.820425 0.757239 0.972692
1.000000 0.756440 0.963254
0.000000 0.992323 0.999674
0.233275 0.991703 0.999517
0.500755 0.987739 0.998281
0.815784 0.975049 0.994768
0.980220 0.966282 0.987016
