Assets/Lutify-Free-LUTs-Pack/Lutify Free LUTs Pack/Cine World Pro Warm - Amy/Lutify.me-Amy-RWG-to-Rec709.cube
# Created with: fylm.ai - Colour Grading and Collaboration Software in Cloud 
# Website: https://fylm.ai 
# META
# Option: Gamut compress
# Block 1: IDT | RED REDWideGamutRGB Log3G10
# Block 2: colourMatch | Blending Mode: Normal | {"ColorSpace":0,"CrossCovarianceLimit":50,"ReshapingIterations":1,"PercentSaturationShift":100,"PercentShadingShift":100,"ExtraShading":true,"PercentTint":100,"PercentModified":100}
# Block 3: LUT | Filmic Curve Response: Standard Contrast 1 (100%)
# Block 4: LUT | Illuminant: D60 (100%)
# Block 5: hueSaturation | Blending Mode: Normal | {"hue":0,"saturation":-0.15}
# Block 6: logPrimaries | Blending Mode: Normal | {"wheels":{"shadows":{"Y":"0","R":"1","G":"1","B":"1"},"midtones":{"Y":"0","R":"1","G":"1","B":"1"},"highlights":{"Y":"0","R":"1","G":"1","B":"1"},"offset":{"Y":"0","R":"1","G":"1","B":"1"}},"sliders":{"shadows":{"Y":0,"R":-0.097,"G":0,"B":0.158},"midtones":{"Y":0,"R":0.024,"G":0.024,"B":-0.036},"highlights":{"Y":0,"R":0.154,"G":-0.084,"B":-0.024},"offset":{"Y":0.048,"R":0,"G":0,"B":0}}}
# Block 7: smartCurves | Blending Mode: Average | [[{"x":0,"y":0},{"x":0.11328125,"y":0.085540771484375},{"x":0.21484375,"y":0.218353271484375},{"x":0.37109375,"y":0.382415771484375},{"x":0.62109375,"y":0.589447021484375},{"x":0.8125,"y":0.765228271484375},{"x":1,"y":1}],[{"x":0,"y":0},{"x":1,"y":1}],[{"x":0,"y":0},{"x":1,"y":1}],[{"x":0,"y":0},{"x":1,"y":1}]]
# Block 8: LUT | Neutral Tint: Teal Tint 4 (100%)
# Block 9: contrast | Blending Mode: Normal | {"contrast":0.1}
# Block 10: ODT | Rec709
TITLE "Lutify.me-Amy-RWG-to-Rec709" 
LUT_3D_SIZE 33
0.000000 0.000000 0.000000
0.000000 0.000000 0.000000
0.000000 0.000000 0.000000
0.000000 0.000000 0.000000
0.021181 0.000000 0.000000
0.115026 0.000000 0.000000
0.179026 0.000000 0.000000
0.260726 0.000000 0.000000
0.340162 0.000000 0.000000
0.422391 0.000000 0.000000
0.508380 0.000000 0.000000
0.631484 0.000000 0.000000
0.719896 0.000000 0.000000
0.827079 0.000000 0.000000
0.935065 0.000000 0.000000
1.000000 0.000000 0.000000
1.000000 0.000000 0.000000
1.000000 0.000000 0.073113
1.000000 0.177013 0.111626
1.000000 0.353198 0.155962
1.000000 0.481082 0.207896
1.000000 0.600535 0.288455
1.000000 0.698011 0.371554
1.000000 0.777795 0.478332
1.000000 0.832348 0.578266
1.000000 0.878259 0.674826
1.000000 0.910232 0.752426
1.000000 0.934153 0.809819
1.000000 0.951946 0.854130
1.000000 0.968135 0.891918
1.000000 0.979959 0.918637
1.000000 0.987941 0.939181
1.000000 0.993297 0.952690
0.000000 0.000000 0.000000
0.000000 0.000000 0.000000
0.000000 0.000000 0.000000
0.000000 0.000000 0.000000
0.015197 0.000000 0.000000
0.113997 0.000000 0.000000
0.173116 0.000000 0.000000
0.258820 0.000000 0.000000
0.340160 0.000000 0.000000
0.419311 0.000000 0.000000
0.512096 0.000000 0.000000
0.631510 0.000000 0.000000
0.728433 0.000000 0.000000
0.839796 0.000000 0.000000
0.935032 0.000000 0.000000
1.000000 0.000000 0.000000
1.000000 0.000000 0.000000
1.000000 0.000000 0.072507
1.000000 0.176929 0.111633
1.000000 0.356634 0.155400
1.000000 0.481031 0.207903
1.000000 0.600535 0.288455
1.000000 0.700204 0.371389
1.000000 0.777795 0.478332
1.000000 0.832348 0.578266
1.000000 0.878265 0.673363
1.000000 0.910232 0.752426
1.000000 0.934153 0.809819
1.000000 0.951946 0.854130
1.000000 0.968135 0.891918
1.000000 0.979959 0.918637
1.000000 0.987941 0.939181
1.000000 0.993297 0.952690
0.000000 0.000000 0.000000
0.000000 0.000000 0.000000
0.000000 0.000000 0.000000
0.000000 0.000000 0.000000
0.007389 0.000000 0.000000
0.112998 0.000000 0.000000
0.169671 0.000000 0.000000
0.255080 0.000000 0.000000
0.330706 0.000000 0.000000
0.416262 0.000000 0.000000
0.519562 0.000000 0.000000
0.631535 0.000000 0.000000
0.741250 0.000000 0.000000
0.843975 0.000000 0.000000
0.941719 0.000000 0.000000
1.000000 0.000000 0.000000
1.000000 0.000000 0.000000
1.000000 0.000000 0.073989
1.000000 0.182766 0.111026
1.000000 0.356582 0.155408
1.000000 0.481031 0.207903
1.000000 0.600483 0.288460
1.000000 0.700204 0.371389
1.000000 0.777795 0.478332
1.000000 0.832348 0.578266
1.000000 0.878265 0.673363
1.000000 0.910232 0.752426
1.000000 0.934153 0.809819
1.000000 0.951946 0.854130
1.000000 0.968135 0.891918
1.000000 0.979959 0.918637
1.000000 0.987941 0.939181
1.000000 0.993297 0.952690
0.000000 0.000000 0.000000
0.000000 0.000000 0.000000
0.000000 0.000000 0.000000
0.000000 0.000000 0.000000
0.000000 0.000000 0.000000
0.106388 0.000000 0.000000
0.165133 0.000000 0.000000
0.253216 0.000000 0.000000
0.330754 0.000000 0.000000
0.419343 0.000000 0.000000
0.519592 0.000000 0.000000
0.639848 0.000000 0.000000
0.745531 0.000000 0.000000
0.852247 0.000000 0.000000
0.944973 0.000000 0.000000
1.000000 0.000000 0.000000
1.000000 0.000000 0.000000
1.000000 0.000000 0.072744
1.000000 0.190725 0.112539
1.000000 0.359965 0.154845
1.000000 0.483975 0.207437
1.000000 0.603167 0.288139
1.000000 0.700204 0.371389
1.000000 0.777795 0.478332
1.000000 0.833559 0.578327
1.000000 0.878265 0.673363
1.000000 0.910232 0.752426
1.000000 0.934153 0.809819
1.000000 0.951946 0.854130
1.000000 0.968135 0.891918
1.000000 0.979959 0.918637
1.000000 0.987941 0.939181
1.000000 0.993297 0.952690
0.000000 0.027453 0.000000
0.000000 0.026654 0.000000
0.000000 0.026786 0.000000
0.000000 0.022558 0.000000
0.000000 0.017446 0.000000
0.096130 0.000000 0.000000
0.160303 0.000000 0.000000
0.244270 0.000000 0.000000
0.333112 0.000000 0.000000
0.425587 0.000000 0.000000
0.527344 0.000000 0.000000
0.656543 0.000000 0.000000
0.758378 0.000000 0.000000
0.864435 0.000000 0.000000
0.948125 0.000000 0.000000
1.000000 0.000000 0.000000
1.000000 0.000000 0.000000
1.000000 0.000000 0.073583
1.000000 0.201662 0.111263
1.000000 0.366774 0.153679
1.000000 0.486928 0.206964
1.000000 0.603116 0.288145
1.000000 0.702350 0.371228
1.000000 0.779379 0.476735
1.000000 0.834338 0.578733
1.000000 0.878265 0.673363
1.000000 0.910232 0.752426
1.000000 0.934153 0.809819
1.000000 0.951946 0.854130
1.000000 0.968135 0.891918
1.000000 0.979959 0.918637
1.000000 0.987941 0.939181
1.000000 0.993297 0.952690
0.000000 0.069558 0.000000
0.000000 0.068416 0.000000
0.000000 0.066213 0.000000
0.000000 0.064171 0.000000
0.000000 0.058410 0.000000
0.079645 0.050106 0.000000
0.161209 0.015341 0.000000
0.256810 0.000000 0.000000
0.347584 0.000000 0.000000
0.448362 0.000000 0.000000
0.550852 0.000000 0.000000
0.673355 0.000000 0.000000
0.779817 0.000000 0.000000
0.876319 0.000000 0.000000
0.963694 0.000000 0.000000
1.000000 0.000000 0.000000
1.000000 0.000000 0.000000
1.000000 0.000000 0.070041
1.000000 0.212100 0.109925
1.000000 0.368289 0.156038
1.000000 0.488366 0.209597
1.000000 0.605759 0.287826
1.000000 0.702350 0.371228
1.000000 0.779379 0.476735
1.000000 0.834338 0.578733
1.000000 0.879120 0.673465
1.000000 0.910232 0.752426
1.000000 0.934153 0.809819
1.000000 0.951946 0.854130
1.000000 0.968135 0.891918
1.000000 0.979959 0.918637
1.000000 0.987941 0.939181
1.000000 0.993297 0.952690
0.000000 0.107117 0.000000
0.000000 0.105374 0.000000
0.000000 0.102810 0.000000
0.000000 0.097895 0.000000
0.000000 0.092481 0.000000
0.067411 0.083169 0.000000
0.165404 0.066616 0.000000
0.268535 0.000000 0.000000
0.368387 0.000000 0.000000
0.465697 0.000000 0.000000
0.586957 0.000000 0.000000
0.707208 0.000000 0.000000
0.801257 0.000000 0.000000
0.899239 0.000000 0.000000
0.980946 0.000000 0.000000
1.000000 0.000000 0.000000
1.000000 0.000000 0.000000
1.000000 0.000000 0.067639
1.000000 0.224151 0.110737
1.000000 0.378368 0.154264
1.000000 0.491314 0.209127
1.000000 0.605710 0.287833
1.000000 0.704494 0.371068
1.000000 0.780347 0.477163
1.000000 0.835537 0.578797
1.000000 0.879120 0.673465
1.000000 0.910232 0.752426
1.000000 0.934153 0.809819
1.000000 0.951946 0.854130
1.000000 0.968135 0.891918
1.000000 0.979959 0.918637
1.000000 0.987941 0.939181
1.000000 0.993297 0.952690
0.000000 0.154041 0.000000
0.000000 0.151502 0.000000
0.000000 0.147772 0.000000
0.000000 0.145338 0.000000
0.000000 0.138286 0.000000
0.000000 0.126508 0.000000
0.156207 0.116332 0.000000
0.268317 0.094534 0.000000
0.372363 0.000000 0.000000
0.477540 0.000000 0.000000
0.607717 0.000000 0.000000
0.758362 0.000000 0.000000
0.864171 0.000000 0.000000
0.941280 0.000000 0.000000
1.000000 0.000000 0.000000
1.000000 0.000000 0.000000
1.000000 0.000000 0.019003
1.000000 0.000000 0.070574
1.000000 0.242050 0.113091
1.000000 0.381564 0.153682
1.000000 0.494181 0.208665
1.000000 0.611030 0.287187
1.000000 0.706636 0.370910
1.000000 0.781912 0.475606
1.000000 0.835537 0.578797
1.000000 0.879120 0.673465
1.000000 0.911346 0.752792
1.000000 0.934153 0.809819
1.000000 0.951946 0.854130
1.000000 0.968135 0.891918
1.000000 0.980084 0.919131
1.000000 0.987941 0.939181
1.000000 0.993297 0.952690
0.000000 0.207727 0.000000
0.000000 0.204352 0.000000
0.000000 0.199387 0.000000
0.000000 0.196135 0.000000
0.000000 0.186660 0.000000
0.000000 0.177227 0.000000
0.121880 0.166634 0.000000
0.262269 0.148133 0.000000
0.374852 0.120156 0.000000
0.494046 0.038269 0.000000
0.612832 0.000000 0.000000
0.762568 0.000000 0.000000
0.894649 0.000000 0.000000
0.999219 0.000000 0.000000
1.000000 0.000000 0.000000
1.000000 0.000000 0.025786
1.000000 0.000000 0.034867
1.000000 0.000000 0.070957
1.000000 0.261510 0.112467
1.000000 0.396423 0.153585
1.000000 0.501483 0.210377
1.000000 0.616618 0.293122
1.000000 0.708736 0.370756
1.000000 0.783477 0.474062
1.000000 0.836740 0.577297
1.000000 0.879975 0.673570
1.000000 0.911346 0.752792
1.000000 0.934153 0.809819
1.000000 0.951946 0.854130
1.000000 0.968135 0.891918
1.000000 0.980084 0.919131
1.000000 0.987941 0.939181
1.000000 0.993297 0.952690
0.000000 0.255991 0.000000
0.000000 0.255989 0.000000
0.000000 0.250232 0.000000
0.000000 0.244615 0.000000
0.000000 0.237286 0.000000
0.000000 0.231637 0.000000
0.000000 0.224113 0.000000
0.233255 0.208208 0.000000
0.375972 0.182461 0.000000
0.501195 0.145855 0.000000
0.618934 0.092175 0.000000
0.766800 0.000000 0.000000
0.893419 0.000000 0.000000
0.999903 0.000000 0.000000
1.000000 0.000000 0.039073
1.000000 0.000000 0.069100
1.000000 0.000000 0.069647
1.000000 0.138666 0.083222
1.000000 0.293999 0.111660
1.000000 0.412465 0.155950
1.000000 0.513369 0.208404
1.000000 0.621819 0.292500
1.000000 0.716354 0.373760
1.000000 0.786605 0.471019
1.000000 0.836740 0.577297
1.000000 0.880837 0.672225
1.000000 0.912044 0.751713
1.000000 0.934699 0.809891
1.000000 0.952386 0.854189
1.000000 0.968473 0.891420
1.000000 0.980341 0.919172
1.000000 0.987941 0.939181
1.000000 0.993297 0.952690
0.000000 0.316761 0.000000
0.000000 0.314334 0.000000
0.000000 0.311920 0.000000
0.000000 0.304806 0.000000
0.000000 0.297825 0.000000
0.000000 0.288686 0.000000
0.000000 0.283381 0.000000
0.170811 0.271689 0.000000
0.360567 0.251459 0.000000
0.502225 0.221570 0.000000
0.622480 0.198200 0.000000
0.775454 0.123324 0.000000
0.898689 0.000000 0.000000
1.000000 0.000000 0.000000
1.000000 0.000000 0.000000
1.000000 0.000000 0.100103
1.000000 0.000000 0.122803
1.000000 0.214064 0.109654
1.000000 0.332582 0.117246
1.000000 0.430296 0.155106
1.000000 0.526607 0.209107
1.000000 0.628482 0.295028
1.000000 0.720541 0.373472
1.000000 0.788136 0.469518
1.000000 0.837942 0.575813
1.000000 0.881700 0.670891
1.000000 0.912735 0.751807
1.000000 0.934699 0.809891
1.000000 0.952386 0.854189
1.000000 0.968473 0.891420
1.000000 0.980341 0.919172
1.000000 0.987944 0.938810
1.000000 0.993297 0.952690
0.000000 0.375459 0.000000
0.000000 0.372544 0.000000
0.000000 0.366785 0.000000
0.000000 0.361112 0.000000
0.000000 0.355506 0.000000
0.000000 0.355347 0.000000
0.000000 0.349331 0.000000
0.000000 0.338774 0.000000
0.320135 0.323748 0.000000
0.491546 0.299973 0.000000
0.629603 0.274706 0.000000
0.776062 0.237238 0.000000
0.903005 0.202490 0.000000
0.997123 0.156707 0.000000
1.000000 0.160235 0.000000
1.000000 0.173756 0.078468
1.000000 0.245290 0.148535
1.000000 0.298497 0.180295
1.000000 0.367597 0.148245
1.000000 0.453977 0.158687
1.000000 0.545510 0.214913
1.000000 0.640335 0.296966
1.000000 0.727841 0.376546
1.000000 0.790454 0.472996
1.000000 0.841042 0.574468
1.000000 0.882569 0.668173
1.000000 0.913432 0.750740
1.000000 0.935250 0.809044
1.000000 0.952830 0.853508
1.000000 0.968476 0.890881
1.000000 0.980344 0.918717
1.000000 0.987944 0.938810
1.000000 0.993299 0.952342
0.000000 0.438411 0.000000
0.000000 0.435041 0.000000
0.000000 0.428423 0.000000
0.000000 0.421906 0.000000
0.000000 0.421850 0.000000
0.000000 0.421697 0.000000
0.000000 0.414806 0.000000
0.000000 0.406918 0.000000
0.225140 0.388916 0.000000
0.453219 0.374072 0.000000
0.624092 0.350392 0.000000
0.768393 0.326941 0.000000
0.899273 0.304684 0.000000
0.990847 0.286336 0.000000
1.000000 0.289106 0.000000
1.000000 0.306760 0.017720
1.000000 0.344877 0.144450
1.000000 0.392468 0.219725
1.000000 0.441629 0.252208
1.000000 0.481413 0.184992
1.000000 0.565969 0.217527
1.000000 0.657262 0.298369
1.000000 0.738009 0.382999
1.000000 0.794898 0.472973
1.000000 0.844499 0.574620
1.000000 0.883885 0.671484
1.000000 0.914134 0.748527
1.000000 0.935798 0.808204
1.000000 0.953274 0.852831
1.000000 0.968810 0.890926
1.000000 0.980601 0.918759
1.000000 0.987944 0.938810
1.000000 0.993467 0.952375
0.000000 0.511424 0.000000
0.000000 0.507860 0.000000
0.000000 0.500755 0.000000
0.000000 0.497193 0.000000
0.000000 0.497138 0.000000
0.000000 0.493464 0.000000
0.000000 0.489592 0.000000
0.000000 0.488677 0.000000
0.000000 0.471736 0.000000
0.389760 0.453074 0.000000
0.601211 0.438549 0.000000
0.758039 0.418884 0.000000
0.890715 0.399735 0.000000
0.986675 0.391246 0.000000
1.000000 0.390474 0.000000
1.000000 0.412017 0.000000
1.000000 0.431282 0.127971
1.000000 0.467064 0.212827
1.000000 0.525869 0.306011
1.000000 0.558817 0.328608
1.000000 0.598308 0.240469
1.000000 0.680118 0.302659
1.000000 0.747825 0.389546
1.000000 0.801611 0.476470
1.000000 0.847899 0.574793
1.000000 0.885517 0.671658
1.000000 0.915518 0.747591
1.000000 0.936888 0.807453
1.000000 0.953717 0.852161
1.000000 0.969144 0.890973
1.000000 0.980604 0.918305
1.000000 0.987944 0.938810
1.000000 0.993467 0.952375
0.000000 0.583970 0.000000
0.000000 0.583955 0.000000
0.000000 0.580256 0.000000
0.000000 0.576541 0.000000
0.000000 0.576445 0.000000
0.000000 0.568939 0.000000
0.000000 0.568536 0.000000
0.000000 0.567663 0.000000
0.000000 0.554381 0.000000
0.261447 0.542590 0.000000
0.527730 0.524663 0.000000
0.743136 0.508082 0.000000
0.880434 0.491596 0.000000
0.980678 0.481515 0.000000
1.000000 0.480244 0.000000
1.000000 0.494565 0.000000
1.000000 0.512554 0.097321
1.000000 0.549352 0.205011
1.000000 0.589942 0.302674
1.000000 0.637080 0.390173
1.000000 0.668070 0.429564
1.000000 0.698961 0.321815
1.000000 0.759064 0.396123
1.000000 0.811927 0.483555
1.000000 0.854130 0.578584
1.000000 0.889319 0.675235
1.000000 0.917901 0.749294
1.000000 0.937976 0.805817
1.000000 0.954388 0.852387
1.000000 0.969483 0.889953
1.000000 0.980861 0.918348
1.000000 0.988150 0.938475
1.000000 0.993469 0.952028
0.000000 0.658023 0.000000
0.000000 0.657989 0.000000
0.000000 0.657946 0.000000
0.000000 0.654157 0.000000
0.000000 0.650311 0.000000
0.000000 0.646371 0.000000
0.000000 0.642163 0.000000
0.000000 0.637417 0.000000
0.000000 0.632010 0.000000
0.100732 0.624616 0.000000
0.436374 0.606910 0.000000
0.678704 0.589926 0.000000
0.863192 0.575397 0.000000
0.962422 0.561986 0.000000
1.000000 0.564144 0.000000
1.000000 0.570897 0.000000
1.000000 0.584623 0.041229
1.000000 0.617107 0.204453
1.000000 0.647645 0.299473
1.000000 0.689130 0.396707
1.000000 0.725579 0.492471
1.000000 0.758617 0.543457
1.000000 0.773126 0.416927
1.000000 0.821044 0.494212
1.000000 0.860112 0.582434
1.000000 0.892170 0.678693
1.000000 0.919866 0.749560
1.000000 0.939335 0.804501
1.000000 0.955262 0.851804
1.000000 0.969661 0.889560
1.000000 0.981123 0.917493
1.000000 0.988352 0.938511
1.000000 0.993637 0.951717
0.000000 0.734938 0.000000
0.000000 0.734886 0.000000
0.000000 0.734808 0.000000
0.000000 0.734704 0.000000
0.000000 0.734508 0.000000
0.000000 0.730720 0.000000
0.000000 0.726576 0.000000
0.000000 0.721903 0.000000
0.000000 0.716599 0.000000
0.000000 0.706506 0.000000
0.374173 0.694112 0.000000
0.596488 0.678279 0.000000
0.819472 0.656521 0.000000
0.938833 0.645279 0.000000
1.000000 0.649960 0.000000
1.000000 0.653525 0.000000
1.000000 0.663119 0.000000
1.000000 0.682458 0.189765
1.000000 0.707336 0.299753
1.000000 0.734465 0.404352
1.000000 0.766652 0.504858
1.000000 0.800088 0.611744
1.000000 0.818817 0.645717
1.000000 0.834568 0.508640
1.000000 0.870638 0.590240
1.000000 0.898711 0.685700
1.000000 0.922485 0.749944
1.000000 0.941417 0.804730
1.000000 0.956573 0.849889
1.000000 0.970328 0.888112
1.000000 0.981636 0.917139
1.000000 0.988556 0.938180
1.000000 0.993639 0.951372
0.000000 0.807173 0.000000
0.000000 0.807083 0.000000
0.000000 0.806921 0.000000
0.000000 0.803934 0.000000
0.000000 0.803635 0.000000
0.000000 0.800298 0.000000
0.000000 0.796782 0.000000
0.000000 0.792763 0.000000
0.000000 0.788043 0.000000
0.000000 0.785441 0.000000
0.311686 0.778602 0.000000
0.548359 0.765947 0.000000
0.755098 0.749357 0.000000
0.902620 0.733496 0.000000
0.992923 0.724106 0.000000
1.000000 0.727906 0.000000
1.000000 0.736042 0.000000
1.000000 0.746782 0.174854
1.000000 0.766006 0.305765
1.000000 0.781983 0.409685
1.000000 0.802872 0.507889
1.000000 0.828035 0.615151
1.000000 0.851249 0.703754
1.000000 0.862154 0.727118
1.000000 0.879093 0.611537
1.000000 0.904946 0.692649
1.000000 0.925682 0.755328
1.000000 0.944225 0.807068
1.000000 0.958046 0.850051
1.000000 0.971297 0.888212
1.000000 0.982152 0.915911
1.000000 0.988960 0.937891
1.000000 0.993805 0.951408
0.000000 0.857634 0.000000
0.000000 0.857502 0.000000
0.000000 0.857362 0.000000
0.000000 0.857112 0.000000
0.000000 0.854680 0.000000
0.000000 0.854056 0.000000
0.000000 0.851231 0.000000
0.000000 0.847804 0.000000
0.000000 0.843971 0.000000
0.000000 0.839024 0.000000
0.339769 0.830792 0.000000
0.553755 0.822568 0.000000
0.730684 0.809701 0.000000
0.860803 0.796946 0.000000
0.964597 0.790965 0.000000
1.000000 0.788656 0.000000
1.000000 0.790140 0.000000
1.000000 0.796035 0.167169
1.000000 0.808189 0.305299
1.000000 0.818767 0.413651
1.000000 0.836107 0.519122
1.000000 0.853314 0.622703
1.000000 0.869582 0.707166
1.000000 0.885102 0.773723
1.000000 0.895254 0.793656
1.000000 0.912067 0.702653
1.000000 0.930370 0.758524
1.000000 0.946442 0.809315
1.000000 0.959706 0.850317
1.000000 0.972569 0.888397
1.000000 0.982914 0.915197
1.000000 0.989363 0.937244
1.000000 0.993971 0.951102
0.000000 0.897138 0.000000
0.000000 0.896883 0.000000
0.000000 0.896707 0.000000
0.000000 0.896433 0.000000
0.000000 0.894273 0.000000
0.000000 0.893654 0.000000
0.000000 0.891297 0.000000
0.000000 0.890069 0.000000
0.000000 0.886990 0.000000
0.154699 0.882733 0.000000
0.428791 0.875075 0.000000
0.593331 0.869951 0.000000
0.736889 0.859662 0.000000
0.839796 0.851934 0.000000
0.933140 0.844177 0.000000
1.000000 0.837284 0.000000
1.000000 0.838777 0.000000
1.000000 0.839732 0.169109
1.000000 0.845542 0.308848
1.000000 0.853838 0.423660
1.000000 0.864231 0.528302
1.000000 0.875249 0.627784
1.000000 0.889755 0.719857
1.000000 0.900245 0.778683
1.000000 0.913645 0.830521
1.000000 0.920588 0.840967
1.000000 0.937006 0.771273
1.000000 0.949821 0.813614
1.000000 0.962747 0.852349
1.000000 0.974132 0.888650
1.000000 0.983428 0.913166
1.000000 0.989962 0.936293
1.000000 0.994141 0.950117
0.000000 0.924557 0.000000
0.000000 0.924429 0.000000
0.000000 0.924298 0.000000
0.000000 0.924033 0.000000
0.000000 0.923622 0.000000
0.000000 0.923053 0.000000
0.000000 0.920789 0.000000
0.000000 0.919986 0.000000
0.241742 0.917229 0.000000
0.402484 0.913338 0.000000
0.535446 0.908423 0.000000
0.644555 0.903013 0.000000
0.743342 0.897041 0.000000
0.830701 0.890840 0.000000
0.919465 0.882400 0.000000
0.982004 0.875630 0.000000
1.000000 0.874860 0.000000
1.000000 0.875220 0.161652
1.000000 0.879531 0.315397
1.000000 0.883824 0.427039
1.000000 0.891177 0.533417
1.000000 0.896684 0.637657
1.000000 0.906628 0.727013
1.000000 0.916536 0.786062
1.000000 0.925940 0.834308
1.000000 0.935658 0.871453
1.000000 0.941301 0.878074
1.000000 0.954398 0.821666
1.000000 0.966614 0.856037
1.000000 0.976581 0.889111
1.000000 0.984402 0.912746
1.000000 0.990628 0.935445
1.000000 0.994633 0.948891
0.219156 0.952279 0.000000
0.237850 0.952108 0.000000
0.254837 0.951935 0.000000
0.285139 0.951585 0.000000
0.311954 0.951228 0.000000
0.358800 0.950494 0.000000
0.399668 0.949732 0.000000
0.454183 0.947474 0.000000
0.524705 0.945590 0.000000
0.591448 0.942372 0.000000
0.659442 0.938718 0.000000
0.721154 0.934940 0.000000
0.782844 0.930811 0.000000
0.846331 0.925088 0.000000
0.910052 0.920144 0.000000
0.968345 0.915356 0.000000
1.000000 0.910975 0.000000
1.000000 0.908476 0.174023
1.000000 0.910616 0.333069
1.000000 0.913863 0.444579
1.000000 0.917419 0.549339
1.000000 0.921502 0.650631
1.000000 0.927298 0.733073
1.000000 0.933176 0.793778
1.000000 0.939830 0.840117
1.000000 0.946278 0.874352
1.000000 0.953082 0.900121
1.000000 0.956733 0.903343
1.000000 0.970130 0.862399
1.000000 0.978740 0.890662
1.000000 0.986213 0.914970
1.000000 0.991211 0.933264
1.000000 0.995271 0.947750
0.568562 0.963441 0.000000
0.574771 0.963240 0.000000
0.580887 0.963038 0.000000
0.586913 0.962837 0.000000
0.598700 0.962435 0.000000
0.604465 0.962234 0.000000
0.621271 0.961633 0.000000
0.647887 0.959765 0.000000
0.677323 0.958589 0.000000
0.704315 0.957446 0.000000
0.744606 0.954740 0.000000
0.787049 0.951769 0.000000
0.827419 0.948738 0.000000
0.871678 0.945327 0.000000
0.917727 0.942571 0.000000
0.963629 0.937834 0.000000
0.998285 0.933813 0.000000
1.000000 0.934732 0.204554
1.000000 0.932411 0.344451
1.000000 0.932428 0.450745
1.000000 0.935218 0.553988
1.000000 0.938288 0.658080
1.000000 0.942159 0.742243
1.000000 0.945919 0.799739
1.000000 0.950759 0.842814
1.000000 0.956445 0.879864
1.000000 0.962035 0.904520
1.000000 0.966616 0.924484
1.000000 0.969411 0.923679
1.000000 0.981814 0.897666
1.000000 0.987256 0.916996
1.000000 0.992536 0.934340
1.000000 0.996042 0.946074
0.724844 0.974321 0.000000
0.724844 0.974321 0.000000
0.728574 0.974155 0.000000
0.735928 0.973824 0.000000
0.739554 0.973658 0.000000
0.743145 0.973494 0.000000
0.753715 0.973003 0.000000
0.763978 0.972516 0.000000
0.777185 0.971877 0.000000
0.792953 0.971094 0.000000
0.819546 0.969025 0.000000
0.845849 0.967607 0.000000
0.875650 0.965220 0.000000
0.903058 0.962895 0.000000
0.938146 0.960023 0.039477
0.967638 0.957428 0.120560
0.991217 0.954440 0.177834
1.000000 0.952371 0.258368
1.000000 0.951036 0.358514
1.000000 0.951691 0.466938
1.000000 0.951916 0.570973
1.000000 0.952875 0.668287
1.000000 0.955401 0.752458
1.000000 0.958186 0.806500
1.000000 0.961578 0.849141
1.000000 0.964923 0.882913
1.000000 0.969031 0.906894
1.000000 0.972506 0.925505
1.000000 0.975591 0.938258
1.000000 0.978357 0.938348
1.000000 0.989569 0.919366
1.000000 0.993781 0.935427
1.000000 0.996932 0.942747
0.828462 0.983456 0.200844
0.830975 0.983323 0.201407
0.830975 0.983323 0.201407
0.835908 0.983060 0.202551
0.838326 0.982930 0.203130
0.840715 0.982802 0.203717
0.843074 0.982675 0.204309
0.847706 0.982423 0.205513
0.854618 0.981496 0.201768
0.867319 0.980788 0.205771
0.881071 0.980005 0.210745
0.895835 0.979145 0.217089
0.914812 0.977457 0.221185
0.936297 0.975573 0.229883
0.954614 0.974417 0.245356
0.974741 0.972552 0.263191
0.993356 0.970758 0.289525
1.000000 0.968477 0.335483
1.000000 0.967020 0.406391
1.000000 0.967447 0.484735
1.000000 0.966445 0.586612
1.000000 0.966991 0.675801
1.000000 0.968785 0.760956
1.000000 0.969443 0.812577
1.000000 0.971838 0.853135
1.000000 0.973950 0.887514
1.000000 0.976363 0.908567
1.000000 0.979444 0.930027
1.000000 0.980779 0.938465
1.000000 0.979765 0.938411
1.000000 0.983824 0.938675
1.000000 0.995203 0.937992
1.000000 0.998016 0.941820
0.901596 0.989459 0.323089
0.901596 0.989459 0.323089
0.904869 0.989265 0.324139
0.904869 0.989265 0.324139
