Assets/Lutify-Free-LUTs-Pack/Lutify Free LUTs Pack/Cine World Pro Warm - Amy/Lutify.me-Amy-ZLog2-to-Rec709.cube
# Created with: fylm.ai - Colour Grading and Collaboration Software in Cloud 
# Website: https://fylm.ai 
# META
# Option: Gamut compress
# Block 1: IDT | Z-Cam Z-Log2 - BETA
# Block 2: colourMatch | Blending Mode: Normal | {"ColorSpace":0,"CrossCovarianceLimit":50,"ReshapingIterations":1,"PercentSaturationShift":100,"PercentShadingShift":100,"ExtraShading":true,"PercentTint":100,"PercentModified":100}
# Block 3: LUT | Filmic Curve Response: Standard Contrast 1 (100%)
# Block 4: LUT | Illuminant: D60 (100%)
# Block 5: hueSaturation | Blending Mode: Normal | {"hue":0,"saturation":-0.15}
# Block 6: logPrimaries | Blending Mode: Normal | {"wheels":{"shadows":{"Y":"0","R":"1","G":"1","B":"1"},"midtones":{"Y":"0","R":"1","G":"1","B":"1"},"highlights":{"Y":"0","R":"1","G":"1","B":"1"},"offset":{"Y":"0","R":"1","G":"1","B":"1"}},"sliders":{"shadows":{"Y":0,"R":-0.097,"G":0,"B":0.158},"midtones":{"Y":0,"R":0.024,"G":0.024,"B":-0.036},"highlights":{"Y":0,"R":0.154,"G":-0.084,"B":-0.024},"offset":{"Y":0.048,"R":0,"G":0,"B":0}}}
# Block 7: smartCurves | Blending Mode: Average | [[{"x":0,"y":0},{"x":0.11328125,"y":0.085540771484375},{"x":0.21484375,"y":0.218353271484375},{"x":0.37109375,"y":0.382415771484375},{"x":0.62109375,"y":0.589447021484375},{"x":0.8125,"y":0.765228271484375},{"x":1,"y":1}],[{"x":0,"y":0},{"x":1,"y":1}],[{"x":0,"y":0},{"x":1,"y":1}],[{"x":0,"y":0},{"x":1,"y":1}]]
# Block 8: LUT | Neutral Tint: Teal Tint 4 (100%)
# Block 9: contrast | Blending Mode: Normal | {"contrast":0.1}
# Block 10: ODT | Rec709
TITLE "Lutify.me-Amy-ZLog2-to-Rec709" 
LUT_3D_SIZE 5
0.000000 0.000000 0.000000
0.082388 0.000000 0.000000
0.257051 0.000000 0.000000
0.528077 0.000000 0.042049
0.934933 0.000000 0.129190
0.000000 0.068182 0.000000
0.071375 0.056893 0.000000
0.264373 0.000000 0.000000
0.528138 0.000000 0.041636
0.944095 0.000000 0.131743
0.000000 0.204193 0.000000
0.051561 0.197164 0.000000
0.362216 0.164009 0.000000
0.590862 0.111194 0.000000
0.944130 0.000000 0.125604
0.119220 0.384892 0.000000
0.306949 0.376549 0.000000
0.566286 0.350269 0.000000
0.896680 0.288279 0.000000
0.960691 0.401539 0.000000
0.616387 0.628183 0.000000
0.670242 0.624843 0.000000
0.800827 0.611483 0.000000
0.965145 0.597510 0.000000
1.000000 0.608874 0.000000
0.000000 0.000000 0.054238
0.042296 0.000000 0.046842
0.233799 0.000000 0.050333
0.513705 0.000000 0.066193
0.931861 0.000000 0.150119
0.000000 0.067301 0.099584
0.010085 0.055852 0.084700
0.221168 0.000000 0.065841
0.521232 0.000000 0.073083
0.937829 0.000000 0.154706
0.000000 0.218194 0.000000
0.000000 0.220785 0.000000
0.253876 0.199251 0.000000
0.562853 0.138080 0.042460
0.937678 0.000000 0.155698
0.026139 0.385506 0.000000
0.284721 0.377486 0.000000
0.499226 0.366922 0.000000
0.759975 0.365819 0.000000
0.947209 0.402658 0.023431
0.610886 0.628503 0.000000
0.666572 0.621275 0.000000
0.792474 0.612133 0.000000
0.965145 0.597510 0.000000
1.000000 0.608874 0.000000
0.000000 0.000000 0.118069
0.000000 0.000000 0.087898
0.212179 0.000000 0.082671
0.503466 0.000000 0.115368
0.923001 0.000000 0.214689
0.000000 0.036457 0.164245
0.000000 0.027272 0.143910
0.195399 0.000000 0.135828
0.501956 0.000000 0.157156
0.922309 0.000000 0.226679
0.000000 0.238843 0.313818
0.000000 0.225877 0.302170
0.125829 0.218016 0.273861
0.525528 0.136727 0.225862
0.935085 0.000000 0.236086
0.000000 0.475922 0.107548
0.000000 0.482475 0.083976
0.000000 0.476139 0.047583
0.559379 0.452883 0.075443
0.932246 0.420505 0.211690
0.590605 0.625874 0.000000
0.639912 0.622976 0.000000
0.785026 0.608839 0.000000
0.959403 0.593697 0.000000
0.978155 0.693288 0.000000
0.000000 0.000000 0.200709
0.000000 0.000000 0.164476
0.134299 0.000000 0.141898
0.511138 0.000000 0.125320
0.902476 0.000000 0.301891
0.000000 0.036185 0.266213
0.000000 0.031316 0.233782
0.115235 0.000000 0.220813
0.477447 0.000000 0.195612
0.899420 0.000000 0.340074
0.000000 0.161598 0.402709
0.000000 0.154788 0.396442
0.000000 0.135234 0.393674
0.503814 0.000000 0.376391
0.912153 0.000000 0.411690
0.000000 0.495589 0.618107
0.000000 0.502669 0.610232
0.000000 0.497915 0.595509
0.390361 0.485769 0.569424
0.898145 0.406230 0.502914
0.000000 0.793586 0.398530
0.000000 0.796009 0.391107
0.000000 0.793198 0.377025
0.407849 0.778834 0.349922
0.870945 0.756809 0.369447
0.000000 0.000000 0.298799
0.000000 0.000000 0.276793
0.081954 0.000000 0.259879
0.388972 0.000000 0.221005
0.963275 0.000000 0.170476
0.000000 0.047047 0.385941
0.000000 0.043731 0.371167
0.000000 0.028932 0.351268
0.371800 0.000000 0.329261
0.902120 0.000000 0.251653
0.000000 0.156859 0.538844
0.000000 0.153986 0.535279
0.000000 0.140876 0.524657
0.351298 0.062106 0.526727
0.879165 0.000000 0.496146
0.000000 0.402055 0.730668
0.000000 0.395494 0.727428
0.000000 0.385424 0.727847
0.280532 0.361709 0.727584
0.893490 0.215809 0.704644
0.000000 0.813485 0.881641
0.000000 0.810544 0.880098
0.000000 0.812197 0.876342
0.000000 0.799208 0.859406
0.763618 0.772258 0.833781
