Assets/Lutify-Free-LUTs-Pack/Lutify Free LUTs Pack/Cine World Pro Warm - Amy/Lutify.me-Amy-Cineon-to-Rec709.cube
# Created with: fylm.ai - Colour Grading and Collaboration Software in Cloud 
# Website: https://fylm.ai 
# META
# Option: Gamut compress
# Block 1: IDT | ADX10
# Block 2: colourMatch | Blending Mode: Normal | {"ColorSpace":0,"CrossCovarianceLimit":50,"ReshapingIterations":1,"PercentSaturationShift":100,"PercentShadingShift":100,"ExtraShading":true,"PercentTint":100,"PercentModified":100}
# Block 3: LUT | Filmic Curve Response: Standard Contrast 1 (100%)
# Block 4: LUT | Illuminant: D60 (100%)
# Block 5: hueSaturation | Blending Mode: Normal | {"hue":0,"saturation":-0.15}
# Block 6: logPrimaries | Blending Mode: Normal | {"wheels":{"shadows":{"Y":"0","R":"1","G":"1","B":"1"},"midtones":{"Y":"0","R":"1","G":"1","B":"1"},"highlights":{"Y":"0","R":"1","G":"1","B":"1"},"offset":{"Y":"0","R":"1","G":"1","B":"1"}},"sliders":{"shadows":{"Y":0,"R":-0.097,"G":0,"B":0.158},"midtones":{"Y":0,"R":0.024,"G":0.024,"B":-0.036},"highlights":{"Y":0,"R":0.154,"G":-0.084,"B":-0.024},"offset":{"Y":0.048,"R":0,"G":0,"B":0}}}
# Block 7: smartCurves | Blending Mode: Average | [[{"x":0,"y":0},{"x":0.11328125,"y":0.085540771484375},{"x":0.21484375,"y":0.218353271484375},{"x":0.37109375,"y":0.382415771484375},{"x":0.62109375,"y":0.589447021484375},{"x":0.8125,"y":0.765228271484375},{"x":1,"y":1}],[{"x":0,"y":0},{"x":1,"y":1}],[{"x":0,"y":0},{"x":1,"y":1}],[{"x":0,"y":0},{"x":1,"y":1}]]
# Block 8: LUT | Neutral Tint: Teal Tint 4 (100%)
# Block 9: contrast | Blending Mode: Normal | {"contrast":0.1}
# Block 10: ODT | Rec709
TITLE "Lutify.me-Amy-Cineon-to-Rec709" 
LUT_3D_SIZE 5
0.000000 0.000000 0.000000
0.079308 0.000000 0.000000
0.330782 0.000000 0.008327
0.813499 0.000000 0.056745
1.000000 0.473403 0.304355
0.000000 0.077869 0.020823
0.097653 0.085028 0.000000
0.447205 0.000000 0.000000
0.961932 0.000000 0.112587
1.000000 0.638380 0.437422
0.000000 0.396040 0.168611
0.000000 0.441353 0.097064
0.547465 0.461053 0.000000
1.000000 0.551486 0.225431
1.000000 0.803357 0.582776
0.000000 0.890644 0.659786
0.000000 0.911884 0.671728
0.161934 0.918590 0.637618
0.963113 0.909362 0.603572
1.000000 0.941298 0.790559
0.541891 1.000000 0.969223
0.632940 1.000000 0.974747
0.747399 1.000000 0.976785
0.924703 1.000000 0.969583
1.000000 1.000000 0.961090
0.000000 0.000000 0.045444
0.051014 0.000000 0.056545
0.304663 0.000000 0.084382
0.817684 0.000000 0.137122
1.000000 0.494010 0.361833
0.000000 0.089840 0.125188
0.041487 0.098696 0.130874
0.425199 0.083959 0.133351
0.963026 0.128058 0.190310
1.000000 0.656790 0.479418
0.000000 0.398455 0.297645
0.000000 0.444580 0.272919
0.534768 0.476197 0.244245
1.000000 0.551815 0.304014
1.000000 0.806453 0.620204
0.000000 0.883049 0.670756
0.000000 0.903634 0.689136
0.273620 0.910562 0.651440
0.967763 0.907751 0.627781
1.000000 0.940014 0.800795
0.508429 1.000000 0.967027
0.616351 1.000000 0.972263
0.738661 1.000000 0.974440
0.931072 1.000000 0.967413
1.000000 1.000000 0.958297
0.000000 0.035268 0.164265
0.000000 0.051250 0.203319
0.302545 0.000000 0.291098
0.819721 0.000000 0.400540
1.000000 0.533237 0.536501
0.000000 0.114879 0.270644
0.000000 0.131577 0.318259
0.432265 0.138607 0.401116
0.955842 0.216003 0.463112
1.000000 0.684599 0.624339
0.000000 0.440653 0.509435
0.000000 0.464040 0.563605
0.422410 0.512940 0.597783
1.000000 0.578864 0.575810
1.000000 0.814227 0.718313
0.000000 0.882667 0.774551
0.000000 0.903220 0.804474
0.242689 0.913933 0.803325
0.962703 0.907007 0.783603
1.000000 0.939110 0.845038
0.474123 1.000000 0.968255
0.589057 1.000000 0.973878
0.730322 1.000000 0.976820
0.936970 1.000000 0.969949
1.000000 0.999620 0.963244
0.000000 0.178041 0.473780
0.000000 0.234026 0.577033
0.000000 0.302233 0.675328
0.804146 0.322964 0.782834
1.000000 0.590423 0.862143
0.000000 0.234891 0.543812
0.000000 0.289332 0.642354
0.243178 0.350464 0.742090
0.928151 0.406125 0.827344
1.000000 0.725471 0.889754
0.000000 0.494681 0.750220
0.000000 0.537035 0.808290
0.295072 0.591591 0.861923
0.983670 0.644830 0.892422
1.000000 0.836811 0.915398
0.000000 0.900663 0.915695
0.000000 0.917374 0.937931
0.000000 0.924346 0.950259
0.934171 0.917799 0.950311
1.000000 0.945051 0.950137
0.422892 1.000000 0.983853
0.572714 1.000000 0.989285
0.720963 1.000000 0.993360
0.935607 1.000000 0.991817
1.000000 1.000000 0.989393
0.000000 0.536082 0.884406
0.000000 0.619582 0.928931
0.000000 0.701218 0.959678
0.594444 0.778397 0.982557
0.997048 0.825576 0.992359
0.000000 0.583494 0.908997
0.000000 0.663208 0.944140
0.000000 0.753812 0.973967
0.733794 0.803605 0.988902
1.000000 0.859899 0.995326
0.000000 0.676312 0.936759
0.000000 0.748808 0.965795
0.289282 0.815938 0.984381
0.868128 0.846591 0.993941
1.000000 0.895886 0.999606
0.000000 0.922833 0.983474
0.000000 0.940617 0.993712
0.430437 0.944555 0.999493
0.906901 0.940686 1.000000
1.000000 0.957499 1.000000
0.392965 1.000000 1.000000
0.551373 1.000000 1.000000
0.712064 1.000000 1.000000
0.928185 1.000000 1.000000
1.000000 1.000000 1.000000
