Assets/Lutify-Free-LUTs-Pack/Lutify Free LUTs Pack/Cine World Pro Warm - Amy/Lutify.me-Amy-DragonColor2RLF-to-Rec709.cube
# Created with: fylm.ai - Colour Grading and Collaboration Software in Cloud 
# Website: https://fylm.ai 
# META
# Option: Gamut compress
# Block 1: IDT | RED DragonColor2 REDLogFilm
# Block 2: colourMatch | Blending Mode: Normal | {"ColorSpace":0,"CrossCovarianceLimit":50,"ReshapingIterations":1,"PercentSaturationShift":100,"PercentShadingShift":100,"ExtraShading":true,"PercentTint":100,"PercentModified":100}
# Block 3: LUT | Filmic Curve Response: Standard Contrast 1 (100%)
# Block 4: LUT | Illuminant: D60 (100%)
# Block 5: hueSaturation | Blending Mode: Normal | {"hue":0,"saturation":-0.15}
# Block 6: logPrimaries | Blending Mode: Normal | {"wheels":{"shadows":{"Y":"0","R":"1","G":"1","B":"1"},"midtones":{"Y":"0","R":"1","G":"1","B":"1"},"highlights":{"Y":"0","R":"1","G":"1","B":"1"},"offset":{"Y":"0","R":"1","G":"1","B":"1"}},"sliders":{"shadows":{"Y":0,"R":-0.097,"G":0,"B":0.158},"midtones":{"Y":0,"R":0.024,"G":0.024,"B":-0.036},"highlights":{"Y":0,"R":0.154,"G":-0.084,"B":-0.024},"offset":{"Y":0.048,"R":0,"G":0,"B":0}}}
# Block 7: smartCurves | Blending Mode: Average | [[{"x":0,"y":0},{"x":0.11328125,"y":0.085540771484375},{"x":0.21484375,"y":0.218353271484375},{"x":0.37109375,"y":0.382415771484375},{"x":0.62109375,"y":0.589447021484375},{"x":0.8125,"y":0.765228271484375},{"x":1,"y":1}],[{"x":0,"y":0},{"x":1,"y":1}],[{"x":0,"y":0},{"x":1,"y":1}],[{"x":0,"y":0},{"x":1,"y":1}]]
# Block 8: LUT | Neutral Tint: Teal Tint 4 (100%)
# Block 9: contrast | Blending Mode: Normal | {"contrast":0.1}
# Block 10: ODT | Rec709
TITLE "Lutify.me-Amy-DragonColor2RLF-to-Rec709" 
LUT_3D_SIZE 5
0.000000 0.000000 0.000000
0.088982 0.000000 0.000000
0.504783 0.000000 0.000000
1.000000 0.000000 0.000000
1.000000 0.760333 0.403163
0.000000 0.074101 0.000000
0.101739 0.062133 0.000000
0.524054 0.000000 0.000000
1.000000 0.000000 0.000000
1.000000 0.762245 0.403093
0.000000 0.387963 0.000000
0.057694 0.385419 0.000000
0.645276 0.330592 0.000000
1.000000 0.361028 0.000000
1.000000 0.777818 0.406208
0.573181 0.864551 0.241507
0.599621 0.863567 0.230745
0.736546 0.855437 0.188662
1.000000 0.831250 0.000000
1.000000 0.880990 0.477079
0.960757 0.989229 0.819700
0.960757 0.989229 0.819700
0.965379 0.988965 0.816838
0.985321 0.987848 0.801555
1.000000 0.984583 0.741433
0.000000 0.000000 0.061225
0.055110 0.000000 0.049227
0.413780 0.000000 0.038511
1.000000 0.000000 0.021470
1.000000 0.759660 0.405812
0.000000 0.088968 0.139794
0.032847 0.079819 0.106524
0.432573 0.000000 0.045474
1.000000 0.000000 0.000000
1.000000 0.763439 0.405751
0.000000 0.413946 0.077900
0.000000 0.415902 0.015977
0.530195 0.381056 0.000000
1.000000 0.379975 0.000000
1.000000 0.777947 0.415937
0.570359 0.866463 0.304445
0.590385 0.865724 0.301084
0.729968 0.857639 0.260663
0.995487 0.837401 0.000000
1.000000 0.880226 0.486998
0.960480 0.989203 0.824672
0.960480 0.989203 0.824672
0.964234 0.988995 0.821734
0.985058 0.987824 0.806588
1.000000 0.984925 0.745646
0.000000 0.067043 0.276179
0.000000 0.062050 0.274105
0.421759 0.000000 0.275966
1.000000 0.000000 0.290386
1.000000 0.762393 0.486932
0.000000 0.121241 0.347266
0.000000 0.115258 0.347410
0.431634 0.000000 0.347461
1.000000 0.039143 0.296659
1.000000 0.766216 0.486880
0.000000 0.470407 0.581944
0.000000 0.466088 0.574703
0.365859 0.465760 0.544600
1.000000 0.429158 0.341923
1.000000 0.778926 0.496261
0.486070 0.880954 0.594184
0.509990 0.880269 0.590550
0.660505 0.876649 0.558276
0.968284 0.851357 0.438575
1.000000 0.885034 0.561557
0.956178 0.989626 0.848435
0.957206 0.989575 0.846990
0.961835 0.989299 0.845810
0.981975 0.988516 0.832998
1.000000 0.985123 0.777141
0.000000 0.382419 0.804496
0.000000 0.381602 0.807225
0.309206 0.368477 0.803624
1.000000 0.252647 0.791495
1.000000 0.770847 0.785682
0.000000 0.405201 0.811788
0.000000 0.401160 0.814576
0.313040 0.388015 0.813787
1.000000 0.283853 0.802052
1.000000 0.772841 0.785593
0.000000 0.544692 0.869892
0.000000 0.543959 0.869813
0.314851 0.539456 0.868800
0.991355 0.483842 0.851234
1.000000 0.791332 0.792190
0.422826 0.904084 0.946751
0.440643 0.905120 0.945708
0.586672 0.899305 0.941748
0.899984 0.882496 0.922264
1.000000 0.894619 0.834344
0.941959 0.992325 0.947720
0.942008 0.992329 0.946995
0.946024 0.992091 0.946286
0.968163 0.990459 0.939655
1.000000 0.987972 0.898354
0.650164 0.844211 0.998772
0.660968 0.843729 0.998728
0.697626 0.839933 0.998719
0.881899 0.831756 0.997223
1.000000 0.828997 0.992545
0.659740 0.845839 0.998586
0.665039 0.845600 0.998564
0.701233 0.841838 0.998555
0.883379 0.833748 0.997071
1.000000 0.828917 0.992957
0.668684 0.857449 0.999174
0.673799 0.857218 0.999153
0.704049 0.853862 0.999164
0.884923 0.845833 0.998091
1.000000 0.841297 0.993773
0.724306 0.921324 1.000000
0.728137 0.921144 1.000000
0.756787 0.920941 1.000000
0.894605 0.912235 1.000000
1.000000 0.909399 0.997808
0.933124 0.996603 1.000000
0.934132 0.996543 1.000000
0.937107 0.996363 1.000000
0.958190 0.995077 1.000000
1.000000 0.992402 1.000000
