Assets/Lutify-Free-LUTs-Pack/Lutify Free LUTs Pack/Cine World Pro Warm - Amy/Lutify.me-Amy-RWG-to-Rec709.cube
# Created with: fylm.ai - Colour Grading and Collaboration Software in Cloud 
# Website: https://fylm.ai 
# META
# Option: Gamut compress
# Block 1: IDT | RED REDWideGamutRGB Log3G10
# Block 2: colourMatch | Blending Mode: Normal | {"ColorSpace":0,"CrossCovarianceLimit":50,"ReshapingIterations":1,"PercentSaturationShift":100,"PercentShadingShift":100,"ExtraShading":true,"PercentTint":100,"PercentModified":100}
# Block 3: LUT | Filmic Curve Response: Standard Contrast 1 (100%)
# Block 4: LUT | Illuminant: D60 (100%)
# Block 5: hueSaturation | Blending Mode: Normal | {"hue":0,"saturation":-0.15}
# Block 6: logPrimaries | Blending Mode: Normal | {"wheels":{"shadows":{"Y":"0","R":"1","G":"1","B":"1"},"midtones":{"Y":"0","R":"1","G":"1","B":"1"},"highlights":{"Y":"0","R":"1","G":"1","B":"1"},"offset":{"Y":"0","R":"1","G":"1","B":"1"}},"sliders":{"shadows":{"Y":0,"R":-0.097,"G":0,"B":0.158},"midtones":{"Y":0,"R":0.024,"G":0.024,"B":-0.036},"highlights":{"Y":0,"R":0.154,"G":-0.084,"B":-0.024},"offset":{"Y":0.048,"R":0,"G":0,"B":0}}}
# Block 7: smartCurves | Blending Mode: Average | [[{"x":0,"y":0},{"x":0.11328125,"y":0.085540771484375},{"x":0.21484375,"y":0.218353271484375},{"x":0.37109375,"y":0.382415771484375},{"x":0.62109375,"y":0.589447021484375},{"x":0.8125,"y":0.765228271484375},{"x":1,"y":1}],[{"x":0,"y":0},{"x":1,"y":1}],[{"x":0,"y":0},{"x":1,"y":1}],[{"x":0,"y":0},{"x":1,"y":1}]]
# Block 8: LUT | Neutral Tint: Teal Tint 4 (100%)
# Block 9: contrast | Blending Mode: Normal | {"contrast":0.1}
# Block 10: ODT | Rec709
TITLE "Lutify.me-Amy-RWG-to-Rec709" 
LUT_3D_SIZE 9
0.000000 0.000000 0.000000
0.021181 0.000000 0.000000
0.340162 0.000000 0.000000
0.719896 0.000000 0.000000
1.000000 0.000000 0.000000
1.000000 0.481082 0.207896
1.000000 0.832348 0.578266
1.000000 0.951946 0.854130
1.000000 0.993297 0.952690
0.000000 0.027453 0.000000
0.000000 0.017446 0.000000
0.333112 0.000000 0.000000
0.758378 0.000000 0.000000
1.000000 0.000000 0.000000
1.000000 0.486928 0.206964
1.000000 0.834338 0.578733
1.000000 0.951946 0.854130
1.000000 0.993297 0.952690
0.000000 0.207727 0.000000
0.000000 0.186660 0.000000
0.374852 0.120156 0.000000
0.894649 0.000000 0.000000
1.000000 0.000000 0.034867
1.000000 0.501483 0.210377
1.000000 0.836740 0.577297
1.000000 0.951946 0.854130
1.000000 0.993297 0.952690
0.000000 0.438411 0.000000
0.000000 0.421850 0.000000
0.225140 0.388916 0.000000
0.899273 0.304684 0.000000
1.000000 0.344877 0.144450
1.000000 0.565969 0.217527
1.000000 0.844499 0.574620
1.000000 0.953274 0.852831
1.000000 0.993467 0.952375
0.000000 0.734938 0.000000
0.000000 0.734508 0.000000
0.000000 0.716599 0.000000
0.819472 0.656521 0.000000
1.000000 0.663119 0.000000
1.000000 0.766652 0.504858
1.000000 0.870638 0.590240
1.000000 0.956573 0.849889
1.000000 0.993639 0.951372
0.000000 0.924557 0.000000
0.000000 0.923622 0.000000
0.241742 0.917229 0.000000
0.743342 0.897041 0.000000
1.000000 0.874860 0.000000
1.000000 0.891177 0.533417
1.000000 0.925940 0.834308
1.000000 0.966614 0.856037
1.000000 0.994633 0.948891
0.828462 0.983456 0.200844
0.838326 0.982930 0.203130
0.854618 0.981496 0.201768
0.914812 0.977457 0.221185
0.993356 0.970758 0.289525
1.000000 0.966445 0.586612
1.000000 0.971838 0.853135
1.000000 0.980779 0.938465
1.000000 0.998016 0.941820
0.997560 1.000000 0.599559
0.997560 1.000000 0.599559
0.999083 1.000000 0.601807
1.000000 1.000000 0.606675
1.000000 0.998822 0.633696
1.000000 0.997437 0.730769
1.000000 0.996413 0.867170
1.000000 0.997092 0.941390
1.000000 0.995923 0.940919
1.000000 1.000000 0.848105
1.000000 1.000000 0.848105
1.000000 1.000000 0.848105
1.000000 1.000000 0.849638
1.000000 1.000000 0.855730
1.000000 1.000000 0.873817
1.000000 1.000000 0.904492
1.000000 1.000000 0.948755
1.000000 1.000000 0.947957
0.000000 0.000000 0.041679
0.000000 0.000000 0.022555
0.286229 0.000000 0.000000
0.644193 0.000000 0.000000
1.000000 0.000000 0.030505
1.000000 0.482885 0.213196
1.000000 0.832335 0.581481
1.000000 0.951946 0.854130
1.000000 0.993297 0.952690
0.000000 0.000000 0.046562
0.000000 0.000000 0.033106
0.264690 0.000000 0.000000
0.644266 0.000000 0.000000
1.000000 0.000000 0.000000
1.000000 0.487479 0.210561
1.000000 0.833553 0.579928
1.000000 0.951946 0.854130
1.000000 0.993297 0.952690
0.000000 0.212907 0.000000
0.000000 0.199389 0.000000
0.321481 0.142116 0.000000
0.749843 0.000000 0.000000
1.000000 0.000000 0.000000
1.000000 0.503674 0.207106
1.000000 0.836727 0.580441
1.000000 0.951946 0.854130
1.000000 0.993297 0.952690
0.000000 0.438411 0.000000
0.000000 0.418634 0.000000
0.223372 0.385802 0.000000
0.899472 0.300431 0.000000
1.000000 0.341275 0.145075
1.000000 0.568210 0.213993
1.000000 0.844587 0.575189
1.000000 0.953270 0.853570
1.000000 0.993467 0.952375
0.000000 0.734972 0.000000
0.000000 0.734552 0.000000
0.000000 0.713058 0.000000
0.816746 0.652861 0.000000
1.000000 0.659706 0.000000
1.000000 0.765462 0.501390
1.000000 0.870690 0.590246
1.000000 0.956569 0.850598
1.000000 0.993637 0.951717
0.000000 0.924685 0.000000
0.000000 0.923761 0.000000
0.223584 0.917407 0.000000
0.744110 0.895512 0.000000
1.000000 0.874860 0.000000
1.000000 0.890116 0.533142
1.000000 0.925940 0.834308
1.000000 0.966621 0.856038
1.000000 0.994631 0.949227
0.828462 0.983456 0.200844
0.835908 0.983060 0.202551
0.854618 0.981496 0.201768
0.914812 0.977457 0.221185
0.993356 0.970758 0.289525
1.000000 0.966445 0.586612
1.000000 0.971838 0.853135
1.000000 0.980779 0.938465
1.000000 0.998016 0.941820
0.997560 1.000000 0.599559
0.997560 1.000000 0.599559
0.999083 1.000000 0.601807
1.000000 1.000000 0.606675
1.000000 0.998822 0.633696
1.000000 0.997437 0.730769
1.000000 0.996413 0.867170
1.000000 0.997092 0.941390
1.000000 0.995923 0.940919
1.000000 1.000000 0.848105
1.000000 1.000000 0.848105
1.000000 1.000000 0.848105
1.000000 1.000000 0.849638
1.000000 1.000000 0.855730
1.000000 1.000000 0.873817
1.000000 1.000000 0.904492
1.000000 1.000000 0.948755
1.000000 1.000000 0.947957
0.000000 0.000000 0.129279
0.000000 0.000000 0.072094
0.253627 0.000000 0.061235
0.585214 0.000000 0.089797
1.000000 0.000000 0.123574
1.000000 0.482653 0.262129
1.000000 0.834686 0.598365
1.000000 0.951937 0.855622
1.000000 0.993295 0.953039
0.000000 0.000000 0.157804
0.000000 0.000000 0.107877
0.223702 0.000000 0.087550
0.585781 0.000000 0.110208
1.000000 0.000000 0.119938
1.000000 0.485711 0.260203
1.000000 0.834686 0.598365
1.000000 0.951937 0.855622
1.000000 0.993295 0.953039
0.000000 0.240568 0.321408
0.000000 0.222529 0.295038
0.108977 0.190269 0.237737
0.599589 0.000000 0.125988
1.000000 0.000000 0.103023
1.000000 0.508694 0.249528
1.000000 0.835902 0.596695
1.000000 0.951937 0.855622
1.000000 0.993295 0.953039
0.000000 0.479603 0.195810
0.000000 0.476177 0.095678
0.000000 0.468676 0.000000
0.671377 0.413429 0.000000
1.000000 0.400315 0.000000
1.000000 0.573162 0.210201
1.000000 0.843850 0.585681
1.000000 0.953266 0.854310
1.000000 0.993464 0.952723
0.000000 0.735073 0.000000
0.000000 0.731217 0.000000
0.000000 0.713464 0.000000
0.808770 0.653441 0.000000
1.000000 0.655754 0.000000
1.000000 0.763946 0.501434
1.000000 0.870471 0.586842
1.000000 0.956993 0.852097
1.000000 0.993800 0.952098
0.000000 0.925057 0.000000
0.000000 0.924033 0.000000
0.179943 0.917758 0.000000
0.739846 0.895725 0.000000
1.000000 0.874860 0.000000
1.000000 0.890116 0.533142
1.000000 0.925940 0.834308
1.000000 0.966640 0.856042
1.000000 0.994629 0.949563
0.825919 0.983590 0.200286
0.835908 0.983060 0.202551
0.852400 0.981618 0.201124
0.914812 0.977457 0.221185
0.993356 0.970758 0.289525
1.000000 0.966445 0.586612
1.000000 0.971838 0.853135
1.000000 0.980779 0.938465
1.000000 0.998018 0.941820
0.997560 1.000000 0.599559
0.997560 1.000000 0.599559
0.999083 1.000000 0.601807
1.000000 1.000000 0.606675
1.000000 0.998822 0.633696
1.000000 0.997450 0.729249
1.000000 0.996413 0.867170
1.000000 0.997092 0.941390
1.000000 0.995923 0.940919
1.000000 1.000000 0.848105
1.000000 1.000000 0.848105
1.000000 1.000000 0.848105
1.000000 1.000000 0.849638
1.000000 1.000000 0.855730
1.000000 1.000000 0.873817
1.000000 1.000000 0.904492
1.000000 1.000000 0.948755
1.000000 1.000000 0.947957
0.000000 0.000000 0.178806
0.000000 0.000000 0.126156
0.188014 0.000000 0.101548
0.671116 0.000000 0.085476
1.000000 0.000000 0.330428
1.000000 0.466923 0.399262
1.000000 0.834172 0.644459
1.000000 0.951898 0.862421
1.000000 0.993454 0.954472
0.000000 0.000000 0.239396
0.000000 0.000000 0.188059
0.153344 0.000000 0.160760
0.609513 0.000000 0.131674
1.000000 0.000000 0.340763
1.000000 0.473005 0.400605
1.000000 0.834172 0.644459
1.000000 0.951898 0.862421
1.000000 0.993454 0.954472
0.000000 0.138238 0.436800
0.000000 0.125455 0.384576
0.000000 0.104808 0.370122
0.569421 0.000000 0.347043
1.000000 0.000000 0.373690
1.000000 0.496585 0.400208
1.000000 0.836648 0.640442
1.000000 0.952338 0.862469
1.000000 0.993454 0.954472
0.000000 0.567492 0.700885
0.000000 0.556636 0.675277
0.000000 0.506173 0.625110
0.399494 0.488911 0.572957
0.987413 0.416723 0.405911
1.000000 0.573197 0.389506
1.000000 0.845842 0.638374
1.000000 0.953227 0.861054
1.000000 0.993456 0.954121
0.000000 0.815552 0.561980
0.000000 0.815655 0.516465
0.000000 0.818301 0.422595
0.000000 0.822177 0.276343
0.936495 0.765266 0.000000
1.000000 0.785971 0.253459
1.000000 0.870443 0.611910
1.000000 0.956956 0.858606
1.000000 0.993794 0.953138
0.000000 0.926309 0.000000
0.000000 0.925298 0.000000
0.000000 0.917529 0.000000
0.717574 0.896813 0.000000
1.000000 0.873268 0.000000
1.000000 0.888778 0.529462
1.000000 0.925464 0.834291
1.000000 0.966442 0.853120
1.000000 0.994620 0.950917
0.820746 0.983861 0.199190
0.825919 0.983590 0.200286
0.845570 0.981991 0.199230
0.909882 0.977754 0.218555
0.991713 0.970869 0.285193
1.000000 0.966419 0.583920
1.000000 0.971838 0.853135
1.000000 0.980779 0.938465
1.000000 0.998024 0.941823
0.997040 1.000000 0.598823
0.997560 1.000000 0.599559
0.998583 1.000000 0.601054
1.000000 1.000000 0.605841
1.000000 0.998822 0.633696
1.000000 0.997450 0.729249
1.000000 0.996413 0.867170
1.000000 0.997092 0.941390
1.000000 0.995923 0.940919
1.000000 1.000000 0.847338
1.000000 1.000000 0.848105
1.000000 1.000000 0.848105
1.000000 1.000000 0.849638
1.000000 1.000000 0.855730
1.000000 1.000000 0.872439
1.000000 1.000000 0.904492
1.000000 1.000000 0.948755
1.000000 1.000000 0.947957
0.000000 0.000000 0.194231
0.069937 0.000000 0.184575
0.206234 0.000000 0.168630
0.573432 0.000000 0.136164
1.000000 0.000000 0.161105
1.000000 0.378375 0.674739
1.000000 0.825939 0.751368
1.000000 0.953066 0.882913
1.000000 0.993434 0.957657
0.000000 0.000000 0.272568
0.000000 0.000000 0.268325
0.155813 0.000000 0.249261
0.514988 0.000000 0.210268
1.000000 0.000000 0.161105
1.000000 0.390031 0.678199
1.000000 0.828000 0.752095
1.000000 0.953066 0.882913
1.000000 0.993436 0.957301
0.000000 0.120596 0.528766
0.000000 0.117168 0.521592
0.000000 0.105860 0.507275
0.461598 0.000000 0.497435
0.978271 0.000000 0.410594
1.000000 0.428030 0.691159
1.000000 0.830559 0.752050
1.000000 0.953066 0.882913
1.000000 0.993436 0.957301
0.000000 0.395243 0.764822
0.000000 0.379358 0.755669
0.000000 0.369885 0.752725
0.275502 0.339842 0.755829
0.979174 0.134814 0.708934
1.000000 0.527020 0.714708
1.000000 0.839451 0.749816
1.000000 0.953961 0.882199
1.000000 0.993602 0.957329
0.000000 0.886527 0.928661
0.000000 0.886527 0.928661
0.000000 0.853291 0.908880
0.000000 0.836808 0.901438
0.793647 0.797295 0.852793
1.000000 0.779947 0.744092
1.000000 0.869692 0.746158
1.000000 0.957483 0.880483
1.000000 0.993770 0.957002
0.000000 0.978833 0.862822
0.000000 0.979602 0.855868
0.000000 0.976448 0.838926
0.000000 0.975818 0.789908
0.696846 0.958245 0.682040
1.000000 0.937926 0.522263
1.000000 0.943446 0.695476
1.000000 0.967872 0.869280
1.000000 0.994912 0.955120
0.787233 0.985557 0.192786
0.793112 0.985266 0.194054
0.820861 0.983307 0.193312
0.890897 0.978319 0.204098
0.987722 0.970554 0.273344
1.000000 0.966394 0.581236
1.000000 0.971458 0.853017
1.000000 0.980576 0.938453
1.000000 0.998145 0.945180
0.994907 1.000000 0.595885
0.995449 1.000000 0.596594
0.997040 1.000000 0.598823
1.000000 1.000000 0.602578
1.000000 0.998848 0.632144
1.000000 0.997463 0.727724
1.000000 0.996216 0.865724
1.000000 0.997092 0.941390
1.000000 0.995923 0.940919
1.000000 1.000000 0.847338
1.000000 1.000000 0.847338
1.000000 1.000000 0.847338
1.000000 1.000000 0.848872
1.000000 1.000000 0.854973
1.000000 1.000000 0.872439
1.000000 1.000000 0.904492
1.000000 1.000000 0.948755
1.000000 1.000000 0.947957
0.270202 0.000000 0.247346
0.296877 0.000000 0.239198
0.378478 0.000000 0.224741
0.587239 0.000000 0.205103
1.000000 0.000000 0.223881
1.000000 0.000000 0.324647
1.000000 0.791443 0.908463
1.000000 0.950041 0.926117
1.000000 0.993519 0.970373
0.211200 0.000000 0.349997
0.231407 0.000000 0.347020
0.314124 0.000000 0.329971
0.546760 0.000000 0.283633
1.000000 0.000000 0.223881
1.000000 0.000000 0.324647
1.000000 0.792845 0.909551
1.000000 0.950497 0.926109
1.000000 0.993519 0.970373
0.000000 0.113113 0.673255
0.000000 0.111305 0.673168
0.144981 0.091219 0.665237
0.451255 0.000000 0.644236
0.918208 0.000000 0.535369
1.000000 0.000000 0.324647
1.000000 0.795648 0.911698
1.000000 0.950497 0.926109
1.000000 0.993521 0.970030
0.000000 0.374881 0.872656
0.000000 0.374669 0.874702
0.000000 0.373510 0.874547
0.219831 0.351704 0.871941
0.889791 0.200148 0.865619
1.000000 0.000000 0.810508
1.000000 0.809906 0.914268
1.000000 0.952098 0.926317
1.000000 0.993687 0.970042
0.000000 0.730330 0.956374
0.000000 0.733729 0.955168
0.000000 0.726494 0.956558
0.000000 0.716484 0.957615
0.733763 0.666549 0.953252
1.000000 0.623115 0.931001
1.000000 0.849491 0.920817
1.000000 0.955691 0.925547
1.000000 0.993856 0.969368
0.000000 1.000000 0.998983
0.000000 1.000000 0.998983
0.000000 1.000000 0.998983
0.000000 0.988775 0.992448
0.416423 0.969322 0.988859
0.962062 0.943404 0.970981
1.000000 0.941357 0.931634
1.000000 0.966442 0.924196
1.000000 0.995146 0.967776
0.000000 1.000000 0.977718
0.000000 1.000000 0.977212
0.000000 1.000000 0.975186
0.285315 1.000000 0.969671
0.652275 1.000000 0.952910
0.930421 0.997957 0.910641
1.000000 0.992185 0.846176
1.000000 0.992891 0.904884
1.000000 0.998183 0.961167
0.987944 1.000000 0.587914
0.987944 1.000000 0.587914
0.989775 1.000000 0.589817
0.995641 1.000000 0.593399
1.000000 0.998879 0.616028
1.000000 0.997316 0.718507
1.000000 0.996210 0.864612
1.000000 0.996950 0.941328
1.000000 0.995618 0.940809
1.000000 1.000000 0.844251
1.000000 1.000000 0.844251
1.000000 1.000000 0.845024
1.000000 1.000000 0.847338
1.000000 1.000000 0.853454
1.000000 1.000000 0.871746
1.000000 1.000000 0.903858
1.000000 1.000000 0.948755
1.000000 1.000000 0.947957
0.684231 0.000000 0.304856
0.691751 0.000000 0.304870
0.714590 0.000000 0.304928
0.814194 0.000000 0.310419
1.000000 0.000000 0.320920
1.000000 0.000000 0.393437
1.000000 0.642786 0.593900
1.000000 0.939595 0.989894
1.000000 0.992877 0.990154
0.654461 0.000000 0.372914
0.661327 0.000000 0.369907
0.693539 0.000000 0.349580
0.814194 0.000000 0.310419
1.000000 0.000000 0.320920
1.000000 0.000000 0.393437
1.000000 0.642786 0.593900
1.000000 0.939595 0.989894
1.000000 0.992877 0.990154
0.521081 0.000000 0.794486
0.530246 0.000000 0.794379
0.567911 0.000000 0.784850
0.681094 0.000000 0.751364
0.928747 0.000000 0.589728
1.000000 0.000000 0.393437
1.000000 0.642786 0.593900
1.000000 0.940080 0.990192
1.000000 0.992877 0.990154
0.329175 0.390602 0.954555
0.335859 0.390290 0.954522
0.400393 0.383292 0.953162
0.569924 0.354564 0.950072
0.865230 0.259427 0.945542
1.000000 0.000000 0.913196
1.000000 0.642733 0.593903
1.000000 0.941537 0.990421
1.000000 0.993046 0.990149
0.000000 0.723401 0.997640
0.000000 0.723059 0.997601
0.000000 0.725228 0.996715
0.105478 0.717767 0.996491
0.698196 0.679131 0.996021
1.000000 0.626125 0.993027
1.000000 0.699784 0.973089
1.000000 0.947375 0.991028
1.000000 0.993381 0.990139
0.000000 0.948112 1.000000
0.000000 0.947941 1.000000
0.000000 0.945858 1.000000
0.000000 0.944035 1.000000
0.446060 0.928806 1.000000
0.936735 0.898753 1.000000
1.000000 0.885727 0.999736
1.000000 0.960774 0.993126
1.000000 0.994681 0.990105
0.000000 1.000000 1.000000
0.000000 1.000000 1.000000
0.000000 1.000000 1.000000
0.000000 1.000000 1.000000
0.241058 1.000000 1.000000
0.856493 1.000000 1.000000
1.000000 0.993448 1.000000
1.000000 0.992752 0.995035
1.000000 0.998407 0.989594
0.760475 1.000000 1.000000
0.761643 1.000000 1.000000
0.766253 1.000000 1.000000
0.779199 1.000000 1.000000
0.818319 1.000000 1.000000
0.905978 1.000000 0.999520
0.992852 1.000000 0.988596
1.000000 1.000000 0.962267
1.000000 1.000000 0.977637
1.000000 1.000000 0.836529
1.000000 1.000000 0.836529
1.000000 1.000000 0.837299
1.000000 1.000000 0.838840
1.000000 1.000000 0.845024
1.000000 1.000000 0.866096
1.000000 1.000000 0.900678
1.000000 1.000000 0.948755
1.000000 1.000000 0.947957
1.000000 0.000000 0.438284
1.000000 0.000000 0.438469
1.000000 0.000000 0.438658
1.000000 0.000000 0.443693
1.000000 0.000000 0.450998
1.000000 0.000000 0.488308
1.000000 0.551455 0.611037
1.000000 0.864220 0.836747
1.000000 0.988683 1.000000
1.000000 0.000000 0.438284
1.000000 0.000000 0.438469
1.000000 0.000000 0.438658
1.000000 0.000000 0.443693
1.000000 0.000000 0.450998
1.000000 0.000000 0.488308
1.000000 0.551455 0.611037
1.000000 0.864220 0.836747
1.000000 0.988872 1.000000
1.000000 0.000000 0.605434
1.000000 0.000000 0.598193
1.000000 0.000000 0.583967
1.000000 0.000000 0.528661
1.000000 0.000000 0.450998
1.000000 0.000000 0.488308
1.000000 0.551455 0.611037
1.000000 0.864220 0.836747
1.000000 0.988872 1.000000
0.917489 0.295125 0.992501
0.920613 0.294395 0.992459
0.926725 0.292967 0.992378
0.956740 0.270886 0.991562
1.000000 0.198005 0.986254
1.000000 0.000000 0.949710
1.000000 0.551455 0.611037
1.000000 0.864220 0.836747
1.000000 0.989060 1.000000
0.766545 0.722087 1.000000
0.766545 0.722087 1.000000
0.778955 0.721307 1.000000
0.814609 0.715723 1.000000
0.907740 0.702860 1.000000
1.000000 0.666680 1.000000
1.000000 0.635985 1.000000
1.000000 0.864220 0.836747
1.000000 0.989806 1.000000
0.614966 0.922269 1.000000
0.614966 0.922269 1.000000
0.635599 0.921479 1.000000
0.678033 0.918491 1.000000
0.781848 0.913583 1.000000
0.928013 0.899201 1.000000
1.000000 0.881598 1.000000
1.000000 0.906175 1.000000
1.000000 0.991613 1.000000
0.458284 1.000000 1.000000
0.463379 1.000000 1.000000
0.483222 1.000000 1.000000
0.535294 1.000000 1.000000
0.675138 0.998340 1.000000
0.863006 0.988345 1.000000
0.999145 0.977868 1.000000
1.000000 0.973902 1.000000
1.000000 0.996569 1.000000
0.741778 1.000000 1.000000
0.741778 1.000000 1.000000
0.741778 1.000000 1.000000
0.741778 1.000000 1.000000
0.739322 1.000000 1.000000
0.800461 1.000000 1.000000
0.970634 1.000000 1.000000
1.000000 1.000000 1.000000
1.000000 1.000000 1.000000
0.916352 1.000000 1.000000
0.916872 1.000000 1.000000
0.917394 1.000000 1.000000
0.919464 1.000000 1.000000
0.927776 1.000000 1.000000
0.946545 1.000000 1.000000
0.981030 1.000000 1.000000
1.000000 1.000000 1.000000
1.000000 1.000000 0.999835
1.000000 0.000000 0.611089
1.000000 0.000000 0.611089
1.000000 0.000000 0.611568
1.000000 0.000000 0.612052
1.000000 0.000000 0.616578
1.000000 0.278885 0.637152
1.000000 0.542590 0.683294
1.000000 0.839494 0.807515
1.000000 0.944699 0.932505
1.000000 0.000000 0.611089
1.000000 0.000000 0.611089
1.000000 0.000000 0.611568
1.000000 0.000000 0.612052
1.000000 0.000000 0.616578
1.000000 0.278885 0.637152
1.000000 0.542590 0.683294
1.000000 0.839494 0.807515
1.000000 0.944699 0.932505
1.000000 0.000000 0.611089
1.000000 0.000000 0.611089
1.000000 0.000000 0.611568
1.000000 0.000000 0.612052
1.000000 0.000000 0.616578
1.000000 0.278885 0.637152
1.000000 0.542590 0.683294
1.000000 0.839494 0.807515
1.000000 0.944699 0.932505
1.000000 0.000000 0.947043
1.000000 0.000000 0.947055
1.000000 0.000000 0.944771
1.000000 0.000000 0.930027
1.000000 0.000000 0.811901
1.000000 0.278885 0.637152
1.000000 0.542590 0.683294
1.000000 0.839494 0.807515
1.000000 0.944699 0.932505
1.000000 0.703658 1.000000
1.000000 0.703658 1.000000
1.000000 0.703772 1.000000
1.000000 0.700822 1.000000
1.000000 0.695367 1.000000
1.000000 0.673359 1.000000
1.000000 0.592940 1.000000
1.000000 0.839494 0.807515
1.000000 0.944699 0.932505
0.951396 0.912450 1.000000
0.951396 0.912450 1.000000
0.951396 0.912450 1.000000
0.956206 0.912180 1.000000
0.966298 0.911631 1.000000
0.995060 0.906878 1.000000
1.000000 0.894488 1.000000
1.000000 0.885544 1.000000
1.000000 0.944699 0.932505
0.899729 0.984831 1.000000
0.899729 0.984831 1.000000
0.901081 0.984753 1.000000
0.905064 0.984522 1.000000
0.918910 0.983283 1.000000
0.950187 0.981405 1.000000
0.995861 0.977437 1.000000
1.000000 0.972666 1.000000
1.000000 0.976861 1.000000
0.846977 1.000000 1.000000
0.846977 1.000000 1.000000
0.848154 1.000000 1.000000
0.854003 1.000000 1.000000
0.868655 1.000000 1.000000
0.910833 1.000000 1.000000
0.973938 1.000000 1.000000
1.000000 1.000000 1.000000
1.000000 1.000000 1.000000
0.869484 1.000000 1.000000
0.869484 1.000000 1.000000
0.869484 1.000000 1.000000
0.869484 1.000000 1.000000
0.869484 1.000000 1.000000
0.869484 1.000000 1.000000
0.927093 1.000000 1.000000
1.000000 1.000000 1.000000
1.000000 1.000000 1.000000
