Assets/Lutify-Free-LUTs-Pack/Lutify Free LUTs Pack/Cine World Pro Warm - Amy/Lutify.me-Amy-SLog3Cine-to-Rec709.cube
# Created with: fylm.ai - Colour Grading and Collaboration Software in Cloud 
# Website: https://fylm.ai 
# META
# Option: Gamut compress
# Block 1: IDT | Sony S-Log3 S-Gamut3.Cine
# Block 2: colourMatch | Blending Mode: Normal | {"ColorSpace":0,"CrossCovarianceLimit":50,"ReshapingIterations":1,"PercentSaturationShift":100,"PercentShadingShift":100,"ExtraShading":true,"PercentTint":100,"PercentModified":100}
# Block 3: LUT | Filmic Curve Response: Standard Contrast 1 (100%)
# Block 4: LUT | Illuminant: D60 (100%)
# Block 5: hueSaturation | Blending Mode: Normal | {"hue":0,"saturation":-0.15}
# Block 6: logPrimaries | Blending Mode: Normal | {"wheels":{"shadows":{"Y":"0","R":"1","G":"1","B":"1"},"midtones":{"Y":"0","R":"1","G":"1","B":"1"},"highlights":{"Y":"0","R":"1","G":"1","B":"1"},"offset":{"Y":"0","R":"1","G":"1","B":"1"}},"sliders":{"shadows":{"Y":0,"R":-0.097,"G":0,"B":0.158},"midtones":{"Y":0,"R":0.024,"G":0.024,"B":-0.036},"highlights":{"Y":0,"R":0.154,"G":-0.084,"B":-0.024},"offset":{"Y":0.048,"R":0,"G":0,"B":0}}}
# Block 7: smartCurves | Blending Mode: Average | [[{"x":0,"y":0},{"x":0.11328125,"y":0.085540771484375},{"x":0.21484375,"y":0.218353271484375},{"x":0.37109375,"y":0.382415771484375},{"x":0.62109375,"y":0.589447021484375},{"x":0.8125,"y":0.765228271484375},{"x":1,"y":1}],[{"x":0,"y":0},{"x":1,"y":1}],[{"x":0,"y":0},{"x":1,"y":1}],[{"x":0,"y":0},{"x":1,"y":1}]]
# Block 8: LUT | Neutral Tint: Teal Tint 4 (100%)
# Block 9: contrast | Blending Mode: Normal | {"contrast":0.1}
# Block 10: ODT | Rec709
TITLE "Lutify.me-Amy-SLog3Cine-to-Rec709" 
LUT_3D_SIZE 33
0.000000 0.000000 0.000000
0.000000 0.000000 0.000000
0.000000 0.000000 0.000000
0.000000 0.000000 0.000000
0.000000 0.000000 0.000000
0.000000 0.000000 0.000000
0.077465 0.000000 0.000000
0.132507 0.000000 0.000000
0.180275 0.000000 0.000000
0.240751 0.000000 0.000000
0.308523 0.000000 0.000000
0.373180 0.000000 0.000000
0.444759 0.000000 0.000000
0.515775 0.000000 0.000000
0.602685 0.000000 0.000000
0.669031 0.000000 0.000000
0.745550 0.000000 0.000000
0.827151 0.000000 0.000000
0.906918 0.000000 0.000000
0.981397 0.000000 0.000000
1.000000 0.000000 0.051290
1.000000 0.000000 0.091915
1.000000 0.000000 0.134738
1.000000 0.223005 0.178632
1.000000 0.369772 0.234184
1.000000 0.484910 0.297979
1.000000 0.588040 0.386293
1.000000 0.671047 0.466256
1.000000 0.751026 0.545695
1.000000 0.808240 0.632065
1.000000 0.851777 0.713695
1.000000 0.884132 0.771398
1.000000 0.912220 0.820144
0.000000 0.000000 0.000000
0.000000 0.000000 0.000000
0.000000 0.000000 0.000000
0.000000 0.000000 0.000000
0.000000 0.000000 0.000000
0.010486 0.000000 0.000000
0.078510 0.000000 0.000000
0.129433 0.000000 0.000000
0.177839 0.000000 0.000000
0.239004 0.000000 0.000000
0.304298 0.000000 0.000000
0.370511 0.000000 0.000000
0.431823 0.000000 0.000000
0.500998 0.000000 0.000000
0.590536 0.000000 0.000000
0.669063 0.000000 0.000000
0.745559 0.000000 0.000000
0.827136 0.000000 0.000000
0.906858 0.000000 0.000000
0.981249 0.000000 0.000000
1.000000 0.000000 0.049545
1.000000 0.000000 0.091355
1.000000 0.000000 0.133875
1.000000 0.232212 0.177995
1.000000 0.373033 0.233895
1.000000 0.484903 0.299761
1.000000 0.590631 0.386121
1.000000 0.673313 0.466139
1.000000 0.751026 0.545695
1.000000 0.808240 0.632065
1.000000 0.851777 0.713695
1.000000 0.884132 0.771398
1.000000 0.912220 0.820144
0.000000 0.000000 0.000000
0.000000 0.000000 0.000000
0.000000 0.000000 0.000000
0.000000 0.000000 0.000000
0.000000 0.000000 0.000000
0.024909 0.000000 0.000000
0.084631 0.000000 0.000000
0.129039 0.000000 0.000000
0.171952 0.000000 0.000000
0.233870 0.000000 0.000000
0.300126 0.000000 0.000000
0.365250 0.000000 0.000000
0.425529 0.000000 0.000000
0.493694 0.000000 0.000000
0.598683 0.000000 0.000000
0.673301 0.000000 0.000000
0.741286 0.000000 0.000000
0.827116 0.000000 0.000000
0.906790 0.000000 0.000000
0.983867 0.000000 0.000000
1.000000 0.000000 0.048714
1.000000 0.000000 0.091705
1.000000 0.000000 0.133574
1.000000 0.236713 0.178884
1.000000 0.376288 0.235075
1.000000 0.491184 0.301818
1.000000 0.590631 0.386121
1.000000 0.673313 0.466139
1.000000 0.751026 0.545695
1.000000 0.808240 0.632065
1.000000 0.851777 0.713695
1.000000 0.884132 0.771398
1.000000 0.912220 0.820144
0.000000 0.000000 0.000000
0.000000 0.000000 0.000000
0.000000 0.000000 0.000000
0.000000 0.000000 0.000000
0.000000 0.000000 0.001412
0.028655 0.000000 0.000000
0.085140 0.000000 0.000000
0.129387 0.000000 0.000000
0.169574 0.000000 0.000000
0.232152 0.000000 0.000000
0.294006 0.000000 0.000000
0.357556 0.000000 0.000000
0.419351 0.000000 0.000000
0.497366 0.000000 0.000000
0.590619 0.000000 0.000000
0.669120 0.000000 0.000000
0.741300 0.000000 0.000000
0.827096 0.000000 0.000000
0.906722 0.000000 0.000000
0.983732 0.000000 0.000000
1.000000 0.000000 0.048160
1.000000 0.000000 0.090788
1.000000 0.000000 0.134321
1.000000 0.241163 0.178555
1.000000 0.379549 0.234780
1.000000 0.494073 0.301577
1.000000 0.593224 0.388000
1.000000 0.673313 0.466139
1.000000 0.752773 0.545652
1.000000 0.808240 0.632065
1.000000 0.851777 0.713695
1.000000 0.884132 0.771398
1.000000 0.912220 0.820144
0.000000 0.013039 0.000000
0.000000 0.010723 0.000000
0.000000 0.009733 0.000000
0.000000 0.002909 0.000000
0.000000 0.000000 0.002412
0.024084 0.000000 0.000000
0.085799 0.000000 0.000000
0.124662 0.000000 0.000000
0.166001 0.000000 0.000000
0.228836 0.000000 0.000000
0.294054 0.000000 0.000000
0.357584 0.000000 0.000000
0.419357 0.000000 0.000000
0.497424 0.000000 0.000000
0.586633 0.000000 0.000000
0.664949 0.000000 0.000000
0.741307 0.000000 0.000000
0.822786 0.000000 0.000000
0.910298 0.000000 0.000000
0.986298 0.000000 0.000000
1.000000 0.000000 0.048855
1.000000 0.000000 0.090434
1.000000 0.000000 0.133695
1.000000 0.249900 0.179116
1.000000 0.379549 0.234780
1.000000 0.494073 0.301577
1.000000 0.593224 0.388000
1.000000 0.675578 0.466022
1.000000 0.752773 0.545652
1.000000 0.808240 0.632065
1.000000 0.852807 0.713718
1.000000 0.884923 0.771425
1.000000 0.912220 0.820144
0.000000 0.046739 0.000000
0.000000 0.044981 0.000000
0.000000 0.044142 0.000000
0.000000 0.040375 0.000000
0.000000 0.035593 0.000000
0.025809 0.031611 0.000000
0.078842 0.021524 0.000000
0.124847 0.000000 0.000000
0.166249 0.000000 0.000000
0.228695 0.000000 0.000000
0.289974 0.000000 0.000000
0.357572 0.000000 0.000000
0.419391 0.000000 0.000000
0.493841 0.000000 0.000000
0.586687 0.000000 0.000000
0.664980 0.000000 0.000000
0.745587 0.000000 0.000000
0.827044 0.000000 0.000000
0.910238 0.000000 0.000000
0.986101 0.000000 0.000000
1.000000 0.000000 0.047351
1.000000 0.000000 0.090728
1.000000 0.000000 0.133043
1.000000 0.252055 0.179943
1.000000 0.382805 0.235972
1.000000 0.496962 0.303126
1.000000 0.595839 0.387825
1.000000 0.675578 0.466022
1.000000 0.752773 0.545652
1.000000 0.808240 0.632065
1.000000 0.852807 0.713718
1.000000 0.884923 0.771425
1.000000 0.912220 0.820144
0.000000 0.068999 0.000000
0.000000 0.066738 0.000000
0.000000 0.064629 0.000000
0.000000 0.062788 0.000000
0.000000 0.059369 0.000000
0.026433 0.054793 0.000000
0.074631 0.050685 0.000000
0.119692 0.039046 0.000000
0.168688 0.000000 0.000000
0.233390 0.000000 0.000000
0.293852 0.000000 0.000000
0.357617 0.000000 0.000000
0.419486 0.000000 0.000000
0.497580 0.000000 0.000000
0.586762 0.000000 0.000000
0.669213 0.000000 0.000000
0.749861 0.000000 0.000000
0.827007 0.000000 0.000000
0.917341 0.000000 0.000000
0.991285 0.000000 0.000000
1.000000 0.000000 0.045843
1.000000 0.000000 0.089632
1.000000 0.000000 0.133443
1.000000 0.256302 0.180843
1.000000 0.387796 0.236628
1.000000 0.496962 0.303126
1.000000 0.595839 0.387825
1.000000 0.675578 0.466022
1.000000 0.754505 0.547789
1.000000 0.808240 0.632065
1.000000 0.852807 0.713718
1.000000 0.884923 0.771425
1.000000 0.912862 0.820167
0.000000 0.095531 0.000000
0.000000 0.093220 0.000000
0.000000 0.089492 0.000000
0.000000 0.085919 0.000000
0.000000 0.082539 0.000000
0.000000 0.077904 0.000000
0.074444 0.073397 0.000000
0.120357 0.065522 0.000000
0.176543 0.052313 0.000000
0.241977 0.000000 0.000000
0.302151 0.000000 0.000000
0.365610 0.000000 0.000000
0.429108 0.000000 0.000000
0.505108 0.000000 0.000000
0.598993 0.000000 0.000000
0.677661 0.000000 0.000000
0.749860 0.000000 0.000000
0.826948 0.000000 0.000000
0.920653 0.000000 0.000000
0.990996 0.000000 0.000000
1.000000 0.000000 0.046924
1.000000 0.000000 0.090858
1.000000 0.000000 0.132378
1.000000 0.264682 0.181408
1.000000 0.391033 0.237830
1.000000 0.499866 0.302883
1.000000 0.598455 0.389718
1.000000 0.677842 0.465907
1.000000 0.754505 0.547789
1.000000 0.809581 0.632074
1.000000 0.852807 0.713718
1.000000 0.884923 0.771425
1.000000 0.912862 0.820167
0.000000 0.129466 0.000000
0.000000 0.127351 0.000000
0.000000 0.123223 0.000000
0.000000 0.119224 0.000000
0.000000 0.113413 0.000000
0.000000 0.109244 0.000000
0.065589 0.105234 0.000000
0.123336 0.098567 0.000000
0.183040 0.086621 0.000000
0.257024 0.069153 0.000000
0.311098 0.000000 0.000000
0.374152 0.000000 0.000000
0.445806 0.000000 0.000000
0.516656 0.000000 0.000000
0.603288 0.000000 0.000000
0.677747 0.000000 0.000000
0.745590 0.000000 0.000000
0.839496 0.000000 0.000000
0.920328 0.000000 0.000000
0.993188 0.000000 0.000000
1.000000 0.000000 0.044133
1.000000 0.000000 0.089824
1.000000 0.089703 0.133839
1.000000 0.276991 0.181618
1.000000 0.397517 0.238740
1.000000 0.502777 0.302636
1.000000 0.601089 0.389542
1.000000 0.680096 0.467970
1.000000 0.756244 0.547750
1.000000 0.810476 0.633542
1.000000 0.853836 0.713743
1.000000 0.884914 0.772916
1.000000 0.912862 0.820167
0.000000 0.167414 0.000000
0.000000 0.163281 0.000000
0.000000 0.156626 0.000000
0.000000 0.154076 0.000000
0.000000 0.150105 0.000000
0.000000 0.146003 0.000000
0.017130 0.143847 0.000000
0.118649 0.138021 0.000000
0.188503 0.129268 0.000000
0.265714 0.115079 0.000000
0.325674 0.092235 0.000000
0.386720 0.056724 0.000000
0.457470 0.000000 0.000000
0.529432 0.000000 0.000000
0.612066 0.000000 0.000000
0.682179 0.000000 0.000000
0.754101 0.000000 0.000000
0.843406 0.000000 0.000000
0.923375 0.000000 0.000000
0.989964 0.000000 0.000000
1.000000 0.000000 0.038405
1.000000 0.000000 0.086700
1.000000 0.139886 0.132930
1.000000 0.290844 0.182643
1.000000 0.404013 0.238120
1.000000 0.505690 0.304206
1.000000 0.603724 0.391447
1.000000 0.682359 0.467856
1.000000 0.759083 0.549171
1.000000 0.811793 0.635710
1.000000 0.853836 0.713743
1.000000 0.885704 0.772942
1.000000 0.912862 0.820167
0.000000 0.204353 0.000000
0.000000 0.201032 0.000000
0.000000 0.197774 0.000000
0.000000 0.196099 0.000000
0.000000 0.189565 0.000000
0.000000 0.187653 0.000000
0.000000 0.185382 0.000000
0.098756 0.180690 0.000000
0.190424 0.171758 0.000000
0.269355 0.157740 0.000000
0.333692 0.141248 0.000000
0.406331 0.120035 0.000000
0.473578 0.090312 0.000000
0.550422 0.000000 0.000000
0.629363 0.000000 0.000000
0.691003 0.000000 0.000000
0.762530 0.000000 0.000000
0.851196 0.000000 0.000000
0.929524 0.000000 0.000000
0.991817 0.000000 0.000000
1.000000 0.000000 0.025680
1.000000 0.000000 0.084967
1.000000 0.179419 0.134557
1.000000 0.306442 0.183740
1.000000 0.418590 0.239356
1.000000 0.514490 0.303451
1.000000 0.610646 0.392442
1.000000 0.686033 0.471317
1.000000 0.760785 0.551318
1.000000 0.813121 0.635723
1.000000 0.854862 0.713770
1.000000 0.886495 0.772971
1.000000 0.913504 0.820192
0.000000 0.244595 0.000000
0.000000 0.240897 0.000000
0.000000 0.238990 0.000000
0.000000 0.237038 0.000000
0.000000 0.233212 0.000000
0.000000 0.232793 0.000000
0.000000 0.230222 0.000000
0.017629 0.225049 0.000000
0.175139 0.219346 0.000000
0.269065 0.206587 0.000000
0.335133 0.196643 0.000000
0.418121 0.178574 0.000000
0.497876 0.151867 0.000000
0.572553 0.133783 0.000000
0.647265 0.094894 0.000000
0.704213 0.000000 0.000000
0.779390 0.000000 0.000000
0.862296 0.000000 0.000000
0.928277 0.000000 0.000000
0.993081 0.000000 0.000000
1.000000 0.000000 0.000000
1.000000 0.000000 0.080380
1.000000 0.210339 0.131206
1.000000 0.325570 0.184426
1.000000 0.428315 0.241513
1.000000 0.524866 0.307574
1.000000 0.613292 0.394353
1.000000 0.690512 0.471100
1.000000 0.762491 0.551285
1.000000 0.814447 0.635737
1.000000 0.856572 0.715078
1.000000 0.886495 0.772971
1.000000 0.913497 0.821360
0.000000 0.291089 0.000000
0.000000 0.291024 0.000000
0.000000 0.288718 0.000000
0.000000 0.286391 0.000000
0.000000 0.284010 0.000000
0.000000 0.283711 0.000000
0.000000 0.280921 0.000000
0.000000 0.275200 0.000000
0.148215 0.270347 0.000000
0.245462 0.261532 0.000000
0.329564 0.248117 0.000000
0.419839 0.237167 0.000000
0.509146 0.212854 0.000000
0.591214 0.197625 0.000000
0.669516 0.181055 0.000000
0.734328 0.163895 0.000000
0.796159 0.131842 0.000000
0.868662 0.071185 0.000000
0.935634 0.000000 0.000000
0.990760 0.000000 0.000000
1.000000 0.000000 0.000000
1.000000 0.146193 0.072975
1.000000 0.251115 0.129123
1.000000 0.351884 0.184185
1.000000 0.444612 0.241424
1.000000 0.533750 0.306798
1.000000 0.621294 0.398037
1.000000 0.692741 0.473188
1.000000 0.765878 0.553423
1.000000 0.815762 0.637919
1.000000 0.857575 0.716954
1.000000 0.887287 0.773000
1.000000 0.914139 0.821385
0.000000 0.349974 0.000000
0.000000 0.347209 0.000000
0.000000 0.344453 0.000000
0.000000 0.344320 0.000000
0.000000 0.346833 0.000000
0.000000 0.346576 0.000000
0.000000 0.346121 0.000000
0.000000 0.342383 0.000000
0.000000 0.337784 0.000000
0.201344 0.332286 0.000000
0.310008 0.321739 0.000000
0.405724 0.308707 0.000000
0.504543 0.289887 0.000000
0.613903 0.271201 0.000000
0.695877 0.255950 0.000000
0.759943 0.252172 0.000000
0.808470 0.243952 0.000000
0.873971 0.230055 0.000000
0.941033 0.215157 0.000000
0.988335 0.191742 0.000000
1.000000 0.170263 0.000000
1.000000 0.230357 0.064410
1.000000 0.304193 0.122713
1.000000 0.385123 0.181325
1.000000 0.465655 0.243564
1.000000 0.550106 0.308558
1.000000 0.630855 0.400964
1.000000 0.701656 0.474982
1.000000 0.769252 0.553372
1.000000 0.817077 0.640114
1.000000 0.858585 0.716984
1.000000 0.887287 0.773000
1.000000 0.914139 0.821385
0.000000 0.405679 0.000000
0.000000 0.408789 0.000000
0.000000 0.408703 0.000000
0.000000 0.411801 0.000000
0.000000 0.408435 0.000000
0.000000 0.408142 0.000000
0.000000 0.404501 0.000000
0.000000 0.403752 0.000000
0.000000 0.405842 0.000000
0.103466 0.397398 0.000000
0.251617 0.391330 0.000000
0.370552 0.379661 0.000000
0.476883 0.368867 0.000000
0.591497 0.347426 0.000000
0.700938 0.333361 0.000000
0.780296 0.321292 0.000000
0.823506 0.317897 0.000000
0.888021 0.327448 0.000000
0.938532 0.319964 0.000000
0.988273 0.318918 0.000000
1.000000 0.313373 0.000000
1.000000 0.322159 0.000000
1.000000 0.359287 0.120070
1.000000 0.425309 0.178321
1.000000 0.496545 0.242846
1.000000 0.565162 0.313003
1.000000 0.644172 0.404387
1.000000 0.711734 0.478197
1.000000 0.776850 0.556956
1.000000 0.821045 0.640174
1.000000 0.860600 0.717049
1.000000 0.888864 0.774545
1.000000 0.915423 0.821437
0.000000 0.482901 0.000000
0.000000 0.482824 0.000000
0.000000 0.479216 0.000000
0.000000 0.479083 0.000000
0.000000 0.478943 0.000000
0.000000 0.478749 0.000000
0.000000 0.478477 0.000000
0.000000 0.481504 0.000000
0.000000 0.477182 0.000000
0.000000 0.472328 0.000000
0.152510 0.466857 0.000000
0.303293 0.456615 0.000000
0.425889 0.451199 0.000000
0.555318 0.438832 0.000000
0.666649 0.417602 0.000000
0.774841 0.401770 0.000000
0.846864 0.396949 0.000000
0.899849 0.402765 0.000000
0.943154 0.402665 0.000000
0.989746 0.404008 0.000000
1.000000 0.412848 0.000000
1.000000 0.415617 0.000000
1.000000 0.421033 0.115940
1.000000 0.466273 0.182204
1.000000 0.530843 0.246812
1.000000 0.589613 0.316782
1.000000 0.661364 0.406886
1.000000 0.724777 0.479901
1.000000 0.783334 0.561348
1.000000 0.826533 0.645325
1.000000 0.862594 0.718963
1.000000 0.890451 0.774608
1.000000 0.916700 0.822658
0.000000 0.568708 0.000000
0.000000 0.568629 0.000000
0.000000 0.568522 0.000000
0.000000 0.568418 0.000000
0.000000 0.568280 0.000000
0.000000 0.568168 0.000000
0.000000 0.564271 0.000000
0.000000 0.563927 0.000000
0.000000 0.559652 0.000000
0.000000 0.558642 0.000000
0.000000 0.557288 0.000000
0.157647 0.547836 0.000000
0.349385 0.543831 0.000000
0.488353 0.530591 0.000000
0.605083 0.519511 0.000000
0.722811 0.498458 0.000000
0.841000 0.487263 0.000000
0.908186 0.481502 0.000000
0.947446 0.483020 0.000000
0.985343 0.493833 0.000000
1.000000 0.498809 0.000000
1.000000 0.500772 0.000000
1.000000 0.506949 0.097151
1.000000 0.517077 0.177814
1.000000 0.563391 0.243170
1.000000 0.618704 0.321655
1.000000 0.683330 0.413548
1.000000 0.738608 0.483089
1.000000 0.788179 0.563572
1.000000 0.830388 0.647595
1.000000 0.865581 0.719079
1.000000 0.893789 0.778187
1.000000 0.917341 0.822687
0.000000 0.645949 0.000000
0.000000 0.645844 0.000000
0.000000 0.645730 0.000000
0.000000 0.645577 0.000000
0.000000 0.645464 0.000000
0.000000 0.648976 0.000000
0.000000 0.648803 0.000000
0.000000 0.644756 0.000000
0.000000 0.644179 0.000000
0.000000 0.639707 0.000000
0.000000 0.638591 0.000000
0.000000 0.633106 0.000000
0.265204 0.626449 0.000000
0.424877 0.622180 0.000000
0.540089 0.617250 0.000000
0.675745 0.597768 0.000000
0.787820 0.581477 0.000000
0.894537 0.569229 0.000000
0.948026 0.566496 0.000000
0.978658 0.577774 0.000000
1.000000 0.586746 0.000000
1.000000 0.595443 0.000000
1.000000 0.603102 0.042720
1.000000 0.609283 0.173294
1.000000 0.618700 0.242323
1.000000 0.657783 0.325101
1.000000 0.712041 0.420097
1.000000 0.753978 0.488592
1.000000 0.797011 0.567269
1.000000 0.836774 0.649974
1.000000 0.869096 0.722282
1.000000 0.896134 0.778295
1.000000 0.919262 0.822779
0.000000 0.729998 0.000000
0.000000 0.729863 0.000000
0.000000 0.729754 0.000000
0.000000 0.726016 0.000000
0.000000 0.725798 0.000000
0.000000 0.725705 0.000000
0.000000 0.725508 0.000000
0.000000 0.725181 0.000000
0.000000 0.724813 0.000000
0.000000 0.727482 0.000000
0.000000 0.726373 0.000000
0.000000 0.724578 0.000000
0.168930 0.718922 0.000000
0.357234 0.708945 0.000000
0.483063 0.705186 0.000000
0.616890 0.692072 0.000000
0.745580 0.673204 0.000000
0.854552 0.657878 0.000000
0.931701 0.645590 0.000000
0.973244 0.648572 0.000000
1.000000 0.661048 0.000000
1.000000 0.668289 0.000000
1.000000 0.677484 0.000000
1.000000 0.691521 0.164575
1.000000 0.697963 0.251425
1.000000 0.705206 0.329310
1.000000 0.739259 0.424866
1.000000 0.770577 0.494263
1.000000 0.810351 0.571107
1.000000 0.844975 0.651715
1.000000 0.874848 0.722591
1.000000 0.898470 0.779850
1.000000 0.920802 0.823226
0.000000 0.799348 0.000000
0.000000 0.799236 0.000000
0.000000 0.799119 0.000000
0.000000 0.798933 0.000000
0.000000 0.798737 0.000000
0.000000 0.795634 0.000000
0.000000 0.795338 0.000000
0.000000 0.795100 0.000000
0.000000 0.791742 0.000000
0.000000 0.787887 0.000000
0.000000 0.786606 0.000000
0.000000 0.785255 0.000000
0.147494 0.783380 0.000000
0.336787 0.781014 0.000000
0.464095 0.777831 0.000000
0.577791 0.767738 0.000000
0.707395 0.758346 0.000000
0.823391 0.741795 0.000000
0.899712 0.733658 0.000000
0.955042 0.721139 0.000000
0.994104 0.724324 0.000000
1.000000 0.738933 0.000000
1.000000 0.747814 0.000000
1.000000 0.755197 0.160223
1.000000 0.758258 0.254980
1.000000 0.762108 0.339054
1.000000 0.771001 0.432409
1.000000 0.794099 0.503932
1.000000 0.824766 0.577398
1.000000 0.854099 0.657901
1.000000 0.880901 0.727781
1.000000 0.904316 0.782552
1.000000 0.923353 0.825708
0.000000 0.859233 0.109347
0.000000 0.858951 0.109616
0.000000 0.858856 0.102664
0.000000 0.858664 0.086795
0.000000 0.858462 0.077547
0.000000 0.858256 0.066665
0.000000 0.857933 0.053026
0.000000 0.857594 0.053846
0.000000 0.857246 0.000000
0.000000 0.854443 0.000000
0.000000 0.851439 0.000000
0.000000 0.848195 0.000000
0.144499 0.846409 0.000000
0.315955 0.844586 0.000000
0.449971 0.841696 0.000000
0.567962 0.837912 0.000000
0.685432 0.828366 0.000000
0.785828 0.818392 0.000000
0.860260 0.811512 0.000000
0.926061 0.800239 0.000000
0.977374 0.793112 0.000000
1.000000 0.798023 0.000000
1.000000 0.801553 0.000000
1.000000 0.806472 0.167606
1.000000 0.809986 0.270219
1.000000 0.813063 0.356247
1.000000 0.816085 0.442821
1.000000 0.822905 0.516709
1.000000 0.841433 0.588599
1.000000 0.867874 0.663793
1.000000 0.889549 0.734926
1.000000 0.909647 0.787521
1.000000 0.926528 0.827072
0.000000 0.897165 0.251271
0.000000 0.897042 0.247550
0.000000 0.896913 0.247602
0.000000 0.896655 0.243923
0.000000 0.896522 0.243979
0.000000 0.896390 0.240237
0.000000 0.896119 0.236541
0.000000 0.895978 0.236600
0.000000 0.895696 0.232894
0.000000 0.893365 0.228838
0.000000 0.892591 0.221430
0.000000 0.891772 0.213986
0.243857 0.890543 0.210650
0.359339 0.890596 0.191883
0.471796 0.886328 0.171529
0.584465 0.879220 0.144924
0.689192 0.874882 0.096945
0.765975 0.872861 0.000000
0.848639 0.862738 0.000000
0.906874 0.855415 0.000000
0.957528 0.850566 0.000000
0.998218 0.845286 0.000000
1.000000 0.845623 0.000000
1.000000 0.850429 0.184719
1.000000 0.852514 0.286991
1.000000 0.855497 0.373615
1.000000 0.860158 0.461035
1.000000 0.865683 0.532560
1.000000 0.868672 0.601595
1.000000 0.882176 0.675032
1.000000 0.899750 0.742211
1.000000 0.915598 0.792022
1.000000 0.930559 0.831567
0.000000 0.925619 0.348548
0.000000 0.925462 0.348596
0.000000 0.925309 0.345145
0.000000 0.925148 0.345194
0.000000 0.924986 0.345245
0.000000 0.924821 0.345295
0.000000 0.924488 0.345399
0.007335 0.924325 0.341956
0.114293 0.924154 0.342010
0.205292 0.923636 0.338682
0.260853 0.923103 0.335364
0.317401 0.922365 0.332121
0.403904 0.922122 0.326445
0.483377 0.920237 0.316758
0.558762 0.916675 0.310000
0.634645 0.912620 0.293210
0.702540 0.909748 0.277815
0.766425 0.906677 0.260222
0.831832 0.901807 0.244385
0.894902 0.895367 0.211836
0.944428 0.890946 0.191438
0.983419 0.888777 0.174347
1.000000 0.882293 0.138002
1.000000 0.883915 0.201246
1.000000 0.886001 0.303832
1.000000 0.891574 0.397184
1.000000 0.893925 0.479707
1.000000 0.895732 0.556320
1.000000 0.897719 0.618966
1.000000 0.900799 0.686590
1.000000 0.910739 0.747349
1.000000 0.923884 0.796301
1.000000 0.935423 0.833117
0.349493 0.948692 0.444639
0.361068 0.947428 0.443923
0.371846 0.947237 0.443969
0.371846 0.947237 0.443969
0.382290 0.947043 0.444016
0.382558 0.947051 0.440677
0.392693 0.946856 0.440726
0.402804 0.946667 0.437442
0.421790 0.946268 0.437543
0.440153 0.945870 0.434323
0.466236 0.945256 0.431169
0.506181 0.944210 0.428156
0.542298 0.943146 0.428485
0.593993 0.942539 0.423317
0.634729 0.941077 0.414152
0.690439 0.938811 0.412052
0.730126 0.937080 0.397131
0.775638 0.934932 0.376866
0.831108 0.929816 0.372182
0.881124 0.925890 0.351943
0.935338 0.922627 0.342821
0.970739 0.918257 0.323708
0.998993 0.914542 0.305267
1.000000 0.914061 0.287961
1.000000 0.914250 0.333143
1.000000 0.916051 0.418268
1.000000 0.918397 0.499114
1.000000 0.920338 0.572981
1.000000 0.920644 0.638108
1.000000 0.923868 0.706206
1.000000 0.925187 0.759212
1.000000 0.933321 0.803002
1.000000 0.942103 0.835666
0.559573 0.963347 0.534654
0.559573 0.963347 0.534654
0.566095 0.963156 0.531458
0.572318 0.962956 0.531508
0.572366 0.962100 0.530705
0.578502 0.961899 0.530757
0.578502 0.961899 0.530757
0.584544 0.961698 0.530810
0.584544 0.961698 0.530810
0.596355 0.961297 0.530918
0.607991 0.960907 0.527786
0.619282 0.960518 0.524667
0.645840 0.959539 0.521757
0.670517 0.958578 0.518897
0.693566 0.957650 0.512892
0.722930 0.956392 0.507154
0.763755 0.954506 0.501995
0.800402 0.952731 0.487814
0.840410 0.951513 0.475746
0.883059 0.948282 0.460674
0.924990 0.944051 0.447730
0.962089 0.941800 0.438766
0.987900 0.940275 0.433550
1.000000 0.937538 0.415850
1.000000 0.935394 0.398586
1.000000 0.936527 0.441484
1.000000 0.937156 0.519565
1.000000 0.939066 0.594327
1.000000 0.940407 0.660247
1.000000 0.941722 0.718793
1.000000 0.942633 0.774336
1.000000 0.943076 0.807959
1.000000 0.949757 0.841357
0.672013 0.978199 0.642901
0.672013 0.978199 0.642901
0.672013 0.978199 0.642901
0.672013 0.978199 0.642901
