Assets/Lutify-Free-LUTs-Pack/Lutify Free LUTs Pack/Cine World Pro Warm - Amy/Lutify.me-Amy-SLog3Venice-to-Rec709.cube
# Created with: fylm.ai - Colour Grading and Collaboration Software in Cloud 
# Website: https://fylm.ai 
# META
# Option: Gamut compress
# Block 1: IDT | Sony Venice S-Log3 S-Gamut3
# Block 2: colourMatch | Blending Mode: Normal | {"ColorSpace":0,"CrossCovarianceLimit":50,"ReshapingIterations":1,"PercentSaturationShift":100,"PercentShadingShift":100,"ExtraShading":true,"PercentTint":100,"PercentModified":100}
# Block 3: LUT | Filmic Curve Response: Standard Contrast 1 (100%)
# Block 4: LUT | Illuminant: D60 (100%)
# Block 5: hueSaturation | Blending Mode: Normal | {"hue":0,"saturation":-0.15}
# Block 6: logPrimaries | Blending Mode: Normal | {"wheels":{"shadows":{"Y":"0","R":"1","G":"1","B":"1"},"midtones":{"Y":"0","R":"1","G":"1","B":"1"},"highlights":{"Y":"0","R":"1","G":"1","B":"1"},"offset":{"Y":"0","R":"1","G":"1","B":"1"}},"sliders":{"shadows":{"Y":0,"R":-0.097,"G":0,"B":0.158},"midtones":{"Y":0,"R":0.024,"G":0.024,"B":-0.036},"highlights":{"Y":0,"R":0.154,"G":-0.084,"B":-0.024},"offset":{"Y":0.048,"R":0,"G":0,"B":0}}}
# Block 7: smartCurves | Blending Mode: Average | [[{"x":0,"y":0},{"x":0.11328125,"y":0.085540771484375},{"x":0.21484375,"y":0.218353271484375},{"x":0.37109375,"y":0.382415771484375},{"x":0.62109375,"y":0.589447021484375},{"x":0.8125,"y":0.765228271484375},{"x":1,"y":1}],[{"x":0,"y":0},{"x":1,"y":1}],[{"x":0,"y":0},{"x":1,"y":1}],[{"x":0,"y":0},{"x":1,"y":1}]]
# Block 8: LUT | Neutral Tint: Teal Tint 4 (100%)
# Block 9: contrast | Blending Mode: Normal | {"contrast":0.1}
# Block 10: ODT | Rec709
TITLE "Lutify.me-Amy-SLog3Venice-to-Rec709" 
LUT_3D_SIZE 9
0.000000 0.000000 0.000000
0.000000 0.000000 0.000000
0.228905 0.000000 0.000000
0.486405 0.000000 0.000000
0.779946 0.000000 0.000000
1.000000 0.000000 0.102938
1.000000 0.485482 0.324444
1.000000 0.807494 0.649780
1.000000 0.935978 0.870914
0.000000 0.003342 0.000000
0.000000 0.000000 0.000000
0.187553 0.000000 0.000000
0.451543 0.000000 0.000000
0.779908 0.000000 0.000000
1.000000 0.000000 0.103369
1.000000 0.490050 0.327318
1.000000 0.809751 0.651064
1.000000 0.935978 0.870914
0.000000 0.130537 0.000000
0.000000 0.115349 0.000000
0.163400 0.086925 0.000000
0.455876 0.000000 0.000000
0.788307 0.000000 0.000000
1.000000 0.000000 0.102699
1.000000 0.502277 0.330689
1.000000 0.811146 0.653437
1.000000 0.935978 0.870914
0.000000 0.302485 0.000000
0.000000 0.291169 0.000000
0.000000 0.279700 0.000000
0.458858 0.226517 0.000000
0.791839 0.159329 0.000000
1.000000 0.150901 0.096907
1.000000 0.533285 0.337182
1.000000 0.815345 0.655830
1.000000 0.937061 0.870947
0.000000 0.576530 0.241976
0.000000 0.558312 0.149281
0.000000 0.561970 0.000000
0.000000 0.563229 0.000000
0.742902 0.508113 0.000000
1.000000 0.508334 0.000000
1.000000 0.613383 0.347428
1.000000 0.829187 0.663101
1.000000 0.938670 0.871968
0.000000 0.863427 0.610360
0.000000 0.852549 0.557315
0.000000 0.845904 0.455500
0.000000 0.850035 0.336587
0.163446 0.846147 0.201296
0.955543 0.801055 0.000000
1.000000 0.817423 0.396035
1.000000 0.866360 0.685490
1.000000 0.944506 0.876013
0.000000 0.985805 0.875950
0.000000 0.978467 0.855844
0.000000 0.976720 0.828938
0.000000 0.976301 0.777204
0.000000 0.974594 0.692045
0.764539 0.952303 0.581372
1.000000 0.937916 0.520249
1.000000 0.943699 0.741881
1.000000 0.958864 0.885452
0.000000 1.000000 0.972757
0.000000 1.000000 0.970047
0.000000 1.000000 0.965330
0.000000 1.000000 0.956787
0.000000 1.000000 0.937365
0.620411 1.000000 0.902248
0.938721 0.993444 0.851378
1.000000 0.988025 0.820860
1.000000 0.989159 0.910164
0.424463 1.000000 1.000000
0.428387 1.000000 1.000000
0.433672 1.000000 1.000000
0.462203 1.000000 1.000000
0.572843 1.000000 0.998756
0.726351 1.000000 0.992809
0.880517 1.000000 0.981600
0.992970 1.000000 0.962167
1.000000 1.000000 0.942095
0.000000 0.000000 0.012871
0.000000 0.000000 0.000000
0.190286 0.000000 0.000000
0.422551 0.000000 0.000000
0.754396 0.000000 0.022032
1.000000 0.000000 0.118528
1.000000 0.485427 0.337308
1.000000 0.807481 0.652159
1.000000 0.935434 0.870900
0.000000 0.000000 0.033859
0.000000 0.000000 0.020905
0.153333 0.000000 0.000000
0.387141 0.000000 0.011056
0.758632 0.000000 0.024096
1.000000 0.000000 0.120421
1.000000 0.488480 0.339304
1.000000 0.808890 0.654548
1.000000 0.935978 0.870914
0.000000 0.121187 0.059080
0.000000 0.110689 0.035840
0.106801 0.098912 0.000000
0.387755 0.000000 0.010633
0.749952 0.000000 0.025123
1.000000 0.000000 0.120058
1.000000 0.500791 0.338455
1.000000 0.810308 0.654553
1.000000 0.935972 0.871886
0.000000 0.309004 0.129701
0.000000 0.297670 0.059374
0.000000 0.290825 0.000000
0.367117 0.264564 0.000000
0.758408 0.190070 0.000000
1.000000 0.150351 0.121402
1.000000 0.533251 0.346318
1.000000 0.815321 0.660567
1.000000 0.937055 0.871916
0.000000 0.594783 0.331618
0.000000 0.569155 0.271097
0.000000 0.569245 0.142865
0.000000 0.570888 0.000000
0.712885 0.522267 0.000000
1.000000 0.516186 0.093417
1.000000 0.613348 0.359803
1.000000 0.827801 0.665436
1.000000 0.938670 0.871968
0.000000 0.869725 0.636844
0.000000 0.856914 0.591429
0.000000 0.848119 0.493073
0.000000 0.852281 0.381293
0.113302 0.848511 0.247343
0.952796 0.803534 0.090529
1.000000 0.817399 0.409731
1.000000 0.866349 0.687772
1.000000 0.944506 0.876013
0.000000 0.986548 0.880486
0.000000 0.978427 0.862832
0.000000 0.976679 0.836967
0.000000 0.976285 0.784608
0.000000 0.974657 0.698381
0.764073 0.952269 0.591321
1.000000 0.938776 0.531601
1.000000 0.943690 0.743811
1.000000 0.958859 0.886325
0.000000 1.000000 0.973822
0.000000 1.000000 0.970611
0.000000 1.000000 0.966543
0.000000 1.000000 0.957473
0.000000 1.000000 0.939058
0.620308 1.000000 0.903356
0.938633 0.993436 0.852834
1.000000 0.988019 0.822163
1.000000 0.989159 0.910164
0.424312 1.000000 1.000000
0.428179 1.000000 1.000000
0.433383 1.000000 1.000000
0.462203 1.000000 1.000000
0.573041 1.000000 0.998959
0.726390 1.000000 0.993081
0.880517 1.000000 0.981600
0.992970 1.000000 0.962167
1.000000 1.000000 0.942095
0.000000 0.000000 0.079674
0.000000 0.000000 0.044906
0.161326 0.000000 0.043638
0.396423 0.000000 0.042658
0.733379 0.000000 0.057400
1.000000 0.000000 0.143926
1.000000 0.483847 0.349880
1.000000 0.807444 0.659324
1.000000 0.935428 0.871872
0.000000 0.000000 0.098580
0.000000 0.000000 0.067495
0.126892 0.000000 0.059051
0.361318 0.000000 0.057965
0.733358 0.000000 0.064047
1.000000 0.000000 0.145231
1.000000 0.488418 0.352943
1.000000 0.808864 0.659325
1.000000 0.935972 0.871886
0.000000 0.140514 0.196779
0.000000 0.125739 0.179083
0.048131 0.101857 0.137606
0.352283 0.000000 0.087813
0.728891 0.000000 0.071729
1.000000 0.000000 0.147899
1.000000 0.500721 0.354499
1.000000 0.810284 0.659327
1.000000 0.935972 0.871886
0.000000 0.339925 0.284763
0.000000 0.316894 0.267845
0.000000 0.308240 0.193603
0.293010 0.289956 0.102871
0.744825 0.202412 0.069789
1.000000 0.157060 0.154359
1.000000 0.531875 0.364523
1.000000 0.814518 0.661730
1.000000 0.937055 0.871916
0.000000 0.616763 0.419084
0.000000 0.587267 0.389730
0.000000 0.576432 0.287611
0.000000 0.582155 0.153983
0.679788 0.540225 0.000000
1.000000 0.523618 0.153654
1.000000 0.613294 0.377562
1.000000 0.827777 0.670161
1.000000 0.938670 0.871968
0.000000 0.877821 0.674281
0.000000 0.856750 0.633156
0.000000 0.847946 0.549801
0.000000 0.852186 0.437142
0.078470 0.850648 0.306651
0.946466 0.810806 0.189165
1.000000 0.819377 0.426615
1.000000 0.866328 0.692337
1.000000 0.944500 0.876952
0.000000 0.987264 0.887641
0.000000 0.980110 0.871146
0.000000 0.976644 0.844714
0.000000 0.976244 0.796374
0.000000 0.974573 0.716914
0.759416 0.953281 0.608507
1.000000 0.938732 0.547529
1.000000 0.943664 0.749572
1.000000 0.958859 0.886325
0.000000 1.000000 0.974849
0.000000 1.000000 0.971171
0.000000 1.000000 0.967733
0.000000 1.000000 0.958826
0.000000 1.000000 0.940713
0.620207 1.000000 0.904457
0.938459 0.993421 0.855718
1.000000 0.988006 0.824763
1.000000 0.989155 0.910899
0.424008 1.000000 1.000000
0.427778 1.000000 1.000000
0.434115 1.000000 1.000000
0.462023 1.000000 1.000000
0.573041 1.000000 0.998959
0.726390 1.000000 0.993081
0.880496 1.000000 0.981972
0.992935 1.000000 0.962691
1.000000 1.000000 0.942606
0.000000 0.000000 0.148806
0.000000 0.000000 0.078993
0.130160 0.000000 0.069611
0.408269 0.000000 0.068140
0.718759 0.000000 0.141123
1.000000 0.000000 0.209170
1.000000 0.479062 0.385693
1.000000 0.807393 0.668898
1.000000 0.935422 0.872842
0.000000 0.000000 0.192842
0.000000 0.000000 0.128297
0.098723 0.000000 0.110840
0.359802 0.000000 0.105224
0.706287 0.000000 0.171217
1.000000 0.000000 0.215005
1.000000 0.485239 0.387894
1.000000 0.808801 0.671289
1.000000 0.935966 0.872855
0.000000 0.102695 0.292841
0.000000 0.089277 0.253210
0.000000 0.072082 0.232955
0.343505 0.000000 0.206405
0.710761 0.000000 0.196914
1.000000 0.000000 0.220891
1.000000 0.494541 0.392502
1.000000 0.810220 0.671286
1.000000 0.935966 0.872855
0.000000 0.369748 0.462880
0.000000 0.349559 0.435971
0.000000 0.312246 0.413889
0.205625 0.300709 0.366204
0.714926 0.218024 0.269908
1.000000 0.163326 0.237874
1.000000 0.527263 0.399339
1.000000 0.814455 0.673676
1.000000 0.936502 0.873833
0.000000 0.653324 0.597880
0.000000 0.623613 0.577005
0.000000 0.594091 0.541298
0.000000 0.593102 0.449957
0.631344 0.569831 0.329367
1.000000 0.523315 0.277555
1.000000 0.607921 0.416040
1.000000 0.827716 0.681979
1.000000 0.938652 0.874851
0.000000 0.889259 0.745068
0.000000 0.873479 0.729641
0.000000 0.854281 0.678285
0.000000 0.854071 0.584049
0.000000 0.853542 0.450444
0.934634 0.818013 0.341966
1.000000 0.820881 0.477463
1.000000 0.864639 0.704970
1.000000 0.944488 0.878818
0.000000 0.988689 0.899560
0.000000 0.984127 0.891737
0.000000 0.976541 0.866183
0.000000 0.977888 0.829038
0.000000 0.975356 0.765177
0.752871 0.954152 0.659174
1.000000 0.939543 0.583054
1.000000 0.943534 0.760314
1.000000 0.958849 0.888073
0.000000 1.000000 0.978302
0.000000 1.000000 0.974376
0.000000 1.000000 0.970598
0.000000 1.000000 0.961465
0.000000 1.000000 0.946274
0.619618 1.000000 0.910916
0.938032 0.993383 0.862741
1.000000 0.988305 0.831411
1.000000 0.989147 0.912367
0.424135 1.000000 1.000000
0.426987 1.000000 1.000000
0.433798 1.000000 1.000000
0.461269 1.000000 1.000000
0.577752 1.000000 0.999341
0.726472 1.000000 0.993613
0.879508 1.000000 0.982730
0.992901 1.000000 0.963211
1.000000 1.000000 0.943628
0.000000 0.000000 0.181846
0.000000 0.000000 0.148846
0.097061 0.000000 0.136352
0.361597 0.000000 0.122042
0.778375 0.000000 0.122530
1.000000 0.000000 0.384021
1.000000 0.469469 0.484028
1.000000 0.804065 0.700505
1.000000 0.935380 0.879527
0.000000 0.021162 0.262275
0.000000 0.017381 0.225131
0.053785 0.000000 0.213065
0.332242 0.000000 0.196750
0.710681 0.000000 0.187750
1.000000 0.000000 0.395949
1.000000 0.478684 0.487914
1.000000 0.805512 0.700485
1.000000 0.935380 0.879527
0.000000 0.088788 0.373470
0.000000 0.077302 0.332331
0.000000 0.071685 0.319732
0.303569 0.000000 0.317452
0.695804 0.000000 0.295331
1.000000 0.000000 0.414428
1.000000 0.491427 0.487381
1.000000 0.806957 0.700466
1.000000 0.935923 0.879534
0.000000 0.315778 0.581432
0.000000 0.291409 0.538070
0.000000 0.273042 0.524198
0.127478 0.249440 0.524690
0.712933 0.000000 0.481129
1.000000 0.120178 0.451229
1.000000 0.523514 0.501148
1.000000 0.811269 0.702816
1.000000 0.936460 0.880480
0.000000 0.671139 0.778129
0.000000 0.671139 0.778129
0.000000 0.622807 0.739985
0.000000 0.599885 0.713623
0.510943 0.578346 0.665502
1.000000 0.522369 0.534005
1.000000 0.611200 0.519934
1.000000 0.824768 0.710766
1.000000 0.938074 0.881437
0.000000 0.904846 0.868771
0.000000 0.903158 0.863500
0.000000 0.879009 0.843539
0.000000 0.866315 0.822635
0.000000 0.855924 0.748870
0.897004 0.825554 0.638879
1.000000 0.819189 0.586568
1.000000 0.863642 0.732759
1.000000 0.944460 0.883419
0.000000 0.994842 0.934164
0.000000 0.992102 0.930336
0.000000 0.983931 0.914334
0.000000 0.980201 0.895751
0.000000 0.975381 0.851993
0.722328 0.958135 0.771308
1.000000 0.940157 0.689156
1.000000 0.943321 0.788934
1.000000 0.958823 0.892434
0.000000 1.000000 0.984260
0.000000 1.000000 0.981054
0.000000 1.000000 0.978370
0.000000 1.000000 0.971067
0.000000 1.000000 0.959115
0.614110 1.000000 0.928684
0.934457 0.993739 0.883356
1.000000 0.988854 0.852076
1.000000 0.989391 0.917569
0.424356 1.000000 1.000000
0.435211 1.000000 1.000000
0.433430 1.000000 1.000000
0.465945 1.000000 1.000000
0.578416 1.000000 1.000000
0.725055 1.000000 0.995142
0.879397 1.000000 0.984863
0.992224 1.000000 0.967273
1.000000 1.000000 0.947824
0.000000 0.027206 0.351447
0.000000 0.000000 0.348635
0.103077 0.000000 0.340195
0.283794 0.000000 0.320198
0.685089 0.000000 0.268166
1.000000 0.000000 0.268413
1.000000 0.412988 0.689049
1.000000 0.800631 0.778428
1.000000 0.934743 0.893302
0.000000 0.069245 0.427973
0.000000 0.064721 0.424624
0.000000 0.053715 0.424522
0.253344 0.000000 0.416670
0.671739 0.000000 0.373017
1.000000 0.000000 0.360763
1.000000 0.422656 0.695525
1.000000 0.802084 0.778373
1.000000 0.934743 0.893302
0.000000 0.125535 0.517813
0.000000 0.119456 0.510738
0.000000 0.114739 0.503588
0.208822 0.080265 0.510040
0.682125 0.000000 0.489103
1.000000 0.000000 0.462433
1.000000 0.438959 0.701732
1.000000 0.801810 0.779434
1.000000 0.935288 0.893299
0.000000 0.255752 0.651104
0.000000 0.253583 0.647420
0.000000 0.246825 0.651393
0.000000 0.238796 0.647516
0.645351 0.049913 0.641266
1.000000 0.000000 0.619968
1.000000 0.479800 0.717093
1.000000 0.806211 0.781377
1.000000 0.935832 0.893296
0.000000 0.577894 0.845165
0.000000 0.566843 0.831934
0.000000 0.566776 0.836625
0.000000 0.547762 0.835238
0.471189 0.518919 0.824706
0.997994 0.423301 0.781970
1.000000 0.577279 0.753592
1.000000 0.820034 0.786619
1.000000 0.937984 0.895095
0.000000 0.914364 0.945256
0.000000 0.914364 0.945256
0.000000 0.914364 0.945256
0.000000 0.880539 0.923261
0.000000 0.865748 0.913388
0.836340 0.829486 0.879315
1.000000 0.815027 0.815745
1.000000 0.859003 0.803586
1.000000 0.944072 0.899002
0.000000 1.000000 0.975042
0.000000 1.000000 0.975042
0.000000 1.000000 0.975137
0.000000 0.988664 0.964356
0.000000 0.982235 0.957020
0.676829 0.961953 0.921250
0.982390 0.944791 0.873591
1.000000 0.942565 0.848275
1.000000 0.958104 0.905907
0.000000 1.000000 0.994721
0.000000 1.000000 0.994721
0.000000 1.000000 0.991860
0.000000 1.000000 0.987913
0.000000 1.000000 0.981938
0.593143 1.000000 0.966247
0.924102 0.995170 0.932119
1.000000 0.988964 0.896616
1.000000 0.989565 0.930811
0.459565 1.000000 1.000000
0.460805 1.000000 1.000000
0.438472 1.000000 1.000000
0.472503 1.000000 1.000000
0.570480 1.000000 1.000000
0.721085 1.000000 0.998695
0.876664 1.000000 0.990568
0.991204 1.000000 0.975479
1.000000 1.000000 0.957226
0.000000 0.172901 0.716731
0.000000 0.169599 0.712972
0.114663 0.160559 0.712857
0.311864 0.128447 0.708374
0.602244 0.000000 0.687249
1.000000 0.000000 0.627363
1.000000 0.000000 0.601923
1.000000 0.770005 0.897090
1.000000 0.931880 0.925685
0.000000 0.200655 0.741213
0.000000 0.197367 0.741157
0.000000 0.190905 0.737543
0.287993 0.164552 0.733394
0.593125 0.000000 0.716654
1.000000 0.000000 0.667701
1.000000 0.000000 0.651820
1.000000 0.771608 0.898268
1.000000 0.932445 0.925663
0.000000 0.243493 0.779989
0.000000 0.240333 0.779966
0.000000 0.236329 0.776694
0.247967 0.215427 0.776223
0.580253 0.105261 0.761078
1.000000 0.000000 0.721959
1.000000 0.000000 0.705428
1.000000 0.774880 0.898082
1.000000 0.932438 0.926477
0.000000 0.335262 0.835754
0.000000 0.334824 0.838140
0.000000 0.331122 0.835715
0.000000 0.317650 0.835502
0.537338 0.268939 0.831223
1.000000 0.000000 0.812906
1.000000 0.181112 0.800491
1.000000 0.783769 0.901440
1.000000 0.933002 0.926455
0.000000 0.526202 0.904454
0.000000 0.529639 0.904234
0.000000 0.525589 0.906001
0.000000 0.516321 0.906123
0.373338 0.493583 0.903745
0.975030 0.385969 0.897941
1.000000 0.443642 0.876028
1.000000 0.802639 0.908822
1.000000 0.935230 0.927983
0.000000 0.848828 0.966222
0.000000 0.846480 0.967145
0.000000 0.848618 0.966964
0.000000 0.843313 0.968726
0.000000 0.833226 0.968495
0.808640 0.793576 0.958190
1.000000 0.753343 0.938553
1.000000 0.850610 0.920696
1.000000 0.941501 0.931088
0.000000 1.000000 0.999156
0.000000 1.000000 0.998878
0.000000 1.000000 0.998878
0.000000 1.000000 0.998878
0.000000 0.989700 0.992514
0.602339 0.966545 0.987838
0.963887 0.945732 0.972514
1.000000 0.941392 0.949616
1.000000 0.958069 0.939513
0.000000 1.000000 1.000000
0.000000 1.000000 1.000000
0.000000 1.000000 1.000000
0.000000 1.000000 1.000000
0.000000 1.000000 1.000000
0.546558 1.000000 0.998686
0.905508 0.996629 0.987779
1.000000 0.990520 0.971436
1.000000 0.989855 0.959744
0.580327 1.000000 1.000000
0.580327 1.000000 1.000000
0.580327 1.000000 1.000000
0.495763 1.000000 1.000000
0.550594 1.000000 1.000000
0.709687 1.000000 1.000000
0.869793 1.000000 1.000000
0.988996 1.000000 0.990604
1.000000 1.000000 0.977496
0.375069 0.426090 0.943240
0.395886 0.421504 0.943285
0.420491 0.420086 0.941917
0.498085 0.407715 0.941710
0.685580 0.373452 0.939421
0.948445 0.279880 0.933887
1.000000 0.208549 0.910201
1.000000 0.539012 0.887123
1.000000 0.922709 0.980499
0.366282 0.440704 0.946275
0.381428 0.436459 0.946361
0.406916 0.435122 0.945030
0.481058 0.423426 0.944891
0.676972 0.389942 0.942665
0.946177 0.300247 0.938499
1.000000 0.240053 0.915577
1.000000 0.545608 0.894189
1.000000 0.922709 0.980499
0.352400 0.451996 0.948213
0.372763 0.451115 0.948120
0.400753 0.446221 0.948144
0.473269 0.442059 0.947728
0.671350 0.413588 0.945478
0.942740 0.329339 0.942716
1.000000 0.275411 0.924464
1.000000 0.560027 0.904755
1.000000 0.922709 0.980499
0.268394 0.512391 0.959995
0.307778 0.507732 0.960064
0.339736 0.506723 0.959954
0.426059 0.499610 0.959764
0.639920 0.470404 0.958037
0.926870 0.399052 0.955563
1.000000 0.357143 0.940097
1.000000 0.600213 0.924199
1.000000 0.923911 0.981293
0.000000 0.623163 0.978625
0.000000 0.622828 0.978586
0.000000 0.625838 0.977526
0.267578 0.623304 0.977243
0.547332 0.602657 0.977643
0.872455 0.555004 0.975713
1.000000 0.506466 0.968432
1.000000 0.674053 0.951614
1.000000 0.927161 0.981901
0.000000 0.812753 0.994814
0.000000 0.812454 0.994782
0.000000 0.811928 0.994726
0.000000 0.804871 0.993925
0.277638 0.801371 0.993111
0.752458 0.765363 0.992802
1.000000 0.725152 0.988953
1.000000 0.785225 0.978492
1.000000 0.935097 0.983854
0.000000 0.978045 1.000000
0.000000 0.977792 1.000000
0.000000 0.977336 1.000000
0.000000 0.974298 1.000000
0.000000 0.970762 1.000000
0.577081 0.954251 1.000000
0.956054 0.929306 1.000000
1.000000 0.917489 0.995144
1.000000 0.952859 0.987909
0.000000 1.000000 1.000000
0.000000 1.000000 1.000000
0.000000 1.000000 1.000000
0.000000 1.000000 1.000000
0.000000 1.000000 1.000000
0.352377 1.000000 1.000000
0.878912 0.998896 1.000000
1.000000 0.991073 1.000000
1.000000 0.989739 0.996579
0.636486 1.000000 1.000000
0.636486 1.000000 1.000000
0.636486 1.000000 1.000000
0.636486 1.000000 1.000000
0.636486 1.000000 1.000000
0.675286 1.000000 1.000000
0.850369 1.000000 1.000000
0.983054 1.000000 1.000000
1.000000 1.000000 1.000000
0.765677 0.709376 1.000000
0.769958 0.709104 1.000000
0.769958 0.709104 1.000000
0.791950 0.704255 1.000000
0.835731 0.701428 1.000000
0.943777 0.683772 1.000000
1.000000 0.653863 1.000000
1.000000 0.672854 0.996943
1.000000 0.838742 0.980226
0.764236 0.712949 1.000000
0.764236 0.712949 1.000000
0.768524 0.712677 1.000000
0.789140 0.711353 1.000000
0.835731 0.701428 1.000000
0.940419 0.687628 1.000000
1.000000 0.657674 1.000000
1.000000 0.677045 0.997191
1.000000 0.840170 0.981143
0.757000 0.720267 1.000000
0.761360 0.719997 1.000000
0.767116 0.716309 1.000000
0.779665 0.715513 1.000000
0.829699 0.708868 1.000000
0.938094 0.694889 1.000000
1.000000 0.661570 1.000000
1.000000 0.680036 0.998366
1.000000 0.839021 0.982624
0.749797 0.737231 1.000000
0.749797 0.737231 1.000000
0.758540 0.736705 1.000000
0.771228 0.735931 1.000000
0.821735 0.729555 1.000000
0.928897 0.709499 1.000000
1.000000 0.686789 1.000000
1.000000 0.697692 1.000000
1.000000 0.847133 0.986346
0.716541 0.780990 1.000000
0.721236 0.780737 1.000000
0.725868 0.780484 1.000000
0.739389 0.779738 1.000000
0.791867 0.776773 1.000000
0.903483 0.761553 1.000000
1.000000 0.733479 1.000000
1.000000 0.733134 1.000000
1.000000 0.859904 0.993170
0.669239 0.856817 1.000000
0.674257 0.856589 1.000000
0.679206 0.856363 1.000000
0.698307 0.855468 1.000000
0.741557 0.853367 1.000000
0.850580 0.847313 1.000000
0.988953 0.823627 1.000000
1.000000 0.812586 1.000000
1.000000 0.884856 1.000000
0.530191 0.946632 1.000000
0.542974 0.946247 1.000000
0.549210 0.946055 1.000000
0.573513 0.944281 1.000000
0.647633 0.940612 1.000000
0.777775 0.932712 1.000000
0.934000 0.920831 1.000000
1.000000 0.908368 1.000000
1.000000 0.927342 1.000000
0.362229 1.000000 1.000000
0.373449 1.000000 1.000000
0.389704 1.000000 1.000000
0.436527 1.000000 1.000000
0.545503 1.000000 1.000000
0.688829 1.000000 1.000000
0.871279 0.994619 1.000000
0.998561 0.985000 1.000000
1.000000 0.980730 1.000000
0.685033 1.000000 1.000000
0.685033 1.000000 1.000000
0.685033 1.000000 1.000000
0.685033 1.000000 1.000000
0.685033 1.000000 1.000000
0.685033 1.000000 1.000000
0.799578 1.000000 1.000000
0.973034 1.000000 1.000000
1.000000 1.000000 1.000000
