Assets/Lutify-Free-LUTs-Pack/Lutify Free LUTs Pack/Cine World Pro Warm - Amy/Lutify.me-Amy-CanonLog3-to-Rec709.cube
# Created with: fylm.ai - Colour Grading and Collaboration Software in Cloud 
# Website: https://fylm.ai 
# META
# Option: Gamut compress
# Block 1: IDT | CanonLog3 Cinema Gamut Daylight
# Block 2: colourMatch | Blending Mode: Normal | {"ColorSpace":0,"CrossCovarianceLimit":50,"ReshapingIterations":1,"PercentSaturationShift":100,"PercentShadingShift":100,"ExtraShading":true,"PercentTint":100,"PercentModified":100}
# Block 3: LUT | Filmic Curve Response: Standard Contrast 1 (100%)
# Block 4: LUT | Illuminant: D60 (100%)
# Block 5: hueSaturation | Blending Mode: Normal | {"hue":0,"saturation":-0.15}
# Block 6: logPrimaries | Blending Mode: Normal | {"wheels":{"shadows":{"Y":"0","R":"1","G":"1","B":"1"},"midtones":{"Y":"0","R":"1","G":"1","B":"1"},"highlights":{"Y":"0","R":"1","G":"1","B":"1"},"offset":{"Y":"0","R":"1","G":"1","B":"1"}},"sliders":{"shadows":{"Y":0,"R":-0.097,"G":0,"B":0.158},"midtones":{"Y":0,"R":0.024,"G":0.024,"B":-0.036},"highlights":{"Y":0,"R":0.154,"G":-0.084,"B":-0.024},"offset":{"Y":0.048,"R":0,"G":0,"B":0}}}
# Block 7: smartCurves | Blending Mode: Average | [[{"x":0,"y":0},{"x":0.11328125,"y":0.085540771484375},{"x":0.21484375,"y":0.218353271484375},{"x":0.37109375,"y":0.382415771484375},{"x":0.62109375,"y":0.589447021484375},{"x":0.8125,"y":0.765228271484375},{"x":1,"y":1}],[{"x":0,"y":0},{"x":1,"y":1}],[{"x":0,"y":0},{"x":1,"y":1}],[{"x":0,"y":0},{"x":1,"y":1}]]
# Block 8: LUT | Neutral Tint: Teal Tint 4 (100%)
# Block 9: contrast | Blending Mode: Normal | {"contrast":0.1}
# Block 10: ODT | Rec709
TITLE "Lutify.me-Amy-CanonLog3-to-Rec709" 
LUT_3D_SIZE 9
0.000000 0.000000 0.000000
0.068023 0.000000 0.000000
0.486308 0.000000 0.000000
0.896060 0.000000 0.000000
1.000000 0.000000 0.051420
1.000000 0.000000 0.063495
1.000000 0.282313 0.218181
1.000000 0.621934 0.456419
1.000000 0.819383 0.686374
0.000000 0.071884 0.000000
0.000000 0.046931 0.000000
0.401365 0.000000 0.000000
0.797016 0.000000 0.000000
1.000000 0.000000 0.063262
1.000000 0.000000 0.052726
1.000000 0.346968 0.215021
1.000000 0.634699 0.453375
1.000000 0.822775 0.689774
0.000000 0.256003 0.000000
0.000000 0.216356 0.000000
0.438695 0.141929 0.000000
0.822001 0.000000 0.000000
1.000000 0.000000 0.055090
1.000000 0.000000 0.035491
1.000000 0.391472 0.211202
1.000000 0.650008 0.450196
1.000000 0.826601 0.689787
0.000000 0.445195 0.000000
0.000000 0.389956 0.000000
0.439249 0.349626 0.000000
0.854865 0.268191 0.000000
1.000000 0.219292 0.000000
1.000000 0.300615 0.092552
1.000000 0.472446 0.186423
1.000000 0.680383 0.451204
1.000000 0.832938 0.689839
0.000000 0.617261 0.000000
0.000000 0.586074 0.000000
0.336310 0.558797 0.000000
0.852601 0.509671 0.000000
1.000000 0.494610 0.000000
1.000000 0.540420 0.175665
1.000000 0.636693 0.094575
1.000000 0.739131 0.445091
1.000000 0.849725 0.691562
0.000000 0.791782 0.000000
0.000000 0.771308 0.000000
0.411886 0.754866 0.000000
0.820005 0.722221 0.000000
1.000000 0.709152 0.000000
1.000000 0.723998 0.144668
1.000000 0.769164 0.424100
1.000000 0.832751 0.395092
1.000000 0.877710 0.687335
0.346601 0.889425 0.000000
0.580764 0.879619 0.000000
0.708206 0.870572 0.000000
0.846430 0.857386 0.000000
0.994126 0.845298 0.000000
1.000000 0.848470 0.166589
1.000000 0.862526 0.456039
1.000000 0.884094 0.687043
1.000000 0.926210 0.670366
0.841597 0.941326 0.000000
0.867761 0.938843 0.000000
0.894833 0.936240 0.000000
0.935186 0.933765 0.000000
0.991257 0.928264 0.000000
1.000000 0.925076 0.256527
1.000000 0.927745 0.498594
1.000000 0.936624 0.725148
1.000000 0.949656 0.788854
0.979735 0.973909 0.282539
0.983484 0.973664 0.287704
0.988237 0.972797 0.290908
0.995633 0.972303 0.306784
1.000000 0.970260 0.342818
1.000000 0.968662 0.430802
1.000000 0.968522 0.580823
1.000000 0.969599 0.757399
1.000000 0.972950 0.863134
0.000000 0.000000 0.142752
0.000000 0.000000 0.018008
0.347676 0.000000 0.000000
0.690126 0.000000 0.000000
0.928933 0.000000 0.000000
1.000000 0.000000 0.121733
1.000000 0.277518 0.264656
1.000000 0.620141 0.476779
1.000000 0.818042 0.695286
0.000000 0.000000 0.010663
0.000000 0.000000 0.000000
0.296089 0.000000 0.000000
0.566809 0.000000 0.000000
0.872479 0.000000 0.035143
1.000000 0.000000 0.122748
1.000000 0.338024 0.258519
1.000000 0.637136 0.477071
1.000000 0.820624 0.695278
0.000000 0.239171 0.000000
0.000000 0.212906 0.000000
0.351545 0.153330 0.000000
0.629991 0.000000 0.000000
0.882188 0.000000 0.000000
1.000000 0.000000 0.110478
1.000000 0.393744 0.257919
1.000000 0.649900 0.473954
1.000000 0.824476 0.697499
0.000000 0.431710 0.000000
0.000000 0.384144 0.000000
0.403910 0.340266 0.000000
0.839990 0.255624 0.000000
0.959156 0.304034 0.000000
1.000000 0.339179 0.000000
1.000000 0.476898 0.249149
1.000000 0.677780 0.470075
1.000000 0.831627 0.698631
0.000000 0.632117 0.000000
0.000000 0.579213 0.000000
0.301643 0.552487 0.000000
0.846550 0.502378 0.000000
1.000000 0.486043 0.000000
1.000000 0.569374 0.000000
1.000000 0.642073 0.187368
1.000000 0.736411 0.466494
1.000000 0.849056 0.701122
0.000000 0.789218 0.000000
0.000000 0.772166 0.000000
0.370137 0.755912 0.000000
0.804236 0.723274 0.000000
1.000000 0.705686 0.000000
1.000000 0.720662 0.140929
1.000000 0.789596 0.167727
1.000000 0.831911 0.441043
1.000000 0.877652 0.699707
0.301413 0.888418 0.000000
0.560485 0.880346 0.000000
0.698296 0.871048 0.000000
0.840177 0.857762 0.000000
0.993530 0.843362 0.000000
1.000000 0.846721 0.166070
1.000000 0.861186 0.455828
1.000000 0.901397 0.440830
1.000000 0.926159 0.682823
0.836055 0.941635 0.000000
0.865339 0.938984 0.000000
0.892789 0.936363 0.000000
0.933523 0.933869 0.000000
0.990255 0.928322 0.000000
1.000000 0.924049 0.251451
1.000000 0.927745 0.498594
1.000000 0.936624 0.725148
1.000000 0.960996 0.692167
0.978775 0.973972 0.281269
0.982561 0.973724 0.286401
0.988237 0.972797 0.290908
0.995633 0.972303 0.306784
1.000000 0.970260 0.342818
1.000000 0.968662 0.430802
1.000000 0.968522 0.580823
1.000000 0.969599 0.757399
1.000000 0.972843 0.861763
0.000000 0.000000 0.338126
0.000000 0.000000 0.078350
0.288111 0.000000 0.052357
0.640445 0.000000 0.040201
0.958882 0.000000 0.033013
1.000000 0.000000 0.171347
1.000000 0.262479 0.313376
1.000000 0.618345 0.498273
1.000000 0.817107 0.707617
0.000000 0.000000 0.188025
0.000000 0.000000 0.111428
0.243261 0.000000 0.072985
0.514301 0.000000 0.095767
0.841372 0.000000 0.131000
1.000000 0.000000 0.190676
1.000000 0.327020 0.310041
1.000000 0.633901 0.497476
1.000000 0.820560 0.706405
0.000000 0.268686 0.344193
0.000000 0.242660 0.316159
0.114965 0.206281 0.259311
0.505780 0.114546 0.183262
0.842892 0.000000 0.146522
1.000000 0.000000 0.194173
1.000000 0.382202 0.310042
1.000000 0.650869 0.500291
1.000000 0.824426 0.706386
0.000000 0.486306 0.351161
0.000000 0.448389 0.282591
0.000000 0.454222 0.139442
0.505834 0.417827 0.042130
0.859115 0.372303 0.084274
1.000000 0.337421 0.174890
1.000000 0.473435 0.308449
1.000000 0.677657 0.497525
1.000000 0.831566 0.709634
0.000000 0.672957 0.208284
0.000000 0.658032 0.000000
0.000000 0.656892 0.000000
0.435591 0.632941 0.000000
0.890539 0.593055 0.000000
1.000000 0.619615 0.000000
1.000000 0.647746 0.274357
1.000000 0.735445 0.492330
1.000000 0.848999 0.711887
0.000000 0.789568 0.000000
0.000000 0.772729 0.000000
0.337648 0.753429 0.000000
0.797384 0.720321 0.000000
1.000000 0.705570 0.000000
1.000000 0.720149 0.136139
1.000000 0.812472 0.000000
1.000000 0.832116 0.471566
1.000000 0.877592 0.712103
0.259160 0.888975 0.000000
0.533369 0.879472 0.000000
0.677666 0.872009 0.000000
0.837000 0.857952 0.000000
0.989884 0.843449 0.000000
1.000000 0.846426 0.156186
1.000000 0.861186 0.455828
1.000000 0.909652 0.406379
1.000000 0.925931 0.696079
0.833234 0.941791 0.000000
0.862884 0.939126 0.000000
0.890714 0.936487 0.000000
0.931844 0.933973 0.000000
0.989243 0.928380 0.000000
1.000000 0.924030 0.248211
1.000000 0.927643 0.495391
1.000000 0.936437 0.722460
1.000000 0.964446 0.674928
0.978775 0.973972 0.281269
0.982561 0.973724 0.286401
0.987365 0.972855 0.289549
0.995149 0.971776 0.301799
1.000000 0.970300 0.340599
1.000000 0.968662 0.430802
1.000000 0.968522 0.580823
1.000000 0.969599 0.757399
1.000000 0.972843 0.861763
0.000000 0.000000 0.493985
0.000000 0.000000 0.132511
0.219743 0.000000 0.072427
0.592517 0.000000 0.072541
0.946217 0.000000 0.071791
1.000000 0.000000 0.256727
1.000000 0.221510 0.387588
1.000000 0.610488 0.541119
1.000000 0.815695 0.725446
0.000000 0.000000 0.320318
0.000000 0.000000 0.184891
0.180337 0.000000 0.109404
0.552754 0.000000 0.090829
0.813107 0.000000 0.213177
1.000000 0.000000 0.321560
1.000000 0.292669 0.399870
1.000000 0.627886 0.544005
1.000000 0.818303 0.725407
0.000000 0.189447 0.469896
0.000000 0.162835 0.412586
0.000000 0.120907 0.363891
0.496222 0.000000 0.330843
0.815962 0.000000 0.336122
1.000000 0.000000 0.345886
1.000000 0.361369 0.405094
1.000000 0.645123 0.546906
1.000000 0.822209 0.725356
0.000000 0.531396 0.631289
0.000000 0.502839 0.602642
0.000000 0.457063 0.567681
0.346886 0.445728 0.527283
0.798805 0.372326 0.427202
1.000000 0.303409 0.365957
1.000000 0.461634 0.411267
1.000000 0.677460 0.546350
1.000000 0.830718 0.726201
0.000000 0.747779 0.668159
0.000000 0.690552 0.603212
0.000000 0.694065 0.538835
0.000000 0.690911 0.439512
0.758961 0.660189 0.369096
0.996388 0.634088 0.331802
1.000000 0.633526 0.404395
1.000000 0.738124 0.548642
1.000000 0.846453 0.727132
0.000000 0.859496 0.425746
0.000000 0.863418 0.359238
0.000000 0.866660 0.322621
0.000000 0.863550 0.249836
0.692408 0.841132 0.149706
0.963332 0.816952 0.063195
1.000000 0.821375 0.337085
1.000000 0.834356 0.536625
1.000000 0.876051 0.729611
0.000000 0.923896 0.000000
0.000000 0.919348 0.000000
0.295360 0.910923 0.000000
0.630706 0.897602 0.000000
0.920445 0.870936 0.000000
1.000000 0.853019 0.000000
1.000000 0.859478 0.452120
1.000000 0.918116 0.460144
1.000000 0.925634 0.724752
0.827495 0.942107 0.000000
0.857877 0.939414 0.000000
0.884301 0.936870 0.000000
0.924967 0.934400 0.000000
0.989669 0.927326 0.000000
1.000000 0.924030 0.248211
1.000000 0.927643 0.495391
1.000000 0.936437 0.722460
1.000000 0.966972 0.665164
0.976826 0.974099 0.278755
0.980988 0.973273 0.280046
0.986486 0.972913 0.288009
0.994360 0.971829 0.299668
1.000000 0.970341 0.338384
1.000000 0.968687 0.426235
1.000000 0.968522 0.580823
1.000000 0.969599 0.757399
1.000000 0.972843 0.861763
0.000000 0.000000 0.663332
0.000000 0.000000 0.174362
0.160607 0.000000 0.101639
0.514077 0.000000 0.103337
0.919238 0.000000 0.110413
1.000000 0.000000 0.138007
1.000000 0.000000 0.518948
1.000000 0.595129 0.619697
1.000000 0.812481 0.756684
0.000000 0.000000 0.455555
0.000000 0.000000 0.232104
0.126998 0.000000 0.144303
0.496108 0.000000 0.116393
0.919206 0.000000 0.108475
1.000000 0.000000 0.382916
1.000000 0.236854 0.541376
1.000000 0.610827 0.622068
1.000000 0.817661 0.756547
0.000000 0.154989 0.597921
0.000000 0.135098 0.499670
0.000000 0.106629 0.434114
0.413973 0.000000 0.418624
0.781243 0.000000 0.373238
1.000000 0.000000 0.495833
1.000000 0.311689 0.556701
1.000000 0.629497 0.627365
1.000000 0.820233 0.758585
0.000000 0.466427 0.771054
0.000000 0.439154 0.718264
0.000000 0.386429 0.664775
0.262461 0.354437 0.665193
0.791190 0.240233 0.623533
1.000000 0.209487 0.581334
1.000000 0.432251 0.584034
1.000000 0.661515 0.629041
1.000000 0.829240 0.758382
0.000000 0.779467 0.854092
0.000000 0.760397 0.836152
0.000000 0.700753 0.809270
0.000000 0.696342 0.790431
0.629032 0.665689 0.754797
0.960047 0.625590 0.664074
1.000000 0.607370 0.605840
1.000000 0.727177 0.643154
1.000000 0.842507 0.759533
0.000000 0.888738 0.849052
0.000000 0.880819 0.828514
0.000000 0.878304 0.810412
0.000000 0.872879 0.777483
0.543791 0.861553 0.692953
0.908250 0.837696 0.636029
1.000000 0.824022 0.586632
1.000000 0.827718 0.649326
1.000000 0.872884 0.764455
0.000000 0.961187 0.689003
0.000000 0.961026 0.662175
0.000000 0.959428 0.644703
0.000000 0.955595 0.613078
0.533978 0.944950 0.558405
0.882038 0.929685 0.500047
1.000000 0.920575 0.473901
1.000000 0.919961 0.611322
1.000000 0.924943 0.765101
0.236358 0.993052 0.257338
0.370566 0.991324 0.250052
0.441058 0.989958 0.247680
0.562641 0.985545 0.226525
0.723309 0.979579 0.213731
0.906682 0.968771 0.213748
1.000000 0.958022 0.296911
1.000000 0.951201 0.529860
1.000000 0.969095 0.727242
0.974841 0.974229 0.276275
0.979076 0.973398 0.277453
0.982863 0.973150 0.282673
0.992753 0.971938 0.295426
1.000000 0.970466 0.331755
1.000000 0.968136 0.419643
1.000000 0.968461 0.573011
1.000000 0.969073 0.754797
1.000000 0.972843 0.861763
0.000000 0.000000 0.811785
0.000000 0.000000 0.202182
0.150313 0.000000 0.145334
0.401069 0.000000 0.138613
0.851012 0.000000 0.148542
1.000000 0.000000 0.179903
1.000000 0.000000 0.428327
1.000000 0.539825 0.748985
1.000000 0.807060 0.811854
0.000000 0.000000 0.663345
0.000000 0.000000 0.232088
0.141815 0.000000 0.155469
0.401069 0.000000 0.138613
0.851024 0.000000 0.147295
1.000000 0.000000 0.180357
1.000000 0.000000 0.606380
1.000000 0.567707 0.762121
1.000000 0.811083 0.813512
0.000000 0.140693 0.732594
0.000000 0.124624 0.576325
0.000000 0.097970 0.511104
0.273228 0.000000 0.488498
0.726935 0.000000 0.437478
1.000000 0.000000 0.275014
1.000000 0.000000 0.671472
1.000000 0.590992 0.764189
1.000000 0.815944 0.815543
0.000000 0.375547 0.850865
0.000000 0.337694 0.770532
0.000000 0.311138 0.723794
0.000000 0.293393 0.727481
0.707728 0.162737 0.710494
1.000000 0.000000 0.677970
1.000000 0.321573 0.733661
1.000000 0.634028 0.775782
1.000000 0.825225 0.815151
0.000000 0.729867 0.917414
0.000000 0.693354 0.893133
0.000000 0.652151 0.876092
0.000000 0.635655 0.874920
0.562801 0.592521 0.864503
0.974309 0.527387 0.836587
1.000000 0.539951 0.800192
1.000000 0.703603 0.789668
1.000000 0.838891 0.817814
0.000000 0.920469 0.948484
0.000000 0.914370 0.942387
0.000000 0.888285 0.927369
0.000000 0.879099 0.925484
0.297126 0.863714 0.907106
0.846193 0.833163 0.883809
1.000000 0.818012 0.840685
1.000000 0.813086 0.798839
1.000000 0.868892 0.819077
0.000000 0.968177 0.940376
0.000000 0.967509 0.937459
0.000000 0.966473 0.933419
0.000000 0.963257 0.922566
0.224198 0.953271 0.904122
0.803628 0.937735 0.866263
0.973210 0.926364 0.830864
1.000000 0.922773 0.799959
1.000000 0.923807 0.827957
0.000000 1.000000 0.860585
0.000000 1.000000 0.855745
0.000000 1.000000 0.850638
0.273566 0.998323 0.838465
0.577003 0.991121 0.817253
0.807843 0.983000 0.788118
0.961661 0.974017 0.748336
1.000000 0.969426 0.731476
1.000000 0.970865 0.816274
0.722450 1.000000 0.616227
0.733798 1.000000 0.614355
0.745544 1.000000 0.612784
0.770864 1.000000 0.606228
0.820366 1.000000 0.601672
0.888149 1.000000 0.594655
0.972104 0.994562 0.584642
1.000000 0.990070 0.617613
1.000000 0.987709 0.737653
0.000000 0.000000 0.909323
0.000000 0.000000 0.225060
0.173599 0.000000 0.192423
0.390087 0.000000 0.181389
0.702221 0.000000 0.186122
1.000000 0.000000 0.213768
1.000000 0.000000 0.275396
1.000000 0.316365 0.767047
1.000000 0.777783 0.885348
0.000000 0.000000 0.909323
0.000000 0.000000 0.225078
0.172048 0.000000 0.192455
0.387490 0.000000 0.181440
0.702221 0.000000 0.186122
1.000000 0.000000 0.213768
1.000000 0.000000 0.275396
1.000000 0.394326 0.806939
1.000000 0.783456 0.886402
0.000000 0.098052 0.827485
0.000000 0.074037 0.588171
0.000000 0.058537 0.536775
0.253512 0.000000 0.499449
0.611431 0.000000 0.414277
1.000000 0.000000 0.226983
1.000000 0.000000 0.275396
1.000000 0.438956 0.825965
1.000000 0.788135 0.887334
0.000000 0.372827 0.921580
0.000000 0.320566 0.829128
0.000000 0.304793 0.802391
0.000000 0.290886 0.805266
0.527010 0.211658 0.794712
0.982401 0.000000 0.770744
1.000000 0.000000 0.671197
1.000000 0.520869 0.856359
1.000000 0.800491 0.892066
0.000000 0.616124 0.956488
0.000000 0.567077 0.911833
0.000000 0.548519 0.903343
0.000000 0.539728 0.903538
0.356091 0.508776 0.901433
0.939480 0.417040 0.890636
1.000000 0.382153 0.869034
1.000000 0.633265 0.888252
1.000000 0.822410 0.897202
0.000000 0.899510 0.980219
0.000000 0.882761 0.969686
0.000000 0.857708 0.961641
0.000000 0.849966 0.964387
0.000000 0.835600 0.961741
0.796219 0.799257 0.950074
1.000000 0.764167 0.935749
1.000000 0.774120 0.913580
1.000000 0.859158 0.904877
0.000000 0.992213 0.991130
0.000000 0.990118 0.990141
0.000000 0.973900 0.984049
0.000000 0.972727 0.983448
0.000000 0.961120 0.979594
0.717100 0.941062 0.969974
0.944970 0.925790 0.958034
1.000000 0.920471 0.936877
1.000000 0.916598 0.915145
0.000000 1.000000 0.987333
0.000000 1.000000 0.985583
0.000000 1.000000 0.985064
0.000000 1.000000 0.983122
0.382918 0.998018 0.978042
0.720431 0.989044 0.969175
0.923761 0.978703 0.953174
0.999521 0.973487 0.931990
1.000000 0.972522 0.915223
0.608879 1.000000 0.945274
0.633555 1.000000 0.943712
0.647017 1.000000 0.942157
0.678950 1.000000 0.939737
0.729842 1.000000 0.935630
0.818954 1.000000 0.924220
0.923710 0.999729 0.907203
0.994835 0.995278 0.886384
1.000000 0.993390 0.873935
0.000000 0.000000 0.540738
0.064204 0.000000 0.265919
0.220737 0.000000 0.252069
0.410853 0.000000 0.235250
0.676960 0.000000 0.233847
0.997364 0.000000 0.253358
1.000000 0.000000 0.311876
1.000000 0.338481 0.418838
1.000000 0.659405 0.908259
0.000000 0.000000 0.570077
0.060919 0.000000 0.265936
0.216796 0.000000 0.252132
0.410853 0.000000 0.235250
0.676960 0.000000 0.233847
0.997364 0.000000 0.253358
1.000000 0.000000 0.311876
1.000000 0.338481 0.418838
1.000000 0.681678 0.918120
0.000000 0.000000 0.678357
0.000000 0.000000 0.405115
0.144978 0.000000 0.364686
0.371010 0.000000 0.304104
0.672958 0.000000 0.233833
0.997364 0.000000 0.253358
1.000000 0.000000 0.311876
1.000000 0.338481 0.418838
1.000000 0.698501 0.924054
0.000000 0.335079 0.945165
0.000000 0.294184 0.867580
0.000000 0.286208 0.863402
0.000000 0.264768 0.859012
0.477744 0.182262 0.843529
0.880573 0.000000 0.806787
1.000000 0.000000 0.633398
1.000000 0.338481 0.418838
1.000000 0.723818 0.932376
0.000000 0.607036 0.987949
0.000000 0.545731 0.944873
0.000000 0.534596 0.944232
0.000000 0.529356 0.944184
0.242219 0.505205 0.942559
0.805799 0.427956 0.935822
1.000000 0.335924 0.925812
1.000000 0.381146 0.886605
1.000000 0.764878 0.947417
0.000000 0.831244 0.997840
0.000000 0.786545 0.978731
0.000000 0.777156 0.977217
0.000000 0.766680 0.978423
0.000000 0.747662 0.979286
0.670530 0.714781 0.977470
1.000000 0.669312 0.971218
1.000000 0.668080 0.960122
1.000000 0.826952 0.963429
0.000000 0.983161 1.000000
0.000000 0.970231 0.998645
0.000000 0.962110 0.996927
0.000000 0.960009 0.997598
0.000000 0.951602 0.997689
0.546099 0.932670 0.995324
0.923481 0.909056 0.991298
1.000000 0.893508 0.984464
1.000000 0.896764 0.974039
0.000000 1.000000 1.000000
0.000000 1.000000 1.000000
0.000000 1.000000 1.000000
0.000000 1.000000 1.000000
0.000000 1.000000 1.000000
0.567696 0.995393 1.000000
0.886636 0.980510 0.997065
0.986602 0.973599 0.991926
1.000000 0.970406 0.983798
0.451565 1.000000 1.000000
0.479836 1.000000 1.000000
0.514485 1.000000 1.000000
0.568024 1.000000 1.000000
0.648908 1.000000 1.000000
0.749394 1.000000 0.999486
0.884846 1.000000 0.995305
0.975667 0.996985 0.988065
1.000000 0.994720 0.980107
0.068782 0.000000 0.332515
0.224497 0.000000 0.318372
0.318986 0.000000 0.307240
0.486062 0.000000 0.300253
0.694199 0.000000 0.297602
0.963241 0.000000 0.308397
1.000000 0.000000 0.344746
1.000000 0.248409 0.445714
1.000000 0.631446 0.584143
0.064093 0.000000 0.332529
0.222356 0.000000 0.318400
0.319209 0.000000 0.304824
0.486062 0.000000 0.300253
0.694199 0.000000 0.297602
0.963241 0.000000 0.308397
1.000000 0.000000 0.344746
1.000000 0.248454 0.443561
1.000000 0.631446 0.584143
0.059100 0.000000 0.332546
0.220226 0.000000 0.318428
0.316528 0.000000 0.304863
0.482436 0.000000 0.300267
0.694199 0.000000 0.297602
0.963241 0.000000 0.308397
1.000000 0.000000 0.344746
1.000000 0.248454 0.443561
1.000000 0.631446 0.584143
0.000000 0.176543 0.864667
0.000000 0.164899 0.851067
0.000000 0.152742 0.841397
0.226922 0.099709 0.822496
0.540894 0.000000 0.782091
0.879817 0.000000 0.574928
1.000000 0.000000 0.344301
1.000000 0.248454 0.443561
1.000000 0.631446 0.584143
0.000000 0.525524 0.975885
0.000000 0.510873 0.974813
0.000000 0.517420 0.973453
0.000000 0.500340 0.971036
0.287472 0.483654 0.969290
0.762917 0.411087 0.964767
1.000000 0.277773 0.951296
1.000000 0.227399 0.909169
1.000000 0.631446 0.584143
0.000000 0.766119 0.997539
0.000000 0.765758 0.995963
0.000000 0.755826 0.997082
0.000000 0.754341 0.996894
0.000000 0.738728 0.996876
0.609784 0.712505 0.995839
0.958160 0.665343 0.993307
1.000000 0.634847 0.988822
1.000000 0.688091 0.969443
0.000000 0.925147 1.000000
0.000000 0.916152 1.000000
0.000000 0.917348 1.000000
0.000000 0.909926 1.000000
0.000000 0.903486 1.000000
0.459029 0.886731 1.000000
0.865949 0.862210 1.000000
1.000000 0.838801 1.000000
1.000000 0.842353 0.995695
0.000000 1.000000 1.000000
0.000000 1.000000 1.000000
0.000000 1.000000 1.000000
0.000000 1.000000 1.000000
0.000000 0.999049 1.000000
0.454647 0.988942 1.000000
0.810612 0.974797 1.000000
0.976491 0.960986 1.000000
1.000000 0.954204 1.000000
0.154708 1.000000 1.000000
0.154708 1.000000 1.000000
0.000000 1.000000 1.000000
0.000000 1.000000 1.000000
0.268465 1.000000 1.000000
0.599296 1.000000 1.000000
0.814294 1.000000 1.000000
0.958813 0.997394 1.000000
1.000000 0.994185 1.000000
