Assets/Lutify-Free-LUTs-Pack/Lutify Free LUTs Pack/Cine World Pro Warm - Amy/Lutify.me-Amy-LogC4-to-Rec709.cube
# Created with: fylm.ai - Colour Grading and Collaboration Software in Cloud 
# Website: https://fylm.ai 
# META
# Option: Gamut compress
# Block 1: IDT | Arri Alexa 35 - LogC4
# Block 2: colourMatch | Blending Mode: Normal | {"ColorSpace":0,"CrossCovarianceLimit":50,"ReshapingIterations":1,"PercentSaturationShift":100,"PercentShadingShift":100,"ExtraShading":true,"PercentTint":100,"PercentModified":100}
# Block 3: LUT | Filmic Curve Response: Standard Contrast 1 (100%)
# Block 4: LUT | Illuminant: D60 (100%)
# Block 5: hueSaturation | Blending Mode: Normal | {"hue":0,"saturation":-0.15}
# Block 6: logPrimaries | Blending Mode: Normal | {"wheels":{"shadows":{"Y":"0","R":"1","G":"1","B":"1"},"midtones":{"Y":"0","R":"1","G":"1","B":"1"},"highlights":{"Y":"0","R":"1","G":"1","B":"1"},"offset":{"Y":"0","R":"1","G":"1","B":"1"}},"sliders":{"shadows":{"Y":0,"R":-0.097,"G":0,"B":0.158},"midtones":{"Y":0,"R":0.024,"G":0.024,"B":-0.036},"highlights":{"Y":0,"R":0.154,"G":-0.084,"B":-0.024},"offset":{"Y":0.048,"R":0,"G":0,"B":0}}}
# Block 7: smartCurves | Blending Mode: Average | [[{"x":0,"y":0},{"x":0.11328125,"y":0.085540771484375},{"x":0.21484375,"y":0.218353271484375},{"x":0.37109375,"y":0.382415771484375},{"x":0.62109375,"y":0.589447021484375},{"x":0.8125,"y":0.765228271484375},{"x":1,"y":1}],[{"x":0,"y":0},{"x":1,"y":1}],[{"x":0,"y":0},{"x":1,"y":1}],[{"x":0,"y":0},{"x":1,"y":1}]]
# Block 8: LUT | Neutral Tint: Teal Tint 4 (100%)
# Block 9: contrast | Blending Mode: Normal | {"contrast":0.1}
# Block 10: ODT | Rec709
TITLE "Lutify.me-Amy-LogC4-to-Rec709" 
LUT_3D_SIZE 5
0.000000 0.000000 0.000000
0.486360 0.000000 0.000000
1.000000 0.070291 0.202056
1.000000 0.914361 0.856407
1.000000 1.000000 1.000000
0.000000 0.291187 0.000000
0.479736 0.206235 0.000000
1.000000 0.306916 0.208228
1.000000 0.916314 0.857565
1.000000 1.000000 1.000000
0.000000 0.924366 0.488291
0.000000 0.920559 0.437769
1.000000 0.877858 0.290368
1.000000 0.935428 0.865963
1.000000 1.000000 1.000000
0.800413 1.000000 0.973636
0.811023 1.000000 0.972695
0.898567 1.000000 0.961649
1.000000 1.000000 0.929837
1.000000 1.000000 1.000000
0.995738 1.000000 1.000000
0.995738 1.000000 1.000000
0.997424 1.000000 1.000000
1.000000 1.000000 1.000000
1.000000 1.000000 1.000000
0.000000 0.000000 0.208495
0.382220 0.000000 0.065027
1.000000 0.063588 0.284911
1.000000 0.914338 0.859859
1.000000 1.000000 1.000000
0.000000 0.366808 0.455999
0.206430 0.295829 0.360421
1.000000 0.297181 0.305036
1.000000 0.915499 0.858840
1.000000 1.000000 1.000000
0.000000 0.926788 0.665474
0.000000 0.924728 0.603130
0.992015 0.880797 0.435273
1.000000 0.935408 0.869256
1.000000 1.000000 1.000000
0.801014 1.000000 0.976365
0.810903 1.000000 0.975002
0.898343 1.000000 0.964934
1.000000 1.000000 0.931791
1.000000 1.000000 1.000000
0.995738 1.000000 1.000000
0.995738 1.000000 1.000000
0.997424 1.000000 1.000000
1.000000 1.000000 1.000000
1.000000 1.000000 1.000000
0.000000 0.220432 0.682362
0.000000 0.199564 0.671297
1.000000 0.000000 0.507103
1.000000 0.911045 0.895916
1.000000 1.000000 1.000000
0.000000 0.363647 0.788161
0.000000 0.344202 0.791750
1.000000 0.000000 0.726676
1.000000 0.912394 0.896867
1.000000 1.000000 1.000000
0.000000 0.960342 0.969887
0.000000 0.944920 0.966938
0.916682 0.899471 0.936715
1.000000 0.934534 0.908300
1.000000 1.000000 1.000000
0.790718 1.000000 0.993638
0.798986 1.000000 0.993076
0.888913 1.000000 0.986724
1.000000 1.000000 0.958874
1.000000 1.000000 1.000000
0.995502 1.000000 1.000000
0.995502 1.000000 1.000000
0.997183 1.000000 1.000000
1.000000 1.000000 1.000000
1.000000 1.000000 1.000000
0.000000 0.863933 1.000000
0.272989 0.859720 1.000000
0.850502 0.828426 1.000000
1.000000 0.833205 0.989006
1.000000 1.000000 1.000000
0.000000 0.870076 1.000000
0.260912 0.867725 1.000000
0.847649 0.835044 1.000000
1.000000 0.840711 0.991029
1.000000 1.000000 1.000000
0.000000 0.941510 1.000000
0.000000 0.938372 1.000000
0.808341 0.915211 1.000000
1.000000 0.897521 1.000000
1.000000 1.000000 1.000000
0.615616 1.000000 1.000000
0.631536 1.000000 1.000000
0.795395 1.000000 1.000000
1.000000 1.000000 1.000000
1.000000 1.000000 1.000000
0.992994 1.000000 1.000000
0.992994 1.000000 1.000000
0.994302 1.000000 1.000000
1.000000 1.000000 1.000000
1.000000 1.000000 1.000000
0.962930 0.998838 1.000000
0.963595 0.998796 1.000000
0.971012 0.998335 1.000000
1.000000 0.994940 1.000000
1.000000 0.983105 1.000000
0.962930 0.998838 1.000000
0.963595 0.998796 1.000000
0.970927 0.998556 1.000000
1.000000 0.995173 1.000000
1.000000 0.983284 1.000000
0.962610 0.999915 1.000000
0.962610 0.999915 1.000000
0.970631 0.999415 1.000000
1.000000 0.995877 1.000000
1.000000 0.985033 1.000000
0.957495 1.000000 1.000000
0.958131 1.000000 1.000000
0.965295 1.000000 1.000000
1.000000 1.000000 1.000000
1.000000 0.999134 1.000000
0.924832 1.000000 1.000000
0.925630 1.000000 1.000000
0.936411 1.000000 1.000000
0.990623 1.000000 1.000000
1.000000 1.000000 1.000000
