Assets/Lutify-Free-LUTs-Pack/Lutify Free LUTs Pack/Cine World Pro Warm - Amy/Lutify.me-Amy-SLog2-to-Rec709.cube
# Created with: fylm.ai - Colour Grading and Collaboration Software in Cloud 
# Website: https://fylm.ai 
# META
# Option: Gamut compress
# Block 1: IDT | Sony S-Log2 S-Gamut Daylight 10-bit
# Block 2: colourMatch | Blending Mode: Normal | {"ColorSpace":0,"CrossCovarianceLimit":50,"ReshapingIterations":1,"PercentSaturationShift":100,"PercentShadingShift":100,"ExtraShading":true,"PercentTint":100,"PercentModified":100}
# Block 3: LUT | Filmic Curve Response: Standard Contrast 1 (100%)
# Block 4: LUT | Illuminant: D60 (100%)
# Block 5: hueSaturation | Blending Mode: Normal | {"hue":0,"saturation":-0.15}
# Block 6: logPrimaries | Blending Mode: Normal | {"wheels":{"shadows":{"Y":"0","R":"1","G":"1","B":"1"},"midtones":{"Y":"0","R":"1","G":"1","B":"1"},"highlights":{"Y":"0","R":"1","G":"1","B":"1"},"offset":{"Y":"0","R":"1","G":"1","B":"1"}},"sliders":{"shadows":{"Y":0,"R":-0.097,"G":0,"B":0.158},"midtones":{"Y":0,"R":0.024,"G":0.024,"B":-0.036},"highlights":{"Y":0,"R":0.154,"G":-0.084,"B":-0.024},"offset":{"Y":0.048,"R":0,"G":0,"B":0}}}
# Block 7: smartCurves | Blending Mode: Average | [[{"x":0,"y":0},{"x":0.11328125,"y":0.085540771484375},{"x":0.21484375,"y":0.218353271484375},{"x":0.37109375,"y":0.382415771484375},{"x":0.62109375,"y":0.589447021484375},{"x":0.8125,"y":0.765228271484375},{"x":1,"y":1}],[{"x":0,"y":0},{"x":1,"y":1}],[{"x":0,"y":0},{"x":1,"y":1}],[{"x":0,"y":0},{"x":1,"y":1}]]
# Block 8: LUT | Neutral Tint: Teal Tint 4 (100%)
# Block 9: contrast | Blending Mode: Normal | {"contrast":0.1}
# Block 10: ODT | Rec709
TITLE "Lutify.me-Amy-SLog2-to-Rec709" 
LUT_3D_SIZE 5
0.000000 0.000000 0.000000
0.431766 0.000000 0.000000
0.899015 0.000000 0.063571
1.000000 0.459108 0.387547
1.000000 0.862026 0.791890
0.000000 0.228601 0.000000
0.434243 0.119008 0.000000
0.898448 0.000000 0.000000
1.000000 0.500591 0.390876
1.000000 0.867026 0.792383
0.000000 0.606148 0.000000
0.000000 0.542970 0.000000
0.953991 0.526587 0.000000
1.000000 0.691448 0.390413
1.000000 0.878822 0.795954
0.000000 0.924646 0.000000
0.000000 0.924646 0.000000
0.695657 0.857781 0.000000
1.000000 0.900989 0.201478
1.000000 0.936042 0.811980
0.000000 1.000000 0.233400
0.000000 1.000000 0.233400
0.000000 1.000000 0.233400
0.890430 0.991268 0.363008
1.000000 0.989277 0.771394
0.000000 0.000000 0.270426
0.333487 0.000000 0.056475
0.870550 0.000000 0.190341
1.000000 0.456400 0.440873
1.000000 0.863107 0.800929
0.000000 0.268619 0.346997
0.136873 0.223076 0.275732
0.868111 0.000000 0.219807
1.000000 0.498280 0.441942
1.000000 0.866493 0.800876
0.000000 0.672624 0.407336
0.000000 0.639326 0.242753
0.798995 0.627026 0.109988
1.000000 0.693225 0.452564
1.000000 0.878757 0.806577
0.000000 0.937757 0.462536
0.000000 0.938982 0.488118
0.000000 0.932174 0.025789
1.000000 0.907004 0.351671
1.000000 0.936001 0.820032
0.000000 1.000000 0.233400
0.000000 1.000000 0.257396
0.000000 1.000000 0.380887
0.861051 0.996364 0.502270
1.000000 0.989217 0.781358
0.000000 0.000000 0.308206
0.199276 0.000000 0.199742
0.840978 0.000000 0.293831
1.000000 0.432008 0.623149
1.000000 0.864671 0.831782
0.000000 0.214564 0.611173
0.000000 0.168422 0.491656
0.838079 0.000000 0.509662
1.000000 0.481281 0.632533
1.000000 0.865804 0.831749
0.000000 0.750438 0.836806
0.000000 0.700908 0.798817
0.619839 0.662462 0.748708
1.000000 0.681688 0.672826
1.000000 0.880271 0.835084
0.000000 0.965069 0.877640
0.000000 0.965060 0.879192
0.000000 0.947541 0.749826
0.985983 0.914944 0.664723
1.000000 0.934574 0.852394
0.000000 1.000000 0.927157
0.000000 1.000000 0.929032
0.000000 1.000000 0.932729
0.815080 0.999808 0.751378
1.000000 0.989923 0.826813
0.000000 0.204317 0.712822
0.000000 0.202160 0.712465
0.735818 0.000000 0.725614
1.000000 0.182600 0.795584
1.000000 0.854668 0.913666
0.000000 0.318163 0.796032
0.000000 0.316574 0.801733
0.694242 0.233859 0.808999
1.000000 0.309259 0.830958
1.000000 0.858280 0.914543
0.000000 0.668070 0.952320
0.000000 0.600076 0.906834
0.430141 0.576167 0.910026
1.000000 0.569689 0.894517
1.000000 0.872447 0.919908
0.000000 0.985734 0.987206
0.000000 0.985729 0.987634
0.000000 0.961547 0.978500
0.941253 0.922862 0.955319
1.000000 0.931625 0.933993
0.000000 1.000000 0.994955
0.000000 1.000000 0.994955
0.000000 1.000000 0.995239
0.753532 1.000000 0.960986
1.000000 0.992318 0.938061
0.000000 0.604442 0.980304
0.000000 0.597981 0.980938
0.573076 0.586276 0.979076
1.000000 0.557825 0.980582
1.000000 0.777334 0.979748
0.000000 0.638731 0.983679
0.000000 0.628814 0.985226
0.538860 0.618613 0.983498
1.000000 0.586896 0.982814
1.000000 0.785121 0.980988
0.000000 0.743278 0.992539
0.000000 0.741205 0.991723
0.410084 0.729767 0.992179
1.000000 0.696290 0.989925
1.000000 0.814692 0.987034
0.000000 0.948022 1.000000
0.000000 0.935353 1.000000
0.000000 0.924871 1.000000
0.891538 0.890572 1.000000
1.000000 0.899477 0.997337
0.000000 1.000000 1.000000
0.000000 1.000000 1.000000
0.000000 1.000000 1.000000
0.611164 1.000000 1.000000
1.000000 0.992655 1.000000
