Assets/Lutify-Free-LUTs-Pack/Lutify Free LUTs Pack/Cine World Pro Warm - Amy/Lutify.me-Amy-SLog1-to-Rec709.cube
# Created with: fylm.ai - Colour Grading and Collaboration Software in Cloud 
# Website: https://fylm.ai 
# META
# Option: Gamut compress
# Block 1: IDT | Sony S-Log S-Gamut 10-bit
# Block 2: colourMatch | Blending Mode: Normal | {"ColorSpace":0,"CrossCovarianceLimit":50,"ReshapingIterations":1,"PercentSaturationShift":100,"PercentShadingShift":100,"ExtraShading":true,"PercentTint":100,"PercentModified":100}
# Block 3: LUT | Filmic Curve Response: Standard Contrast 1 (100%)
# Block 4: LUT | Illuminant: D60 (100%)
# Block 5: hueSaturation | Blending Mode: Normal | {"hue":0,"saturation":-0.15}
# Block 6: logPrimaries | Blending Mode: Normal | {"wheels":{"shadows":{"Y":"0","R":"1","G":"1","B":"1"},"midtones":{"Y":"0","R":"1","G":"1","B":"1"},"highlights":{"Y":"0","R":"1","G":"1","B":"1"},"offset":{"Y":"0","R":"1","G":"1","B":"1"}},"sliders":{"shadows":{"Y":0,"R":-0.097,"G":0,"B":0.158},"midtones":{"Y":0,"R":0.024,"G":0.024,"B":-0.036},"highlights":{"Y":0,"R":0.154,"G":-0.084,"B":-0.024},"offset":{"Y":0.048,"R":0,"G":0,"B":0}}}
# Block 7: smartCurves | Blending Mode: Average | [[{"x":0,"y":0},{"x":0.11328125,"y":0.085540771484375},{"x":0.21484375,"y":0.218353271484375},{"x":0.37109375,"y":0.382415771484375},{"x":0.62109375,"y":0.589447021484375},{"x":0.8125,"y":0.765228271484375},{"x":1,"y":1}],[{"x":0,"y":0},{"x":1,"y":1}],[{"x":0,"y":0},{"x":1,"y":1}],[{"x":0,"y":0},{"x":1,"y":1}]]
# Block 8: LUT | Neutral Tint: Teal Tint 4 (100%)
# Block 9: contrast | Blending Mode: Normal | {"contrast":0.1}
# Block 10: ODT | Rec709
TITLE "Lutify.me-Amy-SLog1-to-Rec709" 
LUT_3D_SIZE 5
0.000000 0.000000 0.000000
0.328399 0.000000 0.000000
0.754195 0.000000 0.000000
1.000000 0.112563 0.174452
1.000000 0.755428 0.577852
0.000000 0.189764 0.000000
0.298950 0.118793 0.000000
0.762537 0.000000 0.000000
1.000000 0.244143 0.177538
1.000000 0.762830 0.577689
0.000000 0.540178 0.000000
0.000000 0.539679 0.000000
0.755534 0.483899 0.000000
1.000000 0.521174 0.182035
1.000000 0.787428 0.592311
0.000000 0.912539 0.496881
0.000000 0.911712 0.453073
0.000000 0.906719 0.348199
0.994389 0.870163 0.253485
1.000000 0.888871 0.646218
0.000000 1.000000 0.880817
0.000000 1.000000 0.876696
0.473212 1.000000 0.857490
0.864009 0.989918 0.806490
1.000000 0.980368 0.772264
0.000000 0.000000 0.146354
0.235560 0.000000 0.050738
0.695874 0.000000 0.083295
1.000000 0.133165 0.226267
1.000000 0.755352 0.592987
0.000000 0.222739 0.287999
0.095295 0.168488 0.216695
0.695002 0.000000 0.121513
1.000000 0.244455 0.229638
1.000000 0.760904 0.595418
0.000000 0.579775 0.432576
0.000000 0.565189 0.292170
0.656937 0.534339 0.133248
1.000000 0.523062 0.256914
1.000000 0.786604 0.603923
0.000000 0.915449 0.601227
0.000000 0.917827 0.557203
0.000000 0.908515 0.459781
0.987971 0.871829 0.348013
1.000000 0.888606 0.660762
0.000000 1.000000 0.892266
0.000000 1.000000 0.887308
0.467147 1.000000 0.871079
0.863009 0.990263 0.821470
1.000000 0.980331 0.779832
0.000000 0.000000 0.235728
0.139949 0.000000 0.147912
0.722551 0.000000 0.127547
1.000000 0.000000 0.422349
1.000000 0.748109 0.651896
0.000000 0.154805 0.456976
0.000000 0.120527 0.394123
0.675581 0.000000 0.373045
1.000000 0.217260 0.442582
1.000000 0.756747 0.655361
0.000000 0.663708 0.769588
0.000000 0.600534 0.717131
0.500125 0.567732 0.658562
1.000000 0.518881 0.509928
1.000000 0.784738 0.669584
0.000000 0.922112 0.847291
0.000000 0.920090 0.826617
0.000000 0.917693 0.762533
0.959688 0.882838 0.630429
1.000000 0.886762 0.722766
0.000000 1.000000 0.925659
0.000000 1.000000 0.921584
0.445124 1.000000 0.905100
0.854440 0.991172 0.864218
1.000000 0.980974 0.818707
0.000000 0.146017 0.594409
0.000000 0.136970 0.590626
0.576873 0.000000 0.576043
1.000000 0.000000 0.509129
1.000000 0.734217 0.822794
0.000000 0.250353 0.703945
0.000000 0.244866 0.704009
0.553825 0.134069 0.697907
1.000000 0.000000 0.655734
1.000000 0.742291 0.826346
0.000000 0.526576 0.858975
0.000000 0.519024 0.859323
0.357563 0.490767 0.858640
1.000000 0.383627 0.820822
1.000000 0.773650 0.837765
0.000000 0.954885 0.969001
0.000000 0.940483 0.963810
0.000000 0.928528 0.960046
0.906390 0.892108 0.929213
1.000000 0.884157 0.875975
0.000000 1.000000 0.986695
0.000000 1.000000 0.985395
0.345819 1.000000 0.981215
0.823567 0.993827 0.962556
1.000000 0.983674 0.925963
0.000000 0.493065 0.946526
0.000000 0.494948 0.946140
0.476400 0.474535 0.946239
1.000000 0.352881 0.940766
1.000000 0.518965 0.907948
0.000000 0.537422 0.954601
0.000000 0.532008 0.954575
0.435200 0.517374 0.955679
1.000000 0.408750 0.948444
1.000000 0.548328 0.919645
0.000000 0.661572 0.973346
0.000000 0.656324 0.974177
0.302086 0.644741 0.975851
0.988917 0.561190 0.969091
1.000000 0.650726 0.949103
0.000000 0.894007 0.995404
0.000000 0.894588 0.995564
0.000000 0.879723 0.995248
0.863062 0.846796 0.991866
1.000000 0.834159 0.982002
0.000000 1.000000 1.000000
0.000000 1.000000 1.000000
0.000000 1.000000 1.000000
0.736680 0.999480 1.000000
0.997543 0.985006 0.999000
