Assets/Lutify-Free-LUTs-Pack/Lutify Free LUTs Pack/Cine World Pro Warm - Amy/Lutify.me-Amy-ProTune-to-Rec709.cube
# Created with: fylm.ai - Colour Grading and Collaboration Software in Cloud 
# Website: https://fylm.ai 
# META
# Option: Gamut compress
# Block 1: IDT | GoPro ProTune Native ProTune Flat
# Block 2: colourMatch | Blending Mode: Normal | {"ColorSpace":0,"CrossCovarianceLimit":50,"ReshapingIterations":1,"PercentSaturationShift":100,"PercentShadingShift":100,"ExtraShading":true,"PercentTint":100,"PercentModified":100}
# Block 3: LUT | Filmic Curve Response: Standard Contrast 1 (100%)
# Block 4: LUT | Illuminant: D60 (100%)
# Block 5: hueSaturation | Blending Mode: Normal | {"hue":0,"saturation":-0.15}
# Block 6: logPrimaries | Blending Mode: Normal | {"wheels":{"shadows":{"Y":"0","R":"1","G":"1","B":"1"},"midtones":{"Y":"0","R":"1","G":"1","B":"1"},"highlights":{"Y":"0","R":"1","G":"1","B":"1"},"offset":{"Y":"0","R":"1","G":"1","B":"1"}},"sliders":{"shadows":{"Y":0,"R":-0.097,"G":0,"B":0.158},"midtones":{"Y":0,"R":0.024,"G":0.024,"B":-0.036},"highlights":{"Y":0,"R":0.154,"G":-0.084,"B":-0.024},"offset":{"Y":0.048,"R":0,"G":0,"B":0}}}
# Block 7: smartCurves | Blending Mode: Average | [[{"x":0,"y":0},{"x":0.11328125,"y":0.085540771484375},{"x":0.21484375,"y":0.218353271484375},{"x":0.37109375,"y":0.382415771484375},{"x":0.62109375,"y":0.589447021484375},{"x":0.8125,"y":0.765228271484375},{"x":1,"y":1}],[{"x":0,"y":0},{"x":1,"y":1}],[{"x":0,"y":0},{"x":1,"y":1}],[{"x":0,"y":0},{"x":1,"y":1}]]
# Block 8: LUT | Neutral Tint: Teal Tint 4 (100%)
# Block 9: contrast | Blending Mode: Normal | {"contrast":0.1}
# Block 10: ODT | Rec709
TITLE "Lutify.me-Amy-ProTune-to-Rec709" 
LUT_3D_SIZE 33
0.000000 0.000000 0.000000
0.000000 0.000000 0.000000
0.000000 0.000000 0.000000
0.000000 0.000000 0.000000
0.000000 0.000000 0.000000
0.000000 0.000000 0.000000
0.003228 0.000000 0.000000
0.047133 0.000000 0.000000
0.070922 0.000000 0.000000
0.095266 0.000000 0.000000
0.114547 0.000000 0.000000
0.132080 0.000000 0.000000
0.149077 0.000000 0.000000
0.169481 0.000000 0.000000
0.195601 0.000000 0.000000
0.225663 0.000000 0.000000
0.253363 0.000000 0.000000
0.276492 0.000000 0.000000
0.304468 0.000000 0.009746
0.328649 0.000000 0.017088
0.362991 0.000000 0.020943
0.395876 0.000000 0.024813
0.438757 0.000000 0.027806
0.483336 0.000000 0.029096
0.523961 0.000000 0.031714
0.567105 0.000000 0.035540
0.607534 0.000000 0.040637
0.657189 0.000000 0.045355
0.699397 0.000000 0.052523
0.754918 0.000000 0.062291
0.806475 0.000000 0.071136
0.861348 0.000000 0.082823
0.907825 0.000000 0.096382
0.000000 0.000000 0.000000
0.000000 0.000000 0.000000
0.000000 0.000000 0.000000
0.000000 0.000000 0.000000
0.000000 0.000000 0.000000
0.000000 0.000000 0.000000
0.009827 0.000000 0.000000
0.049678 0.000000 0.000000
0.074013 0.000000 0.000000
0.096056 0.000000 0.000000
0.115515 0.000000 0.000000
0.132126 0.000000 0.000000
0.149080 0.000000 0.000000
0.169480 0.000000 0.000000
0.195593 0.000000 0.000000
0.225655 0.000000 0.000000
0.249700 0.000000 0.000000
0.274484 0.000000 0.001043
0.304463 0.000000 0.009745
0.328651 0.000000 0.017162
0.362999 0.000000 0.021027
0.393006 0.000000 0.024978
0.432330 0.000000 0.028141
0.479753 0.000000 0.029939
0.520144 0.000000 0.032528
0.567117 0.000000 0.036102
0.607534 0.000000 0.040608
0.648869 0.000000 0.046232
0.699418 0.000000 0.053807
0.754923 0.000000 0.062954
0.806490 0.000000 0.072609
0.861360 0.000000 0.084455
0.907810 0.000000 0.097229
0.000000 0.000000 0.000000
0.000000 0.000000 0.000000
0.000000 0.000000 0.000000
0.000000 0.000000 0.000000
0.000000 0.000000 0.006450
0.000000 0.000000 0.004759
0.019644 0.000000 0.000000
0.052940 0.000000 0.000000
0.076095 0.000000 0.000000
0.098148 0.000000 0.000000
0.117799 0.000000 0.000000
0.132893 0.000000 0.000000
0.149021 0.000000 0.000000
0.169445 0.000000 0.000000
0.198377 0.000000 0.000000
0.225640 0.000000 0.000000
0.244317 0.000000 0.000000
0.272485 0.000000 0.002895
0.304461 0.000000 0.009993
0.328658 0.000000 0.017309
0.363019 0.000000 0.022117
0.387357 0.000000 0.026098
0.429167 0.000000 0.028975
0.476175 0.000000 0.030123
0.520168 0.000000 0.033721
0.563159 0.000000 0.036855
0.603476 0.000000 0.041317
0.648879 0.000000 0.046793
0.699412 0.000000 0.053736
0.754927 0.000000 0.063609
0.802203 0.000000 0.073351
0.861363 0.000000 0.085265
0.907810 0.000000 0.099010
0.000000 0.000000 0.000000
0.000000 0.000000 0.000000
0.000000 0.000000 0.000000
0.000000 0.000000 0.000000
0.000000 0.000000 0.010440
0.000000 0.000000 0.013763
0.014852 0.000000 0.000000
0.058337 0.000000 0.000000
0.079501 0.000000 0.000000
0.099697 0.000000 0.000000
0.115894 0.000000 0.000000
0.131896 0.000000 0.000000
0.147962 0.000000 0.000000
0.168265 0.000000 0.000000
0.195572 0.000000 0.000000
0.225611 0.000000 0.000000
0.244294 0.000000 0.000000
0.270509 0.000000 0.004516
0.302376 0.000000 0.010550
0.328666 0.000000 0.017442
0.363015 0.000000 0.022123
0.387348 0.000000 0.026057
0.426013 0.000000 0.029084
0.476183 0.000000 0.030679
0.520177 0.000000 0.034253
0.563172 0.000000 0.037363
0.603487 0.000000 0.041832
0.648887 0.000000 0.047321
0.695202 0.000000 0.055094
0.750669 0.000000 0.065041
0.802219 0.000000 0.074844
0.861345 0.000000 0.085209
0.907802 0.000000 0.100795
0.000000 0.002792 0.000000
0.000000 0.000000 0.000000
0.000000 0.000000 0.000000
0.000000 0.000000 0.000000
0.000000 0.000000 0.014361
0.000000 0.000000 0.020130
0.017715 0.000000 0.002035
0.061847 0.000000 0.000000
0.080700 0.000000 0.000000
0.098160 0.000000 0.000000
0.114348 0.000000 0.000000
0.128983 0.000000 0.000000
0.147706 0.000000 0.000000
0.168110 0.000000 0.000000
0.194148 0.000000 0.000000
0.222381 0.000000 0.000000
0.244303 0.000000 0.000000
0.268565 0.000000 0.005939
0.300311 0.000000 0.011181
0.328675 0.000000 0.018772
0.360435 0.000000 0.023191
0.384563 0.000000 0.026922
0.426014 0.000000 0.029670
0.469128 0.000000 0.031643
0.516469 0.000000 0.035554
0.559264 0.000000 0.039716
0.599463 0.000000 0.043625
0.644755 0.000000 0.048624
0.695233 0.000000 0.057031
0.750670 0.000000 0.065685
0.802219 0.000000 0.075565
0.857300 0.000000 0.087658
0.904105 0.000000 0.102497
0.000000 0.028143 0.000000
0.000000 0.027609 0.000000
0.000000 0.024432 0.000000
0.000000 0.023139 0.000000
0.000000 0.022207 0.000000
0.000000 0.020280 0.011048
0.024040 0.016358 0.000000
0.059813 0.000000 0.000000
0.080516 0.000000 0.000000
0.100200 0.000000 0.000000
0.115716 0.000000 0.000000
0.129220 0.000000 0.000000
0.147454 0.000000 0.000000
0.168078 0.000000 0.000000
0.194141 0.000000 0.000000
0.222390 0.000000 0.000000
0.244330 0.000000 0.000000
0.268584 0.000000 0.006561
0.300306 0.000000 0.011282
0.326364 0.000000 0.018878
0.360418 0.000000 0.023093
0.384538 0.000000 0.026774
0.422893 0.000000 0.030378
0.469144 0.000000 0.032711
0.512784 0.000000 0.037293
0.559314 0.000000 0.041730
0.599497 0.000000 0.045230
0.644761 0.000000 0.049132
0.695231 0.000000 0.057573
0.746425 0.000000 0.067824
0.802229 0.000000 0.077051
0.861349 0.000000 0.089299
0.907765 0.000000 0.104383
0.000000 0.045427 0.000000
0.000000 0.045110 0.000000
0.000000 0.043889 0.000000
0.000000 0.041790 0.000000
0.000000 0.039473 0.000000
0.000000 0.037244 0.000000
0.032823 0.033761 0.000000
0.057144 0.030773 0.000000
0.078649 0.025597 0.000000
0.097549 0.009721 0.000000
0.113598 0.000000 0.000000
0.131038 0.000000 0.000000
0.147293 0.000000 0.000000
0.168751 0.000000 0.000000
0.192586 0.000000 0.000000
0.220782 0.000000 0.000000
0.249720 0.000000 0.000000
0.270548 0.000000 0.006234
0.298220 0.000000 0.011339
0.326320 0.000000 0.018604
0.357806 0.000000 0.022913
0.381732 0.000000 0.026628
0.422860 0.000000 0.030067
0.465670 0.000000 0.033866
0.512804 0.000000 0.038224
0.551446 0.000000 0.042426
0.599532 0.000000 0.046857
0.640633 0.000000 0.050385
0.691025 0.000000 0.058922
0.746438 0.000000 0.069196
0.802255 0.000000 0.080097
0.865378 0.000000 0.091847
0.907744 0.000000 0.107155
0.000000 0.057885 0.000000
0.000000 0.057002 0.000000
0.000000 0.055593 0.000000
0.000000 0.055032 0.000000
0.000000 0.054659 0.000000
0.000000 0.052589 0.000000
0.035038 0.050919 0.000000
0.054691 0.048192 0.000000
0.073958 0.045259 0.000000
0.095134 0.039694 0.000000
0.112920 0.031613 0.000000
0.132349 0.018823 0.000000
0.152400 0.000000 0.000000
0.175990 0.000000 0.000000
0.201889 0.000000 0.000000
0.225231 0.000000 0.000000
0.249510 0.000000 0.000000
0.274402 0.000000 0.005743
0.300161 0.000000 0.011956
0.323964 0.000000 0.018035
0.357743 0.000000 0.022313
0.381697 0.000000 0.026956
0.422838 0.000000 0.029706
0.465673 0.000000 0.034159
0.509105 0.000000 0.038701
0.551469 0.000000 0.043314
0.591460 0.000000 0.048131
0.640649 0.000000 0.051510
0.691036 0.000000 0.060146
0.746446 0.000000 0.071218
0.802239 0.000000 0.081535
0.865349 0.000000 0.094327
0.907715 0.000000 0.109993
0.000000 0.071082 0.000000
0.000000 0.068768 0.000000
0.000000 0.067642 0.000000
0.000000 0.067149 0.000000
0.000000 0.065473 0.000000
0.000000 0.064020 0.000000
0.035606 0.062337 0.000000
0.058646 0.059325 0.000000
0.076921 0.056912 0.000000
0.095407 0.053675 0.000000
0.116360 0.047692 0.000000
0.138241 0.041152 0.000000
0.158069 0.031810 0.000000
0.179933 0.000000 0.000000
0.204275 0.000000 0.000000
0.231591 0.000000 0.000000
0.253009 0.000000 0.000000
0.272292 0.000000 0.000000
0.306324 0.000000 0.010940
0.326153 0.000000 0.016661
0.360288 0.000000 0.023441
0.387249 0.000000 0.027659
0.422850 0.000000 0.030618
0.465681 0.000000 0.034354
0.509111 0.000000 0.038946
0.547573 0.000000 0.044335
0.591464 0.000000 0.048511
0.640686 0.000000 0.053885
0.691049 0.000000 0.061976
0.746418 0.000000 0.071738
0.802224 0.000000 0.083778
0.861291 0.000000 0.095939
0.907674 0.000000 0.111876
0.000000 0.083840 0.000000
0.000000 0.083840 0.000000
0.000000 0.082525 0.000000
0.000000 0.080515 0.000000
0.000000 0.078370 0.000000
0.000000 0.076707 0.000000
0.034943 0.074313 0.000000
0.060256 0.072256 0.000000
0.080393 0.069811 0.000000
0.098688 0.068196 0.000000
0.120795 0.064081 0.000000
0.144082 0.057695 0.000000
0.164774 0.050698 0.000000
0.188377 0.040367 0.000000
0.213035 0.000000 0.000000
0.238365 0.000000 0.000000
0.262439 0.000000 0.000000
0.285709 0.000000 0.000000
0.308384 0.000000 0.000000
0.333093 0.000000 0.013521
0.362854 0.000000 0.020154
0.392918 0.000000 0.026650
0.429127 0.000000 0.029641
0.465683 0.000000 0.033855
0.512841 0.000000 0.039960
0.559380 0.000000 0.044066
0.599566 0.000000 0.049096
0.640699 0.000000 0.055491
0.691056 0.000000 0.063786
0.746411 0.000000 0.073748
0.797892 0.000000 0.084389
0.861238 0.000000 0.097563
0.907601 0.000000 0.113731
0.000000 0.099527 0.000000
0.000000 0.097954 0.000000
0.000000 0.096348 0.000000
0.000000 0.095448 0.000000
0.000000 0.093675 0.000000
0.000000 0.091840 0.000000
0.029225 0.089912 0.000000
0.061217 0.087716 0.000000
0.084180 0.085180 0.000000
0.104950 0.082962 0.000000
0.126046 0.077802 0.000000
0.147024 0.073309 0.000000
0.173583 0.067403 0.000000
0.199417 0.059526 0.000000
0.225854 0.047664 0.000000
0.252944 0.000000 0.000000
0.272125 0.000000 0.000000
0.295793 0.000000 0.000000
0.317142 0.000000 0.000000
0.340301 0.000000 0.000000
0.368147 0.000000 0.016106
0.392927 0.000000 0.023358
0.432326 0.000000 0.028352
0.476271 0.000000 0.032354
0.512847 0.000000 0.039787
0.563358 0.000000 0.044478
0.607691 0.000000 0.048954
0.644839 0.000000 0.056282
0.691040 0.000000 0.064846
0.750653 0.000000 0.074969
0.802137 0.000000 0.085810
0.861181 0.000000 0.099203
0.903825 0.000000 0.114459
0.000000 0.117311 0.000000
0.000000 0.116293 0.000000
0.000000 0.113336 0.000000
0.000000 0.112269 0.000000
0.000000 0.110264 0.000000
0.000000 0.108191 0.000000
0.019574 0.106876 0.000000
0.062354 0.104453 0.000000
0.087645 0.101756 0.000000
0.109040 0.099644 0.000000
0.132022 0.096012 0.000000
0.152448 0.091105 0.000000
0.181822 0.083964 0.000000
0.209778 0.078274 0.000000
0.238010 0.069341 0.000000
0.262710 0.053534 0.000000
0.287804 0.010535 0.000000
0.306481 0.000000 0.000000
0.324128 0.000000 0.000000
0.355433 0.000000 0.000000
0.376381 0.000000 0.000000
0.407706 0.000000 0.017052
0.438838 0.000000 0.025553
0.483483 0.000000 0.029008
0.516572 0.000000 0.037459
0.563357 0.000000 0.043103
0.607680 0.000000 0.048241
0.657280 0.000000 0.055359
0.699412 0.000000 0.063404
0.754860 0.000000 0.075291
0.810631 0.000000 0.087139
0.865091 0.000000 0.099858
0.907377 0.000000 0.115332
0.000000 0.133716 0.000000
0.000000 0.133630 0.000000
0.000000 0.132441 0.000000
0.000000 0.131229 0.000000
0.000000 0.129954 0.000000
0.000000 0.127534 0.000000
0.000000 0.126070 0.000000
0.064953 0.123375 0.000000
0.090809 0.121540 0.000000
0.114263 0.120435 0.000000
0.136805 0.118991 0.000000
0.164736 0.114437 0.000000
0.194781 0.107607 0.000000
0.227907 0.100019 0.000000
0.254958 0.094393 0.000000
0.276102 0.086733 0.000000
0.302751 0.070007 0.000000
0.322431 0.046814 0.000000
0.341164 0.000000 0.000000
0.366335 0.000000 0.000000
0.387881 0.000000 0.000000
0.414104 0.000000 0.000000
0.448988 0.000000 0.017839
0.487244 0.000000 0.025265
0.520479 0.000000 0.034186
0.563386 0.000000 0.041186
0.607672 0.000000 0.046617
0.657230 0.000000 0.053140
0.703571 0.000000 0.062526
0.759031 0.000000 0.074649
0.814806 0.000000 0.087538
0.868958 0.000000 0.101415
0.907208 0.000000 0.117071
0.000000 0.151284 0.000000
0.000000 0.151199 0.000000
0.000000 0.149838 0.000000
0.000000 0.148424 0.000000
0.000000 0.146948 0.000000
0.000000 0.145439 0.000000
0.016956 0.145048 0.000000
0.068753 0.143282 0.000000
0.100063 0.141197 0.000000
0.126349 0.138836 0.000000
0.149187 0.136255 0.000000
0.180259 0.132541 0.000000
0.213542 0.126445 0.000000
0.247576 0.121468 0.000000
0.267671 0.114645 0.000000
0.294627 0.108070 0.000000
0.318822 0.099472 0.000000
0.335066 0.090398 0.000000
0.362324 0.071551 0.000000
0.378156 0.057933 0.000000
0.403346 0.000000 0.000000
0.430518 0.000000 0.000000
0.459804 0.000000 0.000000
0.498537 0.000000 0.010295
0.528364 0.000000 0.027534
0.567433 0.000000 0.038279
0.607693 0.000000 0.045133
0.657204 0.000000 0.051993
0.703511 0.000000 0.062334
0.763194 0.000000 0.074623
0.818955 0.000000 0.087828
0.872747 0.000000 0.101940
0.910609 0.000000 0.118808
0.000000 0.171293 0.000000
0.000000 0.171186 0.000000
0.000000 0.169587 0.000000
0.000000 0.169408 0.000000
0.000000 0.167745 0.000000
0.000000 0.166038 0.000000
0.048138 0.164139 0.000000
0.087524 0.163474 0.000000
0.116993 0.159818 0.000000
0.139160 0.157478 0.000000
0.169018 0.154347 0.000000
0.200858 0.147662 0.000000
0.232323 0.142742 0.000000
0.261612 0.138043 0.000000
0.287666 0.131708 0.000000
0.312295 0.126397 0.000000
0.333433 0.119553 0.000000
0.360924 0.109726 0.000000
0.376698 0.100313 0.000000
0.399061 0.090669 0.000000
0.416745 0.081276 0.000000
0.448126 0.047194 0.000000
0.482181 0.000000 0.000000
0.514357 0.000000 0.000000
0.544500 0.000000 0.000000
0.579635 0.000000 0.029136
0.615908 0.000000 0.042236
0.661356 0.000000 0.049986
0.703438 0.000000 0.061740
0.763028 0.000000 0.073373
0.827295 0.000000 0.088669
0.876374 0.000000 0.102098
0.917475 0.000000 0.120561
0.000000 0.185955 0.000000
0.000000 0.185824 0.000000
0.000000 0.185649 0.000000
0.000000 0.183902 0.000000
0.000000 0.183581 0.000000
0.035969 0.183130 0.000000
0.077253 0.181144 0.000000
0.106043 0.180498 0.000000
0.134561 0.178014 0.000000
0.159304 0.175351 0.000000
0.192575 0.171560 0.000000
0.225853 0.166597 0.000000
0.255395 0.161313 0.000000
0.283217 0.155582 0.000000
0.306893 0.149901 0.000000
0.328702 0.144003 0.000000
0.359240 0.137209 0.000000
0.378022 0.132446 0.000000
0.400400 0.121978 0.000000
0.424459 0.115842 0.000000
0.446595 0.106929 0.000000
0.463133 0.099081 0.000000
0.497839 0.068726 0.000000
0.530947 0.000000 0.000000
0.565079 0.000000 0.000000
0.600319 0.000000 0.000000
0.628431 0.000000 0.030972
0.673889 0.000000 0.044639
0.716011 0.000000 0.058874
0.762810 0.000000 0.070567
0.826966 0.000000 0.087124
0.875994 0.000000 0.102944
0.924032 0.000000 0.120929
0.000000 0.203132 0.000000
0.000000 0.202992 0.000000
0.000000 0.201048 0.000000
0.000000 0.200781 0.000000
0.057210 0.198739 0.000000
0.087729 0.198281 0.000000
0.109992 0.196073 0.000000
0.137601 0.194906 0.000000
0.161354 0.193600 0.000000
0.191660 0.191502 0.000000
0.222902 0.187184 0.000000
0.252155 0.182461 0.000000
0.279043 0.179140 0.000000
0.301297 0.177781 0.000000
0.324531 0.174254 0.000000
0.351304 0.167893 0.000000
0.378886 0.160672 0.000000
0.407747 0.150227 0.000000
0.426223 0.149642 0.000000
0.454910 0.136986 0.000000
0.475260 0.130047 0.000000
0.500040 0.128302 0.000000
0.521769 0.116483 0.000000
0.547653 0.095875 0.000000
0.578159 0.065173 0.000000
0.609259 0.000000 0.000000
0.645304 0.000000 0.000000
0.682345 0.000000 0.031871
0.720110 0.000000 0.051339
0.775322 0.000000 0.066262
0.826535 0.000000 0.082871
0.875464 0.000000 0.103346
0.923399 0.000000 0.120727
0.000000 0.222026 0.000000
0.000000 0.221714 0.000000
0.052256 0.221439 0.000000
0.090337 0.219139 0.000000
0.114002 0.218510 0.000000
0.131832 0.217896 0.000000
0.152739 0.215300 0.000000
0.176193 0.214066 0.000000
0.202661 0.210627 0.000000
0.228930 0.206822 0.000000
0.252002 0.204708 0.000000
0.278720 0.200103 0.000000
0.306174 0.193116 0.000000
0.324522 0.194341 0.000000
0.358405 0.189300 0.000000
0.381709 0.185415 0.000000
0.408741 0.176320 0.000000
0.436888 0.168174 0.000000
0.463156 0.159473 0.000000
0.487493 0.157399 0.000000
0.508860 0.151079 0.000000
0.534954 0.150682 0.000000
0.557460 0.145728 0.000000
0.572450 0.136985 0.000000
0.595539 0.130193 0.000000
0.622576 0.099146 0.000000
0.662463 0.000000 0.000000
0.695153 0.000000 0.000000
0.732671 0.000000 0.037858
0.783529 0.000000 0.059218
0.834492 0.000000 0.075675
0.878742 0.000000 0.098070
0.922718 0.000000 0.120371
0.091936 0.240269 0.000000
0.104437 0.240003 0.000000
0.125206 0.237606 0.000000
0.144470 0.236954 0.000000
0.163975 0.234306 0.000000
0.183738 0.233335 0.000000
0.203164 0.232224 0.000000
0.228922 0.228615 0.000000
0.249003 0.225154 0.000000
0.276807 0.222652 0.000000
0.297233 0.218638 0.000000
0.317346 0.216376 0.000000
0.347234 0.210633 0.000000
0.371588 0.205162 0.000000
0.393116 0.201814 0.000000
0.421638 0.194801 0.000000
0.447845 0.189765 0.000000
0.471521 0.182450 0.000000
0.503243 0.177353 0.000000
0.528891 0.173403 0.000000
0.547533 0.170936 0.000000
0.570332 0.169774 0.000000
0.589668 0.169549 0.000000
0.609140 0.169257 0.000000
0.624455 0.157682 0.000000
0.644188 0.156774 0.000000
0.675869 0.131248 0.000000
0.708170 0.087871 0.000000
0.749539 0.000000 0.000000
0.795802 0.000000 0.045072
0.846246 0.000000 0.069085
0.889443 0.000000 0.091934
0.925391 0.000000 0.116237
0.139811 0.262332 0.000000
0.153891 0.261880 0.000000
0.167303 0.261391 0.000000
0.181967 0.258743 0.000000
0.203615 0.257705 0.000000
0.218767 0.256878 0.000000
0.234991 0.253830 0.000000
0.259016 0.252172 0.000000
0.281139 0.248342 0.000000
0.303365 0.244267 0.000000
0.322025 0.242436 0.000000
0.354382 0.236738 0.000000
0.377465 0.231709 0.000000
0.407263 0.227622 0.000000
0.434594 0.221199 0.000000
0.462350 0.211852 0.000000
0.493983 0.203470 0.000000
0.523020 0.197551 0.000000
0.541557 0.195992 0.000000
0.575555 0.193200 0.000000
0.598439 0.187168 0.000000
0.617888 0.184570 0.000000
0.629804 0.187123 0.000000
0.645843 0.191676 0.000000
0.653848 0.195646 0.000000
0.677470 0.185163 0.000000
0.689359 0.184670 0.000000
0.721445 0.169369 0.000000
0.758159 0.139397 0.000000
0.803840 0.093205 0.000000
0.857351 0.000000 0.053372
0.892146 0.000000 0.085848
0.927621 0.000000 0.109444
0.189299 0.288578 0.000000
0.199822 0.288151 0.000000
0.210143 0.287701 0.000000
0.223724 0.287058 0.000000
0.243387 0.281448 0.000000
0.259805 0.280462 0.000000
0.272987 0.279604 0.000000
0.293984 0.275806 0.000000
0.307364 0.274760 0.000000
0.331998 0.270333 0.000000
0.356802 0.265619 0.000000
0.377718 0.263408 0.000000
0.403073 0.258105 0.000000
0.428687 0.252438 0.000000
0.458225 0.245828 0.000000
0.491556 0.238331 0.000000
0.521115 0.230952 0.000000
0.550833 0.225559 0.000000
0.580754 0.216785 0.000000
0.615165 0.208905 0.000000
0.646291 0.200866 0.000000
0.677958 0.191627 0.000000
0.686216 0.199092 0.000000
0.694566 0.210013 0.000000
0.706888 0.220070 0.000000
0.702887 0.224481 0.000000
0.718807 0.223756 0.000000
0.734664 0.215969 0.000000
0.779202 0.202289 0.000000
0.816035 0.184764 0.000000
0.863837 0.135342 0.000000
0.897709 0.000000 0.069130
0.935959 0.000000 0.104850
0.241701 0.310136 0.000000
0.252555 0.309592 0.000000
0.259766 0.309212 0.000000
0.274166 0.308405 0.000000
0.281370 0.307978 0.000000
0.292233 0.307304 0.000000
0.306812 0.306340 0.000000
0.328882 0.304754 0.000000
0.348527 0.300635 0.000000
0.363507 0.299356 0.000000
0.387121 0.294586 0.000000
0.407037 0.289975 0.000000
0.430341 0.287422 0.000000
0.458506 0.281598 0.000000
0.490245 0.275046 0.000000
0.517567 0.268650 0.000000
0.544452 0.261938 0.000000
0.578769 0.256420 0.000000
0.609391 0.251022 0.000000
0.640169 0.242024 0.000000
0.687123 0.228387 0.000000
0.727039 0.214523 0.000000
0.759465 0.204752 0.000000
0.759627 0.219570 0.000000
0.759729 0.230533 0.000000
0.763936 0.247618 0.000000
0.755847 0.256714 0.000000
0.759730 0.263046 0.000000
0.791770 0.248290 0.000000
0.835685 0.236808 0.000000
0.873663 0.217170 0.000000
0.902646 0.188159 0.012904
0.939798 0.134661 0.089745
0.284581 0.333996 0.000000
0.300221 0.333116 0.000000
0.311972 0.332411 0.000000
0.319829 0.331917 0.000000
0.331660 0.331141 0.000000
0.335617 0.330871 0.000000
0.351523 0.329745 0.000000
0.363546 0.328843 0.000000
0.384914 0.324338 0.000000
0.401381 0.323013 0.000000
0.418077 0.321622 0.000000
0.443385 0.319352 0.000000
0.464952 0.314359 0.000000
0.494390 0.308321 0.000000
0.519169 0.302516 0.000000
0.543260 0.299512 0.000000
0.579048 0.291675 0.000000
0.610324 0.283984 0.000000
0.633645 0.280263 0.000000
0.672496 0.267087 0.000000
0.703926 0.257591 0.000000
0.751809 0.243357 0.000000
0.796377 0.231767 0.000000
0.840540 0.214508 0.000000
0.840338 0.231250 0.000000
0.824442 0.255466 0.000000
0.812397 0.273704 0.000000
0.804264 0.286824 0.000000
0.811899 0.296805 0.000000
0.846343 0.290149 0.000000
0.886040 0.282200 0.000000
0.913453 0.263674 0.000000
0.945653 0.233547 0.051271
0.335860 0.362744 0.000000
0.344466 0.362275 0.000000
0.357457 0.361532 0.000000
0.361811 0.361274 0.000000
0.370547 0.360741 0.000000
0.383724 0.359902 0.000000
0.392562 0.359313 0.000000
0.405904 0.358387 0.000000
0.424922 0.353868 0.000000
0.438252 0.352818 0.000000
0.456823 0.348149 0.000000
0.483012 0.345794 0.000000
0.500305 0.344140 0.000000
0.526527 0.338290 0.000000
0.552150 0.332277 0.000000
0.576954 0.329356 0.000000
0.609731 0.321974 0.000000
0.633822 0.315442 0.000000
0.669365 0.306945 0.000000
0.696902 0.299213 0.000000
0.732433 0.289627 0.000000
0.776290 0.273928 0.000000
0.812498 0.266016 0.000000
0.858870 0.255046 0.000000
0.895002 0.241601 0.000000
0.911484 0.250595 0.000000
0.886713 0.281882 0.000000
0.864819 0.302598 0.000000
0.860547 0.319605 0.000000
0.863652 0.327256 0.000000
0.891003 0.327083 0.000000
0.922813 0.326550 0.000000
0.949919 0.309962 0.000000
0.395157 0.384699 0.000000
0.399829 0.384406 0.000000
0.404511 0.384108 0.000000
0.418526 0.383184 0.000000
0.427822 0.382546 0.000000
0.432455 0.382221 0.000000
0.442916 0.378151 0.000000
0.456653 0.377110 0.000000
0.470329 0.376029 0.000000
0.488431 0.374529 0.000000
0.502798 0.369930 0.000000
0.520534 0.368304 0.000000
0.543147 0.362746 0.000000
0.564725 0.360524 0.000000
0.586062 0.358220 0.000000
0.615487 0.354872 0.000000
0.636429 0.348889 0.000000
0.668908 0.344775 0.000000
0.692932 0.341588 0.000000
0.724764 0.333530 0.000000
0.760459 0.324471 0.000000
0.796280 0.318631 0.000000
0.835240 0.307968 0.000000
0.872031 0.301262 0.000000
0.906506 0.290644 0.000000
0.937927 0.284833 0.000000
0.966579 0.270909 0.000000
0.939557 0.306628 0.000000
0.910470 0.336474 0.000000
0.905681 0.361772 0.000000
0.904968 0.370021 0.000000
0.928817 0.371394 0.000000
0.950906 0.369239 0.000000
0.453309 0.411278 0.000000
0.458096 0.410949 0.000000
0.462871 0.410616 0.000000
0.472388 0.409937 0.000000
