Assets/Lutify-Free-LUTs-Pack/Lutify Free LUTs Pack/Cine World Pro Warm - Amy/Lutify.me-Amy-FLog-to-Rec709.cube
# Created with: fylm.ai - Colour Grading and Collaboration Software in Cloud 
# Website: https://fylm.ai 
# META
# Option: Gamut compress
# Block 1: IDT | Fujifilm F-Gamut F-Log
# Block 2: colourMatch | Blending Mode: Normal | {"ColorSpace":0,"CrossCovarianceLimit":50,"ReshapingIterations":1,"PercentSaturationShift":100,"PercentShadingShift":100,"ExtraShading":true,"PercentTint":100,"PercentModified":100}
# Block 3: LUT | Filmic Curve Response: Standard Contrast 1 (100%)
# Block 4: LUT | Illuminant: D60 (100%)
# Block 5: hueSaturation | Blending Mode: Normal | {"hue":0,"saturation":-0.15}
# Block 6: logPrimaries | Blending Mode: Normal | {"wheels":{"shadows":{"Y":"0","R":"1","G":"1","B":"1"},"midtones":{"Y":"0","R":"1","G":"1","B":"1"},"highlights":{"Y":"0","R":"1","G":"1","B":"1"},"offset":{"Y":"0","R":"1","G":"1","B":"1"}},"sliders":{"shadows":{"Y":0,"R":-0.097,"G":0,"B":0.158},"midtones":{"Y":0,"R":0.024,"G":0.024,"B":-0.036},"highlights":{"Y":0,"R":0.154,"G":-0.084,"B":-0.024},"offset":{"Y":0.048,"R":0,"G":0,"B":0}}}
# Block 7: smartCurves | Blending Mode: Average | [[{"x":0,"y":0},{"x":0.11328125,"y":0.085540771484375},{"x":0.21484375,"y":0.218353271484375},{"x":0.37109375,"y":0.382415771484375},{"x":0.62109375,"y":0.589447021484375},{"x":0.8125,"y":0.765228271484375},{"x":1,"y":1}],[{"x":0,"y":0},{"x":1,"y":1}],[{"x":0,"y":0},{"x":1,"y":1}],[{"x":0,"y":0},{"x":1,"y":1}]]
# Block 8: LUT | Neutral Tint: Teal Tint 4 (100%)
# Block 9: contrast | Blending Mode: Normal | {"contrast":0.1}
# Block 10: ODT | Rec709
TITLE "Lutify.me-Amy-FLog-to-Rec709" 
LUT_3D_SIZE 33
0.000000 0.000000 0.000000
0.000000 0.000000 0.000000
0.000000 0.000000 0.000000
0.000000 0.000000 0.000000
0.000000 0.000000 0.000000
0.000000 0.000000 0.000000
0.077198 0.000000 0.000000
0.124158 0.000000 0.000000
0.163237 0.000000 0.000000
0.211601 0.000000 0.000000
0.260718 0.000000 0.000000
0.304307 0.000000 0.000000
0.354985 0.000000 0.000000
0.398405 0.000000 0.000000
0.448171 0.000000 0.000000
0.501108 0.000000 0.000000
0.562685 0.000000 0.000000
0.611180 0.000000 0.000000
0.673560 0.000000 0.000000
0.745733 0.000000 0.000000
0.827082 0.000000 0.009768
0.902629 0.000000 0.031639
0.962331 0.000000 0.051487
1.000000 0.000000 0.079942
1.000000 0.000000 0.110354
1.000000 0.000000 0.141053
1.000000 0.178963 0.177745
1.000000 0.298320 0.217575
1.000000 0.388649 0.259900
1.000000 0.464744 0.317640
1.000000 0.539396 0.379944
1.000000 0.603691 0.433338
1.000000 0.679078 0.491534
0.000000 0.000000 0.000000
0.000000 0.000000 0.000000
0.000000 0.000000 0.000000
0.000000 0.000000 0.000000
0.000000 0.000000 0.000000
0.000000 0.000000 0.000000
0.077115 0.000000 0.000000
0.122926 0.000000 0.000000
0.160088 0.000000 0.000000
0.205642 0.000000 0.000000
0.258836 0.000000 0.000000
0.300141 0.000000 0.000000
0.347506 0.000000 0.000000
0.395528 0.000000 0.000000
0.444879 0.000000 0.000000
0.497474 0.000000 0.000000
0.562710 0.000000 0.000000
0.611219 0.000000 0.000000
0.677776 0.000000 0.000000
0.745724 0.000000 0.000000
0.827052 0.000000 0.000000
0.902546 0.000000 0.031493
0.962240 0.000000 0.053146
1.000000 0.000000 0.079328
1.000000 0.000000 0.110078
1.000000 0.000000 0.142061
1.000000 0.185250 0.178893
1.000000 0.302469 0.218914
1.000000 0.392269 0.259609
1.000000 0.468071 0.319636
1.000000 0.539396 0.379944
1.000000 0.603691 0.433338
1.000000 0.679078 0.491534
0.000000 0.000000 0.000000
0.000000 0.000000 0.000000
0.000000 0.000000 0.000000
0.000000 0.000000 0.000000
0.000000 0.000000 0.000000
0.000000 0.000000 0.000000
0.076333 0.000000 0.000000
0.121726 0.000000 0.000000
0.156024 0.000000 0.000000
0.199864 0.000000 0.000000
0.253250 0.000000 0.000000
0.298081 0.000000 0.000000
0.345081 0.000000 0.000000
0.387005 0.000000 0.000000
0.438352 0.000000 0.000000
0.497509 0.000000 0.000000
0.562735 0.000000 0.000000
0.611249 0.000000 0.000000
0.677783 0.000000 0.000000
0.745722 0.000000 0.000000
0.835506 0.000000 0.000000
0.902480 0.000000 0.031710
0.962146 0.000000 0.053594
1.000000 0.000000 0.080136
1.000000 0.000000 0.110707
1.000000 0.000000 0.141470
1.000000 0.191363 0.178573
1.000000 0.306606 0.218601
1.000000 0.395878 0.261228
1.000000 0.468071 0.319636
1.000000 0.542552 0.379745
1.000000 0.606666 0.433164
1.000000 0.679078 0.491534
0.000000 0.000000 0.000000
0.000000 0.000000 0.000000
0.000000 0.000000 0.000000
0.000000 0.000000 0.000000
0.000000 0.000000 0.000000
0.000000 0.000000 0.000000
0.076611 0.000000 0.000000
0.120561 0.000000 0.000000
0.153016 0.000000 0.000000
0.194278 0.000000 0.000000
0.242458 0.000000 0.000000
0.290037 0.000000 0.000000
0.335493 0.000000 0.000000
0.384220 0.000000 0.000000
0.431950 0.000000 0.000000
0.493893 0.000000 0.000000
0.562771 0.000000 0.000000
0.607201 0.000000 0.000000
0.677801 0.000000 0.000000
0.745715 0.000000 0.000000
0.827002 0.000000 0.004765
0.902361 0.000000 0.030853
0.961996 0.000000 0.053627
1.000000 0.000000 0.080945
1.000000 0.000000 0.110417
1.000000 0.000000 0.142479
1.000000 0.191363 0.178573
1.000000 0.310719 0.218284
1.000000 0.395878 0.261228
1.000000 0.471410 0.319396
1.000000 0.542552 0.379745
1.000000 0.606666 0.433164
1.000000 0.679078 0.491534
0.000000 0.000000 0.000000
0.000000 0.000000 0.000000
0.000000 0.000000 0.000000
0.000000 0.000000 0.000000
0.000000 0.000000 0.000000
0.000000 0.000000 0.000000
0.072351 0.000000 0.000000
0.114949 0.000000 0.000000
0.148925 0.000000 0.000000
0.192846 0.000000 0.000000
0.242459 0.000000 0.000000
0.288088 0.000000 0.000000
0.330804 0.000000 0.000000
0.378724 0.000000 0.000000
0.428806 0.000000 0.000000
0.490298 0.000000 0.000000
0.562823 0.000000 0.000000
0.611313 0.000000 0.000000
0.682021 0.000000 0.000000
0.745711 0.000000 0.000000
0.826960 0.000000 0.000000
0.902282 0.000000 0.029130
0.961891 0.000000 0.054037
1.000000 0.000000 0.081156
1.000000 0.000000 0.111331
1.000000 0.000000 0.142171
1.000000 0.195836 0.177711
1.000000 0.310712 0.219958
1.000000 0.395878 0.261228
1.000000 0.471410 0.319396
1.000000 0.542552 0.379745
1.000000 0.606666 0.433164
1.000000 0.681636 0.491411
0.000000 0.003553 0.000000
0.000000 0.003553 0.000000
0.000000 0.001928 0.000000
0.000000 0.002345 0.000000
0.000000 0.000000 0.000000
0.000000 0.000000 0.016328
0.070348 0.000000 0.000000
0.111942 0.000000 0.000000
0.144757 0.000000 0.000000
0.183664 0.000000 0.000000
0.237299 0.000000 0.000000
0.288055 0.000000 0.000000
0.330763 0.000000 0.000000
0.378726 0.000000 0.000000
0.425700 0.000000 0.000000
0.490357 0.000000 0.000000
0.558911 0.000000 0.000000
0.611351 0.000000 0.000000
0.682037 0.000000 0.000000
0.741433 0.000000 0.000000
0.826903 0.000000 0.000000
0.902172 0.000000 0.028404
0.961728 0.000000 0.054004
1.000000 0.000000 0.082786
1.000000 0.000000 0.110728
1.000000 0.000000 0.143186
1.000000 0.201684 0.178864
1.000000 0.314803 0.219640
1.000000 0.401954 0.262351
1.000000 0.474752 0.319154
1.000000 0.545704 0.382072
1.000000 0.609647 0.432989
1.000000 0.681636 0.491411
0.000000 0.044022 0.000000
0.000000 0.043083 0.000000
0.000000 0.043149 0.000000
0.000000 0.041231 0.000000
0.000000 0.039554 0.000000
0.000000 0.036172 0.000000
0.055450 0.031753 0.000000
0.104125 0.016656 0.000000
0.143074 0.000000 0.000000
0.182624 0.000000 0.000000
0.236980 0.000000 0.000000
0.283921 0.000000 0.000000
0.326106 0.000000 0.000000
0.378776 0.000000 0.000000
0.428931 0.000000 0.000000
0.494082 0.000000 0.000000
0.558986 0.000000 0.000000
0.615487 0.000000 0.000000
0.682055 0.000000 0.000000
0.741424 0.000000 0.000000
0.822566 0.000000 0.003961
0.898327 0.000000 0.030684
0.958518 0.000000 0.053724
1.000000 0.000000 0.081410
1.000000 0.000000 0.111388
1.000000 0.000000 0.143887
1.000000 0.207400 0.180025
1.000000 0.322916 0.220684
1.000000 0.405533 0.262056
1.000000 0.474743 0.321413
1.000000 0.545704 0.382072
1.000000 0.609647 0.432989
1.000000 0.681636 0.491411
0.000000 0.066727 0.000000
0.000000 0.065083 0.000000
0.000000 0.064060 0.000000
0.000000 0.064130 0.000000
0.000000 0.063345 0.000000
0.000000 0.059403 0.000000
0.045365 0.056519 0.000000
0.093405 0.051809 0.000000
0.138347 0.040401 0.000000
0.185122 0.000000 0.000000
0.236747 0.000000 0.000000
0.285788 0.000000 0.000000
0.328480 0.000000 0.000000
0.378925 0.000000 0.000000
0.432258 0.000000 0.000000
0.494204 0.000000 0.000000
0.559109 0.000000 0.000000
0.615560 0.000000 0.000000
0.682085 0.000000 0.000000
0.741405 0.000000 0.000000
0.822472 0.000000 0.000000
0.898102 0.000000 0.027275
0.958278 0.000000 0.053096
1.000000 0.000000 0.081097
1.000000 0.000000 0.111636
1.000000 0.000000 0.144583
1.000000 0.218501 0.180851
1.000000 0.326948 0.220355
1.000000 0.409102 0.263686
1.000000 0.478088 0.321171
1.000000 0.548872 0.381871
1.000000 0.612636 0.432813
1.000000 0.681625 0.493993
0.000000 0.091690 0.000000
0.000000 0.090200 0.000000
0.000000 0.090225 0.000000
0.000000 0.088050 0.000000
0.000000 0.084528 0.000000
0.000000 0.081863 0.000000
0.011300 0.077722 0.000000
0.087565 0.072481 0.000000
0.132826 0.065730 0.000000
0.184775 0.054355 0.000000
0.238260 0.030230 0.000000
0.289787 0.000000 0.000000
0.333354 0.000000 0.000000
0.381996 0.000000 0.000000
0.439048 0.000000 0.000000
0.498141 0.000000 0.000000
0.567239 0.000000 0.000000
0.619769 0.000000 0.000000
0.682132 0.000000 0.000000
0.745632 0.000000 0.000000
0.822329 0.000000 0.000000
0.894165 0.000000 0.026090
0.957956 0.000000 0.053185
1.000000 0.000000 0.081400
1.000000 0.000000 0.110571
1.000000 0.049918 0.144455
1.000000 0.229215 0.181673
1.000000 0.330956 0.221735
1.000000 0.412677 0.263386
1.000000 0.481429 0.323208
1.000000 0.548872 0.381871
1.000000 0.612636 0.432813
1.000000 0.684177 0.493872
0.000000 0.121210 0.000000
0.000000 0.118246 0.000000
0.000000 0.118246 0.000000
0.000000 0.115351 0.000000
0.000000 0.112527 0.000000
0.000000 0.108945 0.000000
0.000000 0.104941 0.000000
0.068025 0.100842 0.000000
0.125282 0.096625 0.000000
0.181421 0.086895 0.000000
0.241665 0.076700 0.000000
0.296254 0.051571 0.000000
0.336286 0.000000 0.000000
0.388271 0.000000 0.000000
0.443083 0.000000 0.000000
0.498813 0.000000 0.000000
0.567750 0.000000 0.000000
0.620028 0.000000 0.000000
0.678039 0.000000 0.000000
0.749830 0.000000 0.000000
0.822144 0.000000 0.000000
0.893893 0.000000 0.022735
0.954466 0.000000 0.053759
1.000000 0.000000 0.082207
1.000000 0.000000 0.110332
1.000000 0.089892 0.145130
1.000000 0.239565 0.182494
1.000000 0.338931 0.222793
1.000000 0.419831 0.264727
1.000000 0.484781 0.322963
1.000000 0.552045 0.381669
1.000000 0.616883 0.436177
1.000000 0.685339 0.494922
0.000000 0.154045 0.000000
0.000000 0.151505 0.000000
0.000000 0.149008 0.000000
0.000000 0.146553 0.000000
0.000000 0.145340 0.000000
0.000000 0.142984 0.000000
0.000000 0.138000 0.000000
0.000000 0.133761 0.000000
0.105680 0.130557 0.000000
0.173248 0.125977 0.000000
0.242221 0.115992 0.000000
0.298894 0.105448 0.000000
0.347383 0.089037 0.000000
0.395422 0.064880 0.000000
0.444675 0.022514 0.000000
0.500180 0.000000 0.000000
0.564753 0.000000 0.000000
0.616563 0.000000 0.000000
0.682431 0.000000 0.000000
0.749752 0.000000 0.000000
0.826167 0.000000 0.000000
0.897161 0.000000 0.018635
0.953837 0.000000 0.051408
1.000000 0.000000 0.082026
1.000000 0.000000 0.111338
1.000000 0.133909 0.146449
1.000000 0.249592 0.183316
1.000000 0.346847 0.223859
1.000000 0.426987 0.266084
1.000000 0.491496 0.322469
1.000000 0.555224 0.381466
1.000000 0.619871 0.436001
1.000000 0.687856 0.497389
0.000000 0.186646 0.000000
0.000000 0.186645 0.000000
0.000000 0.182046 0.000000
0.000000 0.179032 0.000000
0.000000 0.177541 0.000000
0.000000 0.176083 0.000000
0.000000 0.171500 0.000000
0.000000 0.168060 0.000000
0.061776 0.163970 0.000000
0.159215 0.159151 0.000000
0.234830 0.149346 0.000000
0.298137 0.141890 0.000000
0.348609 0.130941 0.000000
0.397276 0.118949 0.000000
0.446658 0.109392 0.000000
0.505563 0.082758 0.000000
0.570035 0.000000 0.000000
0.625651 0.000000 0.000000
0.682815 0.000000 0.000000
0.753908 0.000000 0.000000
0.834172 0.000000 0.000000
0.900303 0.000000 0.000000
0.956172 0.000000 0.051822
1.000000 0.000000 0.081349
1.000000 0.000000 0.113231
1.000000 0.164534 0.147277
1.000000 0.268868 0.183366
1.000000 0.358623 0.226365
1.000000 0.434135 0.269481
1.000000 0.496016 0.325339
1.000000 0.558398 0.383806
1.000000 0.622865 0.435825
1.000000 0.692894 0.497158
0.000000 0.221744 0.000000
0.000000 0.219982 0.000000
0.000000 0.216420 0.000000
0.000000 0.216420 0.000000
0.000000 0.211169 0.000000
0.000000 0.211167 0.000000
0.000000 0.207596 0.000000
0.000000 0.208968 0.000000
0.000000 0.204688 0.000000
0.119661 0.198794 0.000000
0.212729 0.189748 0.000000
0.280737 0.182315 0.000000
0.351018 0.173471 0.000000
0.402144 0.163542 0.000000
0.452466 0.155628 0.000000
0.511774 0.142462 0.000000
0.571960 0.127739 0.000000
0.631045 0.115343 0.000000
0.687696 0.081554 0.000000
0.758120 0.000000 0.000000
0.837624 0.000000 0.000000
0.902871 0.000000 0.000000
0.958008 0.000000 0.044418
1.000000 0.000000 0.081560
1.000000 0.086949 0.114112
1.000000 0.191081 0.148527
1.000000 0.291893 0.184567
1.000000 0.374184 0.226739
1.000000 0.441288 0.270894
1.000000 0.502723 0.324838
1.000000 0.561588 0.383602
1.000000 0.628861 0.435471
1.000000 0.695391 0.499645
0.000000 0.254021 0.000000
0.000000 0.248317 0.000000
0.000000 0.244591 0.000000
0.000000 0.246431 0.000000
0.000000 0.242723 0.000000
0.000000 0.244499 0.000000
0.000000 0.242496 0.000000
0.000000 0.244001 0.000000
0.000000 0.243243 0.000000
0.000000 0.239498 0.000000
0.175313 0.233775 0.000000
0.250899 0.226901 0.000000
0.325163 0.219424 0.000000
0.402058 0.208807 0.000000
0.454817 0.199574 0.000000
0.518733 0.193519 0.000000
0.578422 0.184210 0.000000
0.636873 0.178849 0.000000
0.696920 0.164141 0.000000
0.762479 0.141727 0.000000
0.840896 0.111908 0.000000
0.901212 0.075381 0.000000
0.959233 0.000000 0.032602
1.000000 0.079180 0.081541
1.000000 0.155895 0.115141
1.000000 0.226567 0.150770
1.000000 0.314836 0.187937
1.000000 0.390569 0.227704
1.000000 0.449491 0.275107
1.000000 0.512794 0.328774
1.000000 0.569135 0.386636
1.000000 0.631852 0.435294
1.000000 0.700387 0.499424
0.000000 0.288939 0.000000
0.000000 0.284575 0.000000
0.000000 0.280277 0.000000
0.000000 0.282406 0.000000
0.000000 0.284539 0.000000
0.000000 0.284487 0.000000
0.000000 0.282231 0.000000
0.000000 0.284180 0.000000
0.000000 0.281573 0.000000
0.000000 0.278285 0.000000
0.092210 0.273735 0.000000
0.207007 0.274466 0.000000
0.294745 0.266689 0.000000
0.372977 0.254625 0.000000
0.454693 0.241505 0.000000
0.521153 0.241366 0.000000
0.585080 0.235489 0.000000
0.639008 0.230219 0.000000
0.702307 0.224722 0.000000
0.766967 0.221327 0.000000
0.847757 0.203641 0.000000
0.902703 0.193121 0.000000
0.959350 0.183191 0.000000
1.000000 0.181799 0.080066
1.000000 0.213363 0.116178
1.000000 0.272757 0.150839
1.000000 0.344607 0.189921
1.000000 0.408771 0.230768
1.000000 0.463744 0.278047
1.000000 0.522912 0.330396
1.000000 0.578718 0.388585
1.000000 0.637804 0.437540
1.000000 0.705340 0.501828
0.000000 0.336836 0.000000
0.000000 0.331677 0.000000
0.000000 0.326601 0.000000
0.000000 0.329114 0.000000
0.000000 0.331638 0.000000
0.000000 0.331604 0.000000
0.000000 0.331533 0.000000
0.000000 0.328866 0.000000
0.000000 0.333696 0.000000
0.000000 0.330413 0.000000
0.000000 0.328948 0.000000
0.137236 0.326248 0.000000
0.249217 0.319928 0.000000
0.344217 0.311385 0.000000
0.423236 0.301551 0.000000
0.519814 0.293712 0.000000
0.582598 0.288183 0.000000
0.637186 0.292389 0.000000
0.699734 0.285312 0.000000
0.763344 0.287581 0.000000
0.850068 0.277479 0.000000
0.906502 0.273801 0.000000
0.955088 0.273388 0.000000
1.000000 0.276648 0.066707
1.000000 0.285673 0.116078
1.000000 0.315113 0.149293
1.000000 0.373501 0.190071
1.000000 0.427838 0.230669
1.000000 0.477999 0.283219
1.000000 0.533074 0.332034
1.000000 0.585128 0.390752
1.000000 0.643735 0.439803
1.000000 0.710270 0.501622
0.000000 0.381294 0.000000
0.000000 0.378333 0.000000
0.000000 0.381286 0.000000
0.000000 0.381276 0.000000
0.000000 0.378301 0.000000
0.000000 0.381229 0.000000
0.000000 0.381182 0.000000
0.000000 0.384084 0.000000
0.000000 0.380926 0.000000
0.000000 0.380471 0.000000
0.000000 0.382467 0.000000
0.000000 0.377882 0.000000
0.164061 0.375178 0.000000
0.288891 0.371112 0.000000
0.380946 0.366313 0.000000
0.484878 0.355164 0.000000
0.575337 0.342632 0.000000
0.635983 0.348980 0.000000
0.696044 0.344839 0.000000
0.759254 0.343458 0.000000
0.844486 0.338428 0.000000
0.909574 0.336835 0.000000
0.953157 0.339715 0.000000
0.999715 0.344628 0.054541
1.000000 0.353556 0.111615
1.000000 0.367184 0.153808
1.000000 0.405297 0.188959
1.000000 0.450595 0.234054
1.000000 0.494959 0.283073
1.000000 0.543251 0.338633
1.000000 0.598017 0.392512
1.000000 0.657625 0.446304
1.000000 0.717586 0.503959
0.000000 0.425110 0.000000
0.000000 0.425106 0.000000
0.000000 0.425099 0.000000
0.000000 0.428343 0.000000
0.000000 0.428327 0.000000
0.000000 0.428302 0.000000
0.000000 0.431608 0.000000
0.000000 0.431554 0.000000
0.000000 0.434811 0.000000
0.000000 0.431204 0.000000
0.000000 0.430649 0.000000
0.000000 0.433032 0.000000
0.000000 0.434613 0.000000
0.201202 0.428765 0.000000
0.333647 0.421300 0.000000
0.443610 0.411928 0.000000
0.546765 0.403964 0.000000
0.630607 0.399466 0.000000
0.693620 0.396289 0.000000
0.762141 0.395810 0.000000
0.838709 0.394203 0.000000
0.899361 0.395027 0.000000
0.948362 0.394301 0.000000
0.994078 0.399923 0.039430
1.000000 0.412981 0.108542
1.000000 0.425984 0.155946
1.000000 0.449624 0.196836
1.000000 0.480123 0.236024
1.000000 0.514885 0.281842
1.000000 0.562806 0.341303
1.000000 0.610979 0.394279
1.000000 0.669131 0.450952
1.000000 0.725698 0.510010
0.000000 0.483161 0.000000
0.000000 0.486659 0.000000
0.000000 0.486650 0.000000
0.000000 0.483134 0.000000
0.000000 0.479624 0.000000
0.000000 0.483102 0.000000
0.000000 0.483067 0.000000
0.000000 0.486521 0.000000
0.000000 0.489940 0.000000
0.000000 0.493244 0.000000
0.000000 0.492849 0.000000
0.000000 0.492119 0.000000
0.000000 0.487332 0.000000
0.000000 0.488914 0.000000
0.248665 0.482466 0.000000
0.398325 0.473739 0.000000
0.502029 0.467900 0.000000
0.599829 0.460597 0.000000
0.691808 0.448499 0.000000
0.758977 0.449237 0.000000
0.839424 0.448603 0.000000
0.889103 0.447716 0.000000
0.942028 0.455507 0.000000
0.989307 0.457573 0.024690
1.000000 0.474493 0.104803
1.000000 0.486759 0.156434
1.000000 0.501062 0.202025
1.000000 0.518477 0.240532
1.000000 0.543127 0.285178
1.000000 0.582607 0.344069
1.000000 0.630533 0.400955
1.000000 0.683306 0.455540
1.000000 0.732769 0.515084
0.000000 0.543746 0.029279
0.000000 0.543736 0.000000
0.000000 0.543726 0.000000
0.000000 0.543714 0.000000
0.000000 0.540076 0.000000
0.000000 0.540055 0.000000
0.000000 0.543643 0.000000
0.000000 0.543586 0.000000
0.000000 0.543495 0.000000
0.000000 0.546933 0.000000
0.000000 0.550245 0.000000
0.000000 0.549669 0.000000
0.000000 0.548662 0.000000
0.000000 0.543366 0.000000
0.097314 0.541113 0.000000
0.335960 0.536993 0.000000
0.462772 0.528230 0.000000
0.569268 0.522005 0.000000
0.663901 0.514961 0.000000
0.751515 0.507332 0.000000
0.831266 0.503851 0.000000
0.889371 0.510751 0.000000
0.932721 0.511935 0.000000
0.980749 0.518268 0.000000
1.000000 0.526892 0.110587
1.000000 0.546488 0.156735
1.000000 0.559612 0.201685
1.000000 0.571064 0.252108
1.000000 0.587376 0.295980
1.000000 0.613834 0.349603
1.000000 0.652234 0.406779
1.000000 0.699948 0.462818
1.000000 0.744355 0.514731
0.000000 0.609715 0.112255
0.000000 0.609704 0.104393
0.000000 0.609692 0.095972
0.000000 0.605980 0.094120
0.000000 0.605961 0.084810
0.000000 0.605936 0.074235
0.000000 0.605894 0.043928
0.000000 0.605823 0.000000
0.000000 0.609415 0.000000
0.000000 0.609265 0.000000
0.000000 0.612726 0.000000
0.000000 0.616011 0.000000
0.000000 0.615126 0.000000
0.000000 0.613743 0.000000
0.000000 0.611854 0.000000
0.240568 0.604814 0.000000
0.393567 0.604705 0.000000
0.504455 0.600244 0.000000
0.624292 0.586004 0.000000
0.730582 0.578342 0.000000
0.824272 0.574611 0.000000
0.881114 0.574160 0.000000
0.926284 0.575476 0.000000
0.967644 0.586042 0.000000
1.000000 0.590446 0.098084
1.000000 0.601506 0.158533
1.000000 0.614309 0.208328
1.000000 0.627625 0.257731
1.000000 0.642808 0.307409
1.000000 0.655819 0.358128
1.000000 0.683462 0.410407
1.000000 0.716884 0.468490
1.000000 0.754096 0.518206
0.000000 0.669103 0.171293
0.000000 0.669090 0.161308
0.000000 0.669075 0.157943
0.000000 0.669053 0.154544
0.000000 0.672760 0.146069
0.000000 0.672729 0.138759
0.000000 0.668952 0.132924
0.000000 0.668865 0.121094
0.000000 0.668758 0.112688
0.000000 0.672306 0.096108
0.000000 0.672085 0.064139
0.000000 0.667960 0.038240
0.000000 0.670974 0.000000
0.000000 0.673664 0.000000
0.000000 0.671952 0.000000
0.000000 0.669104 0.000000
0.325447 0.658333 0.000000
0.462922 0.654204 0.000000
0.577949 0.649102 0.000000
0.693356 0.642333 0.000000
0.797706 0.634923 0.000000
0.870560 0.629603 0.000000
0.915898 0.634710 0.000000
0.959458 0.641098 0.000000
0.993973 0.645291 0.097534
1.000000 0.655294 0.160319
1.000000 0.666942 0.209785
1.000000 0.674951 0.265516
1.000000 0.687768 0.320547
1.000000 0.701445 0.372655
1.000000 0.715958 0.419910
1.000000 0.735008 0.476066
1.000000 0.767085 0.528739
0.000000 0.731421 0.227953
0.000000 0.731397 0.224619
0.000000 0.731367 0.224652
0.000000 0.731342 0.221310
0.000000 0.731299 0.221355
0.000000 0.734779 0.213815
0.000000 0.734719 0.210453
0.000000 0.734622 0.203659
0.000000 0.734503 0.193299
0.000000 0.734339 0.186347
0.000000 0.734112 0.179324
0.000000 0.730288 0.169645
0.000000 0.729741 0.158676
0.000000 0.728706 0.130518
0.000000 0.730772 0.093094
0.000000 0.728446 0.053222
0.212374 0.725326 0.000000
0.396610 0.721886 0.000000
0.526117 0.714086 0.000000
0.646380 0.708467 0.000000
0.756571 0.701901 0.000000
0.843674 0.692401 0.000000
0.901958 0.685052 0.000000
0.949035 0.690255 0.000000
0.983032 0.693565 0.104364
1.000000 0.698404 0.167225
1.000000 0.707766 0.229249
1.000000 0.715274 0.276378
1.000000 0.725794 0.330149
1.000000 0.737178 0.386034
1.000000 0.746556 0.436712
1.000000 0.761317 0.482870
1.000000 0.785518 0.536814
0.000000 0.777782 0.293022
0.000000 0.777748 0.289504
0.000000 0.777705 0.289536
0.000000 0.777683 0.286014
0.000000 0.780761 0.282116
0.000000 0.780713 0.278613
0.000000 0.780635 0.275132
0.000000 0.780537 0.268136
0.000000 0.783499 0.264257
0.000000 0.783331 0.253741
0.000000 0.783066 0.253899
0.000000 0.779664 0.247470
0.000000 0.782273 0.236563
0.000000 0.781497 0.222585
0.000000 0.783236 0.208008
0.000000 0.778013 0.183201
0.000000 0.775277 0.168458
0.325616 0.772136 0.148731
0.474577 0.771400 0.120746
0.605140 0.760284 0.092323
0.724742 0.750992 0.048499
0.812288 0.748751 0.000000
0.879996 0.741214 0.000000
0.933026 0.738230 0.000000
0.970848 0.743330 0.121136
1.000000 0.749771 0.187231
1.000000 0.753937 0.238329
1.000000 0.759029 0.285777
1.000000 0.765257 0.341230
1.000000 0.776578 0.397762
1.000000 0.783436 0.448748
1.000000 0.796340 0.494268
1.000000 0.808305 0.547178
0.000000 0.823329 0.355678
0.000000 0.823298 0.351979
0.000000 0.825840 0.348187
0.000000 0.825798 0.348210
0.000000 0.825760 0.344508
0.000000 0.825696 0.344542
0.000000 0.825635 0.340849
0.000000 0.825537 0.333441
0.000000 0.825377 0.329787
0.000000 0.827771 0.326027
0.000000 0.827501 0.322412
0.000000 0.827146 0.315108
0.000000 0.829181 0.307778
0.000000 0.828636 0.296909
0.000000 0.827516 0.286299
0.000000 0.828031 0.272149
0.000000 0.823131 0.251079
0.225978 0.817688 0.233832
0.422668 0.816680 0.219986
0.563754 0.812191 0.210625
0.693280 0.801351 0.187490
0.787008 0.796148 0.172301
0.855029 0.791942 0.158530
0.909782 0.791105 0.142415
0.956908 0.788672 0.145017
0.989959 0.790502 0.210426
1.000000 0.793412 0.260512
1.000000 0.799122 0.307300
1.000000 0.803339 0.359267
1.000000 0.812553 0.411566
1.000000 0.815692 0.465211
1.000000 0.828057 0.513578
1.000000 0.837086 0.556801
0.000000 0.862835 0.415178
0.000000 0.862797 0.415192
0.000000 0.864897 0.411567
0.000000 0.864835 0.411590
