Assets/Lutify-Free-LUTs-Pack/Lutify Free LUTs Pack/Cine World Pro Warm - Amy/Lutify.me-Amy-SLog2-to-Rec709.cube
# Created with: fylm.ai - Colour Grading and Collaboration Software in Cloud 
# Website: https://fylm.ai 
# META
# Option: Gamut compress
# Block 1: IDT | Sony S-Log2 S-Gamut Daylight 10-bit
# Block 2: colourMatch | Blending Mode: Normal | {"ColorSpace":0,"CrossCovarianceLimit":50,"ReshapingIterations":1,"PercentSaturationShift":100,"PercentShadingShift":100,"ExtraShading":true,"PercentTint":100,"PercentModified":100}
# Block 3: LUT | Filmic Curve Response: Standard Contrast 1 (100%)
# Block 4: LUT | Illuminant: D60 (100%)
# Block 5: hueSaturation | Blending Mode: Normal | {"hue":0,"saturation":-0.15}
# Block 6: logPrimaries | Blending Mode: Normal | {"wheels":{"shadows":{"Y":"0","R":"1","G":"1","B":"1"},"midtones":{"Y":"0","R":"1","G":"1","B":"1"},"highlights":{"Y":"0","R":"1","G":"1","B":"1"},"offset":{"Y":"0","R":"1","G":"1","B":"1"}},"sliders":{"shadows":{"Y":0,"R":-0.097,"G":0,"B":0.158},"midtones":{"Y":0,"R":0.024,"G":0.024,"B":-0.036},"highlights":{"Y":0,"R":0.154,"G":-0.084,"B":-0.024},"offset":{"Y":0.048,"R":0,"G":0,"B":0}}}
# Block 7: smartCurves | Blending Mode: Average | [[{"x":0,"y":0},{"x":0.11328125,"y":0.085540771484375},{"x":0.21484375,"y":0.218353271484375},{"x":0.37109375,"y":0.382415771484375},{"x":0.62109375,"y":0.589447021484375},{"x":0.8125,"y":0.765228271484375},{"x":1,"y":1}],[{"x":0,"y":0},{"x":1,"y":1}],[{"x":0,"y":0},{"x":1,"y":1}],[{"x":0,"y":0},{"x":1,"y":1}]]
# Block 8: LUT | Neutral Tint: Teal Tint 4 (100%)
# Block 9: contrast | Blending Mode: Normal | {"contrast":0.1}
# Block 10: ODT | Rec709
TITLE "Lutify.me-Amy-SLog2-to-Rec709" 
LUT_3D_SIZE 9
0.000000 0.000000 0.000000
0.149905 0.000000 0.000000
0.431766 0.000000 0.000000
0.619312 0.000000 0.000000
0.899015 0.000000 0.063571
1.000000 0.000000 0.195364
1.000000 0.459108 0.387547
1.000000 0.720917 0.605470
1.000000 0.862026 0.791890
0.000000 0.055902 0.000000
0.069264 0.037481 0.000000
0.410371 0.000000 0.000000
0.627795 0.000000 0.000000
0.894112 0.000000 0.055199
1.000000 0.118397 0.191863
1.000000 0.476353 0.389412
1.000000 0.727955 0.608167
1.000000 0.863165 0.791875
0.000000 0.228601 0.000000
0.000000 0.199388 0.000000
0.434243 0.119008 0.000000
0.679424 0.000000 0.000000
0.898448 0.000000 0.000000
1.000000 0.233804 0.186427
1.000000 0.500591 0.390876
1.000000 0.734901 0.610887
1.000000 0.867026 0.792383
0.000000 0.405920 0.000000
0.000000 0.381354 0.000000
0.301772 0.330304 0.000000
0.796420 0.262101 0.000000
0.902082 0.362328 0.000000
1.000000 0.424412 0.176058
1.000000 0.555665 0.392611
1.000000 0.751498 0.611179
1.000000 0.869223 0.794178
0.000000 0.606148 0.000000
0.000000 0.606148 0.000000
0.000000 0.542970 0.000000
0.725030 0.486802 0.000000
0.953991 0.526587 0.000000
1.000000 0.630924 0.000000
1.000000 0.691448 0.390413
1.000000 0.785397 0.614313
1.000000 0.878822 0.795954
0.000000 0.802532 0.000000
0.000000 0.802532 0.000000
0.000000 0.762441 0.000000
0.205593 0.718599 0.000000
0.881880 0.721523 0.000000
0.990971 0.774983 0.000000
1.000000 0.821353 0.357096
1.000000 0.855544 0.623576
1.000000 0.897594 0.802515
0.000000 0.924646 0.000000
0.000000 0.924646 0.000000
0.000000 0.924646 0.000000
0.000000 0.888978 0.000000
0.695657 0.857781 0.000000
0.923864 0.885173 0.000000
1.000000 0.900989 0.201478
1.000000 0.917855 0.612216
1.000000 0.936042 0.811980
0.000000 0.986527 0.000000
0.000000 0.986527 0.000000
0.000000 0.986527 0.000000
0.000000 0.986527 0.000000
0.000000 0.954939 0.000000
0.798834 0.953811 0.000000
0.981331 0.957100 0.287633
1.000000 0.960545 0.537995
1.000000 0.969857 0.810893
0.000000 1.000000 0.233400
0.000000 1.000000 0.233400
0.000000 1.000000 0.233400
0.000000 1.000000 0.233400
0.000000 1.000000 0.233400
0.762707 0.980397 0.101321
0.890430 0.991268 0.363008
1.000000 0.987424 0.595976
1.000000 0.989277 0.771394
0.000000 0.000000 0.064800
0.087319 0.000000 0.025693
0.345499 0.000000 0.028515
0.571420 0.000000 0.049061
0.891898 0.000000 0.110675
1.000000 0.000000 0.223155
1.000000 0.457830 0.403701
1.000000 0.720848 0.617316
1.000000 0.863142 0.795523
0.000000 0.041934 0.063964
0.000000 0.031896 0.055256
0.283942 0.000000 0.045602
0.563612 0.000000 0.058352
0.882978 0.000000 0.114778
1.000000 0.117835 0.224682
1.000000 0.475152 0.405682
1.000000 0.725562 0.617145
1.000000 0.864276 0.795506
0.000000 0.224889 0.031079
0.000000 0.216425 0.000000
0.255165 0.202644 0.000000
0.571676 0.158296 0.009159
0.887183 0.000000 0.111898
1.000000 0.238975 0.222022
1.000000 0.500503 0.407876
1.000000 0.734851 0.619805
1.000000 0.867003 0.796000
0.000000 0.412266 0.000000
0.000000 0.405890 0.000000
0.000000 0.397846 0.000000
0.570755 0.373667 0.000000
0.880069 0.381415 0.000000
1.000000 0.427701 0.222909
1.000000 0.551253 0.406643
1.000000 0.750674 0.622304
1.000000 0.870295 0.797762
0.000000 0.617263 0.000000
0.000000 0.617264 0.000000
0.000000 0.602289 0.000000
0.311959 0.603388 0.000000
0.850485 0.588136 0.000000
1.000000 0.634648 0.162456
1.000000 0.690958 0.413703
1.000000 0.784804 0.622412
1.000000 0.878800 0.799516
0.000000 0.819194 0.000000
0.000000 0.819193 0.000000
0.000000 0.799638 0.000000
0.000000 0.799914 0.000000
0.668918 0.792277 0.000000
0.971878 0.790766 0.000000
1.000000 0.825298 0.388986
1.000000 0.855511 0.632390
1.000000 0.897296 0.803747
0.000000 0.924646 0.000000
0.000000 0.927544 0.000000
0.000000 0.931733 0.000000
0.000000 0.916292 0.000000
0.000000 0.916574 0.000000
0.883332 0.899055 0.000000
1.000000 0.904645 0.264771
1.000000 0.918840 0.623491
1.000000 0.936025 0.815215
0.000000 0.986527 0.000000
0.000000 0.986527 0.000000
0.000000 0.986527 0.000000
0.000000 0.986527 0.000000
0.000000 0.976309 0.000000
0.679583 0.969716 0.000000
0.975064 0.960230 0.340801
1.000000 0.961127 0.553077
1.000000 0.969837 0.815265
0.000000 1.000000 0.233400
0.000000 1.000000 0.233400
0.000000 1.000000 0.233400
0.000000 1.000000 0.233400
0.000000 1.000000 0.233400
0.632373 0.993722 0.196602
0.878353 0.993812 0.417099
1.000000 0.987781 0.610607
1.000000 0.989261 0.774083
0.000000 0.000000 0.270426
0.046467 0.000000 0.051319
0.333487 0.000000 0.056475
0.569061 0.000000 0.108526
0.870550 0.000000 0.190341
1.000000 0.000000 0.279693
1.000000 0.456400 0.440873
1.000000 0.719795 0.631600
1.000000 0.863107 0.800929
0.000000 0.024629 0.200621
0.000000 0.010796 0.127282
0.268451 0.000000 0.130701
0.543683 0.000000 0.169405
0.872875 0.000000 0.202259
1.000000 0.102764 0.284956
1.000000 0.473830 0.440097
1.000000 0.724544 0.631426
1.000000 0.864241 0.800910
0.000000 0.268619 0.346997
0.000000 0.248417 0.323616
0.136873 0.223076 0.275732
0.538411 0.176093 0.224697
0.868111 0.000000 0.219807
1.000000 0.232569 0.291427
1.000000 0.498280 0.441942
1.000000 0.733917 0.631098
1.000000 0.866493 0.800876
0.000000 0.475638 0.401474
0.000000 0.461764 0.398984
0.000000 0.441087 0.283656
0.474439 0.433883 0.223716
0.849248 0.405446 0.225637
1.000000 0.422822 0.293447
1.000000 0.550255 0.444808
1.000000 0.750608 0.634324
1.000000 0.870262 0.803109
0.000000 0.672624 0.407336
0.000000 0.672614 0.410943
0.000000 0.639326 0.242753
0.000000 0.651854 0.118861
0.798995 0.627026 0.109988
1.000000 0.638270 0.274879
1.000000 0.693225 0.452564
1.000000 0.784702 0.643410
1.000000 0.878757 0.806577
0.000000 0.836513 0.444289
0.000000 0.836493 0.451781
0.000000 0.826679 0.362457
0.000000 0.832949 0.000000
0.560359 0.819792 0.000000
0.955031 0.801037 0.135654
1.000000 0.825112 0.446025
1.000000 0.855178 0.655507
1.000000 0.897266 0.808924
0.000000 0.937757 0.462536
0.000000 0.937738 0.469710
0.000000 0.938982 0.488118
0.000000 0.936507 0.172306
0.000000 0.932174 0.025789
0.853706 0.911138 0.169681
1.000000 0.907004 0.351671
1.000000 0.918699 0.644778
1.000000 0.936001 0.820032
0.000000 0.995101 0.369775
0.000000 0.995066 0.388634
0.000000 0.994998 0.421966
0.000000 0.995553 0.481362
0.000000 0.992512 0.225964
0.624160 0.978039 0.299849
0.967175 0.962568 0.418864
1.000000 0.961655 0.583957
1.000000 0.969784 0.819210
0.000000 1.000000 0.233400
0.000000 1.000000 0.239537
0.000000 1.000000 0.257396
0.000000 1.000000 0.263250
0.000000 1.000000 0.380887
0.316554 1.000000 0.379116
0.861051 0.996364 0.502270
1.000000 0.988505 0.642191
1.000000 0.989217 0.781358
0.000000 0.000000 0.332919
0.000000 0.000000 0.096137
0.287895 0.000000 0.095104
0.588943 0.000000 0.114149
0.852185 0.000000 0.296271
1.000000 0.000000 0.390228
1.000000 0.455995 0.497895
1.000000 0.716249 0.658562
1.000000 0.863036 0.811590
0.000000 0.037115 0.335430
0.000000 0.035691 0.221534
0.227674 0.000000 0.222507
0.537389 0.000000 0.239594
0.856290 0.000000 0.336523
1.000000 0.000000 0.401738
1.000000 0.473650 0.500395
1.000000 0.721055 0.658381
1.000000 0.865300 0.811542
0.000000 0.245853 0.489193
0.000000 0.227025 0.434072
0.000000 0.197519 0.418186
0.540844 0.114790 0.410454
0.848976 0.000000 0.384695
1.000000 0.210987 0.419382
1.000000 0.502891 0.506066
1.000000 0.730523 0.661130
1.000000 0.866423 0.811520
0.000000 0.513465 0.617146
0.000000 0.513465 0.617146
0.000000 0.450391 0.560560
0.349947 0.449043 0.530772
0.809805 0.409571 0.453156
1.000000 0.408475 0.442885
1.000000 0.556183 0.510178
1.000000 0.748919 0.663597
1.000000 0.869755 0.811461
0.000000 0.726890 0.680668
0.000000 0.726873 0.684391
0.000000 0.668069 0.627351
0.000000 0.671502 0.529330
0.716548 0.651113 0.472230
0.982654 0.653541 0.464557
1.000000 0.691784 0.525926
1.000000 0.781441 0.675561
1.000000 0.879740 0.815270
0.000000 0.869484 0.692368
0.000000 0.869468 0.695899
0.000000 0.860934 0.685386
0.000000 0.839964 0.504848
0.470027 0.833724 0.407217
0.924617 0.813828 0.409463
1.000000 0.824485 0.527330
1.000000 0.853243 0.687184
1.000000 0.898185 0.819139
0.000000 0.951451 0.758130
0.000000 0.952614 0.758228
0.000000 0.952600 0.761020
0.000000 0.941002 0.572334
0.000000 0.940447 0.461229
0.819987 0.919907 0.414913
1.000000 0.912861 0.481225
1.000000 0.920552 0.691920
1.000000 0.935831 0.829135
0.000000 0.999641 0.796770
0.000000 0.999629 0.798952
0.000000 0.999618 0.801120
0.000000 1.000000 0.807734
0.000000 0.996104 0.548037
0.586256 0.982710 0.502609
0.955322 0.964885 0.527821
1.000000 0.963946 0.641947
1.000000 0.969729 0.830704
0.000000 1.000000 0.799949
0.000000 1.000000 0.799949
0.000000 1.000000 0.806114
0.000000 1.000000 0.817306
0.000000 1.000000 0.837144
0.180824 1.000000 0.593122
0.843492 0.997875 0.608408
0.998928 0.989900 0.695786
1.000000 0.989150 0.793281
0.000000 0.000000 0.308206
0.000000 0.000000 0.205300
0.199276 0.000000 0.199742
0.516500 0.000000 0.219092
0.840978 0.000000 0.293831
1.000000 0.000000 0.527851
1.000000 0.432008 0.623149
1.000000 0.708974 0.712124
1.000000 0.864671 0.831782
0.000000 0.073584 0.476011
0.000000 0.067697 0.348428
0.119368 0.043931 0.353419
0.517871 0.000000 0.373395
0.830645 0.000000 0.404794
1.000000 0.000000 0.548368
1.000000 0.450199 0.629532
1.000000 0.716316 0.714728
1.000000 0.865804 0.831749
0.000000 0.214564 0.611173
0.000000 0.179270 0.494931
0.000000 0.168422 0.491656
0.484408 0.068732 0.503764
0.838079 0.000000 0.509662
1.000000 0.157559 0.571891
1.000000 0.481281 0.632533
1.000000 0.725972 0.717222
1.000000 0.865804 0.831749
0.000000 0.494719 0.756805
0.000000 0.473755 0.723745
0.000000 0.429159 0.677906
0.301587 0.407777 0.677888
0.808629 0.365894 0.654015
1.000000 0.383774 0.625887
1.000000 0.543708 0.647969
1.000000 0.747761 0.722533
1.000000 0.871361 0.833268
0.000000 0.750438 0.836806
0.000000 0.750438 0.836806
0.000000 0.700908 0.798817
0.000000 0.679504 0.780307
0.619839 0.662462 0.748708
0.959763 0.648989 0.688728
1.000000 0.681688 0.672826
1.000000 0.777994 0.727096
1.000000 0.880271 0.835084
0.000000 0.896071 0.867529
0.000000 0.896063 0.869304
0.000000 0.896063 0.869304
0.000000 0.855162 0.823263
0.283130 0.846558 0.757967
0.886480 0.825749 0.702644
1.000000 0.829535 0.698465
1.000000 0.852470 0.749618
1.000000 0.899730 0.840052
0.000000 0.965069 0.877640
0.000000 0.965060 0.879192
0.000000 0.965060 0.879192
0.000000 0.948495 0.842548
0.000000 0.947541 0.749826
0.767643 0.926051 0.669423
0.985983 0.914944 0.664723
1.000000 0.922051 0.759016
1.000000 0.934574 0.852394
0.000000 1.000000 0.905977
0.000000 1.000000 0.905977
0.000000 1.000000 0.907161
0.000000 1.000000 0.908335
0.000000 0.998253 0.799103
0.509847 0.985619 0.721681
0.934838 0.969092 0.685591
1.000000 0.964833 0.731206
1.000000 0.969533 0.850631
0.000000 1.000000 0.927157
0.000000 1.000000 0.928098
0.000000 1.000000 0.929032
0.000000 1.000000 0.929958
0.000000 1.000000 0.932729
0.000000 1.000000 0.788037
0.815080 0.999808 0.751378
0.991534 0.990552 0.764105
1.000000 0.989923 0.826813
0.000000 0.069897 0.455201
0.000000 0.067626 0.434722
0.113065 0.045689 0.437657
0.441724 0.000000 0.455694
0.820498 0.000000 0.492487
1.000000 0.000000 0.563199
1.000000 0.386024 0.749199
1.000000 0.704214 0.812061
1.000000 0.862115 0.865000
0.000000 0.140665 0.564910
0.000000 0.132564 0.528516
0.000000 0.124409 0.532043
0.407514 0.000000 0.544419
0.823840 0.000000 0.563843
1.000000 0.000000 0.613264
1.000000 0.412053 0.754657
1.000000 0.710714 0.813674
1.000000 0.863262 0.864950
0.000000 0.248620 0.692729
0.000000 0.229408 0.629444
0.000000 0.218570 0.629715
0.335777 0.193123 0.650901
0.816005 0.000000 0.655145
1.000000 0.000000 0.667265
1.000000 0.448932 0.768478
1.000000 0.720565 0.817431
1.000000 0.865526 0.866311
0.000000 0.424752 0.846299
0.000000 0.382541 0.752182
0.000000 0.366896 0.742649
0.000000 0.354087 0.752556
0.770678 0.285997 0.752790
1.000000 0.262840 0.748902
1.000000 0.514370 0.791246
1.000000 0.743702 0.822341
1.000000 0.868882 0.867614
0.000000 0.736786 0.908757
0.000000 0.736786 0.908757
0.000000 0.670880 0.867178
0.000000 0.661889 0.869465
0.577643 0.633480 0.858065
0.962932 0.610189 0.839622
1.000000 0.650543 0.817378
1.000000 0.774787 0.832907
1.000000 0.877855 0.868227
0.000000 0.904574 0.937092
0.000000 0.904574 0.937092
0.000000 0.904574 0.937092
0.000000 0.863984 0.917113
0.000000 0.850828 0.901877
0.837360 0.827241 0.879447
1.000000 0.826422 0.850068
1.000000 0.850709 0.847890
1.000000 0.897973 0.873554
0.000000 0.979555 0.956453
0.000000 0.979550 0.957208
0.000000 0.979550 0.957208
0.000000 0.971508 0.950748
0.000000 0.953848 0.929764
0.702079 0.934043 0.890562
0.962583 0.921406 0.862770
1.000000 0.922269 0.857903
1.000000 0.934155 0.884121
0.000000 1.000000 0.962039
0.000000 1.000000 0.962039
0.000000 1.000000 0.962039
0.000000 1.000000 0.962039
0.000000 1.000000 0.937482
0.406943 0.988998 0.893536
0.908511 0.972988 0.850402
1.000000 0.967940 0.846664
1.000000 0.971232 0.889419
0.000000 1.000000 0.973160
0.000000 1.000000 0.973160
0.000000 1.000000 0.973149
0.000000 1.000000 0.973673
0.000000 1.000000 0.974191
0.000000 1.000000 0.916698
0.791592 1.000000 0.875012
0.981092 0.992426 0.852049
1.000000 0.990902 0.872399
0.000000 0.204317 0.712822
0.000000 0.205530 0.709004
0.000000 0.202160 0.712465
0.331208 0.174904 0.714805
0.735818 0.000000 0.725614
1.000000 0.000000 0.755105
1.000000 0.182600 0.795584
1.000000 0.661767 0.887410
1.000000 0.854668 0.913666
0.000000 0.253722 0.750463
0.000000 0.253187 0.753831
0.000000 0.251012 0.757016
0.295007 0.228420 0.759314
0.719663 0.102072 0.768762
1.000000 0.000000 0.782439
1.000000 0.235848 0.813130
1.000000 0.667261 0.888671
1.000000 0.855864 0.914684
0.000000 0.318163 0.796032
0.000000 0.312586 0.796214
0.000000 0.316574 0.801733
0.173156 0.299910 0.804066
0.694242 0.233859 0.808999
1.000000 0.067072 0.809422
1.000000 0.309259 0.830958
1.000000 0.681931 0.891018
1.000000 0.858280 0.914543
0.000000 0.428116 0.855214
0.000000 0.421268 0.851022
0.000000 0.420711 0.850946
0.000000 0.412810 0.855060
0.612704 0.382131 0.856791
1.000000 0.307013 0.858277
1.000000 0.412382 0.860628
1.000000 0.705710 0.895582
1.000000 0.862058 0.916279
0.000000 0.668070 0.952320
0.000000 0.618863 0.910356
0.000000 0.600076 0.906834
0.000000 0.598273 0.909673
0.430141 0.576167 0.910026
0.954059 0.528816 0.904205
1.000000 0.569689 0.894517
1.000000 0.753231 0.906379
1.000000 0.872447 0.919908
0.000000 0.901208 0.975757
0.000000 0.901208 0.975757
0.000000 0.901213 0.976394
0.000000 0.861652 0.958005
0.000000 0.848111 0.956933
0.801494 0.817881 0.946917
1.000000 0.806956 0.935306
1.000000 0.833617 0.921942
1.000000 0.891724 0.924914
0.000000 0.985734 0.987206
0.000000 0.985734 0.987206
0.000000 0.985729 0.987634
0.000000 0.985729 0.987634
0.000000 0.961547 0.978500
0.634027 0.938368 0.966903
0.941253 0.922862 0.955319
1.000000 0.922516 0.939467
1.000000 0.931625 0.933993
0.000000 1.000000 0.993454
0.000000 1.000000 0.993454
0.000000 1.000000 0.993454
0.000000 1.000000 0.993454
0.000000 1.000000 0.988408
0.141098 0.995270 0.980061
0.876545 0.977179 0.960897
0.993054 0.971064 0.947167
1.000000 0.971806 0.943198
0.000000 1.000000 0.994955
0.000000 1.000000 0.994955
0.000000 1.000000 0.994955
0.000000 1.000000 0.994955
0.000000 1.000000 0.995239
0.000000 1.000000 0.983113
0.753532 1.000000 0.960986
0.966685 0.993701 0.941598
1.000000 0.992318 0.938061
0.000000 0.393431 0.895235
0.000000 0.389405 0.897097
0.000000 0.380888 0.898918
0.241351 0.376327 0.897888
0.600755 0.350040 0.900871
0.956189 0.277089 0.902432
1.000000 0.335754 0.912319
1.000000 0.553250 0.923195
1.000000 0.840484 0.961367
0.000000 0.417023 0.903087
0.000000 0.416336 0.904703
0.000000 0.411185 0.906314
0.196397 0.407647 0.907013
0.582293 0.381490 0.909939
0.952259 0.312337 0.909687
1.000000 0.358805 0.918721
1.000000 0.567652 0.927400
1.000000 0.841783 0.961987
0.000000 0.458586 0.914295
0.000000 0.457964 0.915748
0.000000 0.452917 0.917226
0.000000 0.447293 0.916539
0.557446 0.427946 0.920487
0.944680 0.368769 0.921353
1.000000 0.401229 0.925523
1.000000 0.586701 0.933558
1.000000 0.844391 0.962520
0.000000 0.534077 0.934270
0.000000 0.537300 0.934013
0.000000 0.532640 0.936599
0.000000 0.524461 0.936214
0.483612 0.510722 0.937226
0.907893 0.463871 0.937932
1.000000 0.477969 0.938961
1.000000 0.628123 0.940493
1.000000 0.849003 0.963576
0.000000 0.653055 0.955266
0.000000 0.649123 0.954434
0.000000 0.652310 0.956173
0.000000 0.642075 0.956261
0.318238 0.632501 0.959129
0.846147 0.592094 0.957935
1.000000 0.582825 0.955846
1.000000 0.683922 0.953357
1.000000 0.860288 0.966204
0.000000 0.858409 0.990033
0.000000 0.827806 0.976528
0.000000 0.817292 0.976541
0.000000 0.813401 0.976585
0.000000 0.801460 0.977632
0.727380 0.771627 0.976123
1.000000 0.750256 0.973213
1.000000 0.781445 0.969227
1.000000 0.883891 0.969776
0.000000 0.983983 1.000000
0.000000 0.983983 1.000000
0.000000 0.983983 1.000000
0.000000 0.970253 0.995584
0.000000 0.955950 0.995092
0.485659 0.938846 0.993313
0.921871 0.919567 0.988964
1.000000 0.913946 0.983543
1.000000 0.926116 0.977934
0.000000 1.000000 1.000000
0.000000 1.000000 1.000000
0.000000 1.000000 1.000000
0.000000 1.000000 1.000000
0.000000 1.000000 1.000000
0.000000 1.000000 1.000000
0.848672 0.978451 0.995956
0.984300 0.971122 0.990177
1.000000 0.971890 0.985245
0.000000 1.000000 1.000000
0.000000 1.000000 1.000000
0.000000 1.000000 1.000000
0.000000 1.000000 1.000000
0.000000 1.000000 1.000000
0.000000 1.000000 1.000000
0.708617 1.000000 0.999848
0.953148 0.995476 0.992814
1.000000 0.993286 0.987310
0.000000 0.604442 0.980304
0.000000 0.603637 0.980206
0.000000 0.597981 0.980938
0.265657 0.601443 0.980827
0.573076 0.586276 0.979076
0.843864 0.558081 0.980482
1.000000 0.557825 0.980582
1.000000 0.622388 0.979464
1.000000 0.777334 0.979748
0.000000 0.615879 0.981972
0.000000 0.615107 0.981877
0.000000 0.609526 0.982601
0.242378 0.609317 0.981945
0.563285 0.594529 0.980982
0.840381 0.570444 0.982126
1.000000 0.566108 0.980950
1.000000 0.628521 0.980521
1.000000 0.780275 0.980151
0.000000 0.638731 0.983679
0.000000 0.634367 0.984527
0.000000 0.628814 0.985226
0.162268 0.632569 0.983672
0.538860 0.618613 0.983498
0.821634 0.595885 0.983940
1.000000 0.586896 0.982814
1.000000 0.647931 0.981574
1.000000 0.785121 0.980988
0.000000 0.680831 0.986258
0.000000 0.676206 0.987038
0.000000 0.674802 0.987529
0.000000 0.674813 0.985555
0.493401 0.662078 0.986134
0.800372 0.636914 0.987374
1.000000 0.631779 0.986632
1.000000 0.672646 0.984706
1.000000 0.790349 0.982858
0.000000 0.743278 0.992539
0.000000 0.742631 0.992461
0.000000 0.741205 0.991723
0.000000 0.738087 0.991371
0.410084 0.729767 0.992179
0.758223 0.703766 0.991799
1.000000 0.696290 0.989925
1.000000 0.723170 0.988855
1.000000 0.814692 0.987034
0.000000 0.841838 0.997735
0.000000 0.841426 0.998122
0.000000 0.842609 0.997835
0.000000 0.837717 0.998571
0.000000 0.828854 0.998064
0.658509 0.810371 0.997897
0.954094 0.793687 0.996585
1.000000 0.796337 0.994526
1.000000 0.850178 0.991804
0.000000 0.948022 1.000000
0.000000 0.939431 1.000000
0.000000 0.935353 1.000000
0.000000 0.931540 1.000000
0.000000 0.924871 1.000000
0.498212 0.910912 1.000000
0.891538 0.890572 1.000000
1.000000 0.884436 0.998692
1.000000 0.899477 0.997337
0.000000 1.000000 1.000000
0.000000 1.000000 1.000000
0.000000 1.000000 1.000000
0.000000 1.000000 1.000000
0.000000 1.000000 1.000000
0.000000 0.996123 1.000000
0.784177 0.977870 1.000000
0.975456 0.966572 1.000000
1.000000 0.966033 1.000000
0.000000 1.000000 1.000000
0.000000 1.000000 1.000000
0.000000 1.000000 1.000000
0.000000 1.000000 1.000000
0.000000 1.000000 1.000000
0.000000 1.000000 1.000000
0.611164 1.000000 1.000000
0.937106 0.996364 1.000000
1.000000 0.992655 1.000000
