Assets/Lutify-Free-LUTs-Pack/Lutify Free LUTs Pack/Cine World Pro Warm - Amy/Lutify.me-Amy-BMDFilmGen5-to-Rec709.cube
# Created with: fylm.ai - Colour Grading and Collaboration Software in Cloud 
# Website: https://fylm.ai 
# META
# Option: Gamut compress
# Block 1: IDT | BMD Wide Gamut BMDFilm Gen 5
# Block 2: colourMatch | Blending Mode: Normal | {"ColorSpace":0,"CrossCovarianceLimit":50,"ReshapingIterations":1,"PercentSaturationShift":100,"PercentShadingShift":100,"ExtraShading":true,"PercentTint":100,"PercentModified":100}
# Block 3: LUT | Filmic Curve Response: Standard Contrast 1 (100%)
# Block 4: LUT | Illuminant: D60 (100%)
# Block 5: hueSaturation | Blending Mode: Normal | {"hue":0,"saturation":-0.15}
# Block 6: logPrimaries | Blending Mode: Normal | {"wheels":{"shadows":{"Y":"0","R":"1","G":"1","B":"1"},"midtones":{"Y":"0","R":"1","G":"1","B":"1"},"highlights":{"Y":"0","R":"1","G":"1","B":"1"},"offset":{"Y":"0","R":"1","G":"1","B":"1"}},"sliders":{"shadows":{"Y":0,"R":-0.097,"G":0,"B":0.158},"midtones":{"Y":0,"R":0.024,"G":0.024,"B":-0.036},"highlights":{"Y":0,"R":0.154,"G":-0.084,"B":-0.024},"offset":{"Y":0.048,"R":0,"G":0,"B":0}}}
# Block 7: smartCurves | Blending Mode: Average | [[{"x":0,"y":0},{"x":0.11328125,"y":0.085540771484375},{"x":0.21484375,"y":0.218353271484375},{"x":0.37109375,"y":0.382415771484375},{"x":0.62109375,"y":0.589447021484375},{"x":0.8125,"y":0.765228271484375},{"x":1,"y":1}],[{"x":0,"y":0},{"x":1,"y":1}],[{"x":0,"y":0},{"x":1,"y":1}],[{"x":0,"y":0},{"x":1,"y":1}]]
# Block 8: LUT | Neutral Tint: Teal Tint 4 (100%)
# Block 9: contrast | Blending Mode: Normal | {"contrast":0.1}
# Block 10: ODT | Rec709
TITLE "Lutify.me-Amy-BMDFilmGen5-to-Rec709" 
LUT_3D_SIZE 33
0.000000 0.000000 0.000000
0.000000 0.000000 0.000000
0.000000 0.000000 0.000000
0.000000 0.000000 0.000000
0.000000 0.000000 0.000000
0.000000 0.000000 0.000000
0.060888 0.000000 0.000000
0.118551 0.000000 0.000000
0.167510 0.000000 0.000000
0.237287 0.000000 0.000000
0.306397 0.000000 0.000000
0.381397 0.000000 0.000000
0.458240 0.000000 0.000000
0.570590 0.000000 0.000000
0.669221 0.000000 0.000000
0.767000 0.000000 0.000000
0.894959 0.000000 0.000000
0.989717 0.000000 0.000000
1.000000 0.000000 0.062092
1.000000 0.199155 0.119879
1.000000 0.381484 0.186222
1.000000 0.516567 0.263517
1.000000 0.635704 0.371129
1.000000 0.739170 0.476976
1.000000 0.812727 0.581074
1.000000 0.869017 0.691090
1.000000 0.906066 0.773340
1.000000 0.933778 0.831304
1.000000 0.955919 0.879145
1.000000 0.972133 0.914204
1.000000 0.984008 0.940666
1.000000 0.991966 0.961522
1.000000 0.997274 0.977230
0.000000 0.000000 0.000000
0.000000 0.000000 0.000000
0.000000 0.000000 0.000000
0.000000 0.000000 0.000000
0.000000 0.000000 0.000000
0.000000 0.000000 0.000000
0.064354 0.000000 0.000000
0.119487 0.000000 0.000000
0.165291 0.000000 0.000000
0.233864 0.000000 0.000000
0.304295 0.000000 0.000000
0.378688 0.000000 0.000000
0.458274 0.000000 0.000000
0.570634 0.000000 0.000000
0.669236 0.000000 0.000000
0.766991 0.000000 0.000000
0.894850 0.000000 0.000000
0.989585 0.000000 0.000000
1.000000 0.000000 0.060345
1.000000 0.204953 0.119264
1.000000 0.385200 0.185730
1.000000 0.519850 0.263154
1.000000 0.635704 0.371129
1.000000 0.739170 0.476976
1.000000 0.812727 0.581074
1.000000 0.869017 0.691090
1.000000 0.906066 0.773340
1.000000 0.933778 0.831304
1.000000 0.955919 0.879145
1.000000 0.972133 0.914204
1.000000 0.984008 0.940666
1.000000 0.991966 0.961522
1.000000 0.997274 0.977230
0.000000 0.000000 0.000000
0.000000 0.000000 0.000000
0.000000 0.000000 0.000000
0.000000 0.000000 0.000000
0.000000 0.000000 0.000000
0.000000 0.000000 0.000000
0.067436 0.000000 0.000000
0.119764 0.000000 0.000000
0.162027 0.000000 0.000000
0.228846 0.000000 0.000000
0.300148 0.000000 0.000000
0.375993 0.000000 0.000000
0.454912 0.000000 0.000000
0.570675 0.000000 0.000000
0.673465 0.000000 0.000000
0.775541 0.000000 0.000000
0.894754 0.000000 0.000000
0.989378 0.000000 0.000000
1.000000 0.000000 0.059418
1.000000 0.210626 0.118633
1.000000 0.388911 0.185230
1.000000 0.519850 0.263154
1.000000 0.638631 0.370918
1.000000 0.741339 0.476910
1.000000 0.812727 0.581074
1.000000 0.869017 0.691090
1.000000 0.906066 0.773340
1.000000 0.933778 0.831304
1.000000 0.955919 0.879145
1.000000 0.972133 0.914204
1.000000 0.984008 0.940666
1.000000 0.991966 0.961522
1.000000 0.997274 0.977230
0.000000 0.000000 0.000000
0.000000 0.000000 0.000000
0.000000 0.000000 0.000000
0.000000 0.000000 0.000000
0.000000 0.000000 0.000000
0.000000 0.000000 0.000000
0.067291 0.000000 0.000000
0.117158 0.000000 0.000000
0.160828 0.000000 0.000000
0.230463 0.000000 0.000000
0.300186 0.000000 0.000000
0.370618 0.000000 0.000000
0.454965 0.000000 0.000000
0.570732 0.000000 0.000000
0.673485 0.000000 0.000000
0.775525 0.000000 0.000000
0.894678 0.000000 0.000000
0.989235 0.000000 0.000000
1.000000 0.000000 0.057446
1.000000 0.216187 0.117986
1.000000 0.388911 0.185230
1.000000 0.523136 0.262788
1.000000 0.638631 0.370918
1.000000 0.741339 0.476910
1.000000 0.812727 0.581074
1.000000 0.869017 0.691090
1.000000 0.906066 0.773340
1.000000 0.933778 0.831304
1.000000 0.955919 0.879145
1.000000 0.972133 0.914204
1.000000 0.984008 0.940666
1.000000 0.991966 0.961522
1.000000 0.997274 0.977230
0.000000 0.000000 0.000000
0.000000 0.000000 0.000000
0.000000 0.000000 0.000000
0.000000 0.000000 0.000000
0.000000 0.000000 0.000000
0.000000 0.000000 0.012835
0.069556 0.000000 0.000000
0.115101 0.000000 0.000000
0.157497 0.000000 0.000000
0.222395 0.000000 0.000000
0.300171 0.000000 0.000000
0.375990 0.000000 0.000000
0.458416 0.000000 0.000000
0.566802 0.000000 0.000000
0.677709 0.000000 0.000000
0.779792 0.000000 0.000000
0.898304 0.000000 0.000000
0.989088 0.000000 0.000000
1.000000 0.000000 0.056394
1.000000 0.221648 0.117321
1.000000 0.388911 0.185230
1.000000 0.523136 0.262788
1.000000 0.638631 0.370918
1.000000 0.741339 0.476910
1.000000 0.812727 0.581074
1.000000 0.869017 0.691090
1.000000 0.906066 0.773340
1.000000 0.933778 0.831304
1.000000 0.955919 0.879145
1.000000 0.972133 0.914204
1.000000 0.984008 0.940666
1.000000 0.991966 0.961522
1.000000 0.997274 0.977230
0.000000 0.026625 0.000000
0.000000 0.027595 0.000000
0.000000 0.026830 0.000000
0.000000 0.025354 0.000000
0.000000 0.023734 0.000000
0.000000 0.022993 0.000000
0.062389 0.013788 0.000000
0.111666 0.000000 0.000000
0.158432 0.000000 0.000000
0.226957 0.000000 0.000000
0.302115 0.000000 0.000000
0.376028 0.000000 0.000000
0.461907 0.000000 0.000000
0.574833 0.000000 0.000000
0.681942 0.000000 0.000000
0.779767 0.000000 0.000000
0.898187 0.000000 0.000000
0.988935 0.000000 0.000000
1.000000 0.000000 0.054140
1.000000 0.227018 0.116638
1.000000 0.392617 0.184723
1.000000 0.526428 0.262419
1.000000 0.641553 0.370707
1.000000 0.741339 0.476910
1.000000 0.812727 0.581074
1.000000 0.869017 0.691090
1.000000 0.906066 0.773340
1.000000 0.933778 0.831304
1.000000 0.955919 0.879145
1.000000 0.972133 0.914204
1.000000 0.984008 0.940666
1.000000 0.991966 0.961522
1.000000 0.997274 0.977230
0.000000 0.056019 0.000000
0.000000 0.055136 0.000000
0.000000 0.056133 0.000000
0.000000 0.055372 0.000000
0.000000 0.052923 0.000000
0.000000 0.049900 0.000000
0.056022 0.048173 0.000000
0.106617 0.040293 0.000000
0.159096 0.006931 0.000000
0.233349 0.000000 0.000000
0.304195 0.000000 0.000000
0.378899 0.000000 0.000000
0.469009 0.000000 0.000000
0.578935 0.000000 0.000000
0.681983 0.000000 0.000000
0.784000 0.000000 0.000000
0.901692 0.000000 0.000000
0.991347 0.000000 0.000000
1.000000 0.000000 0.051653
1.000000 0.237489 0.115222
1.000000 0.396319 0.184208
1.000000 0.527578 0.263451
1.000000 0.641553 0.370707
1.000000 0.743499 0.476847
1.000000 0.812727 0.581074
1.000000 0.869017 0.691090
1.000000 0.906066 0.773340
1.000000 0.933778 0.831304
1.000000 0.955919 0.879145
1.000000 0.972133 0.914204
1.000000 0.984008 0.940666
1.000000 0.991966 0.961522
1.000000 0.997274 0.977230
0.000000 0.083708 0.000000
0.000000 0.083077 0.000000
0.000000 0.081128 0.000000
0.000000 0.078512 0.000000
0.000000 0.075339 0.000000
0.000000 0.072772 0.000000
0.052485 0.070136 0.000000
0.104975 0.064253 0.000000
0.163258 0.052859 0.000000
0.241965 0.000000 0.000000
0.312878 0.000000 0.000000
0.393162 0.000000 0.000000
0.483582 0.000000 0.000000
0.591213 0.000000 0.000000
0.682056 0.000000 0.000000
0.792478 0.000000 0.000000
0.905137 0.000000 0.000000
0.990828 0.000000 0.000000
1.000000 0.000000 0.047365
1.000000 0.241517 0.113733
1.000000 0.400016 0.183685
1.000000 0.530862 0.264934
1.000000 0.644470 0.370497
1.000000 0.743499 0.476847
1.000000 0.812727 0.581074
1.000000 0.869017 0.691090
1.000000 0.906066 0.773340
1.000000 0.933778 0.831304
1.000000 0.956395 0.879185
1.000000 0.972133 0.914204
1.000000 0.984008 0.940666
1.000000 0.991966 0.961522
1.000000 0.997274 0.977230
0.000000 0.119224 0.000000
0.000000 0.117272 0.000000
0.000000 0.113456 0.000000
0.000000 0.110693 0.000000
0.000000 0.108938 0.000000
0.000000 0.105999 0.000000
0.028654 0.102508 0.000000
0.103566 0.098267 0.000000
0.172018 0.088399 0.000000
0.257014 0.071838 0.000000
0.324670 0.018393 0.000000
0.408593 0.000000 0.000000
0.498932 0.000000 0.000000
0.607908 0.000000 0.000000
0.690666 0.000000 0.000000
0.796613 0.000000 0.000000
0.904637 0.000000 0.000000
0.992880 0.000000 0.000000
1.000000 0.000000 0.040110
1.000000 0.261324 0.110594
1.000000 0.411103 0.182065
1.000000 0.537453 0.264190
1.000000 0.647375 0.372535
1.000000 0.745649 0.476787
1.000000 0.814283 0.581108
1.000000 0.869017 0.691090
1.000000 0.906882 0.773406
1.000000 0.933778 0.831304
1.000000 0.956395 0.879185
1.000000 0.972133 0.914204
1.000000 0.984008 0.940666
1.000000 0.991966 0.961522
1.000000 0.997274 0.977230
0.000000 0.163281 0.000000
0.000000 0.159254 0.000000
0.000000 0.154043 0.000000
0.000000 0.152781 0.000000
0.000000 0.150230 0.000000
0.000000 0.147489 0.000000
0.000000 0.145575 0.000000
0.098321 0.141260 0.000000
0.176155 0.134153 0.000000
0.269375 0.121106 0.000000
0.337861 0.099724 0.000000
0.425939 0.066032 0.000000
0.519069 0.000000 0.000000
0.621034 0.000000 0.000000
0.703567 0.000000 0.000000
0.804849 0.000000 0.000000
0.907468 0.000000 0.000000
0.991782 0.000000 0.000000
1.000000 0.100794 0.023125
1.000000 0.285713 0.108581
1.000000 0.422180 0.180367
1.000000 0.540754 0.263813
1.000000 0.650280 0.372329
1.000000 0.747788 0.476730
1.000000 0.815834 0.581145
1.000000 0.869017 0.691090
1.000000 0.906882 0.773406
1.000000 0.934397 0.831360
1.000000 0.956395 0.879185
1.000000 0.972482 0.914237
1.000000 0.984008 0.940666
1.000000 0.991966 0.961522
1.000000 0.997274 0.977230
0.000000 0.207728 0.000000
0.000000 0.204353 0.000000
0.000000 0.201049 0.000000
0.000000 0.199357 0.000000
0.000000 0.199265 0.000000
0.000000 0.195808 0.000000
0.000000 0.193632 0.000000
0.066864 0.189019 0.000000
0.177946 0.180226 0.000000
0.279011 0.167524 0.000000
0.362207 0.151102 0.000000
0.454472 0.127896 0.000000
0.536666 0.102457 0.000000
0.642551 0.000000 0.000000
0.724945 0.000000 0.000000
0.817176 0.000000 0.000000
0.919862 0.000000 0.000000
0.989883 0.000000 0.000000
1.000000 0.170999 0.000000
1.000000 0.308952 0.106251
1.000000 0.433234 0.180211
1.000000 0.547366 0.264935
1.000000 0.656067 0.371921
1.000000 0.749917 0.476677
1.000000 0.818021 0.584852
1.000000 0.870086 0.693215
1.000000 0.907695 0.773474
1.000000 0.934397 0.831360
1.000000 0.956395 0.879185
1.000000 0.972482 0.914237
1.000000 0.984008 0.940666
1.000000 0.992155 0.961540
1.000000 0.997274 0.977230
0.000000 0.253983 0.000000
0.000000 0.253920 0.000000
0.000000 0.253834 0.000000
0.000000 0.253727 0.000000
0.000000 0.249718 0.000000
0.000000 0.247524 0.000000
0.000000 0.245010 0.000000
0.000000 0.241564 0.000000
0.166838 0.234175 0.000000
0.278919 0.224380 0.000000
0.370663 0.213513 0.000000
0.475471 0.190787 0.000000
0.582095 0.171865 0.000000
0.672861 0.155570 0.000000
0.758907 0.143507 0.000000
0.837143 0.139861 0.000000
0.930515 0.153190 0.000000
0.991316 0.179159 0.000000
1.000000 0.246602 0.000000
1.000000 0.348159 0.100731
1.000000 0.448886 0.180298
1.000000 0.557321 0.263773
1.000000 0.665728 0.374840
1.000000 0.754967 0.477925
1.000000 0.819552 0.584895
1.000000 0.871158 0.693295
1.000000 0.907695 0.773474
1.000000 0.934397 0.831360
1.000000 0.956395 0.879185
1.000000 0.972478 0.914892
1.000000 0.984005 0.941162
1.000000 0.992155 0.961540
1.000000 0.997274 0.977230
0.000000 0.319031 0.000000
0.000000 0.318965 0.000000
0.000000 0.318870 0.000000
0.000000 0.318734 0.000000
0.000000 0.318564 0.000000
0.000000 0.318335 0.000000
0.000000 0.315347 0.000000
0.000000 0.311652 0.000000
0.156385 0.306011 0.000000
0.263803 0.296670 0.000000
0.372324 0.283328 0.000000
0.490954 0.264220 0.000000
0.616962 0.246633 0.000000
0.719204 0.227033 0.000000
0.796349 0.231781 0.000000
0.866394 0.244879 0.000000
0.932685 0.268289 0.000000
0.992419 0.296083 0.000000
1.000000 0.336908 0.000000
1.000000 0.393868 0.088345
1.000000 0.475379 0.180085
1.000000 0.573019 0.258768
1.000000 0.677037 0.374081
1.000000 0.759115 0.477846
1.000000 0.822601 0.584989
1.000000 0.873283 0.693464
1.000000 0.909984 0.775516
1.000000 0.935014 0.831417
1.000000 0.956395 0.879185
1.000000 0.972826 0.914925
1.000000 0.984005 0.941162
1.000000 0.992155 0.961540
1.000000 0.997274 0.977230
0.000000 0.390042 0.000000
0.000000 0.389955 0.000000
0.000000 0.389862 0.000000
0.000000 0.386691 0.000000
0.000000 0.386524 0.000000
0.000000 0.386288 0.000000
0.000000 0.382742 0.000000
0.000000 0.378561 0.000000
0.057119 0.376470 0.000000
0.242610 0.369961 0.000000
0.367576 0.357853 0.000000
0.490926 0.348214 0.000000
0.621345 0.330362 0.000000
0.748528 0.311747 0.000000
0.842768 0.306612 0.000000
0.891917 0.318519 0.000000
0.944696 0.353026 0.000000
0.996984 0.378674 0.000000
1.000000 0.414046 0.000000
1.000000 0.454618 0.051595
1.000000 0.511888 0.172933
1.000000 0.600855 0.256409
1.000000 0.694593 0.374298
1.000000 0.765239 0.480058
1.000000 0.827137 0.585152
1.000000 0.875384 0.693644
1.000000 0.910782 0.775588
1.000000 0.935629 0.831476
1.000000 0.956869 0.879226
1.000000 0.972826 0.914925
1.000000 0.984260 0.941187
1.000000 0.992155 0.961540
1.000000 0.997409 0.977243
0.000000 0.472220 0.000000
0.000000 0.468618 0.000000
0.000000 0.468487 0.000000
0.000000 0.468288 0.000000
0.000000 0.468110 0.000000
0.000000 0.464367 0.000000
0.000000 0.463883 0.000000
0.000000 0.463136 0.000000
0.000000 0.458312 0.000000
0.201465 0.452406 0.000000
0.335849 0.448519 0.000000
0.477282 0.433989 0.000000
0.613679 0.422861 0.000000
0.742605 0.405541 0.000000
0.865071 0.382897 0.000000
0.941730 0.390423 0.000000
0.968778 0.425396 0.000000
0.998404 0.461269 0.000000
1.000000 0.492201 0.000000
1.000000 0.529911 0.000000
1.000000 0.578352 0.160342
1.000000 0.638051 0.255432
1.000000 0.714193 0.374521
1.000000 0.775879 0.481344
1.000000 0.832183 0.586727
1.000000 0.878875 0.697199
1.000000 0.911577 0.775661
1.000000 0.936722 0.832976
1.000000 0.957342 0.879268
1.000000 0.973171 0.914958
1.000000 0.984347 0.941447
1.000000 0.992342 0.961560
1.000000 0.997409 0.977243
0.000000 0.568095 0.000000
0.000000 0.567965 0.000000
0.000000 0.567792 0.000000
0.000000 0.567664 0.000000
0.000000 0.563818 0.000000
0.000000 0.563542 0.000000
0.000000 0.563227 0.000000
0.000000 0.562575 0.000000
0.000000 0.565357 0.000000
0.000000 0.563645 0.000000
0.255072 0.553565 0.000000
0.420041 0.544852 0.000000
0.587017 0.528272 0.000000
0.729604 0.509312 0.000000
0.843440 0.498750 0.000000
0.950093 0.482776 0.000000
0.999128 0.501548 0.000000
1.000000 0.554098 0.000000
1.000000 0.580451 0.000000
1.000000 0.614886 0.000000
1.000000 0.659076 0.133026
1.000000 0.692892 0.254591
1.000000 0.737260 0.375715
1.000000 0.789797 0.485095
1.000000 0.839476 0.589390
1.000000 0.882923 0.697615
1.000000 0.914730 0.777463
1.000000 0.937922 0.833099
1.000000 0.957814 0.879312
1.000000 0.973514 0.914992
1.000000 0.984600 0.941473
1.000000 0.992342 0.961560
1.000000 0.997409 0.977243
0.000000 0.671058 0.000000
0.000000 0.670942 0.000000
0.000000 0.670776 0.000000
0.000000 0.666859 0.000000
0.000000 0.666713 0.000000
0.000000 0.666559 0.000000
0.000000 0.666281 0.000000
0.000000 0.665909 0.000000
0.000000 0.665016 0.000000
0.000000 0.660018 0.000000
0.133017 0.650115 0.000000
0.359652 0.642758 0.000000
0.511394 0.637345 0.000000
0.664933 0.625188 0.000000
0.810947 0.602925 0.000000
0.915132 0.591572 0.000000
1.000000 0.581980 0.000000
1.000000 0.610939 0.000000
1.000000 0.655405 0.000000
1.000000 0.685915 0.000000
1.000000 0.716480 0.097579
1.000000 0.746599 0.252054
1.000000 0.779257 0.377258
1.000000 0.809898 0.487905
1.000000 0.852583 0.596236
1.000000 0.889262 0.701526
1.000000 0.917367 0.778642
1.000000 0.940290 0.833364
1.000000 0.959378 0.879935
1.000000 0.974193 0.915063
1.000000 0.984852 0.941498
1.000000 0.992527 0.961580
1.000000 0.997544 0.977257
0.000000 0.762460 0.000000
0.000000 0.762338 0.000000
0.000000 0.762145 0.000000
0.000000 0.761941 0.000000
0.000000 0.761724 0.000000
0.000000 0.761573 0.000000
0.000000 0.761335 0.000000
0.000000 0.761083 0.000000
0.000000 0.760433 0.000000
0.000000 0.756056 0.000000
0.000000 0.754494 0.000000
0.242149 0.751794 0.000000
0.436841 0.744463 0.000000
0.588540 0.732148 0.000000
0.726846 0.717948 0.000000
0.865260 0.708847 0.000000
0.957939 0.693481 0.000000
1.000000 0.687817 0.000000
1.000000 0.713892 0.000000
1.000000 0.753153 0.000000
1.000000 0.778394 0.000000
1.000000 0.800013 0.243972
1.000000 0.818491 0.379501
1.000000 0.843756 0.492616
1.000000 0.868672 0.601595
1.000000 0.897368 0.703801
1.000000 0.921939 0.780640
1.000000 0.942047 0.833579
1.000000 0.960291 0.880864
1.000000 0.974866 0.915137
1.000000 0.985349 0.942039
1.000000 0.992712 0.961601
1.000000 0.997679 0.977271
0.000000 0.845303 0.000000
0.000000 0.845094 0.000000
0.000000 0.844987 0.000000
0.000000 0.844657 0.000000
0.000000 0.844543 0.000000
0.000000 0.844312 0.000000
0.000000 0.846477 0.000000
0.000000 0.846115 0.000000
0.000000 0.845476 0.000000
0.000000 0.844653 0.000000
0.000000 0.843612 0.000000
0.208511 0.843889 0.000000
0.389757 0.836612 0.000000
0.529303 0.828093 0.000000
0.682049 0.817012 0.000000
0.816479 0.809544 0.000000
0.906193 0.799041 0.000000
0.973907 0.790721 0.000000
1.000000 0.781675 0.000000
1.000000 0.802211 0.000000
1.000000 0.825714 0.000000
1.000000 0.846073 0.238099
1.000000 0.857628 0.381094
1.000000 0.874807 0.507311
1.000000 0.892122 0.607370
1.000000 0.908881 0.706955
1.000000 0.928102 0.782369
1.000000 0.945129 0.834680
1.000000 0.962105 0.881061
1.000000 0.976191 0.915296
1.000000 0.985349 0.942039
1.000000 0.992895 0.961622
1.000000 0.997677 0.977577
0.000000 0.900974 0.000000
0.000000 0.900829 0.000000
0.000000 0.900830 0.000000
0.000000 0.898857 0.000000
0.000000 0.898708 0.000000
0.000000 0.898557 0.000000
0.000000 0.898404 0.000000
0.000000 0.897934 0.000000
0.000000 0.895908 0.000000
0.077147 0.895241 0.000000
0.233186 0.892638 0.000000
0.342927 0.891139 0.000000
0.447362 0.890621 0.000000
0.569979 0.885203 0.000000
0.683633 0.878858 0.000000
0.781897 0.873930 0.000000
0.864681 0.867372 0.000000
0.935619 0.861203 0.000000
0.995820 0.851047 0.000000
1.000000 0.848148 0.000000
1.000000 0.863190 0.000000
1.000000 0.879870 0.221254
1.000000 0.891619 0.383999
1.000000 0.902839 0.512273
1.000000 0.914060 0.617831
1.000000 0.925907 0.716377
1.000000 0.936711 0.786133
1.000000 0.950900 0.838472
1.000000 0.965464 0.883196
1.000000 0.977482 0.916113
1.000000 0.986089 0.942608
1.000000 0.993309 0.961849
1.000000 0.997811 0.977591
0.301889 0.936641 0.052345
0.314862 0.936456 0.053014
0.314944 0.936458 0.032286
0.339177 0.936085 0.034856
0.350588 0.935895 0.036069
0.350588 0.935895 0.036069
0.361663 0.935706 0.000000
0.372311 0.935513 0.000000
0.392733 0.935124 0.000000
0.412085 0.934728 0.000000
0.448237 0.933915 0.000000
0.505444 0.932427 0.000000
0.575848 0.930237 0.000000
0.642207 0.926599 0.000000
0.712748 0.922367 0.000000
0.787546 0.918691 0.000000
0.856296 0.913650 0.000000
0.917229 0.907466 0.000000
0.974371 0.902708 0.000000
1.000000 0.898614 0.000000
1.000000 0.896259 0.133024
1.000000 0.904570 0.239105
1.000000 0.916073 0.375912
1.000000 0.925902 0.518682
1.000000 0.933208 0.628215
1.000000 0.940384 0.720095
1.000000 0.948518 0.794590
1.000000 0.957451 0.842535
1.000000 0.968955 0.885730
1.000000 0.979467 0.917385
1.000000 0.987131 0.943458
1.000000 0.994017 0.961941
1.000000 0.998215 0.977633
0.570262 0.958563 0.290327
0.576499 0.958359 0.290459
0.576499 0.958359 0.290459
0.582641 0.958154 0.290593
0.582641 0.958154 0.290593
0.588691 0.957950 0.290730
0.594651 0.957746 0.290868
0.594720 0.957750 0.287969
0.600591 0.957546 0.288111
0.612143 0.957143 0.285509
0.628815 0.956538 0.283080
0.654827 0.956458 0.280037
0.683921 0.955291 0.272598
0.714750 0.953974 0.265583
0.760750 0.951846 0.260240
0.807358 0.949512 0.248235
0.860373 0.945720 0.227620
0.913087 0.941701 0.215852
0.960227 0.936911 0.208855
0.993823 0.933957 0.211170
1.000000 0.930960 0.222164
1.000000 0.929274 0.297803
1.000000 0.936501 0.388238
1.000000 0.944612 0.511833
1.000000 0.950840 0.635952
1.000000 0.955822 0.729124
1.000000 0.961714 0.799356
1.000000 0.968343 0.850742
1.000000 0.974550 0.887981
1.000000 0.981683 0.918097
1.000000 0.988546 0.943649
1.000000 0.994701 0.962428
1.000000 0.998618 0.977980
0.710752 0.976967 0.432479
0.710752 0.976967 0.432479
0.710752 0.976967 0.432479
0.714592 0.976801 0.432601
0.714592 0.976801 0.432601
0.714592 0.976801 0.432601
0.718374 0.976637 0.432725
0.718374 0.976637 0.432725
0.718374 0.976637 0.432725
0.729577 0.976151 0.430573
0.736817 0.975825 0.430840
0.747498 0.975345 0.428737
0.761311 0.974715 0.424329
0.780836 0.973780 0.422815
0.810860 0.972289 0.417321
0.839894 0.971435 0.414324
0.875695 0.969470 0.407059
0.916502 0.966448 0.393329
0.954416 0.964133 0.390198
0.982249 0.962416 0.386118
1.000000 0.958929 0.381154
1.000000 0.957518 0.387758
1.000000 0.956255 0.439844
1.000000 0.960704 0.516621
1.000000 0.966419 0.640352
1.000000 0.969815 0.736847
1.000000 0.973569 0.807306
1.000000 0.977494 0.853567
1.000000 0.981374 0.891835
1.000000 0.984925 0.919107
1.000000 0.990129 0.943902
1.000000 0.995524 0.962946
1.000000 0.999294 0.978356
0.806803 0.989195 0.556723
0.806803 0.989195 0.556723
0.806803 0.989195 0.556723
0.806803 0.989195 0.556723
0.806803 0.989195 0.556723
0.806803 0.989195 0.556723
0.806803 0.989195 0.556723
0.809525 0.989069 0.554447
0.809525 0.989069 0.554447
0.812122 0.988937 0.554574
0.817322 0.988682 0.552449
0.822405 0.988431 0.550346
0.832110 0.987934 0.548554
0.841345 0.987454 0.546815
0.858354 0.986539 0.545814
0.876304 0.985098 0.536681
0.902867 0.983587 0.533383
0.926075 0.982217 0.531067
0.951695 0.981145 0.529488
0.974211 0.979286 0.521925
0.997293 0.976876 0.516257
1.000000 0.976379 0.520787
1.000000 0.974842 0.532264
1.000000 0.973031 0.563227
1.000000 0.976204 0.635739
1.000000 0.979340 0.739958
1.000000 0.982415 0.812001
1.000000 0.985230 0.856268
1.000000 0.987171 0.894893
1.000000 0.990047 0.923603
1.000000 0.992664 0.944884
1.000000 0.996764 0.963564
1.000000 0.999966 0.978733
0.870875 0.995997 0.673426
0.872755 0.995906 0.671330
0.872755 0.995906 0.671330
0.872755 0.995906 0.671330
0.872755 0.995906 0.671330
0.872755 0.995906 0.671330
0.874515 0.995808 0.671451
0.874515 0.995808 0.671451
0.876262 0.995709 0.671574
0.876262 0.995709 0.671574
0.879821 0.995523 0.669617
0.881527 0.995426 0.669746
0.885003 0.995242 0.667809
0.890063 0.994966 0.666029
0.898154 0.994511 0.664581
0.907263 0.994340 0.664823
0.921527 0.993513 0.662330
0.935805 0.992692 0.656215
0.955030 0.991185 0.650824
0.972398 0.990135 0.644864
0.989200 0.988746 0.639197
1.000000 0.987291 0.635227
1.000000 0.986557 0.642721
1.000000 0.985602 0.649944
1.000000 0.985322 0.679588
1.000000 0.987121 0.737657
1.000000 0.989591 0.811270
1.000000 0.991622 0.862652
1.000000 0.993126 0.896189
1.000000 0.994833 0.926780
1.000000 0.996400 0.947790
1.000000 0.998609 0.964759
1.000000 1.000000 0.979167
0.916884 1.000000 0.759625
0.916884 1.000000 0.759625
0.918147 1.000000 0.759723
0.918147 1.000000 0.759723
