Assets/Lutify-Free-LUTs-Pack/Lutify Free LUTs Pack/Cine World Pro Warm - Amy/Lutify.me-Amy-CanonLog1-to-Rec709.cube
# Created with: fylm.ai - Colour Grading and Collaboration Software in Cloud 
# Website: https://fylm.ai 
# META
# Option: Gamut compress
# Block 1: IDT | CanonLog Cinema Gamut Daylight
# Block 2: colourMatch | Blending Mode: Normal | {"ColorSpace":0,"CrossCovarianceLimit":50,"ReshapingIterations":1,"PercentSaturationShift":100,"PercentShadingShift":100,"ExtraShading":true,"PercentTint":100,"PercentModified":100}
# Block 3: LUT | Filmic Curve Response: Standard Contrast 1 (100%)
# Block 4: LUT | Illuminant: D60 (100%)
# Block 5: hueSaturation | Blending Mode: Normal | {"hue":0,"saturation":-0.15}
# Block 6: logPrimaries | Blending Mode: Normal | {"wheels":{"shadows":{"Y":"0","R":"1","G":"1","B":"1"},"midtones":{"Y":"0","R":"1","G":"1","B":"1"},"highlights":{"Y":"0","R":"1","G":"1","B":"1"},"offset":{"Y":"0","R":"1","G":"1","B":"1"}},"sliders":{"shadows":{"Y":0,"R":-0.097,"G":0,"B":0.158},"midtones":{"Y":0,"R":0.024,"G":0.024,"B":-0.036},"highlights":{"Y":0,"R":0.154,"G":-0.084,"B":-0.024},"offset":{"Y":0.048,"R":0,"G":0,"B":0}}}
# Block 7: smartCurves | Blending Mode: Average | [[{"x":0,"y":0},{"x":0.11328125,"y":0.085540771484375},{"x":0.21484375,"y":0.218353271484375},{"x":0.37109375,"y":0.382415771484375},{"x":0.62109375,"y":0.589447021484375},{"x":0.8125,"y":0.765228271484375},{"x":1,"y":1}],[{"x":0,"y":0},{"x":1,"y":1}],[{"x":0,"y":0},{"x":1,"y":1}],[{"x":0,"y":0},{"x":1,"y":1}]]
# Block 8: LUT | Neutral Tint: Teal Tint 4 (100%)
# Block 9: contrast | Blending Mode: Normal | {"contrast":0.1}
# Block 10: ODT | Rec709
TITLE "Lutify.me-Amy-CanonLog1-to-Rec709" 
LUT_3D_SIZE 33
0.000000 0.000000 0.000000
0.000000 0.000000 0.000000
0.000000 0.000000 0.000000
0.000000 0.000000 0.000000
0.075422 0.000000 0.000000
0.204212 0.000000 0.000000
0.312826 0.000000 0.000000
0.413111 0.000000 0.000000
0.504587 0.000000 0.000000
0.606686 0.000000 0.000000
0.702727 0.000000 0.000000
0.801290 0.000000 0.000000
0.884524 0.000000 0.000000
0.949131 0.000000 0.000000
0.999084 0.000000 0.000000
1.000000 0.000000 0.040063
1.000000 0.000000 0.060198
1.000000 0.000000 0.065187
1.000000 0.000000 0.051534
1.000000 0.000000 0.042423
1.000000 0.000000 0.046516
1.000000 0.000000 0.057189
1.000000 0.000000 0.072611
1.000000 0.000000 0.100570
1.000000 0.000000 0.132990
1.000000 0.000000 0.164594
1.000000 0.238888 0.200260
1.000000 0.333023 0.239411
1.000000 0.408702 0.279773
1.000000 0.482434 0.332982
1.000000 0.546076 0.389657
1.000000 0.604990 0.438350
1.000000 0.654651 0.481408
0.000000 0.000000 0.000000
0.000000 0.000000 0.000000
0.000000 0.000000 0.000000
0.000000 0.000000 0.000000
0.065651 0.000000 0.000000
0.205667 0.000000 0.000000
0.317178 0.000000 0.000000
0.413111 0.000000 0.000000
0.504587 0.000000 0.000000
0.606686 0.000000 0.000000
0.694240 0.000000 0.000000
0.779771 0.000000 0.000000
0.844091 0.000000 0.000000
0.903580 0.000000 0.000000
0.958726 0.000000 0.000000
1.000000 0.000000 0.010028
1.000000 0.000000 0.052344
1.000000 0.000000 0.072061
1.000000 0.000000 0.059599
1.000000 0.000000 0.050764
1.000000 0.000000 0.048408
1.000000 0.000000 0.052109
1.000000 0.000000 0.072278
1.000000 0.000000 0.096597
1.000000 0.000000 0.131210
1.000000 0.147308 0.162968
1.000000 0.269617 0.199179
1.000000 0.352873 0.239368
1.000000 0.423943 0.278589
1.000000 0.495635 0.333273
1.000000 0.551515 0.387089
1.000000 0.610147 0.438051
1.000000 0.659427 0.481162
0.000000 0.000000 0.000000
0.000000 0.000000 0.000000
0.000000 0.000000 0.000000
0.000000 0.000000 0.000000
0.052561 0.000000 0.000000
0.181532 0.000000 0.000000
0.286131 0.000000 0.000000
0.381311 0.000000 0.000000
0.464979 0.000000 0.000000
0.550488 0.000000 0.000000
0.631360 0.000000 0.000000
0.719771 0.000000 0.000000
0.801307 0.000000 0.000000
0.872692 0.000000 0.000000
0.939074 0.000000 0.000000
1.000000 0.000000 0.000000
1.000000 0.000000 0.047662
1.000000 0.000000 0.073643
1.000000 0.000000 0.070841
1.000000 0.000000 0.056081
1.000000 0.000000 0.046812
1.000000 0.000000 0.048751
1.000000 0.000000 0.069778
1.000000 0.000000 0.090637
1.000000 0.000000 0.127603
1.000000 0.192553 0.161581
1.000000 0.292619 0.197364
1.000000 0.369418 0.237993
1.000000 0.437898 0.278587
1.000000 0.501404 0.332860
1.000000 0.556978 0.386745
1.000000 0.616989 0.438962
1.000000 0.661814 0.481039
0.000000 0.000000 0.000000
0.000000 0.000000 0.000000
0.000000 0.000000 0.000000
0.000000 0.000000 0.000000
0.035270 0.000000 0.000000
0.159066 0.000000 0.000000
0.260698 0.000000 0.000000
0.352425 0.000000 0.000000
0.428648 0.000000 0.000000
0.515789 0.000000 0.000000
0.606756 0.000000 0.000000
0.698556 0.000000 0.000000
0.788416 0.000000 0.000000
0.872647 0.000000 0.000000
0.935565 0.000000 0.000000
0.998704 0.000000 0.000000
1.000000 0.000000 0.049092
1.000000 0.000000 0.072454
1.000000 0.000000 0.086501
1.000000 0.000000 0.064333
1.000000 0.000000 0.047048
1.000000 0.000000 0.047373
1.000000 0.000000 0.067681
1.000000 0.000000 0.086791
1.000000 0.000000 0.124285
1.000000 0.215629 0.159898
1.000000 0.305763 0.197266
1.000000 0.381057 0.238049
1.000000 0.447103 0.277812
1.000000 0.504300 0.332651
1.000000 0.564106 0.387573
1.000000 0.616989 0.438962
1.000000 0.666586 0.480795
0.000000 0.075633 0.000000
0.000000 0.072496 0.000000
0.000000 0.068915 0.000000
0.000000 0.060377 0.000000
0.000000 0.049399 0.000000
0.143611 0.000000 0.000000
0.240442 0.000000 0.000000
0.330725 0.000000 0.000000
0.419429 0.000000 0.000000
0.504805 0.000000 0.000000
0.602825 0.000000 0.000000
0.694391 0.000000 0.000000
0.788415 0.000000 0.000000
0.872588 0.000000 0.000000
0.935461 0.000000 0.000000
0.998530 0.000000 0.000000
1.000000 0.000000 0.044231
1.000000 0.000000 0.069996
1.000000 0.000000 0.096848
1.000000 0.000000 0.072906
1.000000 0.000000 0.049596
1.000000 0.000000 0.045243
1.000000 0.000000 0.065364
1.000000 0.000000 0.084479
1.000000 0.106505 0.121172
1.000000 0.234546 0.158369
1.000000 0.316762 0.196256
1.000000 0.387626 0.237452
1.000000 0.453265 0.277279
1.000000 0.510123 0.330190
1.000000 0.569609 0.387219
1.000000 0.622200 0.436386
1.000000 0.670417 0.481908
0.000000 0.129463 0.000000
0.000000 0.126305 0.000000
0.000000 0.123221 0.000000
0.000000 0.107999 0.000000
0.000000 0.092468 0.000000
0.138954 0.075329 0.000000
0.253065 0.022349 0.000000
0.340533 0.000000 0.000000
0.422974 0.000000 0.000000
0.512613 0.000000 0.000000
0.607141 0.000000 0.000000
0.702940 0.000000 0.000000
0.792699 0.000000 0.000000
0.868516 0.000000 0.000000
0.938704 0.000000 0.000000
1.000000 0.000000 0.000000
1.000000 0.000000 0.043243
1.000000 0.000000 0.069749
1.000000 0.000000 0.097038
1.000000 0.000000 0.082099
1.000000 0.000000 0.055458
1.000000 0.000000 0.045177
1.000000 0.000000 0.063687
1.000000 0.000000 0.080085
1.000000 0.159416 0.117127
1.000000 0.248053 0.156008
1.000000 0.327653 0.195198
1.000000 0.394197 0.236840
1.000000 0.461026 0.277757
1.000000 0.517550 0.330880
1.000000 0.572372 0.387041
1.000000 0.624812 0.436232
1.000000 0.672791 0.479453
0.000000 0.182043 0.000000
0.000000 0.179029 0.000000
0.000000 0.177538 0.000000
0.000000 0.156625 0.000000
0.000000 0.141752 0.000000
0.126290 0.126174 0.000000
0.256657 0.101553 0.000000
0.354315 0.054671 0.000000
0.440291 0.000000 0.000000
0.521282 0.000000 0.000000
0.615833 0.000000 0.000000
0.720035 0.000000 0.000000
0.796896 0.000000 0.000000
0.876214 0.000000 0.000000
0.945042 0.000000 0.000000
1.000000 0.000000 0.000000
1.000000 0.000000 0.040139
1.000000 0.000000 0.068723
1.000000 0.000000 0.096945
1.000000 0.000000 0.092672
1.000000 0.000000 0.065576
1.000000 0.000000 0.047434
1.000000 0.000000 0.059866
1.000000 0.000000 0.077054
1.000000 0.184603 0.111731
1.000000 0.265365 0.153108
1.000000 0.340158 0.194995
1.000000 0.405661 0.235307
1.000000 0.470317 0.276920
1.000000 0.523391 0.330437
1.000000 0.577931 0.386679
1.000000 0.630038 0.435923
1.000000 0.675152 0.479335
0.000000 0.226881 0.000000
0.000000 0.225173 0.000000
0.000000 0.223479 0.000000
0.000000 0.202686 0.000000
0.000000 0.183523 0.000000
0.092689 0.168988 0.000000
0.255424 0.150678 0.000000
0.361531 0.124011 0.000000
0.452369 0.075672 0.000000
0.534465 0.000000 0.000000
0.624823 0.000000 0.000000
0.728657 0.000000 0.000000
0.809483 0.000000 0.000000
0.883397 0.000000 0.000000
0.953849 0.000000 0.000000
1.000000 0.000000 0.000000
1.000000 0.000000 0.033844
1.000000 0.000000 0.066760
1.000000 0.000000 0.096511
1.000000 0.000000 0.113352
1.000000 0.000000 0.076006
1.000000 0.000000 0.052872
1.000000 0.000000 0.057381
1.000000 0.087379 0.074117
1.000000 0.214429 0.107338
1.000000 0.283811 0.148659
1.000000 0.354418 0.192110
1.000000 0.418763 0.233978
1.000000 0.476544 0.274587
1.000000 0.532218 0.327726
1.000000 0.585062 0.387508
1.000000 0.635262 0.435614
1.000000 0.677511 0.479218
0.000000 0.263867 0.000000
0.000000 0.261880 0.000000
0.000000 0.257946 0.000000
0.000000 0.239160 0.000000
0.000000 0.226585 0.000000
0.000000 0.213840 0.000000
0.241431 0.193602 0.000000
0.367667 0.172363 0.000000
0.458976 0.147086 0.000000
0.548436 0.109583 0.000000
0.634343 0.000000 0.000000
0.733091 0.000000 0.000000
0.813410 0.000000 0.000000
0.893935 0.000000 0.000000
0.955741 0.000000 0.000000
1.000000 0.000000 0.000000
1.000000 0.000000 0.000000
1.000000 0.000000 0.065406
1.000000 0.000000 0.092851
1.000000 0.000000 0.122673
1.000000 0.000000 0.092436
1.000000 0.000000 0.057764
1.000000 0.000000 0.053698
1.000000 0.149218 0.070367
1.000000 0.241155 0.097916
1.000000 0.307825 0.141913
1.000000 0.370106 0.188717
1.000000 0.430097 0.232374
1.000000 0.484254 0.273301
1.000000 0.538133 0.327258
1.000000 0.590662 0.387138
1.000000 0.639379 0.436707
1.000000 0.682224 0.478986
0.000000 0.309555 0.000000
0.000000 0.307189 0.000000
0.000000 0.297923 0.000000
0.000000 0.280312 0.000000
0.000000 0.263569 0.000000
0.000000 0.255816 0.000000
0.225495 0.240363 0.000000
0.366693 0.220305 0.000000
0.465359 0.197485 0.000000
0.555178 0.171449 0.000000
0.640082 0.137445 0.000000
0.741861 0.000000 0.000000
0.821479 0.000000 0.000000
0.892635 0.000000 0.000000
0.960163 0.000000 0.000000
1.000000 0.000000 0.000000
1.000000 0.000000 0.000000
1.000000 0.000000 0.055830
1.000000 0.000000 0.091952
1.000000 0.000000 0.121262
1.000000 0.000000 0.113108
1.000000 0.000000 0.067121
1.000000 0.059075 0.049886
1.000000 0.199821 0.070231
1.000000 0.273081 0.087435
1.000000 0.335051 0.133848
1.000000 0.391135 0.181942
1.000000 0.443223 0.227825
1.000000 0.493617 0.270639
1.000000 0.547073 0.322497
1.000000 0.596304 0.384539
1.000000 0.644557 0.436404
1.000000 0.684577 0.478872
0.000000 0.358366 0.000000
0.000000 0.355605 0.000000
0.000000 0.342128 0.000000
0.000000 0.319174 0.000000
0.000000 0.306880 0.000000
0.000000 0.298625 0.000000
0.200123 0.283618 0.000000
0.360264 0.265265 0.000000
0.469120 0.246652 0.000000
0.562338 0.228743 0.000000
0.650468 0.205939 0.000000
0.750857 0.164902 0.000000
0.837362 0.114585 0.000000
0.901937 0.000000 0.000000
0.960814 0.000000 0.000000
1.000000 0.000000 0.000000
1.000000 0.000000 0.000000
1.000000 0.000000 0.033997
1.000000 0.000000 0.083351
1.000000 0.000000 0.118765
1.000000 0.000000 0.142956
1.000000 0.000000 0.088190
1.000000 0.163939 0.044026
1.000000 0.243346 0.060974
1.000000 0.312257 0.078575
1.000000 0.356623 0.125680
1.000000 0.408611 0.173962
1.000000 0.461066 0.225338
1.000000 0.510682 0.268382
1.000000 0.556069 0.321745
1.000000 0.604813 0.383962
1.000000 0.652310 0.435954
1.000000 0.692900 0.479804
0.000000 0.399630 0.000000
0.000000 0.396523 0.000000
0.000000 0.378397 0.000000
0.000000 0.350078 0.000000
0.000000 0.344416 0.000000
0.000000 0.340702 0.000000
0.165371 0.323036 0.000000
0.343104 0.314105 0.000000
0.472524 0.293668 0.000000
0.579125 0.273785 0.000000
0.656537 0.260529 0.000000
0.755704 0.231599 0.000000
0.840635 0.205917 0.000000
0.910370 0.179393 0.000000
0.963860 0.134786 0.000000
1.000000 0.095257 0.000000
1.000000 0.081197 0.000000
1.000000 0.076151 0.000000
1.000000 0.082386 0.068677
1.000000 0.117262 0.109403
1.000000 0.153755 0.140411
1.000000 0.183236 0.115685
1.000000 0.246558 0.059739
1.000000 0.297178 0.048979
1.000000 0.346367 0.072340
1.000000 0.387869 0.114157
1.000000 0.430809 0.167443
1.000000 0.477581 0.217047
1.000000 0.523293 0.265282
1.000000 0.569523 0.317892
1.000000 0.614797 0.382393
1.000000 0.661398 0.436783
1.000000 0.697537 0.479589
0.000000 0.441798 0.000000
0.000000 0.441798 0.000000
0.000000 0.405911 0.000000
0.000000 0.390281 0.000000
0.000000 0.386917 0.000000
0.000000 0.379860 0.000000
0.055768 0.367746 0.000000
0.326307 0.357181 0.000000
0.467230 0.341017 0.000000
0.577504 0.322879 0.000000
0.677207 0.302386 0.000000
0.760282 0.280809 0.000000
0.843693 0.262728 0.000000
0.911655 0.246117 0.000000
0.963695 0.223655 0.000000
1.000000 0.213716 0.000000
1.000000 0.212673 0.000000
1.000000 0.211691 0.000000
1.000000 0.211993 0.045780
1.000000 0.236843 0.103641
1.000000 0.255212 0.135688
1.000000 0.279045 0.158775
1.000000 0.306495 0.084179
1.000000 0.337762 0.035767
1.000000 0.378294 0.058867
1.000000 0.415948 0.095238
1.000000 0.452891 0.161857
1.000000 0.498704 0.210717
1.000000 0.543609 0.260780
1.000000 0.578634 0.315093
1.000000 0.626294 0.377191
1.000000 0.671589 0.436211
1.000000 0.706760 0.479176
0.000000 0.483171 0.000000
0.000000 0.472707 0.000000
0.000000 0.445195 0.000000
0.000000 0.428295 0.000000
0.000000 0.421400 0.000000
0.000000 0.417144 0.000000
0.000000 0.411579 0.000000
0.310234 0.392393 0.000000
0.455500 0.380527 0.000000
0.577041 0.362627 0.000000
0.676823 0.347289 0.000000
0.760412 0.335637 0.000000
0.846190 0.317965 0.000000
0.912161 0.306694 0.000000
0.964819 0.298586 0.000000
1.000000 0.284581 0.000000
1.000000 0.285644 0.000000
1.000000 0.293805 0.000000
1.000000 0.296660 0.000000
1.000000 0.303420 0.088519
1.000000 0.325770 0.134863
1.000000 0.346854 0.172074
1.000000 0.360555 0.130689
1.000000 0.387757 0.043224
1.000000 0.412340 0.058035
1.000000 0.443261 0.082069
1.000000 0.478335 0.147807
1.000000 0.519807 0.204148
1.000000 0.557585 0.258697
1.000000 0.595185 0.310973
1.000000 0.639055 0.375481
1.000000 0.680431 0.434840
1.000000 0.716998 0.480088
0.000000 0.529339 0.000000
0.000000 0.504317 0.000000
0.000000 0.479661 0.000000
0.000000 0.465590 0.000000
0.000000 0.465177 0.000000
0.000000 0.460807 0.000000
0.000000 0.455221 0.000000
0.265238 0.444078 0.000000
0.447490 0.425474 0.000000
0.571603 0.412358 0.000000
0.677855 0.394343 0.000000
0.763426 0.387981 0.000000
0.847947 0.373263 0.000000
0.915203 0.360509 0.000000
0.963113 0.355153 0.000000
1.000000 0.347840 0.000000
1.000000 0.344995 0.000000
1.000000 0.351852 0.000000
1.000000 0.361428 0.000000
1.000000 0.368867 0.065086
1.000000 0.378693 0.126550
1.000000 0.395200 0.167270
1.000000 0.414707 0.203883
1.000000 0.438571 0.089103
1.000000 0.459553 0.025231
1.000000 0.481922 0.073998
1.000000 0.506195 0.124957
1.000000 0.538836 0.190075
1.000000 0.580092 0.247172
1.000000 0.614837 0.306547
1.000000 0.654408 0.371479
1.000000 0.692909 0.434179
1.000000 0.725966 0.477427
0.000000 0.572993 0.000000
0.000000 0.543803 0.000000
0.000000 0.522081 0.000000
0.000000 0.514654 0.000000
0.000000 0.514141 0.000000
0.000000 0.509577 0.000000
0.000000 0.493190 0.000000
0.223724 0.486506 0.000000
0.430349 0.472147 0.000000
0.561558 0.463664 0.000000
0.673830 0.453961 0.000000
0.764928 0.437114 0.000000
0.849118 0.424043 0.000000
0.914370 0.413269 0.000000
0.967698 0.412981 0.000000
1.000000 0.407276 0.000000
1.000000 0.400676 0.000000
1.000000 0.406990 0.000000
1.000000 0.416502 0.000000
1.000000 0.425393 0.033963
1.000000 0.436320 0.109648
1.000000 0.453172 0.158864
1.000000 0.466650 0.201704
1.000000 0.475008 0.165910
1.000000 0.508990 0.035202
1.000000 0.523717 0.059187
1.000000 0.540255 0.106569
1.000000 0.562512 0.174281
1.000000 0.602829 0.233695
1.000000 0.637571 0.297951
1.000000 0.671102 0.366032
1.000000 0.707676 0.431200
1.000000 0.735773 0.478447
0.000000 0.606147 0.000000
0.000000 0.569313 0.000000
0.000000 0.561820 0.000000
0.000000 0.554107 0.000000
0.000000 0.557131 0.000000
0.000000 0.548661 0.000000
0.000000 0.539450 0.000000
0.209834 0.532779 0.000000
0.396601 0.520335 0.000000
0.543180 0.512611 0.000000
0.667343 0.503336 0.000000
0.772314 0.486096 0.000000
0.848815 0.478708 0.000000
0.909851 0.465483 0.000000
0.964194 0.465958 0.000000
1.000000 0.460873 0.000000
1.000000 0.458544 0.000000
1.000000 0.459949 0.000000
1.000000 0.473056 0.000000
1.000000 0.479615 0.000000
1.000000 0.484897 0.097453
1.000000 0.498021 0.151156
1.000000 0.514634 0.196332
1.000000 0.536431 0.243517
1.000000 0.554049 0.126212
1.000000 0.576616 0.014495
1.000000 0.595323 0.097071
1.000000 0.602586 0.151809
1.000000 0.629980 0.225820
1.000000 0.659768 0.289565
1.000000 0.693867 0.359640
1.000000 0.723088 0.429683
1.000000 0.747446 0.474923
0.000000 0.632117 0.000000
0.000000 0.613464 0.000000
0.000000 0.602059 0.000000
0.000000 0.597762 0.000000
0.000000 0.596893 0.000000
0.000000 0.588306 0.000000
0.000000 0.582632 0.000000
0.199958 0.576267 0.000000
0.375942 0.564838 0.000000
0.514957 0.551330 0.000000
0.655916 0.542115 0.000000
0.778307 0.528020 0.000000
0.850715 0.525491 0.000000
0.907234 0.517168 0.000000
0.959091 0.506366 0.000000
1.000000 0.505578 0.000000
1.000000 0.499191 0.000000
1.000000 0.504072 0.000000
1.000000 0.516030 0.000000
1.000000 0.521347 0.000000
1.000000 0.525131 0.079253
1.000000 0.540720 0.145756
1.000000 0.560675 0.199713
1.000000 0.574245 0.244172
1.000000 0.590079 0.263969
1.000000 0.615971 0.089719
1.000000 0.638184 0.079610
1.000000 0.655351 0.122979
1.000000 0.666806 0.207477
1.000000 0.689868 0.280499
1.000000 0.713174 0.347596
1.000000 0.735674 0.424033
1.000000 0.759936 0.472392
0.000000 0.654413 0.000000
0.000000 0.646739 0.000000
0.000000 0.635072 0.000000
0.000000 0.634223 0.000000
0.000000 0.629452 0.000000
0.000000 0.624678 0.000000
0.000000 0.619034 0.000000
0.229329 0.612364 0.000000
0.374074 0.605364 0.000000
0.495555 0.596959 0.000000
0.635140 0.585316 0.000000
0.765629 0.567807 0.000000
0.844738 0.565110 0.000000
0.904291 0.560722 0.000000
0.954621 0.554304 0.000000
1.000000 0.553750 0.000000
1.000000 0.551445 0.000000
1.000000 0.551586 0.000000
1.000000 0.558194 0.000000
1.000000 0.562860 0.000000
1.000000 0.568889 0.040633
1.000000 0.579090 0.136755
1.000000 0.597932 0.198490
1.000000 0.615054 0.250745
1.000000 0.630043 0.298157
1.000000 0.640199 0.223427
1.000000 0.673794 0.081522
1.000000 0.691696 0.121741
1.000000 0.699129 0.183678
1.000000 0.717713 0.266622
1.000000 0.734133 0.340032
1.000000 0.752257 0.414298
1.000000 0.768775 0.471455
0.000000 0.691530 0.000000
0.000000 0.683640 0.000000
0.000000 0.675418 0.000000
0.000000 0.670548 0.000000
0.000000 0.665843 0.000000
0.000000 0.664483 0.000000
0.000000 0.655305 0.000000
0.227171 0.649152 0.000000
0.388856 0.641921 0.000000
0.495748 0.634294 0.000000
0.623664 0.623966 0.000000
0.750131 0.607666 0.000000
0.836805 0.604793 0.000000
0.900574 0.600245 0.000000
0.948286 0.594031 0.000000
0.995444 0.593494 0.000000
1.000000 0.595469 0.000000
1.000000 0.594966 0.000000
1.000000 0.600508 0.000000
1.000000 0.603656 0.000000
1.000000 0.604797 0.000000
1.000000 0.616808 0.121546
1.000000 0.633311 0.190513
1.000000 0.647718 0.245632
1.000000 0.662447 0.294358
1.000000 0.675406 0.341682
1.000000 0.701531 0.193009
1.000000 0.720086 0.130972
1.000000 0.732708 0.160545
1.000000 0.745079 0.244770
1.000000 0.755649 0.325480
1.000000 0.770073 0.401129
1.000000 0.782984 0.468469
0.000000 0.734844 0.000000
0.000000 0.727078 0.000000
0.000000 0.718746 0.000000
0.000000 0.714037 0.000000
0.000000 0.709232 0.000000
0.000000 0.704224 0.000000
0.000000 0.698813 0.000000
0.259308 0.692825 0.000000
0.400962 0.689707 0.000000
0.499762 0.682635 0.000000
0.612046 0.669954 0.000000
0.732264 0.658859 0.000000
0.824505 0.652296 0.000000
0.893528 0.647547 0.000000
0.941883 0.641271 0.000000
0.986182 0.640652 0.000000
1.000000 0.646251 0.000000
1.000000 0.645476 0.000000
1.000000 0.646159 0.000000
1.000000 0.648719 0.000000
1.000000 0.648813 0.000000
1.000000 0.658297 0.105625
1.000000 0.672640 0.188345
1.000000 0.687022 0.246279
1.000000 0.695161 0.294043
1.000000 0.704202 0.339181
1.000000 0.721931 0.398032
1.000000 0.739583 0.180617
1.000000 0.765644 0.179844
1.000000 0.776440 0.215197
1.000000 0.785145 0.310379
1.000000 0.791130 0.390928
1.000000 0.798432 0.459455
0.000000 0.770986 0.000000
0.000000 0.763375 0.000000
0.000000 0.762014 0.000000
0.000000 0.757450 0.000000
0.000000 0.752984 0.000000
0.000000 0.748520 0.000000
0.000000 0.743397 0.000000
0.280142 0.738109 0.000000
0.411889 0.731866 0.000000
0.511119 0.728614 0.000000
0.624398 0.720210 0.000000
0.725064 0.711088 0.000000
0.812210 0.701838 0.000000
0.883509 0.697051 0.000000
0.933365 0.690712 0.000000
0.977324 0.689586 0.000000
1.000000 0.694088 0.000000
1.000000 0.692734 0.000000
1.000000 0.689182 0.000000
1.000000 0.693943 0.000000
1.000000 0.700141 0.000000
1.000000 0.700820 0.092207
1.000000 0.708732 0.183537
1.000000 0.720331 0.244884
1.000000 0.731163 0.304597
1.000000 0.737091 0.347411
1.000000 0.749340 0.400070
1.000000 0.759962 0.410241
1.000000 0.786518 0.210575
1.000000 0.801997 0.237415
1.000000 0.814457 0.296352
1.000000 0.817677 0.377459
1.000000 0.820228 0.449621
0.000000 0.800051 0.000000
0.000000 0.792763 0.000000
0.000000 0.788353 0.000000
0.000000 0.786776 0.000000
0.000000 0.785861 0.000000
0.000000 0.784548 0.000000
0.186160 0.780230 0.000000
0.336747 0.775156 0.000000
0.440268 0.772649 0.000000
0.541810 0.766203 0.000000
0.643001 0.758677 0.000000
0.721124 0.751369 0.000000
0.801552 0.740028 0.000000
0.872743 0.732093 0.000000
0.925883 0.728937 0.000000
0.970930 0.724024 0.000000
1.000000 0.724449 0.000000
1.000000 0.725965 0.000000
1.000000 0.725313 0.000000
1.000000 0.728962 0.000000
1.000000 0.736656 0.000000
1.000000 0.739856 0.089947
1.000000 0.742077 0.180100
1.000000 0.751210 0.244595
1.000000 0.761662 0.305994
1.000000 0.768413 0.352986
1.000000 0.775826 0.406242
1.000000 0.786339 0.458948
1.000000 0.797022 0.374165
1.000000 0.822465 0.253462
1.000000 0.835151 0.296067
1.000000 0.844002 0.364199
1.000000 0.845631 0.441758
0.000000 0.825422 0.000000
0.000000 0.818540 0.000000
0.000000 0.814379 0.000000
0.000000 0.812854 0.000000
0.000000 0.809085 0.000000
0.232464 0.807719 0.000000
0.311394 0.806608 0.000000
0.402559 0.802068 0.000000
0.498809 0.796605 0.000000
0.581874 0.790776 0.000000
0.672172 0.786641 0.000000
0.740662 0.780157 0.000000
0.803079 0.773559 0.000000
0.863520 0.766798 0.000000
0.917231 0.766356 0.000000
0.963059 0.761303 0.000000
0.995585 0.758124 0.000000
1.000000 0.756176 0.000000
1.000000 0.755129 0.000000
1.000000 0.757699 0.000000
1.000000 0.761357 0.000000
1.000000 0.766050 0.073049
1.000000 0.771842 0.174552
1.000000 0.779177 0.245885
1.000000 0.786724 0.305108
1.000000 0.792291 0.356187
1.000000 0.797810 0.409636
1.000000 0.806370 0.462488
1.000000 0.815208 0.511501
1.000000 0.827477 0.350225
1.000000 0.852519 0.313798
1.000000 0.859706 0.347616
1.000000 0.865960 0.427768
0.000000 0.846843 0.000000
0.000000 0.842802 0.000000
0.000000 0.839024 0.000000
0.195999 0.835023 0.000000
0.277022 0.834116 0.000000
0.350186 0.830594 0.000000
0.415707 0.829151 0.000000
0.497289 0.824512 0.000000
0.560505 0.822316 0.000000
0.630896 0.819427 0.000000
0.699399 0.813772 0.000000
0.762896 0.807904 0.000000
0.812656 0.802479 0.000000
0.860802 0.796945 0.000000
0.910537 0.793798 0.000000
0.956262 0.791300 0.000000
0.986935 0.790407 0.000000
1.000000 0.790635 0.000000
1.000000 0.786825 0.000000
1.000000 0.786053 0.000000
1.000000 0.790973 0.000000
1.000000 0.792391 0.081003
1.000000 0.794774 0.180878
1.000000 0.798391 0.249014
1.000000 0.806286 0.305240
1.000000 0.811169 0.360101
1.000000 0.817110 0.413586
1.000000 0.824089 0.466451
1.000000 0.833384 0.518995
1.000000 0.841964 0.571050
1.000000 0.859176 0.368754
1.000000 0.874594 0.369234
1.000000 0.883183 0.406350
0.000000 0.867930 0.000000
0.000000 0.863822 0.000000
0.279195 0.862222 0.000000
0.353583 0.858969 0.000000
