Assets/Lutify-Free-LUTs-Pack/Lutify Free LUTs Pack/Cine World Pro Warm - Amy/Lutify.me-Amy-BMDFilmGen4-to-Rec709.cube
# Created with: fylm.ai - Colour Grading and Collaboration Software in Cloud 
# Website: https://fylm.ai 
# META
# Option: Gamut compress
# Block 1: IDT | BMD Wide Gamut BMDFilm Gen 4
# Block 2: colourMatch | Blending Mode: Normal | {"ColorSpace":0,"CrossCovarianceLimit":50,"ReshapingIterations":1,"PercentSaturationShift":100,"PercentShadingShift":100,"ExtraShading":true,"PercentTint":100,"PercentModified":100}
# Block 3: LUT | Filmic Curve Response: Standard Contrast 1 (100%)
# Block 4: LUT | Illuminant: D60 (100%)
# Block 5: hueSaturation | Blending Mode: Normal | {"hue":0,"saturation":-0.15}
# Block 6: logPrimaries | Blending Mode: Normal | {"wheels":{"shadows":{"Y":"0","R":"1","G":"1","B":"1"},"midtones":{"Y":"0","R":"1","G":"1","B":"1"},"highlights":{"Y":"0","R":"1","G":"1","B":"1"},"offset":{"Y":"0","R":"1","G":"1","B":"1"}},"sliders":{"shadows":{"Y":0,"R":-0.097,"G":0,"B":0.158},"midtones":{"Y":0,"R":0.024,"G":0.024,"B":-0.036},"highlights":{"Y":0,"R":0.154,"G":-0.084,"B":-0.024},"offset":{"Y":0.048,"R":0,"G":0,"B":0}}}
# Block 7: smartCurves | Blending Mode: Average | [[{"x":0,"y":0},{"x":0.11328125,"y":0.085540771484375},{"x":0.21484375,"y":0.218353271484375},{"x":0.37109375,"y":0.382415771484375},{"x":0.62109375,"y":0.589447021484375},{"x":0.8125,"y":0.765228271484375},{"x":1,"y":1}],[{"x":0,"y":0},{"x":1,"y":1}],[{"x":0,"y":0},{"x":1,"y":1}],[{"x":0,"y":0},{"x":1,"y":1}]]
# Block 8: LUT | Neutral Tint: Teal Tint 4 (100%)
# Block 9: contrast | Blending Mode: Normal | {"contrast":0.1}
# Block 10: ODT | Rec709
TITLE "Lutify.me-Amy-BMDFilmGen4-to-Rec709" 
LUT_3D_SIZE 9
0.000000 0.000000 0.000000
0.102342 0.000000 0.000000
0.280303 0.000000 0.000000
0.454914 0.000000 0.000000
0.677706 0.000000 0.000000
0.905778 0.000000 0.000000
1.000000 0.000000 0.070875
1.000000 0.380300 0.188463
1.000000 0.618270 0.352093
0.000000 0.072042 0.000000
0.084139 0.059987 0.000000
0.285776 0.000000 0.000000
0.476315 0.000000 0.000000
0.686284 0.000000 0.000000
0.908564 0.000000 0.000000
1.000000 0.000000 0.061672
1.000000 0.395200 0.186485
1.000000 0.625553 0.352828
0.000000 0.199389 0.000000
0.000000 0.186898 0.000000
0.326000 0.153072 0.000000
0.532789 0.101243 0.000000
0.720745 0.000000 0.000000
0.923586 0.000000 0.000000
1.000000 0.164595 0.033887
1.000000 0.428562 0.181561
1.000000 0.637674 0.354118
0.000000 0.328988 0.000000
0.000000 0.327654 0.000000
0.325181 0.305032 0.000000
0.609880 0.265838 0.000000
0.796338 0.258375 0.000000
0.937495 0.289599 0.000000
1.000000 0.346372 0.000000
1.000000 0.474510 0.180889
1.000000 0.662552 0.355808
0.000000 0.496729 0.000000
0.000000 0.488329 0.000000
0.254554 0.471884 0.000000
0.598348 0.449739 0.000000
0.860179 0.411075 0.000000
0.966018 0.449910 0.000000
1.000000 0.516626 0.000000
1.000000 0.592966 0.158502
1.000000 0.706860 0.355442
0.000000 0.686026 0.000000
0.000000 0.681240 0.000000
0.000000 0.673868 0.000000
0.495460 0.652978 0.000000
0.808753 0.626381 0.000000
1.000000 0.597857 0.000000
1.000000 0.670656 0.000000
1.000000 0.725587 0.083938
1.000000 0.776685 0.355292
0.000000 0.852281 0.000000
0.000000 0.851097 0.000000
0.000000 0.848735 0.000000
0.372151 0.843675 0.000000
0.690091 0.821320 0.000000
0.916512 0.803258 0.000000
1.000000 0.786785 0.000000
1.000000 0.827732 0.000000
1.000000 0.858321 0.361497
0.245268 0.934963 0.000000
0.303903 0.935459 0.000000
0.403871 0.933739 0.000000
0.550604 0.928690 0.000000
0.718640 0.919650 0.000000
0.866236 0.909299 0.000000
0.979281 0.899874 0.000000
1.000000 0.891207 0.140336
1.000000 0.913711 0.349623
0.678558 0.975687 0.401940
0.687213 0.975334 0.402181
0.707935 0.974478 0.397816
0.738236 0.973160 0.391560
0.788744 0.970783 0.382132
0.871919 0.966402 0.360907
0.955473 0.960720 0.349435
1.000000 0.955450 0.344804
1.000000 0.951302 0.418334
0.000000 0.000000 0.054673
0.052657 0.000000 0.039225
0.228727 0.000000 0.038711
0.387561 0.000000 0.037526
0.628062 0.000000 0.040418
0.894745 0.000000 0.052382
1.000000 0.000000 0.110561
1.000000 0.388843 0.213935
1.000000 0.618213 0.370328
0.000000 0.069494 0.110069
0.021890 0.058472 0.085886
0.208857 0.000000 0.056935
0.395914 0.000000 0.045185
0.628168 0.000000 0.039961
0.893862 0.000000 0.051462
1.000000 0.000000 0.107553
1.000000 0.403648 0.212275
1.000000 0.624312 0.372218
0.000000 0.205674 0.127111
0.000000 0.198915 0.057603
0.209458 0.191707 0.000000
0.425502 0.162444 0.000000
0.662754 0.098511 0.000000
0.902289 0.000000 0.000000
1.000000 0.163714 0.104535
1.000000 0.433185 0.208654
1.000000 0.637614 0.374822
0.000000 0.347272 0.000000
0.000000 0.346912 0.000000
0.066515 0.348171 0.000000
0.445249 0.327947 0.000000
0.688161 0.317805 0.000000
0.914416 0.310870 0.000000
1.000000 0.350266 0.072032
1.000000 0.480967 0.203695
1.000000 0.661515 0.375513
0.000000 0.518340 0.000000
0.000000 0.525005 0.000000
0.000000 0.518900 0.000000
0.411570 0.505241 0.000000
0.712815 0.480365 0.000000
0.921301 0.484625 0.000000
1.000000 0.520284 0.000000
1.000000 0.592372 0.195999
1.000000 0.705288 0.373945
0.000000 0.705180 0.000000
0.000000 0.708146 0.000000
0.000000 0.709483 0.000000
0.304516 0.695674 0.000000
0.678519 0.677486 0.000000
0.924529 0.645898 0.000000
1.000000 0.684138 0.000000
1.000000 0.731243 0.156923
1.000000 0.776222 0.377659
0.000000 0.863599 0.000000
0.000000 0.862514 0.000000
0.000000 0.856301 0.000000
0.295412 0.851489 0.000000
0.629690 0.839883 0.000000
0.871456 0.820113 0.000000
0.999706 0.809452 0.000000
1.000000 0.837179 0.014383
1.000000 0.858289 0.380999
0.097154 0.938162 0.193510
0.238005 0.937307 0.186356
0.359900 0.935657 0.175650
0.504416 0.932382 0.148751
0.697131 0.925428 0.096191
0.846412 0.916636 0.000000
0.967774 0.905592 0.000000
1.000000 0.898645 0.093681
1.000000 0.915623 0.367732
0.673002 0.976479 0.437021
0.681871 0.976131 0.434600
0.694779 0.974931 0.428113
0.722543 0.973755 0.423764
0.784726 0.970872 0.416261
0.866199 0.967980 0.404790
0.949338 0.961716 0.381653
1.000000 0.956942 0.375203
1.000000 0.953387 0.410131
0.000000 0.000000 0.104347
0.000000 0.000000 0.066411
0.216221 0.000000 0.066635
0.377244 0.000000 0.086817
0.602159 0.000000 0.114894
0.880100 0.000000 0.124780
1.000000 0.000000 0.166915
1.000000 0.386473 0.244411
1.000000 0.613872 0.395751
0.000000 0.037032 0.164235
0.000000 0.027902 0.136898
0.191608 0.000000 0.135787
0.372113 0.000000 0.140287
0.610369 0.000000 0.133272
0.875163 0.000000 0.129577
1.000000 0.000000 0.168870
1.000000 0.406178 0.247193
1.000000 0.623066 0.395141
0.000000 0.222458 0.297424
0.000000 0.201875 0.282331
0.116950 0.199528 0.253359
0.367768 0.179182 0.198079
0.614944 0.120759 0.157369
0.887729 0.000000 0.134230
1.000000 0.170181 0.167681
1.000000 0.432114 0.250587
1.000000 0.636428 0.397832
0.000000 0.367412 0.347356
0.000000 0.367492 0.305488
0.000000 0.372138 0.251687
0.344114 0.365105 0.196973
0.642261 0.341685 0.148310
0.889449 0.315330 0.127947
1.000000 0.349703 0.164252
1.000000 0.482961 0.246501
1.000000 0.657487 0.401445
0.000000 0.532635 0.262354
0.000000 0.539553 0.232430
0.000000 0.545168 0.177980
0.289252 0.534599 0.127565
0.640159 0.513041 0.000000
0.888493 0.507034 0.000000
1.000000 0.535444 0.136697
1.000000 0.594880 0.251813
1.000000 0.703708 0.403784
0.000000 0.730601 0.180381
0.000000 0.726469 0.163564
0.000000 0.724747 0.103277
0.101398 0.726160 0.000000
0.584342 0.708046 0.000000
0.880114 0.686365 0.000000
1.000000 0.697588 0.000000
1.000000 0.733363 0.229793
1.000000 0.775734 0.411467
0.000000 0.870340 0.214296
0.000000 0.871337 0.202877
0.000000 0.869491 0.178624
0.102747 0.859293 0.143189
0.576916 0.852523 0.000000
0.843411 0.835042 0.000000
0.981145 0.823026 0.000000
1.000000 0.840745 0.196390
1.000000 0.861201 0.417356
0.000000 0.939375 0.320964
0.155572 0.938875 0.317769
0.329902 0.938272 0.312721
0.484363 0.935071 0.297273
0.679875 0.928380 0.261218
0.836092 0.918285 0.220810
0.958274 0.909762 0.191698
1.000000 0.905922 0.183284
1.000000 0.917447 0.403345
0.666506 0.978535 0.495485
0.675368 0.978183 0.495650
0.688430 0.977676 0.490356
0.716630 0.975849 0.481402
0.773549 0.971935 0.464265
0.860305 0.968816 0.454720
0.942112 0.963381 0.434590
0.999337 0.959229 0.419333
1.000000 0.956113 0.434792
0.000000 0.000000 0.141572
0.000000 0.000000 0.093110
0.190956 0.000000 0.091263
0.382993 0.000000 0.094939
0.587336 0.000000 0.173845
0.858866 0.000000 0.234934
1.000000 0.000000 0.257772
1.000000 0.376340 0.320221
1.000000 0.611344 0.432133
0.000000 0.030598 0.213257
0.000000 0.027348 0.181846
0.162272 0.000000 0.183912
0.369456 0.000000 0.188049
0.597078 0.000000 0.237585
0.866090 0.000000 0.258187
1.000000 0.000000 0.263181
1.000000 0.395216 0.324047
1.000000 0.617522 0.431768
0.000000 0.180295 0.365039
0.000000 0.165708 0.351382
0.042792 0.160772 0.351385
0.367884 0.126886 0.339079
0.612052 0.000000 0.314047
0.867168 0.000000 0.278240
1.000000 0.161946 0.267634
1.000000 0.426198 0.327800
1.000000 0.631030 0.431931
0.000000 0.378710 0.483716
0.000000 0.369520 0.484216
0.000000 0.365449 0.456293
0.263966 0.363987 0.442353
0.584898 0.341685 0.372775
0.863255 0.319874 0.312804
1.000000 0.344626 0.280800
1.000000 0.477461 0.331566
1.000000 0.656382 0.436744
0.000000 0.549965 0.536550
0.000000 0.553481 0.517900
0.000000 0.548736 0.481783
0.096986 0.554391 0.428054
0.568967 0.543603 0.373911
0.859866 0.521589 0.316711
1.000000 0.531158 0.287175
1.000000 0.589994 0.335121
1.000000 0.702853 0.442374
0.000000 0.737349 0.479743
0.000000 0.740397 0.461038
0.000000 0.742310 0.424256
0.000000 0.734439 0.385230
0.510704 0.728057 0.332957
0.829340 0.707392 0.278149
0.983382 0.704258 0.269287
1.000000 0.732533 0.338837
1.000000 0.779271 0.460557
0.000000 0.874536 0.424069
0.000000 0.875867 0.416959
0.000000 0.874053 0.398912
0.000000 0.871880 0.370699
0.530127 0.863893 0.329155
0.803967 0.851602 0.278713
0.961013 0.836336 0.213375
1.000000 0.844049 0.334817
1.000000 0.865380 0.476945
0.000000 0.942216 0.471791
0.000000 0.941262 0.465067
0.242223 0.941238 0.455617
0.424704 0.938411 0.439219
0.648388 0.932736 0.421951
0.802125 0.926845 0.385391
0.942097 0.917593 0.360630
1.000000 0.911751 0.334398
1.000000 0.919257 0.469154
0.639112 0.979842 0.577716
0.653537 0.979315 0.574869
0.671770 0.978620 0.572103
0.701267 0.977443 0.566595
0.756494 0.974379 0.554931
0.846147 0.969936 0.532912
0.933669 0.964941 0.514121
0.994150 0.961288 0.499061
1.000000 0.958613 0.496940
0.000000 0.000000 0.152562
0.036802 0.000000 0.125988
0.154151 0.000000 0.125086
0.364890 0.000000 0.128187
0.613895 0.000000 0.143246
0.833604 0.000000 0.318207
1.000000 0.000000 0.406284
1.000000 0.353208 0.431927
1.000000 0.610606 0.502507
0.000000 0.028400 0.252389
0.000000 0.025361 0.233823
0.118568 0.000000 0.234802
0.339699 0.000000 0.248236
0.584920 0.000000 0.259672
0.843984 0.000000 0.367598
1.000000 0.000000 0.418627
1.000000 0.368910 0.434475
1.000000 0.620027 0.502032
0.000000 0.121162 0.381662
0.000000 0.118021 0.375798
0.000000 0.108597 0.378828
0.326242 0.038519 0.389778
0.606100 0.000000 0.382251
0.851423 0.000000 0.420653
1.000000 0.100950 0.433883
1.000000 0.412344 0.439492
1.000000 0.630533 0.505208
0.000000 0.331871 0.562238
0.000000 0.331813 0.562267
0.000000 0.320248 0.562760
0.231076 0.314950 0.555054
0.588994 0.287782 0.532170
0.847791 0.256105 0.499583
1.000000 0.296455 0.461683
1.000000 0.461759 0.450014
1.000000 0.656189 0.513605
0.000000 0.556518 0.686624
0.000000 0.560100 0.682682
0.000000 0.559319 0.671423
0.000000 0.555079 0.652576
0.467897 0.547234 0.633410
0.802554 0.521957 0.555750
0.996704 0.534711 0.501351
1.000000 0.571561 0.467708
1.000000 0.704638 0.521852
0.000000 0.746934 0.735953
0.000000 0.746596 0.732648
0.000000 0.745547 0.708676
0.000000 0.745071 0.679582
0.395135 0.743485 0.630372
0.779806 0.723203 0.571864
0.961829 0.718070 0.514605
1.000000 0.739651 0.487386
1.000000 0.773374 0.534392
0.000000 0.878499 0.699468
0.000000 0.877684 0.688989
0.000000 0.876263 0.674695
0.000000 0.874431 0.641484
0.429267 0.869448 0.600883
0.750049 0.859376 0.558486
0.933251 0.847043 0.505005
1.000000 0.849095 0.498819
1.000000 0.866125 0.558594
0.000000 0.948205 0.646896
0.000000 0.947761 0.646926
0.000000 0.947458 0.643803
0.340264 0.943557 0.629456
0.592976 0.935098 0.601128
0.774722 0.929759 0.565897
0.919769 0.920633 0.526708
0.999906 0.918535 0.491058
1.000000 0.919854 0.559447
0.600780 0.981759 0.698179
0.611547 0.981410 0.695319
0.637022 0.980540 0.689599
0.669556 0.979340 0.683923
0.729021 0.977546 0.676317
0.828002 0.972208 0.656848
0.918198 0.967283 0.627180
0.983104 0.963443 0.603643
1.000000 0.960976 0.591730
0.000000 0.000000 0.164437
0.072007 0.000000 0.156070
0.163520 0.000000 0.154010
0.332531 0.000000 0.159863
0.591745 0.000000 0.176722
0.863242 0.000000 0.219086
1.000000 0.000000 0.498787
1.000000 0.304200 0.589887
1.000000 0.591368 0.619399
0.000000 0.016009 0.283147
0.000000 0.000000 0.278736
0.110722 0.000000 0.278141
0.291997 0.000000 0.289020
0.562907 0.000000 0.315024
0.821089 0.000000 0.347379
1.000000 0.000000 0.529814
1.000000 0.324030 0.599686
1.000000 0.597722 0.622418
0.000000 0.114545 0.451069
0.000000 0.110056 0.444294
0.000000 0.103833 0.451126
0.264364 0.062215 0.456924
0.567115 0.000000 0.461698
0.836839 0.000000 0.475077
1.000000 0.000000 0.568496
1.000000 0.368730 0.609175
1.000000 0.614800 0.625454
0.000000 0.258793 0.598497
0.000000 0.254426 0.594928
0.000000 0.253650 0.594919
0.163228 0.241708 0.609556
0.562073 0.185180 0.607708
0.854857 0.000000 0.595528
1.000000 0.200659 0.617315
1.000000 0.440118 0.628574
1.000000 0.642293 0.635093
0.000000 0.530453 0.774027
0.000000 0.526731 0.771120
0.000000 0.522676 0.774393
0.000000 0.519387 0.774178
0.456505 0.509386 0.757375
0.808757 0.480755 0.726535
0.986809 0.486476 0.695133
1.000000 0.545022 0.657286
1.000000 0.689564 0.643920
0.000000 0.753450 0.849566
0.000000 0.749899 0.849773
0.000000 0.749143 0.845472
0.000000 0.742466 0.836716
0.277118 0.737760 0.817566
0.701348 0.722795 0.797018
0.923287 0.718435 0.745528
1.000000 0.728853 0.695372
1.000000 0.771666 0.664316
0.000000 0.884541 0.874954
0.000000 0.883871 0.871454
0.000000 0.882415 0.866020
0.000000 0.880698 0.854432
0.274007 0.872416 0.831748
0.682079 0.862827 0.804249
0.894188 0.851597 0.761468
0.994678 0.853906 0.715894
1.000000 0.861556 0.690897
0.000000 0.951687 0.851456
0.000000 0.951164 0.849558
0.000000 0.950043 0.845705
0.000000 0.948752 0.835807
0.516905 0.943624 0.814749
0.713813 0.936629 0.785203
0.888851 0.926682 0.745332
0.981400 0.922641 0.706938
1.000000 0.923265 0.699942
0.567985 0.982545 0.816040
0.573942 0.982375 0.814016
0.596831 0.982297 0.810129
0.637525 0.980903 0.806013
0.698339 0.978605 0.795569
0.801638 0.975215 0.781440
0.899309 0.970703 0.756134
0.970083 0.965990 0.730578
1.000000 0.963140 0.710060
0.086842 0.000000 0.198427
0.137465 0.000000 0.196162
0.211964 0.000000 0.197785
0.327890 0.000000 0.203283
0.539105 0.000000 0.224455
0.823685 0.000000 0.273320
1.000000 0.000000 0.375838
1.000000 0.108686 0.696319
1.000000 0.562974 0.774056
0.000000 0.000000 0.338047
0.050398 0.000000 0.337797
0.155819 0.000000 0.339796
0.269740 0.000000 0.354846
0.518394 0.000000 0.376379
0.806859 0.000000 0.430891
1.000000 0.000000 0.488252
1.000000 0.180717 0.709814
1.000000 0.572584 0.776377
0.000000 0.111720 0.528917
0.000000 0.109393 0.528893
0.000000 0.106662 0.528695
0.215587 0.083250 0.538830
0.510363 0.000000 0.547296
0.821033 0.000000 0.571179
1.000000 0.000000 0.594310
1.000000 0.247547 0.722686
1.000000 0.586560 0.781322
0.000000 0.250730 0.677606
0.000000 0.248370 0.673900
0.000000 0.249314 0.681289
0.000000 0.242277 0.684760
0.481856 0.197857 0.694205
0.820740 0.000000 0.691858
1.000000 0.000000 0.695889
1.000000 0.353838 0.753556
1.000000 0.609204 0.785579
0.000000 0.418008 0.794625
0.000000 0.414439 0.797676
0.000000 0.417114 0.800334
0.000000 0.414838 0.800108
0.412398 0.400023 0.807215
0.803384 0.351771 0.796550
1.000000 0.330217 0.792886
1.000000 0.483716 0.798589
1.000000 0.662479 0.795386
0.000000 0.722226 0.899247
0.000000 0.718515 0.897899
0.000000 0.717933 0.899404
0.000000 0.719526 0.897399
0.000000 0.708333 0.895302
0.693724 0.690921 0.882208
0.934667 0.682084 0.866475
1.000000 0.699780 0.842373
1.000000 0.745202 0.812421
0.000000 0.885150 0.937249
0.000000 0.884799 0.937215
0.000000 0.885657 0.935926
0.000000 0.878744 0.932702
0.000000 0.872299 0.921887
0.624115 0.862551 0.909748
0.865021 0.850279 0.895814
0.979836 0.847912 0.868384
1.000000 0.860192 0.840320
0.000000 0.955082 0.945606
0.000000 0.954419 0.944662
0.000000 0.953461 0.942778
0.000000 0.951263 0.938873
0.418569 0.945015 0.931481
0.672010 0.937247 0.916842
0.858470 0.930296 0.900668
0.960651 0.923528 0.878366
1.000000 0.925587 0.850903
0.502654 0.986451 0.931332
0.515988 0.986105 0.930344
0.541233 0.985404 0.929320
0.581298 0.983598 0.926270
0.655437 0.981076 0.917756
0.762771 0.977217 0.907462
0.868780 0.972492 0.893015
0.950945 0.968462 0.871387
1.000000 0.965777 0.849527
0.246011 0.000000 0.184765
0.277230 0.000000 0.188528
0.327312 0.000000 0.190432
0.417745 0.000000 0.196508
0.555999 0.000000 0.219006
0.794681 0.000000 0.273043
1.000000 0.000000 0.381168
1.000000 0.000000 0.557484
1.000000 0.455468 0.845536
0.158437 0.000000 0.339792
0.193517 0.000000 0.342080
0.251535 0.000000 0.349515
0.336144 0.000000 0.359640
0.506274 0.000000 0.385651
0.762164 0.000000 0.444212
0.991911 0.000000 0.525862
1.000000 0.000000 0.640556
1.000000 0.471099 0.849157
0.000000 0.091113 0.587648
0.000000 0.086723 0.591202
0.129240 0.076004 0.594578
0.285381 0.015524 0.597269
0.467016 0.000000 0.610400
0.760262 0.000000 0.633973
0.999078 0.000000 0.663692
1.000000 0.000000 0.711263
1.000000 0.494636 0.854497
0.000000 0.250119 0.757206
0.000000 0.249274 0.760482
0.000000 0.245392 0.760397
0.144877 0.234462 0.759982
0.425862 0.207381 0.765079
0.751882 0.060307 0.771631
1.000000 0.000000 0.782443
1.000000 0.048638 0.794485
1.000000 0.538072 0.866333
0.000000 0.407002 0.851537
0.000000 0.406537 0.851478
0.000000 0.405571 0.853617
0.000000 0.396035 0.855821
0.334860 0.386399 0.854835
0.721840 0.344575 0.856621
0.986602 0.285185 0.856732
1.000000 0.341836 0.851443
1.000000 0.597158 0.881648
0.000000 0.610497 0.916466
0.000000 0.613914 0.917606
0.000000 0.613228 0.918900
0.000000 0.607343 0.916082
0.117729 0.597668 0.918411
0.648765 0.575706 0.915503
0.946305 0.550102 0.910659
1.000000 0.565079 0.900675
1.000000 0.695091 0.898616
0.000000 0.862491 0.963361
0.000000 0.864254 0.963168
0.000000 0.865396 0.962916
0.000000 0.861458 0.962885
0.000000 0.854855 0.961024
0.551106 0.842931 0.955865
0.850362 0.826163 0.950485
0.988318 0.820611 0.938537
1.000000 0.837361 0.924190
0.000000 0.959305 0.979749
0.000000 0.958754 0.979154
0.000000 0.957679 0.978504
0.000000 0.953683 0.977371
0.195999 0.948870 0.975618
0.617459 0.940020 0.971297
0.827426 0.930451 0.964137
0.943383 0.923793 0.956723
1.000000 0.923109 0.940833
0.389684 0.989682 0.982333
0.414580 0.988614 0.982334
0.448156 0.988499 0.982230
0.504569 0.987138 0.981205
0.597247 0.984984 0.979052
0.725393 0.980079 0.975145
0.846803 0.975351 0.969714
0.935496 0.969751 0.960308
0.987821 0.967990 0.946336
0.406193 0.000000 0.222419
0.430240 0.000000 0.227456
0.471444 0.000000 0.234248
0.534853 0.000000 0.249392
0.625516 0.000000 0.272376
0.771922 0.000000 0.325433
0.976642 0.000000 0.439780
1.000000 0.000000 0.635896
1.000000 0.000000 0.784035
0.326317 0.000000 0.406116
0.353213 0.000000 0.409178
0.391704 0.000000 0.415478
0.468080 0.000000 0.428242
0.569149 0.000000 0.458240
0.734216 0.000000 0.520805
0.968347 0.000000 0.619363
1.000000 0.000000 0.718045
1.000000 0.093176 0.809894
0.231995 0.054912 0.672389
0.267444 0.026503 0.675881
0.322638 0.000000 0.675400
0.403606 0.000000 0.682091
0.527137 0.000000 0.695718
0.723022 0.000000 0.715783
0.970776 0.000000 0.755535
1.000000 0.000000 0.801327
1.000000 0.230146 0.843206
0.000000 0.251891 0.830670
0.000000 0.249847 0.833022
0.163978 0.246748 0.835254
0.320495 0.234873 0.837044
0.479443 0.213498 0.835732
0.697407 0.158873 0.842775
0.955837 0.000000 0.853510
1.000000 0.000000 0.865080
1.000000 0.344603 0.877214
0.000000 0.414489 0.904458
0.000000 0.413481 0.904331
0.000000 0.408540 0.905986
0.135432 0.408652 0.905455
0.394957 0.400047 0.904569
0.658298 0.376445 0.907548
0.937666 0.320009 0.906616
1.000000 0.333245 0.909385
1.000000 0.452229 0.914006
0.000000 0.601367 0.946922
0.000000 0.600751 0.946845
0.000000 0.595909 0.946917
0.000000 0.593646 0.946651
0.242442 0.589310 0.948402
0.578675 0.576989 0.951470
0.889521 0.543869 0.948521
1.000000 0.542822 0.946632
1.000000 0.596332 0.940220
0.000000 0.791091 0.976230
0.000000 0.790779 0.976196
0.000000 0.787253 0.976329
0.000000 0.785789 0.976172
0.000000 0.784797 0.975565
0.510231 0.772725 0.974854
0.820425 0.757239 0.972692
1.000000 0.744226 0.970173
1.000000 0.756440 0.963254
0.000000 0.948546 0.994028
0.000000 0.948268 0.994001
0.000000 0.945930 0.993593
0.000000 0.944257 0.993047
0.000000 0.941036 0.992746
0.501870 0.933932 0.991313
0.774428 0.923267 0.989178
0.933420 0.914324 0.985458
1.000000 0.910650 0.980990
0.000000 0.992323 0.999674
0.084591 0.991903 0.999377
0.233275 0.991703 0.999517
0.368332 0.989979 0.999104
0.500755 0.987739 0.998281
0.671828 0.981585 0.997308
0.815784 0.975049 0.994768
0.917782 0.968779 0.991537
0.980220 0.966282 0.987016
