Assets/Lutify-Free-LUTs-Pack/Lutify Free LUTs Pack/Cine World Pro Warm - Amy/Lutify.me-Amy-ACEScct-to-ACEScct.cube
# Created with: fylm.ai - Colour Grading and Collaboration Software in Cloud 
# Website: https://fylm.ai 
# META
# Option: Gamut compress
# Block 1: LUT | Filmic Curve Response: Standard Contrast 1 (100%)
# Block 2: LUT | Illuminant: D60 (100%)
# Block 3: hueSaturation | Blending Mode: Normal | {"hue":0,"saturation":-0.15}
# Block 4: logPrimaries | Blending Mode: Normal | {"wheels":{"shadows":{"Y":"0","R":"1","G":"1","B":"1"},"midtones":{"Y":"0","R":"1","G":"1","B":"1"},"highlights":{"Y":"0","R":"1","G":"1","B":"1"},"offset":{"Y":"0","R":"1","G":"1","B":"1"}},"sliders":{"shadows":{"Y":0,"R":-0.097,"G":0,"B":0.158},"midtones":{"Y":0,"R":0.024,"G":0.024,"B":-0.036},"highlights":{"Y":0,"R":0.154,"G":-0.084,"B":-0.024},"offset":{"Y":0.048,"R":0,"G":0,"B":0}}}
# Block 5: smartCurves | Blending Mode: Average | [[{"x":0,"y":0},{"x":0.11328125,"y":0.085540771484375},{"x":0.21484375,"y":0.218353271484375},{"x":0.37109375,"y":0.382415771484375},{"x":0.62109375,"y":0.589447021484375},{"x":0.8125,"y":0.765228271484375},{"x":1,"y":1}],[{"x":0,"y":0},{"x":1,"y":1}],[{"x":0,"y":0},{"x":1,"y":1}],[{"x":0,"y":0},{"x":1,"y":1}]]
# Block 6: LUT | Neutral Tint: Teal Tint 4 (100%)
# Block 7: contrast | Blending Mode: Normal | {"contrast":0.1}
TITLE "Lutify.me-Amy-ACEScct-to-ACEScct" 
LUT_3D_SIZE 33
0.017993 0.040516 0.075814
0.030599 0.039614 0.081270
0.028797 0.045027 0.080361
0.036907 0.049542 0.083999
0.048637 0.049542 0.090385
0.083999 0.049542 0.085821
0.132680 0.050446 0.082180
0.188159 0.053158 0.083089
0.238584 0.054967 0.084908
0.282512 0.056775 0.087646
0.329196 0.061299 0.089472
0.363086 0.065831 0.091297
0.393071 0.076723 0.094036
0.420088 0.092210 0.099522
0.451373 0.128052 0.108687
0.476460 0.177692 0.128052
0.508893 0.225822 0.156932
0.543401 0.275452 0.188159
0.574708 0.318986 0.230724
0.616251 0.355873 0.271444
0.653391 0.392035 0.312885
0.687115 0.426335 0.352781
0.719506 0.453464 0.391000
0.757458 0.481691 0.420088
0.787805 0.512032 0.450328
0.822308 0.539220 0.481691
0.853368 0.568450 0.506800
0.881188 0.602786 0.538175
0.910528 0.632792 0.568450
0.938701 0.661585 0.599671
0.964896 0.695251 0.633822
0.987407 0.725557 0.674901
1.000000 0.754490 0.711437
0.017093 0.045027 0.074904
0.024293 0.042321 0.074904
0.028797 0.045930 0.080361
0.036907 0.049542 0.083999
0.046832 0.050446 0.090385
0.081270 0.051350 0.086734
0.130829 0.052254 0.082180
0.187203 0.054063 0.083089
0.234646 0.056775 0.085821
0.279486 0.058584 0.087646
0.328172 0.063112 0.089472
0.361025 0.068551 0.092210
0.392035 0.080361 0.094036
0.419048 0.100438 0.100438
0.450328 0.135463 0.109604
0.476460 0.183387 0.128052
0.509939 0.229744 0.156932
0.543401 0.278477 0.188159
0.574708 0.321020 0.231704
0.616251 0.356903 0.272443
0.653391 0.393071 0.312885
0.687115 0.426335 0.353812
0.719506 0.453464 0.391000
0.757458 0.481691 0.420088
0.787805 0.513078 0.450328
0.822308 0.539220 0.481691
0.853368 0.568450 0.506800
0.881188 0.602786 0.538175
0.910528 0.632792 0.568450
0.938701 0.661585 0.599671
0.964896 0.695251 0.633822
0.987407 0.725557 0.674901
1.000000 0.754490 0.711437
0.022493 0.049542 0.082180
0.024293 0.048637 0.082180
0.027896 0.048637 0.081270
0.036005 0.050446 0.083999
0.045930 0.052254 0.091297
0.079451 0.052254 0.088559
0.129903 0.054063 0.082180
0.185290 0.056775 0.083089
0.231704 0.058584 0.085821
0.277469 0.061299 0.087646
0.325099 0.065831 0.089472
0.359995 0.073995 0.092210
0.391000 0.083999 0.094036
0.419048 0.106854 0.101355
0.450328 0.141978 0.110525
0.476460 0.189115 0.129903
0.509939 0.232685 0.157868
0.543401 0.281503 0.189115
0.574708 0.322037 0.231704
0.616251 0.357934 0.272443
0.653391 0.393071 0.313901
0.687115 0.426335 0.353812
0.719506 0.453464 0.391000
0.757458 0.481691 0.420088
0.787805 0.513078 0.450328
0.822308 0.540265 0.481691
0.853368 0.568450 0.506800
0.881188 0.602786 0.538175
0.910528 0.632792 0.568450
0.938701 0.661585 0.599671
0.964896 0.695251 0.633822
0.987407 0.725557 0.674901
1.000000 0.754490 0.711437
0.025194 0.056775 0.084908
0.026095 0.056775 0.083999
0.027896 0.056775 0.083999
0.036005 0.056775 0.083089
0.041418 0.056775 0.092210
0.069458 0.057680 0.094036
0.125275 0.056775 0.083089
0.180540 0.058584 0.083089
0.229744 0.061299 0.085821
0.275452 0.064925 0.087646
0.322037 0.070364 0.090385
0.357934 0.079451 0.092210
0.391000 0.089472 0.095861
0.419048 0.115129 0.101355
0.450328 0.150377 0.110525
0.477506 0.194853 0.130829
0.508893 0.236607 0.157868
0.543401 0.282512 0.189115
0.574708 0.323054 0.232685
0.616251 0.358964 0.272443
0.653391 0.394107 0.313901
0.687115 0.427378 0.353812
0.719506 0.453464 0.391000
0.757458 0.481691 0.420088
0.787805 0.513078 0.450328
0.822308 0.540265 0.481691
0.853368 0.568450 0.506800
0.881188 0.602786 0.538175
0.910528 0.632792 0.568450
0.938701 0.661585 0.599671
0.964896 0.695251 0.633822
0.987407 0.725557 0.674901
1.000000 0.754490 0.711437
0.024293 0.070364 0.084908
0.026095 0.069458 0.084908
0.028797 0.069458 0.083999
0.034203 0.069458 0.083089
0.042321 0.069458 0.093123
0.061299 0.071271 0.101355
0.116971 0.068551 0.083089
0.170112 0.070364 0.083999
0.224841 0.071271 0.085821
0.272443 0.073085 0.087646
0.322037 0.076723 0.090385
0.355873 0.084908 0.093123
0.389964 0.100438 0.095861
0.418008 0.124350 0.102271
0.450328 0.158804 0.111446
0.477506 0.199651 0.130829
0.508893 0.239574 0.158804
0.543401 0.285537 0.190072
0.574708 0.325099 0.232685
0.616251 0.359995 0.272443
0.653391 0.395143 0.313901
0.687115 0.427378 0.353812
0.719506 0.454509 0.392035
0.757458 0.481691 0.420088
0.787805 0.513078 0.450328
0.822308 0.540265 0.481691
0.853368 0.568450 0.506800
0.881188 0.602786 0.538175
0.910528 0.632792 0.568450
0.938701 0.661585 0.599671
0.964896 0.695251 0.633822
0.987407 0.725557 0.674901
1.000000 0.754490 0.711437
0.024293 0.089472 0.085821
0.026095 0.088559 0.084908
0.028797 0.088559 0.084908
0.033302 0.086734 0.083089
0.043223 0.084908 0.092210
0.055871 0.085821 0.107771
0.109604 0.083999 0.090385
0.169169 0.082180 0.084908
0.221914 0.083999 0.086734
0.267448 0.084908 0.088559
0.320003 0.085821 0.091297
0.357934 0.092210 0.093123
0.388928 0.109604 0.096774
0.416968 0.131754 0.102271
0.448240 0.166342 0.111446
0.477506 0.205434 0.131754
0.508893 0.243532 0.158804
0.543401 0.287554 0.191028
0.574708 0.326123 0.234646
0.616251 0.361025 0.272443
0.653391 0.395143 0.313901
0.688132 0.428421 0.353812
0.719506 0.454509 0.392035
0.757458 0.481691 0.420088
0.787805 0.513078 0.450328
0.822308 0.540265 0.481691
0.853368 0.568450 0.506800
0.881188 0.602786 0.538175
0.910528 0.632792 0.569493
0.938701 0.661585 0.599671
0.964896 0.695251 0.633822
0.987407 0.725557 0.674901
1.000000 0.754490 0.711437
0.025194 0.114208 0.086734
0.026996 0.114208 0.086734
0.028797 0.113287 0.085821
0.033302 0.112367 0.083999
0.049542 0.110525 0.083089
0.068551 0.109604 0.091297
0.106854 0.106854 0.094036
0.169169 0.108687 0.086734
0.219971 0.106854 0.088559
0.267448 0.109604 0.090385
0.317969 0.110525 0.092210
0.354842 0.111446 0.094036
0.389964 0.120654 0.097689
0.418008 0.141978 0.103188
0.448240 0.174845 0.112367
0.478552 0.211223 0.131754
0.508893 0.246500 0.158804
0.543401 0.291589 0.191028
0.573665 0.329196 0.234646
0.616251 0.362056 0.274443
0.653391 0.396178 0.315935
0.688132 0.428421 0.353812
0.719506 0.454509 0.392035
0.757458 0.481691 0.420088
0.787805 0.513078 0.451373
0.822308 0.540265 0.481691
0.853368 0.569493 0.506800
0.881188 0.602786 0.538175
0.910528 0.632792 0.569493
0.938701 0.661585 0.599671
0.964896 0.695251 0.633822
0.987407 0.725557 0.674901
1.000000 0.754490 0.711437
0.026996 0.155059 0.088559
0.028797 0.154122 0.088559
0.031500 0.155059 0.087646
0.036005 0.152250 0.086734
0.051350 0.147567 0.084908
0.074904 0.146632 0.084908
0.112367 0.142909 0.086734
0.168227 0.141047 0.087646
0.220942 0.139186 0.089472
0.268447 0.141047 0.091297
0.315935 0.139186 0.094036
0.354842 0.143840 0.095861
0.388928 0.142909 0.098605
0.419048 0.160686 0.105021
0.450328 0.187203 0.113287
0.478552 0.220942 0.131754
0.507847 0.255458 0.159744
0.542355 0.295623 0.192940
0.574708 0.331245 0.234646
0.616251 0.364117 0.274443
0.654416 0.397214 0.315935
0.688132 0.429464 0.354842
0.719506 0.455554 0.392035
0.757458 0.482737 0.420088
0.787805 0.513078 0.451373
0.822308 0.540265 0.481691
0.853368 0.569493 0.506800
0.881188 0.602786 0.538175
0.910528 0.632792 0.569493
0.938701 0.661585 0.599671
0.964896 0.695251 0.633822
0.987407 0.725557 0.674901
1.000000 0.754490 0.711437
0.028797 0.197723 0.091297
0.029698 0.195809 0.090385
0.033302 0.192940 0.090385
0.037809 0.192940 0.088559
0.051350 0.191028 0.087646
0.074904 0.187203 0.087646
0.108687 0.183387 0.088559
0.166342 0.181489 0.090385
0.221914 0.182438 0.092210
0.270445 0.180540 0.094036
0.316952 0.182438 0.095861
0.357934 0.182438 0.097689
0.389964 0.184337 0.100438
0.419048 0.189115 0.105937
0.451373 0.205434 0.114208
0.478552 0.231704 0.132680
0.507847 0.264450 0.162571
0.542355 0.300681 0.194853
0.574708 0.334318 0.235626
0.616251 0.366178 0.274443
0.654416 0.399289 0.316952
0.688132 0.430507 0.354842
0.719506 0.455554 0.392035
0.757458 0.482737 0.420088
0.788777 0.513078 0.451373
0.822308 0.540265 0.481691
0.853368 0.569493 0.506800
0.881188 0.602786 0.538175
0.910528 0.632792 0.569493
0.938701 0.661585 0.599671
0.964896 0.695251 0.633822
0.987407 0.725557 0.674901
1.000000 0.754490 0.711437
0.029698 0.236607 0.094036
0.032401 0.236607 0.094036
0.036005 0.236607 0.093123
0.039614 0.232685 0.092210
0.052254 0.229744 0.091297
0.073085 0.227783 0.090385
0.105021 0.225822 0.090385
0.160686 0.222886 0.092210
0.221914 0.219971 0.094036
0.268447 0.217055 0.094036
0.320003 0.219971 0.097689
0.359995 0.218999 0.099522
0.391000 0.223861 0.103188
0.421128 0.227783 0.108687
0.452419 0.230724 0.117891
0.477506 0.250462 0.135463
0.507847 0.278477 0.165399
0.541310 0.307800 0.196766
0.574708 0.338415 0.236607
0.616251 0.369270 0.276460
0.654416 0.401369 0.316952
0.688132 0.430507 0.355873
0.721523 0.455554 0.392035
0.757458 0.483783 0.420088
0.788777 0.513078 0.451373
0.822308 0.541310 0.481691
0.853368 0.569493 0.506800
0.881188 0.603822 0.538175
0.910528 0.632792 0.569493
0.938701 0.661585 0.599671
0.964896 0.695251 0.633822
0.987407 0.725557 0.674901
1.000000 0.754490 0.711437
0.032401 0.280494 0.098605
0.036005 0.278477 0.097689
0.039614 0.278477 0.096774
0.044125 0.275452 0.095861
0.054967 0.274443 0.094036
0.070364 0.274443 0.094036
0.102271 0.270445 0.094036
0.156932 0.267448 0.094036
0.215111 0.264450 0.096774
0.268447 0.265449 0.098605
0.322037 0.262452 0.100438
0.362056 0.266448 0.102271
0.392035 0.266448 0.105021
0.420088 0.271444 0.111446
0.451373 0.275452 0.119733
0.478552 0.281503 0.138255
0.508893 0.294614 0.170112
0.542355 0.318986 0.198687
0.574708 0.345584 0.238584
0.615215 0.373392 0.278477
0.654416 0.405528 0.317969
0.688132 0.432593 0.356903
0.721523 0.456599 0.393071
0.757458 0.484830 0.420088
0.788777 0.514124 0.451373
0.822308 0.541310 0.481691
0.853368 0.570536 0.506800
0.881188 0.603822 0.538175
0.910528 0.632792 0.569493
0.938701 0.661585 0.599671
0.964896 0.695251 0.633822
0.987407 0.725557 0.674901
1.000000 0.754490 0.712446
0.036005 0.315935 0.105937
0.038711 0.313901 0.103188
0.043223 0.311868 0.101355
0.051350 0.310851 0.100438
0.060392 0.309834 0.099522
0.074904 0.307800 0.099522
0.100438 0.308817 0.099522
0.149440 0.306783 0.099522
0.209290 0.303732 0.100438
0.261453 0.301698 0.102271
0.320003 0.298649 0.103188
0.362056 0.300681 0.104104
0.394107 0.299664 0.106854
0.421128 0.305766 0.114208
0.452419 0.309834 0.124350
0.479598 0.315935 0.142909
0.509939 0.318986 0.173896
0.543401 0.333293 0.201579
0.576792 0.355873 0.240563
0.615215 0.379606 0.281503
0.654416 0.408648 0.321020
0.688132 0.434680 0.357934
0.721523 0.458690 0.393071
0.757458 0.486922 0.421128
0.788777 0.515170 0.451373
0.822308 0.542355 0.481691
0.853368 0.570536 0.506800
0.881188 0.603822 0.538175
0.910528 0.632792 0.569493
0.938701 0.661585 0.599671
0.964896 0.695251 0.633822
0.987407 0.725557 0.674901
1.000000 0.754490 0.712446
0.040516 0.344560 0.117891
0.044125 0.342512 0.114208
0.049542 0.340463 0.111446
0.059488 0.341487 0.110525
0.068551 0.340463 0.108687
0.083999 0.339439 0.105937
0.103188 0.339439 0.105937
0.143840 0.339439 0.105937
0.197723 0.340463 0.105937
0.252460 0.339439 0.106854
0.309834 0.337390 0.108687
0.355873 0.336366 0.108687
0.396178 0.336366 0.109604
0.423208 0.337390 0.116971
0.454509 0.341487 0.128052
0.481691 0.346609 0.146632
0.512032 0.351750 0.178641
0.544446 0.356903 0.207362
0.577832 0.369270 0.245510
0.615215 0.387892 0.283520
0.655440 0.415928 0.322037
0.688132 0.438852 0.358964
0.721523 0.461825 0.394107
0.757458 0.489015 0.421128
0.788777 0.516217 0.451373
0.822308 0.543401 0.481691
0.853368 0.571579 0.506800
0.881188 0.604857 0.538175
0.909615 0.632792 0.569493
0.938701 0.662610 0.599671
0.964896 0.695251 0.633822
0.990106 0.726558 0.674901
1.000000 0.754490 0.712446
0.047734 0.375463 0.138255
0.054967 0.373392 0.135463
0.061299 0.372361 0.131754
0.069458 0.372361 0.127126
0.082180 0.372361 0.125275
0.094036 0.373392 0.124350
0.110525 0.373392 0.123424
0.141978 0.372361 0.121575
0.184337 0.372361 0.119733
0.235626 0.372361 0.118812
0.295623 0.371331 0.117891
0.344560 0.372361 0.117891
0.387892 0.369270 0.117891
0.425292 0.368239 0.118812
0.455554 0.373392 0.131754
0.482737 0.376499 0.150377
0.514124 0.381678 0.183387
0.546536 0.385821 0.216083
0.578872 0.389964 0.250462
0.616251 0.402409 0.287554
0.655440 0.424249 0.325099
0.688132 0.444067 0.361025
0.721523 0.464961 0.395143
0.757458 0.492153 0.423208
0.788777 0.518309 0.452419
0.822308 0.543401 0.481691
0.853368 0.571579 0.507847
0.881188 0.604857 0.538175
0.909615 0.633822 0.569493
0.938701 0.662610 0.599671
0.964896 0.696268 0.633822
0.990106 0.726558 0.674901
1.000000 0.755479 0.712446
0.064925 0.405528 0.180540
0.072178 0.404488 0.173896
0.080361 0.404488 0.171054
0.091297 0.404488 0.168227
0.101355 0.404488 0.164456
0.113287 0.404488 0.160686
0.129903 0.404488 0.159744
0.153186 0.405528 0.156932
0.183387 0.404488 0.152250
0.223861 0.405528 0.146632
0.280494 0.405528 0.141047
0.336366 0.405528 0.139186
0.376499 0.404488 0.138255
0.419048 0.403448 0.136394
0.457645 0.403448 0.133605
0.482737 0.406568 0.156932
0.512032 0.409688 0.190072
0.548626 0.414888 0.223861
0.580952 0.418008 0.259454
0.617287 0.421128 0.294614
0.654416 0.434680 0.328172
0.688132 0.452419 0.363086
0.722531 0.471232 0.396178
0.757458 0.496338 0.424249
0.788777 0.520401 0.452419
0.822308 0.546536 0.481691
0.854299 0.573665 0.507847
0.881188 0.605893 0.538175
0.909615 0.633822 0.569493
0.938701 0.663634 0.600711
0.964896 0.696268 0.634853
0.990106 0.726558 0.674901
1.000000 0.755479 0.712446
0.093123 0.431550 0.234646
0.102271 0.431550 0.229744
0.112367 0.432593 0.226802
0.121575 0.432593 0.223861
0.133605 0.432593 0.221914
0.142909 0.431550 0.219971
0.155059 0.431550 0.216083
0.171997 0.432593 0.212195
0.192940 0.432593 0.206398
0.223861 0.432593 0.198687
0.269446 0.432593 0.191028
0.317969 0.433637 0.183387
0.366178 0.433637 0.177692
0.408648 0.432593 0.171997
0.450328 0.431550 0.168227
0.482737 0.431550 0.160686
0.514124 0.434680 0.195809
0.546536 0.438852 0.229744
0.581992 0.441981 0.268447
0.618322 0.447197 0.303732
0.654416 0.452419 0.335342
0.687115 0.462871 0.366178
0.722531 0.479598 0.398250
0.758447 0.501569 0.426335
0.788777 0.525632 0.453464
0.822308 0.548626 0.482737
0.854299 0.575751 0.507847
0.881188 0.606929 0.539220
0.910528 0.635883 0.569493
0.938701 0.663634 0.600711
0.964896 0.696268 0.634853
0.990106 0.726558 0.674901
1.000000 0.755479 0.712446
0.135463 0.462871 0.290580
0.143840 0.463916 0.288563
0.154122 0.462871 0.285537
0.162571 0.462871 0.283520
0.170112 0.462871 0.281503
0.177692 0.462871 0.279486
0.185290 0.461825 0.277469
0.197723 0.461825 0.274443
0.214139 0.462871 0.271444
0.239574 0.462871 0.266448
0.272443 0.463916 0.258455
0.309834 0.464961 0.246500
0.357934 0.463916 0.237595
0.396178 0.463916 0.223861
0.440938 0.462871 0.216083
0.477506 0.462871 0.209290
0.515170 0.461825 0.199651
0.548626 0.466006 0.236607
0.580952 0.470187 0.276460
0.621430 0.474368 0.309834
0.656464 0.477506 0.342512
0.687115 0.480645 0.372361
0.721523 0.492153 0.403448
0.758447 0.509939 0.428421
0.789747 0.529813 0.455554
0.823257 0.552803 0.484830
0.854299 0.579912 0.508893
0.881188 0.609000 0.539220
0.910528 0.636914 0.570536
0.938701 0.664658 0.600711
0.964896 0.696268 0.634853
0.990106 0.727557 0.675925
1.000000 0.755479 0.712446
0.187203 0.493199 0.336366
0.191984 0.494246 0.334318
0.198687 0.493199 0.333293
0.204470 0.493199 0.332269
0.210253 0.492153 0.331245
0.215111 0.493199 0.329196
0.221914 0.493199 0.327148
0.229744 0.493199 0.325099
0.243532 0.494246 0.322037
0.262452 0.494246 0.318986
0.287554 0.495292 0.312885
0.312885 0.494246 0.306783
0.352781 0.494246 0.297640
0.392035 0.496338 0.283520
0.433637 0.494246 0.271444
0.468096 0.494246 0.260454
0.509939 0.492153 0.250462
0.550717 0.493199 0.243532
0.581992 0.496338 0.283520
0.620394 0.500523 0.317969
0.658513 0.503662 0.348659
0.688132 0.506800 0.381678
0.721523 0.509939 0.407608
0.759437 0.519355 0.431550
0.790710 0.538175 0.457645
0.823257 0.559062 0.485876
0.854299 0.584072 0.509939
0.881188 0.613143 0.541310
0.910528 0.638975 0.571579
0.938701 0.666707 0.601750
0.964896 0.698302 0.634853
0.990106 0.727557 0.675925
1.000000 0.756468 0.712446
0.239574 0.521448 0.376499
0.243532 0.522494 0.375463
0.246500 0.522494 0.374427
0.252460 0.522494 0.374427
0.255458 0.522494 0.373392
0.258455 0.522494 0.372361
0.263451 0.522494 0.372361
0.269446 0.522494 0.371331
0.277469 0.523540 0.369270
0.290580 0.523540 0.366178
0.305766 0.524586 0.363086
0.328172 0.524586 0.359995
0.355873 0.524586 0.354842
0.388928 0.524586 0.342512
0.429464 0.523540 0.332269
0.463916 0.523540 0.322037
0.501569 0.522494 0.308817
0.542355 0.521448 0.298649
0.580952 0.520401 0.290580
0.621430 0.524586 0.327148
0.656464 0.527723 0.356903
0.690166 0.529813 0.386857
0.722531 0.533994 0.415928
0.758447 0.539220 0.436766
0.790710 0.549672 0.460780
0.824206 0.568450 0.489015
0.855230 0.590312 0.512032
0.883029 0.616251 0.542355
0.910528 0.642066 0.571579
0.938701 0.668755 0.602786
0.964896 0.699319 0.635883
0.990106 0.729555 0.675925
1.000000 0.757458 0.712446
0.288563 0.554889 0.410728
0.290580 0.554889 0.409688
0.294614 0.554889 0.409688
0.296631 0.554889 0.408648
0.298649 0.554889 0.408648
0.301698 0.554889 0.407608
0.303732 0.554889 0.407608
0.306783 0.554889 0.406568
0.312885 0.554889 0.406568
0.321020 0.555933 0.405528
0.331245 0.555933 0.404488
0.346609 0.556976 0.402409
0.369270 0.556976 0.397214
0.392035 0.558019 0.391000
0.424249 0.558019 0.382713
0.461825 0.558019 0.373392
0.498431 0.556976 0.363086
0.536084 0.554889 0.353812
0.574708 0.554889 0.341487
0.618322 0.552803 0.334318
0.657488 0.556976 0.366178
0.689149 0.558019 0.395143
0.723540 0.565320 0.421128
0.759437 0.568450 0.444067
0.790710 0.570536 0.466006
0.826105 0.580952 0.491107
0.855230 0.598631 0.514124
0.883029 0.622465 0.544446
0.909615 0.646188 0.573665
0.938701 0.671828 0.603822
0.965797 0.702360 0.636914
0.990106 0.730554 0.676946
1.000000 0.757458 0.713454
0.331245 0.584072 0.441981
0.334318 0.584072 0.441981
0.336366 0.584072 0.440938
0.337390 0.584072 0.440938
0.338415 0.584072 0.440938
0.339439 0.584072 0.440938
0.341487 0.584072 0.439895
0.343536 0.584072 0.439895
0.347633 0.584072 0.438852
0.353812 0.585112 0.438852
0.362056 0.585112 0.436766
0.372361 0.585112 0.435723
0.388928 0.585112 0.431550
0.407608 0.586152 0.428421
0.428421 0.586152 0.423208
0.455554 0.587192 0.414888
0.493199 0.588232 0.406568
0.530858 0.587192 0.398250
0.569493 0.587192 0.391000
0.612108 0.585112 0.380642
0.655440 0.585112 0.372361
0.689149 0.589272 0.402409
0.723540 0.592392 0.429464
0.761416 0.595512 0.451373
0.790710 0.598631 0.472277
0.824206 0.600711 0.496338
0.856160 0.612108 0.519355
0.883950 0.630730 0.546536
0.909615 0.652367 0.575751
0.938701 0.676946 0.604857
0.965797 0.705386 0.637944
0.990106 0.732552 0.677963
1.000000 0.758447 0.713454
0.373392 0.618322 0.471232
0.374427 0.618322 0.471232
0.375463 0.618322 0.470187
0.376499 0.618322 0.470187
0.377535 0.618322 0.470187
0.379606 0.618322 0.469142
0.381678 0.618322 0.469142
0.382713 0.618322 0.469142
0.386857 0.618322 0.469142
0.389964 0.618322 0.468096
0.393071 0.618322 0.467051
0.401369 0.618322 0.464961
0.410728 0.618322 0.462871
0.423208 0.618322 0.460780
0.439895 0.616251 0.457645
0.461825 0.617287 0.452419
0.491107 0.617287 0.445111
0.526678 0.618322 0.437809
0.564277 0.619358 0.430507
0.605893 0.618322 0.420088
0.649280 0.618322 0.412808
0.688132 0.616251 0.406568
0.723540 0.618322 0.434680
0.759437 0.622465 0.455554
0.793602 0.625573 0.481691
0.827054 0.627639 0.502616
0.858022 0.631761 0.523540
0.884871 0.643097 0.550717
0.910528 0.660561 0.579912
0.938701 0.684065 0.605893
0.965797 0.709420 0.640005
0.990106 0.735550 0.678980
1.000000 0.761416 0.714463
0.412808 0.647219 0.503662
0.413848 0.647219 0.503662
0.415928 0.647219 0.503662
0.415928 0.647219 0.502616
0.416968 0.647219 0.502616
0.416968 0.647219 0.502616
0.418008 0.647219 0.502616
0.419048 0.647219 0.502616
0.419048 0.647219 0.502616
0.421128 0.647219 0.501569
0.424249 0.647219 0.501569
0.429464 0.647219 0.500523
0.435723 0.647219 0.499477
0.443024 0.648250 0.497384
0.455554 0.648250 0.493199
0.471232 0.649280 0.491107
0.494246 0.649280 0.484830
0.524586 0.649280 0.477506
0.558019 0.647219 0.469142
0.600711 0.649280 0.461825
0.644127 0.648250 0.454509
0.683048 0.648250 0.446154
0.722531 0.649280 0.441981
0.760426 0.649280 0.461825
0.791674 0.653391 0.486922
0.828003 0.658513 0.509939
0.858022 0.660561 0.531904
0.886713 0.663634 0.558019
0.911441 0.673877 0.584072
0.938701 0.693217 0.610036
0.966698 0.715471 0.643097
0.991005 0.739546 0.682031
1.000000 0.764374 0.715471
0.447197 0.681014 0.533994
0.447197 0.681014 0.533994
0.447197 0.681014 0.533994
0.448240 0.681014 0.533994
0.448240 0.681014 0.533994
0.448240 0.681014 0.532949
0.450328 0.681014 0.532949
0.450328 0.681014 0.532949
0.451373 0.681014 0.532949
0.452419 0.681014 0.532949
0.453464 0.681014 0.531904
0.456599 0.681014 0.531904
0.461825 0.681014 0.530858
0.466006 0.681014 0.529813
0.476460 0.681014 0.527723
0.490061 0.682031 0.523540
0.506800 0.682031 0.519355
0.525632 0.682031 0.513078
0.553846 0.683048 0.506800
0.596552 0.682031 0.499477
0.636914 0.682031 0.491107
0.675925 0.683048 0.483783
0.715471 0.682031 0.476460
0.758447 0.682031 0.470187
0.793602 0.685082 0.492153
0.826105 0.688132 0.517263
0.858953 0.690166 0.538175
0.887633 0.693217 0.564277
0.913266 0.696268 0.590312
0.939608 0.705386 0.615215
0.966698 0.724548 0.645158
0.991005 0.745541 0.684065
1.000000 0.768296 0.717488
0.480645 0.711437 0.567407
0.480645 0.711437 0.566363
0.480645 0.711437 0.566363
0.481691 0.711437 0.566363
0.481691 0.711437 0.566363
0.481691 0.710428 0.566363
0.481691 0.710428 0.566363
0.481691 0.710428 0.566363
0.482737 0.710428 0.565320
0.483783 0.710428 0.565320
0.484830 0.710428 0.564277
0.486922 0.710428 0.564277
0.491107 0.709420 0.563234
0.496338 0.709420 0.562191
0.500523 0.709420 0.560105
0.509939 0.709420 0.558019
0.522494 0.709420 0.555933
0.537129 0.709420 0.551760
0.558019 0.710428 0.546536
0.592392 0.710428 0.538175
0.630730 0.712446 0.529813
0.670804 0.711437 0.521448
0.709420 0.711437 0.514124
0.754490 0.710428 0.505754
0.790710 0.709420 0.500523
0.827054 0.712446 0.521448
0.858022 0.715471 0.546536
0.887633 0.718497 0.571579
0.913266 0.721523 0.597592
0.941416 0.723540 0.621430
0.965797 0.737548 0.651341
0.991005 0.753500 0.687115
1.000000 0.775159 0.720514
0.513078 0.739546 0.603822
0.513078 0.739546 0.603822
0.513078 0.739546 0.603822
0.513078 0.739546 0.603822
0.514124 0.739546 0.603822
0.514124 0.739546 0.603822
0.514124 0.739546 0.603822
0.514124 0.739546 0.603822
0.515170 0.739546 0.602786
0.515170 0.739546 0.602786
0.516217 0.739546 0.602786
0.517263 0.739546 0.601750
0.520401 0.739546 0.600711
0.523540 0.739546 0.599671
0.527723 0.740546 0.597592
