Assets/Lutify-Free-LUTs-Pack/Lutify Free LUTs Pack/Cine World Pro Warm - Amy/Lutify.me-Amy-BolexLog-to-Rec709.cube
# Created with: fylm.ai - Colour Grading and Collaboration Software in Cloud 
# Website: https://fylm.ai 
# META
# Option: Gamut compress
# Block 1: IDT | Bolex Wide Gamut RGB Bolex Log
# Block 2: colourMatch | Blending Mode: Normal | {"ColorSpace":0,"CrossCovarianceLimit":50,"ReshapingIterations":1,"PercentSaturationShift":100,"PercentShadingShift":100,"ExtraShading":true,"PercentTint":100,"PercentModified":100}
# Block 3: LUT | Filmic Curve Response: Standard Contrast 1 (100%)
# Block 4: LUT | Illuminant: D60 (100%)
# Block 5: hueSaturation | Blending Mode: Normal | {"hue":0,"saturation":-0.15}
# Block 6: logPrimaries | Blending Mode: Normal | {"wheels":{"shadows":{"Y":"0","R":"1","G":"1","B":"1"},"midtones":{"Y":"0","R":"1","G":"1","B":"1"},"highlights":{"Y":"0","R":"1","G":"1","B":"1"},"offset":{"Y":"0","R":"1","G":"1","B":"1"}},"sliders":{"shadows":{"Y":0,"R":-0.097,"G":0,"B":0.158},"midtones":{"Y":0,"R":0.024,"G":0.024,"B":-0.036},"highlights":{"Y":0,"R":0.154,"G":-0.084,"B":-0.024},"offset":{"Y":0.048,"R":0,"G":0,"B":0}}}
# Block 7: smartCurves | Blending Mode: Average | [[{"x":0,"y":0},{"x":0.11328125,"y":0.085540771484375},{"x":0.21484375,"y":0.218353271484375},{"x":0.37109375,"y":0.382415771484375},{"x":0.62109375,"y":0.589447021484375},{"x":0.8125,"y":0.765228271484375},{"x":1,"y":1}],[{"x":0,"y":0},{"x":1,"y":1}],[{"x":0,"y":0},{"x":1,"y":1}],[{"x":0,"y":0},{"x":1,"y":1}]]
# Block 8: LUT | Neutral Tint: Teal Tint 4 (100%)
# Block 9: contrast | Blending Mode: Normal | {"contrast":0.1}
# Block 10: ODT | Rec709
TITLE "Lutify.me-Amy-BolexLog-to-Rec709" 
LUT_3D_SIZE 9
0.000000 0.000000 0.000000
0.013597 0.000000 0.000000
0.190339 0.000000 0.000000
0.395484 0.000000 0.000000
0.644227 0.000000 0.000000
0.985170 0.000000 0.069117
1.000000 0.316286 0.238341
1.000000 0.688716 0.518478
1.000000 0.879690 0.788853
0.000000 0.039966 0.000000
0.016501 0.029826 0.000000
0.171797 0.000000 0.000000
0.376027 0.000000 0.000000
0.656857 0.000000 0.000000
0.981626 0.000000 0.071328
1.000000 0.335844 0.240456
1.000000 0.693586 0.520885
1.000000 0.880601 0.788864
0.000000 0.132703 0.000000
0.000000 0.119905 0.000000
0.180342 0.103068 0.000000
0.394401 0.000000 0.000000
0.657194 0.000000 0.000000
0.977506 0.000000 0.072674
1.000000 0.356321 0.243231
1.000000 0.698445 0.520674
1.000000 0.881511 0.788876
0.000000 0.276039 0.000000
0.000000 0.275630 0.000000
0.000000 0.266093 0.000000
0.405903 0.239104 0.000000
0.685691 0.205992 0.000000
0.985247 0.115579 0.070762
1.000000 0.413583 0.254286
1.000000 0.713879 0.526393
1.000000 0.883330 0.788902
0.000000 0.518349 0.000000
0.000000 0.525187 0.000000
0.000000 0.527857 0.000000
0.185003 0.515309 0.000000
0.675476 0.487546 0.000000
0.970160 0.482365 0.000000
1.000000 0.534655 0.273811
1.000000 0.747618 0.543383
1.000000 0.888707 0.793633
0.000000 0.802787 0.276753
0.000000 0.805116 0.273073
0.000000 0.804122 0.259050
0.000000 0.797374 0.224451
0.556828 0.785925 0.175766
0.918896 0.763244 0.105544
1.000000 0.779069 0.338598
1.000000 0.815311 0.577019
1.000000 0.902224 0.804089
0.000000 0.947623 0.604185
0.000000 0.947167 0.600677
0.000000 0.946354 0.600759
0.334601 0.943906 0.586866
0.625232 0.934177 0.555621
0.860896 0.924154 0.524488
1.000000 0.916235 0.507316
1.000000 0.919336 0.670492
1.000000 0.935735 0.828370
0.726903 0.991847 0.848914
0.730231 0.991702 0.848916
0.733660 0.991566 0.847260
0.746653 0.991002 0.845603
0.790789 0.989424 0.842543
0.878040 0.985441 0.826147
0.964784 0.981351 0.807322
1.000000 0.977208 0.795192
1.000000 0.979409 0.874666
0.916113 1.000000 0.957593
0.916113 1.000000 0.957593
0.917214 1.000000 0.957593
0.917256 1.000000 0.956982
0.923786 1.000000 0.955750
0.937856 1.000000 0.953957
0.969073 1.000000 0.948469
1.000000 1.000000 0.936857
1.000000 1.000000 0.930761
0.000000 0.000000 0.035008
0.000000 0.000000 0.020704
0.148514 0.000000 0.018770
0.340470 0.000000 0.020091
0.611598 0.000000 0.038306
0.971264 0.000000 0.096467
1.000000 0.310782 0.250458
1.000000 0.688690 0.523736
1.000000 0.879690 0.788853
0.000000 0.032218 0.062246
0.000000 0.021254 0.051284
0.128331 0.000000 0.039203
0.321731 0.000000 0.033138
0.619887 0.000000 0.043310
0.970424 0.000000 0.099311
1.000000 0.331898 0.253484
1.000000 0.693573 0.523521
1.000000 0.880601 0.788864
0.000000 0.134795 0.105587
0.000000 0.125127 0.064463
0.100849 0.119794 0.044794
0.326263 0.072736 0.035889
0.628280 0.000000 0.044580
0.971875 0.000000 0.102224
1.000000 0.351179 0.257820
1.000000 0.698420 0.525957
1.000000 0.881511 0.788876
0.000000 0.288555 0.099323
0.000000 0.284196 0.041296
0.000000 0.289419 0.000000
0.329262 0.268298 0.000000
0.649211 0.228115 0.000000
0.982496 0.117140 0.111942
1.000000 0.412505 0.269880
1.000000 0.713854 0.531704
1.000000 0.883330 0.788902
0.000000 0.529123 0.134864
0.000000 0.532478 0.107670
0.000000 0.531622 0.061125
0.070175 0.526909 0.000000
0.653503 0.500707 0.000000
0.958998 0.490932 0.111919
1.000000 0.534621 0.292878
1.000000 0.747583 0.551498
1.000000 0.888698 0.795226
0.000000 0.805616 0.327498
0.000000 0.805139 0.323977
0.000000 0.807050 0.309367
0.000000 0.803096 0.277932
0.540507 0.789275 0.231516
0.915144 0.766298 0.179119
1.000000 0.781365 0.359143
1.000000 0.815300 0.579805
1.000000 0.902215 0.805644
0.000000 0.947569 0.618418
0.000000 0.948215 0.615281
0.000000 0.947582 0.611788
0.318912 0.944019 0.608097
0.618514 0.934334 0.573092
0.857341 0.925424 0.538343
0.999863 0.916205 0.519260
1.000000 0.920312 0.676148
1.000000 0.935735 0.828370
0.723279 0.991974 0.852189
0.726640 0.991829 0.852190
0.733268 0.991539 0.852194
0.746267 0.990975 0.850575
0.790545 0.989406 0.845905
0.877817 0.985423 0.829702
0.964587 0.981333 0.810958
1.000000 0.977193 0.798506
1.000000 0.979404 0.875703
0.914964 1.000000 0.958200
0.916072 1.000000 0.958200
0.917214 1.000000 0.957593
0.917214 1.000000 0.957593
0.923744 1.000000 0.956369
0.937813 1.000000 0.954586
0.968979 1.000000 0.949201
1.000000 1.000000 0.936857
1.000000 1.000000 0.931427
0.000000 0.000000 0.084386
0.000000 0.000000 0.051196
0.127894 0.000000 0.050233
0.324298 0.000000 0.054320
0.600166 0.000000 0.069936
0.971457 0.000000 0.127720
1.000000 0.309201 0.270778
1.000000 0.691095 0.531599
1.000000 0.879690 0.788853
0.000000 0.009540 0.110649
0.000000 0.000000 0.085198
0.108701 0.000000 0.082404
0.300677 0.000000 0.083213
0.608540 0.000000 0.084861
0.973431 0.000000 0.132299
1.000000 0.330427 0.274240
1.000000 0.693534 0.531492
1.000000 0.880591 0.790507
0.000000 0.148150 0.212722
0.000000 0.127483 0.192865
0.045543 0.119504 0.170179
0.302958 0.078417 0.128735
0.608240 0.000000 0.096773
0.969103 0.000000 0.138639
1.000000 0.349816 0.279226
1.000000 0.700802 0.533860
1.000000 0.881501 0.790517
0.000000 0.301890 0.282961
0.000000 0.297735 0.251884
0.000000 0.297624 0.207821
0.271765 0.288452 0.164083
0.633805 0.240929 0.123705
0.974506 0.112440 0.153124
1.000000 0.412432 0.289227
1.000000 0.712763 0.541476
1.000000 0.883320 0.790540
0.000000 0.532595 0.287313
0.000000 0.536029 0.262037
0.000000 0.542539 0.237374
0.000000 0.541966 0.191614
0.615043 0.514907 0.137532
0.957543 0.495146 0.176204
1.000000 0.533911 0.320096
1.000000 0.749745 0.556901
1.000000 0.887828 0.795466
0.000000 0.808474 0.390175
0.000000 0.807969 0.379258
0.000000 0.807190 0.372103
0.000000 0.806039 0.336023
0.516227 0.792798 0.291648
0.911991 0.766402 0.244976
1.000000 0.781341 0.383735
1.000000 0.815268 0.588219
1.000000 0.902215 0.805644
0.000000 0.948723 0.643709
0.000000 0.948275 0.640179
0.000000 0.947486 0.636680
0.315971 0.943952 0.625863
0.616989 0.934248 0.597753
0.854029 0.925509 0.558562
0.998466 0.916187 0.537007
1.000000 0.920292 0.681412
1.000000 0.935727 0.829780
0.723019 0.991956 0.855409
0.726381 0.991811 0.855410
0.733011 0.991521 0.855413
0.746014 0.990957 0.853820
0.790304 0.989388 0.849212
0.877485 0.985395 0.834947
0.964293 0.981306 0.816347
1.000000 0.977174 0.803200
1.000000 0.979398 0.876735
0.914923 1.000000 0.958803
0.916030 1.000000 0.958802
0.916030 1.000000 0.958802
0.917172 1.000000 0.958200
0.923702 1.000000 0.956985
0.937771 1.000000 0.955211
0.968936 1.000000 0.949853
1.000000 1.000000 0.937568
1.000000 1.000000 0.932090
0.000000 0.000000 0.143943
0.000000 0.000000 0.088603
0.094071 0.000000 0.079028
0.322428 0.000000 0.079377
0.589705 0.000000 0.139686
0.960464 0.000000 0.206726
1.000000 0.296212 0.328850
1.000000 0.687307 0.555272
1.000000 0.879650 0.795381
0.000000 0.014391 0.181894
0.000000 0.000000 0.144086
0.081194 0.000000 0.133294
0.295681 0.000000 0.130921
0.591675 0.000000 0.184285
0.962340 0.000000 0.216377
1.000000 0.319362 0.333974
1.000000 0.692230 0.555061
1.000000 0.880561 0.795387
0.000000 0.117311 0.285667
0.000000 0.100277 0.264894
0.000000 0.091530 0.258973
0.291286 0.000000 0.243055
0.597415 0.000000 0.222481
0.966718 0.000000 0.228247
1.000000 0.343066 0.337972
1.000000 0.697129 0.554854
1.000000 0.881471 0.795393
0.000000 0.317312 0.423745
0.000000 0.299876 0.411056
0.000000 0.299543 0.401196
0.204808 0.290822 0.369659
0.599358 0.246983 0.305582
0.959705 0.136530 0.257711
1.000000 0.406352 0.351680
1.000000 0.712654 0.563534
1.000000 0.883291 0.795409
0.000000 0.546399 0.518255
0.000000 0.553598 0.506826
0.000000 0.556832 0.473945
0.000000 0.553645 0.428028
0.574182 0.532112 0.361449
0.938944 0.496435 0.312064
1.000000 0.528744 0.378105
1.000000 0.748037 0.577366
1.000000 0.887799 0.800290
0.000000 0.811036 0.543586
0.000000 0.810611 0.532306
0.000000 0.812573 0.520987
0.000000 0.811727 0.491231
0.476226 0.799058 0.437032
0.884924 0.778880 0.394541
1.000000 0.780722 0.451687
1.000000 0.814750 0.610220
1.000000 0.902188 0.810298
0.000000 0.948819 0.691874
0.000000 0.948366 0.691891
0.000000 0.947595 0.688610
0.277641 0.945231 0.675294
0.601337 0.935637 0.647648
0.837863 0.927233 0.613414
0.994914 0.917261 0.580327
1.000000 0.921128 0.701973
1.000000 0.934830 0.833426
0.718740 0.992041 0.866214
0.725505 0.991750 0.866212
0.728841 0.991605 0.866211
0.742103 0.991046 0.863206
0.789715 0.989344 0.857238
0.875061 0.985442 0.845078
0.961942 0.981378 0.824971
1.000000 0.978046 0.811902
1.000000 0.979378 0.880798
0.914841 1.000000 0.959995
0.914841 1.000000 0.959995
0.915989 1.000000 0.959401
0.917090 1.000000 0.959400
0.922525 1.000000 0.958803
0.937645 1.000000 0.957060
0.967512 1.000000 0.951765
1.000000 1.000000 0.939772
1.000000 1.000000 0.932901
0.000000 0.000000 0.199177
0.000000 0.000000 0.164505
0.061575 0.000000 0.151073
0.276584 0.000000 0.146266
0.609720 0.000000 0.139672
0.940032 0.000000 0.349123
1.000000 0.278744 0.448175
1.000000 0.684588 0.605314
1.000000 0.880004 0.807676
0.000000 0.036343 0.270312
0.000000 0.031994 0.241048
0.000000 0.025136 0.233672
0.255836 0.000000 0.232694
0.573921 0.000000 0.220866
0.945911 0.000000 0.375129
1.000000 0.301599 0.451142
1.000000 0.684568 0.608279
1.000000 0.880004 0.807676
0.000000 0.094763 0.356155
0.000000 0.087227 0.337378
0.000000 0.082538 0.332228
0.236404 0.000000 0.338801
0.591120 0.000000 0.322718
0.950577 0.000000 0.406091
1.000000 0.326452 0.456776
1.000000 0.692043 0.610940
1.000000 0.880921 0.807674
0.000000 0.277674 0.520359
0.000000 0.268670 0.520719
0.000000 0.264148 0.517287
0.066859 0.252695 0.517417
0.601831 0.164774 0.491478
0.947374 0.000000 0.454053
1.000000 0.395716 0.468100
1.000000 0.706814 0.616313
1.000000 0.883659 0.809279
0.000000 0.560117 0.697617
0.000000 0.567398 0.697238
0.000000 0.559876 0.686477
0.000000 0.553733 0.671638
0.465083 0.539838 0.645039
0.906483 0.501585 0.553592
1.000000 0.529968 0.509336
1.000000 0.743909 0.631507
1.000000 0.888617 0.814629
0.000000 0.821140 0.785811
0.000000 0.820840 0.777507
0.000000 0.822860 0.774521
0.000000 0.814507 0.757096
0.359971 0.810841 0.701162
0.849767 0.787865 0.641362
1.000000 0.779790 0.589000
1.000000 0.811798 0.668130
1.000000 0.902627 0.823577
0.000000 0.951112 0.810638
0.000000 0.950565 0.806142
0.000000 0.949980 0.803858
0.000000 0.949142 0.796970
0.556795 0.941709 0.772437
0.816230 0.929792 0.734914
0.983814 0.919317 0.700347
1.000000 0.922717 0.743514
1.000000 0.934769 0.844534
0.713854 0.992949 0.890749
0.717270 0.992804 0.890744
0.720757 0.992666 0.889493
0.734085 0.992099 0.888223
0.782301 0.989915 0.884385
0.869706 0.985974 0.869896
0.956476 0.981473 0.852672
1.000000 0.978408 0.835045
1.000000 0.979336 0.888720
0.912396 1.000000 0.964056
0.914627 1.000000 0.964053
0.914665 1.000000 0.963496
0.916868 1.000000 0.963495
0.922326 1.000000 0.962363
0.936456 1.000000 0.960638
0.967221 1.000000 0.956131
0.999571 1.000000 0.945112
1.000000 1.000000 0.936673
0.000000 0.035362 0.346048
0.000000 0.032009 0.338044
0.000000 0.018170 0.335312
0.188063 0.000000 0.334200
0.542958 0.000000 0.325392
0.937694 0.000000 0.305149
1.000000 0.178951 0.635850
1.000000 0.667097 0.722223
1.000000 0.880232 0.840080
0.000000 0.077005 0.421193
0.000000 0.074082 0.417890
0.000000 0.067987 0.417894
0.158291 0.027354 0.417314
0.537180 0.000000 0.414606
0.923794 0.000000 0.402698
1.000000 0.210410 0.642810
1.000000 0.669662 0.724996
1.000000 0.881156 0.840061
0.000000 0.130008 0.499805
0.000000 0.123977 0.492824
0.000000 0.118699 0.489358
0.104499 0.104570 0.496126
0.543920 0.000000 0.496761
0.922434 0.000000 0.486073
1.000000 0.246574 0.653010
1.000000 0.674811 0.727638
1.000000 0.882080 0.840042
0.000000 0.245759 0.617651
0.000000 0.239544 0.614117
0.000000 0.235046 0.621743
0.000000 0.230245 0.625399
0.524637 0.150860 0.623405
0.935390 0.000000 0.603680
1.000000 0.329188 0.676887
1.000000 0.689107 0.726566
1.000000 0.883925 0.840006
0.000000 0.526655 0.800675
0.000000 0.522932 0.803638
0.000000 0.519150 0.803818
0.000000 0.517970 0.803724
0.397572 0.497035 0.797410
0.916511 0.421466 0.767114
1.000000 0.483733 0.727849
1.000000 0.727278 0.742145
1.000000 0.888905 0.844810
0.000000 0.829094 0.902298
0.000000 0.828855 0.903671
0.000000 0.828424 0.902237
0.000000 0.826443 0.896277
0.000000 0.812579 0.883322
0.784308 0.792701 0.857010
1.000000 0.777989 0.809989
1.000000 0.803789 0.776275
1.000000 0.903505 0.853648
0.000000 0.955077 0.931143
0.000000 0.955606 0.931035
0.000000 0.955234 0.928930
0.000000 0.953281 0.924497
0.473703 0.943873 0.914988
0.775388 0.933766 0.894324
0.965337 0.922348 0.862860
1.000000 0.922937 0.837211
1.000000 0.934252 0.873702
0.693229 0.994642 0.943148
0.693229 0.994642 0.943148
0.703834 0.994216 0.942312
0.717578 0.993656 0.940636
0.755796 0.992011 0.936288
0.854250 0.988068 0.926099
0.948692 0.981864 0.910167
1.000000 0.978162 0.891712
1.000000 0.980321 0.910448
0.909445 1.000000 0.974245
0.909445 1.000000 0.974245
0.910584 1.000000 0.974242
0.913975 1.000000 0.973769
0.917330 1.000000 0.972817
0.933832 1.000000 0.971370
0.965094 1.000000 0.967451
0.997267 1.000000 0.957682
1.000000 1.000000 0.948264
0.000000 0.156804 0.665169
0.000000 0.157483 0.665074
0.000000 0.154248 0.661236
0.119811 0.139775 0.660898
0.434027 0.000000 0.655242
0.896183 0.000000 0.655761
1.000000 0.000000 0.633467
1.000000 0.614420 0.866333
1.000000 0.875531 0.897027
0.000000 0.185782 0.694524
0.000000 0.185035 0.698237
0.000000 0.182177 0.690669
0.000000 0.173074 0.690368
0.426419 0.103467 0.688603
0.898822 0.000000 0.688928
1.000000 0.000000 0.669010
1.000000 0.618685 0.868028
1.000000 0.875531 0.897027
0.000000 0.228201 0.730219
0.000000 0.227754 0.730183
0.000000 0.224858 0.733743
0.000000 0.215028 0.726442
0.414111 0.168482 0.731980
0.895864 0.000000 0.724798
1.000000 0.000000 0.704317
1.000000 0.627065 0.871146
1.000000 0.875518 0.898158
0.000000 0.314736 0.799009
0.000000 0.314440 0.798977
0.000000 0.311232 0.801938
0.000000 0.306350 0.798888
0.370854 0.275590 0.800764
0.884316 0.078357 0.796728
1.000000 0.000000 0.780599
1.000000 0.646561 0.873667
1.000000 0.877387 0.899187
0.000000 0.472426 0.874197
0.000000 0.475708 0.873989
0.000000 0.475328 0.873941
0.000000 0.466771 0.876117
0.252305 0.451307 0.873520
0.862595 0.382165 0.870255
1.000000 0.358774 0.855264
1.000000 0.691090 0.883000
1.000000 0.884350 0.900126
0.000000 0.793428 0.947945
0.000000 0.793224 0.947922
0.000000 0.795776 0.948683
0.000000 0.794396 0.950501
0.000000 0.783459 0.948408
0.752139 0.751710 0.940777
1.000000 0.721528 0.927058
1.000000 0.783255 0.908603
1.000000 0.899736 0.910163
0.000000 0.961538 0.982054
0.000000 0.961277 0.982030
0.000000 0.960641 0.980942
0.000000 0.957186 0.980439
0.219482 0.951729 0.978161
0.718846 0.936893 0.972085
0.941782 0.923865 0.960308
1.000000 0.921947 0.941455
1.000000 0.931577 0.923813
0.654104 0.997448 0.989018
0.657834 0.997312 0.988651
0.661576 0.997171 0.988640
0.679305 0.996068 0.988253
0.719875 0.993986 0.987046
0.832680 0.989510 0.983863
0.934657 0.984655 0.976038
1.000000 0.980539 0.963437
1.000000 0.980383 0.950765
0.900706 1.000000 0.992130
0.900706 1.000000 0.992130
0.903070 1.000000 0.992120
0.905406 1.000000 0.991829
0.909946 1.000000 0.991526
0.926902 1.000000 0.990293
0.960291 1.000000 0.987057
0.994183 1.000000 0.980799
1.000000 1.000000 0.973496
0.000000 0.369015 0.909392
0.000000 0.368448 0.909325
0.000000 0.367161 0.909177
0.206722 0.364351 0.910516
0.436574 0.349306 0.909504
0.787061 0.283204 0.904996
1.000000 0.140588 0.902727
1.000000 0.393425 0.885422
1.000000 0.857362 0.965943
0.000000 0.385460 0.915200
0.000000 0.381605 0.915273
0.000000 0.380382 0.915129
0.185068 0.381092 0.916260
0.430788 0.363210 0.915417
0.783993 0.304634 0.910971
1.000000 0.191475 0.907040
1.000000 0.408675 0.891619
1.000000 0.858407 0.965877
0.000000 0.409243 0.920333
0.000000 0.405338 0.920420
0.000000 0.404243 0.921766
0.158569 0.405029 0.921315
0.424681 0.391335 0.920406
0.780560 0.326067 0.918040
1.000000 0.243566 0.912444
1.000000 0.423794 0.900497
1.000000 0.858397 0.966520
0.000000 0.457817 0.933359
0.000000 0.457239 0.933287
0.000000 0.456359 0.934482
0.000000 0.454272 0.934235
0.396876 0.446038 0.933345
0.767810 0.397040 0.931100
1.000000 0.323366 0.927422
1.000000 0.469055 0.914639
1.000000 0.860903 0.966964
0.000000 0.574318 0.957917
0.000000 0.573922 0.957868
0.000000 0.569672 0.958000
0.000000 0.564397 0.958010
0.310361 0.566015 0.956960
0.709180 0.529458 0.955631
1.000000 0.479096 0.953187
1.000000 0.572684 0.939703
1.000000 0.868621 0.968388
0.000000 0.747053 0.981179
0.000000 0.746685 0.981137
0.000000 0.746183 0.981081
0.000000 0.741322 0.981127
0.000000 0.743454 0.979527
0.641947 0.716417 0.979699
1.000000 0.687968 0.976163
1.000000 0.710912 0.969631
1.000000 0.884085 0.973851
0.000000 0.945196 0.999817
0.000000 0.944957 0.999794
0.000000 0.943464 0.999533
0.000000 0.941139 0.999512
0.068289 0.937534 0.998854
0.615856 0.925683 0.997195
0.925482 0.907776 0.994313
1.000000 0.897704 0.989685
1.000000 0.924541 0.982196
0.562154 1.000000 1.000000
0.562154 1.000000 1.000000
0.571115 1.000000 1.000000
0.593421 1.000000 1.000000
0.648537 0.998813 1.000000
0.779124 0.993315 1.000000
0.913119 0.985757 1.000000
0.993329 0.980543 0.998059
1.000000 0.980312 0.992523
0.883996 1.000000 1.000000
0.883978 1.000000 1.000000
0.883978 1.000000 1.000000
0.887638 1.000000 1.000000
0.893847 1.000000 1.000000
0.909943 1.000000 1.000000
0.949502 1.000000 1.000000
0.989576 1.000000 1.000000
1.000000 1.000000 0.998626
0.462580 0.649717 0.997971
0.479192 0.645301 0.997571
0.492859 0.644750 0.997513
0.538801 0.642736 0.997304
0.620085 0.634875 0.997636
0.788391 0.612083 0.997661
0.996418 0.584636 0.996262
1.000000 0.596598 0.993281
1.000000 0.761773 0.980489
0.459887 0.653590 0.998308
0.474053 0.653058 0.998252
0.487914 0.652516 0.998195
0.534412 0.650533 0.997989
0.618285 0.638811 0.997980
0.785723 0.620069 0.997819
0.994415 0.592872 0.996449
1.000000 0.603755 0.993517
1.000000 0.763962 0.980933
0.461624 0.661068 0.998933
0.468776 0.660805 0.998905
0.482775 0.660191 0.998318
0.532228 0.654509 0.998852
0.614630 0.646673 0.998647
0.782990 0.628132 0.998492
0.992323 0.601189 0.997148
1.000000 0.615251 0.994083
1.000000 0.769896 0.981738
0.447482 0.680365 1.000000
0.462288 0.679856 1.000000
0.476729 0.679336 1.000000
0.518224 0.677718 1.000000
0.603168 0.670089 0.999977
0.774506 0.652110 0.999844
0.985884 0.625867 0.998579
1.000000 0.636674 0.996172
1.000000 0.775194 0.983612
0.437461 0.730345 1.000000
0.453234 0.729859 1.000000
0.471312 0.725959 1.000000
0.507684 0.724673 1.000000
0.577252 0.718548 1.000000
0.752201 0.708953 1.000000
0.967061 0.684892 1.000000
1.000000 0.684250 0.999805
1.000000 0.792598 0.988624
0.400207 0.824698 1.000000
0.409580 0.824476 1.000000
0.427706 0.824025 1.000000
0.455982 0.821014 1.000000
0.549300 0.815680 1.000000
0.713291 0.803706 1.000000
0.923284 0.788915 1.000000
1.000000 0.773462 1.000000
1.000000 0.831634 0.996532
0.420340 0.917171 1.000000
0.438542 0.916754 1.000000
0.447297 0.916544 1.000000
0.488953 0.914175 1.000000
0.566534 0.910488 1.000000
0.703142 0.903733 1.000000
0.884887 0.892741 1.000000
1.000000 0.879584 1.000000
1.000000 0.889915 1.000000
0.653037 0.992578 1.000000
0.653037 0.992578 1.000000
0.656734 0.992439 1.000000
0.667593 0.992026 1.000000
0.691660 0.990598 1.000000
0.759586 0.986673 1.000000
0.872900 0.980879 1.000000
0.987740 0.972596 1.000000
1.000000 0.969722 1.000000
0.846611 1.000000 1.000000
0.846611 1.000000 1.000000
0.849491 1.000000 1.000000
0.852347 1.000000 1.000000
0.859385 1.000000 1.000000
0.878100 1.000000 1.000000
0.928974 1.000000 1.000000
0.982355 1.000000 1.000000
1.000000 1.000000 1.000000
