Assets/Lutify-Free-LUTs-Pack/Lutify Free LUTs Pack/Cine World Pro Warm - Amy/Lutify.me-Amy-SLog3Venice-to-Rec709.cube
# Created with: fylm.ai - Colour Grading and Collaboration Software in Cloud 
# Website: https://fylm.ai 
# META
# Option: Gamut compress
# Block 1: IDT | Sony Venice S-Log3 S-Gamut3
# Block 2: colourMatch | Blending Mode: Normal | {"ColorSpace":0,"CrossCovarianceLimit":50,"ReshapingIterations":1,"PercentSaturationShift":100,"PercentShadingShift":100,"ExtraShading":true,"PercentTint":100,"PercentModified":100}
# Block 3: LUT | Filmic Curve Response: Standard Contrast 1 (100%)
# Block 4: LUT | Illuminant: D60 (100%)
# Block 5: hueSaturation | Blending Mode: Normal | {"hue":0,"saturation":-0.15}
# Block 6: logPrimaries | Blending Mode: Normal | {"wheels":{"shadows":{"Y":"0","R":"1","G":"1","B":"1"},"midtones":{"Y":"0","R":"1","G":"1","B":"1"},"highlights":{"Y":"0","R":"1","G":"1","B":"1"},"offset":{"Y":"0","R":"1","G":"1","B":"1"}},"sliders":{"shadows":{"Y":0,"R":-0.097,"G":0,"B":0.158},"midtones":{"Y":0,"R":0.024,"G":0.024,"B":-0.036},"highlights":{"Y":0,"R":0.154,"G":-0.084,"B":-0.024},"offset":{"Y":0.048,"R":0,"G":0,"B":0}}}
# Block 7: smartCurves | Blending Mode: Average | [[{"x":0,"y":0},{"x":0.11328125,"y":0.085540771484375},{"x":0.21484375,"y":0.218353271484375},{"x":0.37109375,"y":0.382415771484375},{"x":0.62109375,"y":0.589447021484375},{"x":0.8125,"y":0.765228271484375},{"x":1,"y":1}],[{"x":0,"y":0},{"x":1,"y":1}],[{"x":0,"y":0},{"x":1,"y":1}],[{"x":0,"y":0},{"x":1,"y":1}]]
# Block 8: LUT | Neutral Tint: Teal Tint 4 (100%)
# Block 9: contrast | Blending Mode: Normal | {"contrast":0.1}
# Block 10: ODT | Rec709
TITLE "Lutify.me-Amy-SLog3Venice-to-Rec709" 
LUT_3D_SIZE 33
0.000000 0.000000 0.000000
0.000000 0.000000 0.000000
0.000000 0.000000 0.000000
0.000000 0.000000 0.000000
0.000000 0.000000 0.000000
0.073880 0.000000 0.000000
0.124008 0.000000 0.000000
0.168658 0.000000 0.000000
0.228905 0.000000 0.000000
0.290050 0.000000 0.000000
0.354954 0.000000 0.000000
0.416207 0.000000 0.000000
0.486405 0.000000 0.000000
0.562463 0.000000 0.000000
0.623280 0.000000 0.000000
0.690253 0.000000 0.000000
0.779946 0.000000 0.000000
0.876412 0.000000 0.000000
0.960575 0.000000 0.025509
1.000000 0.000000 0.061692
1.000000 0.000000 0.102938
1.000000 0.000000 0.146427
1.000000 0.237134 0.198283
1.000000 0.374287 0.251817
1.000000 0.485482 0.324444
1.000000 0.586520 0.409134
1.000000 0.673711 0.485165
1.000000 0.753882 0.563313
1.000000 0.807494 0.649780
1.000000 0.853419 0.730808
1.000000 0.885091 0.785708
1.000000 0.913397 0.829842
1.000000 0.935978 0.870914
0.000000 0.000000 0.000000
0.000000 0.000000 0.000000
0.000000 0.000000 0.000000
0.000000 0.000000 0.000000
0.000000 0.000000 0.000000
0.065688 0.000000 0.000000
0.117186 0.000000 0.000000
0.161170 0.000000 0.000000
0.219279 0.000000 0.000000
0.280322 0.000000 0.000000
0.345009 0.000000 0.000000
0.407174 0.000000 0.000000
0.468580 0.000000 0.000000
0.550622 0.000000 0.000000
0.623325 0.000000 0.000000
0.694499 0.000000 0.000000
0.775651 0.000000 0.000000
0.880276 0.000000 0.000000
0.960435 0.000000 0.024303
1.000000 0.000000 0.061529
1.000000 0.000000 0.102935
1.000000 0.000000 0.145883
1.000000 0.241739 0.197993
1.000000 0.377700 0.251542
1.000000 0.488536 0.326326
1.000000 0.586520 0.409134
1.000000 0.673711 0.485165
1.000000 0.753882 0.563313
1.000000 0.808342 0.651059
1.000000 0.853419 0.730808
1.000000 0.885091 0.785708
1.000000 0.913397 0.829842
1.000000 0.935978 0.870914
0.000000 0.000000 0.000000
0.000000 0.000000 0.000000
0.000000 0.000000 0.000000
0.000000 0.000000 0.000000
0.000000 0.000000 0.000000
0.059857 0.000000 0.000000
0.113640 0.000000 0.000000
0.153163 0.000000 0.000000
0.207101 0.000000 0.000000
0.272323 0.000000 0.000000
0.333041 0.000000 0.000000
0.398381 0.000000 0.000000
0.458235 0.000000 0.000000
0.550673 0.000000 0.000000
0.623366 0.000000 0.000000
0.694517 0.000000 0.000000
0.779929 0.000000 0.000000
0.880225 0.000000 0.000000
0.960306 0.000000 0.023320
1.000000 0.000000 0.061629
1.000000 0.000000 0.103449
1.000000 0.000000 0.145603
1.000000 0.250775 0.197398
1.000000 0.377693 0.253246
1.000000 0.488536 0.326326
1.000000 0.586520 0.409134
1.000000 0.676090 0.485047
1.000000 0.755721 0.563270
1.000000 0.809751 0.651064
1.000000 0.853419 0.730808
1.000000 0.885910 0.785726
1.000000 0.913397 0.829842
1.000000 0.935978 0.870914
0.000000 0.000000 0.000000
0.000000 0.000000 0.000000
0.000000 0.000000 0.000000
0.000000 0.000000 0.000000
0.000000 0.000000 0.000000
0.050531 0.000000 0.000000
0.106009 0.000000 0.000000
0.145592 0.000000 0.000000
0.198422 0.000000 0.000000
0.264507 0.000000 0.000000
0.323868 0.000000 0.000000
0.386994 0.000000 0.000000
0.454856 0.000000 0.000000
0.542891 0.000000 0.000000
0.619290 0.000000 0.000000
0.694535 0.000000 0.000000
0.779920 0.000000 0.000000
0.880158 0.000000 0.000000
0.960166 0.000000 0.021994
1.000000 0.000000 0.061692
1.000000 0.000000 0.102876
1.000000 0.000000 0.145024
1.000000 0.255208 0.198518
1.000000 0.381104 0.252971
1.000000 0.488536 0.326326
1.000000 0.589292 0.411292
1.000000 0.676090 0.485047
1.000000 0.755721 0.563270
1.000000 0.809751 0.651064
1.000000 0.853419 0.730808
1.000000 0.885910 0.785726
1.000000 0.913389 0.831088
1.000000 0.935978 0.870914
0.000000 0.003342 0.000000
0.000000 0.000000 0.000000
0.000000 0.000000 0.000000
0.000000 0.000000 0.000000
0.000000 0.000000 0.000000
0.031991 0.000000 0.000000
0.095565 0.000000 0.000000
0.135485 0.000000 0.000000
0.187553 0.000000 0.000000
0.256991 0.000000 0.000000
0.321668 0.000000 0.000000
0.378705 0.000000 0.000000
0.451543 0.000000 0.000000
0.539042 0.000000 0.000000
0.615219 0.000000 0.000000
0.694554 0.000000 0.000000
0.779908 0.000000 0.000000
0.880095 0.000000 0.000000
0.963037 0.000000 0.019649
1.000000 0.000000 0.061771
1.000000 0.000000 0.103369
1.000000 0.000000 0.145619
1.000000 0.259602 0.198212
1.000000 0.384514 0.252691
1.000000 0.490050 0.327318
1.000000 0.589292 0.411292
1.000000 0.676090 0.485047
1.000000 0.755721 0.563270
1.000000 0.809751 0.651064
1.000000 0.853419 0.730808
1.000000 0.885910 0.785726
1.000000 0.913389 0.831088
1.000000 0.935978 0.870914
0.000000 0.043502 0.000000
0.000000 0.041501 0.000000
0.000000 0.038904 0.000000
0.000000 0.036735 0.000000
0.000000 0.031022 0.000000
0.000000 0.027199 0.000000
0.081733 0.011702 0.000000
0.132504 0.000000 0.000000
0.181968 0.000000 0.000000
0.253236 0.000000 0.000000
0.317173 0.000000 0.000000
0.381451 0.000000 0.000000
0.448265 0.000000 0.000000
0.531345 0.000000 0.000000
0.619367 0.000000 0.000000
0.690341 0.000000 0.000000
0.779898 0.000000 0.000000
0.883910 0.000000 0.000000
0.962867 0.000000 0.016842
1.000000 0.000000 0.061744
1.000000 0.000000 0.103064
1.000000 0.000000 0.145312
1.000000 0.263951 0.197901
1.000000 0.387916 0.254134
1.000000 0.493093 0.329217
1.000000 0.592082 0.411121
1.000000 0.678466 0.484931
1.000000 0.755721 0.563270
1.000000 0.809751 0.651064
1.000000 0.853419 0.730808
1.000000 0.885910 0.785726
1.000000 0.914075 0.831107
1.000000 0.935978 0.870914
0.000000 0.066117 0.000000
0.000000 0.064489 0.000000
0.000000 0.062412 0.000000
0.000000 0.060992 0.000000
0.000000 0.058398 0.000000
0.000000 0.052458 0.000000
0.064130 0.049382 0.000000
0.120373 0.036360 0.000000
0.179083 0.000000 0.000000
0.253064 0.000000 0.000000
0.312750 0.000000 0.000000
0.373359 0.000000 0.000000
0.448356 0.000000 0.000000
0.527587 0.000000 0.000000
0.619420 0.000000 0.000000
0.686146 0.000000 0.000000
0.784155 0.000000 0.000000
0.883783 0.000000 0.000000
0.962683 0.000000 0.020491
1.000000 0.000000 0.061250
1.000000 0.000000 0.103222
1.000000 0.000000 0.147115
1.000000 0.272521 0.198711
1.000000 0.391324 0.253851
1.000000 0.496151 0.328995
1.000000 0.592082 0.411121
1.000000 0.678466 0.484931
1.000000 0.757555 0.563229
1.000000 0.809751 0.651064
1.000000 0.853419 0.730808
1.000000 0.885910 0.785726
1.000000 0.914075 0.831107
1.000000 0.935978 0.870914
0.000000 0.094711 0.000000
0.000000 0.093185 0.000000
0.000000 0.090166 0.000000
0.000000 0.087333 0.000000
0.000000 0.082472 0.000000
0.000000 0.077933 0.000000
0.041218 0.072318 0.000000
0.110282 0.063570 0.000000
0.174160 0.048469 0.000000
0.253029 0.000000 0.000000
0.312831 0.000000 0.000000
0.376296 0.000000 0.000000
0.451930 0.000000 0.000000
0.531611 0.000000 0.000000
0.615416 0.000000 0.000000
0.690398 0.000000 0.000000
0.784105 0.000000 0.000000
0.879745 0.000000 0.000000
0.962352 0.000000 0.009454
1.000000 0.000000 0.059705
1.000000 0.000000 0.103001
1.000000 0.053508 0.146135
1.000000 0.276754 0.198389
1.000000 0.398132 0.255019
1.000000 0.499216 0.328771
1.000000 0.594880 0.410948
1.000000 0.680842 0.484815
1.000000 0.757544 0.565626
1.000000 0.811146 0.653437
1.000000 0.854491 0.730824
1.000000 0.885910 0.785726
1.000000 0.914075 0.831107
1.000000 0.935978 0.870914
0.000000 0.130537 0.000000
0.000000 0.127352 0.000000
0.000000 0.124243 0.000000
0.000000 0.120212 0.000000
0.000000 0.115349 0.000000
0.000000 0.112530 0.000000
0.000000 0.104971 0.000000
0.087205 0.098353 0.000000
0.163400 0.086925 0.000000
0.253108 0.065236 0.000000
0.317659 0.000000 0.000000
0.379577 0.000000 0.000000
0.455876 0.000000 0.000000
0.539818 0.000000 0.000000
0.611525 0.000000 0.000000
0.690470 0.000000 0.000000
0.788307 0.000000 0.000000
0.875559 0.000000 0.000000
0.958930 0.000000 0.000000
1.000000 0.000000 0.059112
1.000000 0.000000 0.102699
1.000000 0.117281 0.146617
1.000000 0.286739 0.199904
1.000000 0.406395 0.255270
1.000000 0.502277 0.330689
1.000000 0.594880 0.410948
1.000000 0.683215 0.484700
1.000000 0.759371 0.565587
1.000000 0.811146 0.653437
1.000000 0.854491 0.730824
1.000000 0.886221 0.784876
1.000000 0.914075 0.831107
1.000000 0.935978 0.870914
0.000000 0.171678 0.000000
0.000000 0.166025 0.000000
0.000000 0.161928 0.000000
0.000000 0.160585 0.000000
0.000000 0.155330 0.000000
0.000000 0.150250 0.000000
0.000000 0.145230 0.000000
0.000000 0.139348 0.000000
0.141927 0.129665 0.000000
0.242249 0.115987 0.000000
0.318766 0.094692 0.000000
0.383922 0.059127 0.000000
0.464303 0.000000 0.000000
0.548718 0.000000 0.000000
0.620302 0.000000 0.000000
0.699039 0.000000 0.000000
0.779626 0.000000 0.000000
0.875200 0.000000 0.000000
0.955369 0.000000 0.000000
1.000000 0.000000 0.056449
1.000000 0.000000 0.100781
1.000000 0.143824 0.148065
1.000000 0.298978 0.200373
1.000000 0.413175 0.254673
1.000000 0.508429 0.332401
1.000000 0.597677 0.413120
1.000000 0.683205 0.487085
1.000000 0.759371 0.565587
1.000000 0.811146 0.653437
1.000000 0.854491 0.730824
1.000000 0.886221 0.784876
1.000000 0.914075 0.831107
1.000000 0.935978 0.870914
0.000000 0.212907 0.000000
0.000000 0.212907 0.000000
0.000000 0.207729 0.000000
0.000000 0.204354 0.000000
0.000000 0.199389 0.000000
0.000000 0.196136 0.000000
0.000000 0.189763 0.000000
0.000000 0.183093 0.000000
0.081068 0.176565 0.000000
0.216439 0.163216 0.000000
0.311846 0.145680 0.000000
0.386182 0.126323 0.000000
0.466741 0.097165 0.000000
0.554518 0.000000 0.000000
0.625481 0.000000 0.000000
0.703582 0.000000 0.000000
0.783676 0.000000 0.000000
0.878551 0.000000 0.000000
0.954613 0.000000 0.000000
1.000000 0.000000 0.052520
1.000000 0.000000 0.099970
1.000000 0.177480 0.149422
1.000000 0.318967 0.200104
1.000000 0.423340 0.257315
1.000000 0.514613 0.331945
1.000000 0.603314 0.412772
1.000000 0.685575 0.486972
1.000000 0.761179 0.567958
1.000000 0.812551 0.653444
1.000000 0.855561 0.730842
1.000000 0.887047 0.784896
1.000000 0.914075 0.831107
1.000000 0.936520 0.870930
0.000000 0.257921 0.000000
0.000000 0.254048 0.000000
0.000000 0.254051 0.000000
0.000000 0.246479 0.000000
0.000000 0.240961 0.000000
0.000000 0.239128 0.000000
0.000000 0.235492 0.000000
0.000000 0.229915 0.000000
0.000000 0.228672 0.000000
0.142641 0.220912 0.000000
0.285102 0.204853 0.000000
0.381549 0.189440 0.000000
0.470501 0.166678 0.000000
0.557530 0.145692 0.000000
0.631409 0.119115 0.000000
0.708531 0.062690 0.000000
0.787667 0.000000 0.000000
0.877483 0.000000 0.000000
0.953343 0.000000 0.000000
1.000000 0.000000 0.046974
1.000000 0.000000 0.096424
1.000000 0.211820 0.150331
1.000000 0.338549 0.201290
1.000000 0.433537 0.258188
1.000000 0.520813 0.333671
1.000000 0.608973 0.414781
1.000000 0.690294 0.489147
1.000000 0.764798 0.567889
1.000000 0.813943 0.655820
1.000000 0.856629 0.730861
1.000000 0.887038 0.786416
1.000000 0.914075 0.831107
1.000000 0.936520 0.870930
0.000000 0.302485 0.000000
0.000000 0.300178 0.000000
0.000000 0.300179 0.000000
0.000000 0.295639 0.000000
0.000000 0.291169 0.000000
0.000000 0.286763 0.000000
0.000000 0.284567 0.000000
0.000000 0.280156 0.000000
0.000000 0.279700 0.000000
0.000000 0.271476 0.000000
0.211553 0.263525 0.000000
0.349018 0.246061 0.000000
0.458858 0.226517 0.000000
0.561181 0.210122 0.000000
0.634366 0.204087 0.000000
0.705951 0.189529 0.000000
0.791839 0.159329 0.000000
0.886844 0.102750 0.000000
0.953697 0.000000 0.000000
1.000000 0.042905 0.022652
1.000000 0.150901 0.096907
1.000000 0.252507 0.147243
1.000000 0.362816 0.205972
1.000000 0.450586 0.262126
1.000000 0.533285 0.337182
1.000000 0.616073 0.417921
1.000000 0.694997 0.491340
1.000000 0.768374 0.570248
1.000000 0.815345 0.655830
1.000000 0.857693 0.730882
1.000000 0.887864 0.786436
1.000000 0.914761 0.831127
1.000000 0.937061 0.870947
0.000000 0.363923 0.000000
0.000000 0.361114 0.000000
0.000000 0.361119 0.000000
0.000000 0.350119 0.000000
0.000000 0.347425 0.000000
0.000000 0.347422 0.000000
0.000000 0.342085 0.000000
0.000000 0.344683 0.000000
0.000000 0.344530 0.000000
0.000000 0.346638 0.000000
0.000000 0.338710 0.000000
0.253128 0.324931 0.000000
0.404875 0.311515 0.000000
0.539763 0.291132 0.000000
0.637381 0.279663 0.000000
0.711935 0.272849 0.000000
0.787919 0.264112 0.000000
0.887613 0.243694 0.000000
0.954518 0.236149 0.000000
1.000000 0.214975 0.000000
1.000000 0.237996 0.093388
1.000000 0.303674 0.145460
1.000000 0.396718 0.205446
1.000000 0.465448 0.265450
1.000000 0.547136 0.337234
1.000000 0.627490 0.419595
1.000000 0.702022 0.493449
1.000000 0.772809 0.573877
1.000000 0.818131 0.658220
1.000000 0.858754 0.730905
1.000000 0.889516 0.786479
1.000000 0.915445 0.831148
1.000000 0.937055 0.871916
0.000000 0.428364 0.000000
0.000000 0.421886 0.000000
0.000000 0.421903 0.000000
0.000000 0.418680 0.000000
0.000000 0.412259 0.000000
0.000000 0.409065 0.000000
0.000000 0.409062 0.000000
0.000000 0.409040 0.000000
0.000000 0.405785 0.000000
0.000000 0.405582 0.000000
0.000000 0.407785 0.000000
0.000000 0.398509 0.000000
0.303127 0.389448 0.000000
0.475866 0.372255 0.000000
0.615375 0.354894 0.000000
0.708547 0.343088 0.000000
0.787628 0.343025 0.000000
0.883657 0.340472 0.000000
0.950477 0.344128 0.000000
1.000000 0.339923 0.000000
1.000000 0.338230 0.080855
1.000000 0.359898 0.145468
1.000000 0.429380 0.205627
1.000000 0.492807 0.266604
1.000000 0.562944 0.338277
1.000000 0.638902 0.418891
1.000000 0.714710 0.499032
1.000000 0.776285 0.576267
1.000000 0.820907 0.660614
1.000000 0.859802 0.732862
1.000000 0.890342 0.786502
1.000000 0.916129 0.831169
1.000000 0.937595 0.871933
0.000000 0.500745 0.133769
0.000000 0.497220 0.108536
0.000000 0.493702 0.066766
0.000000 0.483172 0.000000
0.000000 0.479681 0.000000
0.000000 0.479684 0.000000
0.000000 0.479685 0.000000
0.000000 0.479677 0.000000
0.000000 0.476158 0.000000
0.000000 0.476083 0.000000
0.000000 0.482804 0.000000
0.000000 0.481641 0.000000
0.000000 0.471649 0.000000
0.350072 0.458335 0.000000
0.544585 0.443281 0.000000
0.682293 0.427085 0.000000
0.777713 0.420504 0.000000
0.879088 0.420934 0.000000
0.940816 0.423243 0.000000
1.000000 0.424543 0.000000
1.000000 0.427146 0.042899
1.000000 0.433297 0.146197
1.000000 0.469538 0.204588
1.000000 0.522832 0.270588
1.000000 0.582085 0.341401
1.000000 0.653045 0.422851
1.000000 0.726058 0.501049
1.000000 0.781438 0.578666
1.000000 0.823683 0.660649
1.000000 0.862947 0.734868
1.000000 0.891985 0.788058
1.000000 0.916804 0.832433
1.000000 0.938133 0.871950
0.000000 0.576530 0.241976
0.000000 0.576549 0.225560
0.000000 0.569231 0.210818
0.000000 0.561942 0.180660
0.000000 0.558312 0.149281
0.000000 0.558329 0.110155
0.000000 0.558342 0.050346
0.000000 0.558344 0.000000
0.000000 0.561970 0.000000
0.000000 0.558265 0.000000
0.000000 0.558128 0.000000
0.000000 0.564890 0.000000
0.000000 0.563229 0.000000
0.000000 0.548737 0.000000
0.428113 0.540842 0.000000
0.605014 0.519513 0.000000
0.742902 0.508113 0.000000
0.863384 0.497046 0.000000
0.932444 0.499887 0.000000
0.988050 0.501983 0.000000
1.000000 0.508334 0.000000
1.000000 0.524015 0.138645
1.000000 0.536523 0.209935
1.000000 0.560341 0.271891
1.000000 0.613383 0.347428
1.000000 0.679144 0.429884
1.000000 0.737202 0.503135
1.000000 0.786549 0.581092
1.000000 0.829187 0.663101
1.000000 0.865022 0.736848
1.000000 0.892811 0.788083
1.000000 0.918167 0.832480
1.000000 0.938670 0.871968
0.000000 0.665330 0.337326
0.000000 0.654178 0.325080
0.000000 0.654212 0.305408
0.000000 0.643077 0.284679
0.000000 0.639394 0.257612
0.000000 0.635705 0.231411
0.000000 0.635739 0.195952
0.000000 0.635756 0.149598
0.000000 0.639463 0.098289
0.000000 0.643147 0.000000
0.000000 0.635615 0.000000
0.000000 0.642747 0.000000
0.000000 0.641968 0.000000
0.000000 0.647116 0.000000
0.207540 0.634684 0.000000
0.484608 0.623552 0.000000
0.676308 0.609170 0.000000
0.832560 0.589539 0.000000
0.912635 0.587849 0.000000
0.973998 0.589786 0.000000
1.000000 0.599129 0.000000
1.000000 0.616906 0.117037
1.000000 0.622402 0.206693
1.000000 0.630856 0.279668
1.000000 0.654754 0.355636
1.000000 0.705130 0.434864
1.000000 0.755302 0.511308
1.000000 0.797400 0.587239
1.000000 0.836607 0.669149
1.000000 0.869128 0.738893
1.000000 0.895276 0.789661
1.000000 0.919519 0.833767
1.000000 0.939740 0.872007
0.000000 0.738346 0.423730
0.000000 0.734888 0.412976
0.000000 0.727867 0.402570
0.000000 0.727917 0.380735
0.000000 0.727962 0.358999
0.000000 0.713622 0.331887
0.000000 0.710018 0.297992
0.000000 0.713716 0.257609
0.000000 0.713718 0.224793
0.000000 0.717333 0.190455
0.000000 0.724452 0.151679
0.000000 0.727819 0.086555
0.000000 0.730826 0.000000
0.000000 0.722334 0.000000
0.000000 0.722582 0.000000
0.320931 0.709711 0.000000
0.573368 0.697827 0.000000
0.765883 0.679344 0.000000
0.888254 0.667184 0.000000
0.954817 0.667986 0.000000
1.000000 0.675967 0.000000
1.000000 0.686688 0.102963
1.000000 0.696784 0.208797
1.000000 0.704639 0.287535
1.000000 0.713203 0.370947
1.000000 0.735960 0.441210
1.000000 0.769714 0.516097
1.000000 0.807327 0.592269
1.000000 0.843239 0.674010
1.000000 0.873651 0.741960
1.000000 0.899376 0.791298
1.000000 0.921541 0.835079
1.000000 0.940802 0.873009
0.000000 0.810229 0.516641
0.000000 0.804633 0.509310
0.000000 0.796004 0.494601
0.000000 0.793094 0.479677
0.000000 0.790149 0.464829
0.000000 0.790190 0.449862
0.000000 0.787262 0.412797
0.000000 0.778080 0.376485
0.000000 0.781219 0.343128
0.000000 0.784306 0.313551
0.000000 0.787311 0.281006
0.000000 0.793138 0.251865
0.000000 0.792780 0.212186
0.000000 0.791884 0.186305
0.000000 0.793047 0.134742
0.000000 0.785059 0.000000
0.440018 0.778463 0.000000
0.672932 0.763197 0.000000
0.826567 0.751019 0.000000
0.925592 0.735421 0.000000
0.980390 0.740157 0.000000
1.000000 0.747831 0.107129
1.000000 0.754162 0.209544
1.000000 0.762181 0.297946
1.000000 0.766522 0.382466
1.000000 0.777824 0.458677
1.000000 0.793509 0.527413
1.000000 0.823469 0.597591
1.000000 0.852317 0.679008
1.000000 0.881428 0.744223
1.000000 0.903822 0.793739
1.000000 0.923551 0.836392
1.000000 0.942395 0.874029
0.000000 0.863427 0.610360
0.000000 0.863471 0.598988
0.000000 0.861310 0.595201
0.000000 0.856984 0.572455
0.000000 0.852549 0.557315
0.000000 0.845701 0.546003
0.000000 0.845781 0.519495
0.000000 0.845852 0.489288
0.000000 0.845904 0.455500
0.000000 0.841254 0.418159
0.000000 0.843575 0.395823
0.000000 0.848092 0.369904
0.000000 0.850035 0.336587
0.000000 0.851695 0.318175
0.000000 0.854717 0.285268
0.000000 0.851864 0.245338
0.163446 0.846147 0.201296
0.555977 0.833746 0.154624
0.755301 0.820014 0.083979
0.877292 0.810328 0.000000
0.955543 0.801055 0.000000
1.000000 0.800221 0.125400
1.000000 0.804061 0.231339
1.000000 0.808848 0.314020
1.000000 0.817423 0.396035
1.000000 0.822075 0.473383
1.000000 0.830309 0.536702
1.000000 0.843868 0.607168
1.000000 0.866360 0.685490
1.000000 0.888491 0.751157
1.000000 0.908626 0.795439
1.000000 0.926856 0.838992
1.000000 0.944506 0.876013
0.000000 0.909060 0.699425
0.000000 0.904041 0.685348
0.000000 0.904057 0.681797
0.000000 0.898833 0.670843
0.000000 0.897127 0.648540
0.000000 0.891635 0.637104
0.000000 0.889792 0.622002
0.000000 0.889870 0.595640
0.000000 0.891834 0.561865
0.000000 0.889993 0.531745
0.000000 0.891872 0.505684
0.000000 0.893620 0.479790
0.000000 0.897004 0.458028
0.000000 0.892769 0.420943
0.000000 0.895375 0.407017
0.000000 0.894914 0.378609
0.000000 0.892891 0.336073
0.401456 0.884329 0.301135
0.682177 0.874996 0.269054
0.822837 0.862216 0.235614
0.918377 0.856442 0.207785
0.982484 0.849376 0.195475
1.000000 0.849146 0.253273
1.000000 0.852173 0.338105
1.000000 0.857755 0.417449
1.000000 0.864761 0.492984
1.000000 0.869322 0.560139
1.000000 0.872404 0.621402
1.000000 0.882545 0.694769
1.000000 0.898753 0.753750
1.000000 0.915225 0.800925
1.000000 0.931401 0.841668
1.000000 0.946072 0.877954
0.000000 0.941668 0.774019
0.000000 0.937892 0.765723
0.000000 0.935336 0.757167
0.000000 0.932713 0.751260
0.000000 0.928697 0.739098
0.000000 0.928766 0.723450
0.000000 0.927430 0.707041
0.000000 0.926061 0.689966
0.000000 0.924677 0.665068
0.000000 0.926169 0.639486
0.000000 0.928967 0.617693
0.000000 0.930240 0.595800
0.000000 0.931359 0.566686
0.000000 0.930895 0.537500
0.000000 0.929896 0.512195
0.000000 0.928131 0.490754
0.000000 0.925119 0.466081
0.000000 0.921653 0.428333
0.576583 0.914495 0.396171
0.761935 0.903943 0.364874
0.874907 0.899047 0.346849
0.951115 0.890306 0.324513
0.997236 0.888038 0.316316
1.000000 0.887787 0.364085
1.000000 0.891165 0.439091
1.000000 0.892931 0.512631
1.000000 0.895865 0.580408
1.000000 0.899227 0.639331
1.000000 0.902891 0.708950
1.000000 0.910705 0.762921
1.000000 0.922823 0.805783
1.000000 0.936302 0.844373
1.000000 0.949390 0.880391
0.000000 0.966371 0.828444
0.000000 0.963297 0.826269
0.000000 0.961199 0.821976
0.000000 0.960170 0.813241
0.000000 0.955801 0.804075
0.000000 0.955826 0.797110
0.000000 0.954739 0.784947
0.000000 0.954776 0.772061
0.000000 0.953648 0.758334
0.000000 0.953657 0.743974
0.000000 0.954777 0.726004
0.000000 0.954715 0.700475
0.000000 0.955600 0.680632
0.000000 0.957364 0.653388
0.000000 0.957655 0.632350
0.000000 0.956951 0.607913
0.000000 0.955612 0.576694
0.000000 0.949653 0.551563
0.415875 0.943858 0.521090
0.688444 0.936411 0.489840
0.828243 0.930753 0.462053
0.918116 0.922258 0.436952
0.974548 0.918871 0.427819
1.000000 0.915142 0.419577
1.000000 0.915035 0.464697
1.000000 0.916907 0.533385
1.000000 0.919508 0.598458
1.000000 0.921734 0.664859
1.000000 0.923803 0.724936
1.000000 0.926758 0.772779
1.000000 0.933825 0.814579
1.000000 0.942908 0.848444
1.000000 0.953451 0.882423
0.000000 0.985805 0.875950
0.000000 0.982632 0.871182
0.000000 0.981834 0.866271
0.000000 0.981015 0.862890
0.000000 0.978467 0.855844
0.000000 0.978477 0.852234
0.000000 0.976714 0.846610
0.000000 0.975820 0.838889
0.000000 0.976720 0.828938
0.000000 0.976696 0.820629
0.000000 0.975766 0.807564
0.000000 0.976532 0.794078
0.000000 0.976301 0.777204
0.000000 0.976681 0.761832
0.000000 0.976788 0.737028
0.000000 0.976227 0.713516
0.000000 0.974594 0.692045
0.000000 0.972589 0.673161
0.253332 0.968054 0.650154
0.590876 0.961011 0.617117
0.764539 0.952303 0.581372
0.879914 0.948012 0.558833
0.947010 0.942274 0.544483
0.988656 0.938952 0.530628
1.000000 0.937916 0.520249
1.000000 0.937027 0.560579
1.000000 0.937743 0.619663
1.000000 0.938890 0.681131
1.000000 0.943699 0.741881
1.000000 0.944819 0.785721
1.000000 0.946388 0.821186
1.000000 0.951109 0.855542
1.000000 0.958864 0.885452
0.000000 1.000000 0.910530
0.000000 0.999601 0.908160
0.000000 0.998980 0.905755
0.000000 0.998353 0.902074
