Assets/Lutify-Free-LUTs-Pack/Lutify Free LUTs Pack/Cine World Pro Warm - Amy/Lutify.me-Amy-SLog3Cine-to-Rec709.cube
# Created with: fylm.ai - Colour Grading and Collaboration Software in Cloud 
# Website: https://fylm.ai 
# META
# Option: Gamut compress
# Block 1: IDT | Sony S-Log3 S-Gamut3.Cine
# Block 2: colourMatch | Blending Mode: Normal | {"ColorSpace":0,"CrossCovarianceLimit":50,"ReshapingIterations":1,"PercentSaturationShift":100,"PercentShadingShift":100,"ExtraShading":true,"PercentTint":100,"PercentModified":100}
# Block 3: LUT | Filmic Curve Response: Standard Contrast 1 (100%)
# Block 4: LUT | Illuminant: D60 (100%)
# Block 5: hueSaturation | Blending Mode: Normal | {"hue":0,"saturation":-0.15}
# Block 6: logPrimaries | Blending Mode: Normal | {"wheels":{"shadows":{"Y":"0","R":"1","G":"1","B":"1"},"midtones":{"Y":"0","R":"1","G":"1","B":"1"},"highlights":{"Y":"0","R":"1","G":"1","B":"1"},"offset":{"Y":"0","R":"1","G":"1","B":"1"}},"sliders":{"shadows":{"Y":0,"R":-0.097,"G":0,"B":0.158},"midtones":{"Y":0,"R":0.024,"G":0.024,"B":-0.036},"highlights":{"Y":0,"R":0.154,"G":-0.084,"B":-0.024},"offset":{"Y":0.048,"R":0,"G":0,"B":0}}}
# Block 7: smartCurves | Blending Mode: Average | [[{"x":0,"y":0},{"x":0.11328125,"y":0.085540771484375},{"x":0.21484375,"y":0.218353271484375},{"x":0.37109375,"y":0.382415771484375},{"x":0.62109375,"y":0.589447021484375},{"x":0.8125,"y":0.765228271484375},{"x":1,"y":1}],[{"x":0,"y":0},{"x":1,"y":1}],[{"x":0,"y":0},{"x":1,"y":1}],[{"x":0,"y":0},{"x":1,"y":1}]]
# Block 8: LUT | Neutral Tint: Teal Tint 4 (100%)
# Block 9: contrast | Blending Mode: Normal | {"contrast":0.1}
# Block 10: ODT | Rec709
TITLE "Lutify.me-Amy-SLog3Cine-to-Rec709" 
LUT_3D_SIZE 5
0.000000 0.000000 0.000000
0.180275 0.000000 0.000000
0.745550 0.000000 0.000000
1.000000 0.369772 0.234184
1.000000 0.912220 0.820144
0.000000 0.129466 0.000000
0.183040 0.086621 0.000000
0.745590 0.000000 0.000000
1.000000 0.397517 0.238740
1.000000 0.912862 0.820167
0.000000 0.568708 0.000000
0.000000 0.559652 0.000000
0.841000 0.487263 0.000000
1.000000 0.563391 0.243170
1.000000 0.917341 0.822687
0.559573 0.963347 0.534654
0.584544 0.961698 0.530810
0.763755 0.954506 0.501995
1.000000 0.935394 0.398586
1.000000 0.949757 0.841357
0.968231 1.000000 0.953716
0.968826 1.000000 0.953725
0.972374 1.000000 0.952607
0.992666 1.000000 0.944353
1.000000 1.000000 0.913882
0.000000 0.000000 0.091559
0.113922 0.000000 0.043684
0.669687 0.000000 0.041906
1.000000 0.362716 0.257608
1.000000 0.912206 0.822484
0.000000 0.138429 0.192235
0.048131 0.101857 0.137606
0.665630 0.000000 0.060119
1.000000 0.394102 0.261254
1.000000 0.912848 0.822506
0.000000 0.583609 0.152936
0.000000 0.589823 0.089006
0.708893 0.537894 0.000000
1.000000 0.562353 0.281695
1.000000 0.917334 0.823852
0.550086 0.965078 0.582009
0.581758 0.964104 0.575616
0.754978 0.955624 0.537569
1.000000 0.936228 0.436252
1.000000 0.950291 0.843587
0.968114 1.000000 0.955462
0.968787 1.000000 0.954310
0.971768 1.000000 0.953187
0.992586 1.000000 0.945590
1.000000 1.000000 0.914899
0.000000 0.000000 0.239299
0.055061 0.000000 0.102366
0.730120 0.000000 0.085956
1.000000 0.320693 0.428260
1.000000 0.912320 0.835883
0.000000 0.064389 0.365171
0.000000 0.052580 0.291667
0.615349 0.000000 0.217312
1.000000 0.359211 0.438671
1.000000 0.912961 0.837078
0.000000 0.607932 0.727216
0.000000 0.603964 0.723979
0.510943 0.578346 0.665502
1.000000 0.552555 0.482472
1.000000 0.917487 0.838363
0.433364 0.969257 0.773847
0.490761 0.967906 0.771367
0.704466 0.961624 0.737695
1.000000 0.941086 0.631193
1.000000 0.950042 0.856883
0.967084 1.000000 0.961199
0.967084 1.000000 0.961199
0.970707 1.000000 0.960080
0.992052 1.000000 0.952880
1.000000 1.000000 0.922302
0.091936 0.000000 0.246093
0.185661 0.000000 0.223080
0.554953 0.000000 0.190402
1.000000 0.000000 0.293980
1.000000 0.902491 0.905676
0.000000 0.055687 0.547779
0.000000 0.036756 0.533096
0.472606 0.000000 0.418219
1.000000 0.000000 0.294967
1.000000 0.903175 0.906623
0.000000 0.462343 0.888447
0.000000 0.461994 0.890261
0.211026 0.441708 0.889603
1.000000 0.227810 0.830064
1.000000 0.910249 0.909648
0.000000 0.981765 0.991647
0.000000 0.980868 0.991190
0.419548 0.973061 0.988950
0.963887 0.945732 0.972514
1.000000 0.947783 0.927714
0.958024 1.000000 0.991161
0.958694 1.000000 0.991160
0.961982 1.000000 0.990595
0.986579 1.000000 0.986428
1.000000 1.000000 0.966960
0.742982 0.000000 0.414123
0.768021 0.000000 0.391564
0.881487 0.000000 0.373946
1.000000 0.000000 0.418872
1.000000 0.805443 0.768100
0.626209 0.000000 0.804975
0.640947 0.000000 0.796114
0.800465 0.000000 0.671077
1.000000 0.000000 0.418872
1.000000 0.805443 0.768100
0.447302 0.516462 0.995687
0.466289 0.515518 0.995587
0.634285 0.485618 0.994033
1.000000 0.264713 0.976078
1.000000 0.805443 0.768100
0.367560 0.933237 1.000000
0.377973 0.933045 1.000000
0.520351 0.928486 1.000000
0.898193 0.901664 1.000000
1.000000 0.884701 1.000000
0.902842 1.000000 1.000000
0.902842 1.000000 1.000000
0.908506 1.000000 1.000000
0.954022 1.000000 1.000000
1.000000 1.000000 1.000000
