Assets/Lutify-Free-LUTs-Pack/Lutify Free LUTs Pack/Cine World Pro Warm - Amy/Lutify.me-Amy-FLog2-to-Rec709.cube
# Created with: fylm.ai - Colour Grading and Collaboration Software in Cloud 
# Website: https://fylm.ai 
# META
# Option: Gamut compress
# Block 1: IDT | Fujifilm F-Gamut F-Log2
# Block 2: colourMatch | Blending Mode: Normal | {"ColorSpace":0,"CrossCovarianceLimit":50,"ReshapingIterations":1,"PercentSaturationShift":100,"PercentShadingShift":100,"ExtraShading":true,"PercentTint":100,"PercentModified":100}
# Block 3: LUT | Filmic Curve Response: Standard Contrast 1 (100%)
# Block 4: LUT | Illuminant: D60 (100%)
# Block 5: hueSaturation | Blending Mode: Normal | {"hue":0,"saturation":-0.15}
# Block 6: logPrimaries | Blending Mode: Normal | {"wheels":{"shadows":{"Y":"0","R":"1","G":"1","B":"1"},"midtones":{"Y":"0","R":"1","G":"1","B":"1"},"highlights":{"Y":"0","R":"1","G":"1","B":"1"},"offset":{"Y":"0","R":"1","G":"1","B":"1"}},"sliders":{"shadows":{"Y":0,"R":-0.097,"G":0,"B":0.158},"midtones":{"Y":0,"R":0.024,"G":0.024,"B":-0.036},"highlights":{"Y":0,"R":0.154,"G":-0.084,"B":-0.024},"offset":{"Y":0.048,"R":0,"G":0,"B":0}}}
# Block 7: smartCurves | Blending Mode: Average | [[{"x":0,"y":0},{"x":0.11328125,"y":0.085540771484375},{"x":0.21484375,"y":0.218353271484375},{"x":0.37109375,"y":0.382415771484375},{"x":0.62109375,"y":0.589447021484375},{"x":0.8125,"y":0.765228271484375},{"x":1,"y":1}],[{"x":0,"y":0},{"x":1,"y":1}],[{"x":0,"y":0},{"x":1,"y":1}],[{"x":0,"y":0},{"x":1,"y":1}]]
# Block 8: LUT | Neutral Tint: Teal Tint 4 (100%)
# Block 9: contrast | Blending Mode: Normal | {"contrast":0.1}
# Block 10: ODT | Rec709
TITLE "Lutify.me-Amy-FLog2-to-Rec709" 
LUT_3D_SIZE 33
0.000000 0.000000 0.000000
0.000000 0.000000 0.000000
0.000000 0.000000 0.000000
0.000000 0.000000 0.000000
0.000000 0.000000 0.000000
0.013597 0.000000 0.000000
0.092049 0.000000 0.000000
0.141872 0.000000 0.000000
0.194337 0.000000 0.000000
0.260718 0.000000 0.000000
0.319372 0.000000 0.000000
0.381403 0.000000 0.000000
0.448171 0.000000 0.000000
0.523516 0.000000 0.000000
0.602992 0.000000 0.000000
0.681995 0.000000 0.000000
0.788544 0.000000 0.000000
0.895225 0.000000 0.029859
0.973789 0.000000 0.060386
1.000000 0.000000 0.099561
1.000000 0.000000 0.145549
1.000000 0.248864 0.198180
1.000000 0.383757 0.255715
1.000000 0.492199 0.334870
1.000000 0.585209 0.419037
1.000000 0.683979 0.498675
1.000000 0.764782 0.583427
1.000000 0.816494 0.666315
1.000000 0.859359 0.742885
1.000000 0.892610 0.797199
1.000000 0.921832 0.848099
1.000000 0.942667 0.884019
1.000000 0.957804 0.911757
0.000000 0.000000 0.000000
0.000000 0.000000 0.000000
0.000000 0.000000 0.000000
0.000000 0.000000 0.000000
0.000000 0.000000 0.000000
0.013597 0.000000 0.000000
0.090244 0.000000 0.000000
0.138571 0.000000 0.000000
0.190325 0.000000 0.000000
0.256964 0.000000 0.000000
0.312813 0.000000 0.000000
0.375975 0.000000 0.000000
0.444879 0.000000 0.000000
0.523558 0.000000 0.000000
0.603020 0.000000 0.000000
0.682000 0.000000 0.000000
0.792814 0.000000 0.000000
0.898897 0.000000 0.031275
0.973680 0.000000 0.059685
1.000000 0.000000 0.100431
1.000000 0.000000 0.146568
1.000000 0.253625 0.197859
1.000000 0.383757 0.255715
1.000000 0.492199 0.334870
1.000000 0.588226 0.418857
1.000000 0.683979 0.498675
1.000000 0.764782 0.583427
1.000000 0.816494 0.666315
1.000000 0.859359 0.742885
1.000000 0.892610 0.797199
1.000000 0.921832 0.848099
1.000000 0.942667 0.884019
1.000000 0.957804 0.911757
0.000000 0.000000 0.000000
0.000000 0.000000 0.000000
0.000000 0.000000 0.000000
0.000000 0.000000 0.000000
0.000000 0.000000 0.000000
0.011097 0.000000 0.000000
0.090025 0.000000 0.000000
0.136219 0.000000 0.000000
0.183880 0.000000 0.000000
0.253250 0.000000 0.000000
0.308531 0.000000 0.000000
0.373306 0.000000 0.000000
0.438352 0.000000 0.000000
0.519751 0.000000 0.000000
0.598988 0.000000 0.000000
0.682009 0.000000 0.000000
0.792799 0.000000 0.000000
0.895093 0.000000 0.031604
0.973568 0.000000 0.060128
1.000000 0.000000 0.099841
1.000000 0.000000 0.145783
1.000000 0.253625 0.197859
1.000000 0.387390 0.257304
1.000000 0.492189 0.337212
1.000000 0.588226 0.418857
1.000000 0.686496 0.498558
1.000000 0.766676 0.583393
1.000000 0.816494 0.666315
1.000000 0.859359 0.742885
1.000000 0.892610 0.797199
1.000000 0.921832 0.848099
1.000000 0.942667 0.884019
1.000000 0.957804 0.911757
0.000000 0.000000 0.000000
0.000000 0.000000 0.000000
0.000000 0.000000 0.000000
0.000000 0.000000 0.000000
0.000000 0.000000 0.000000
0.009924 0.000000 0.000000
0.090082 0.000000 0.000000
0.134012 0.000000 0.000000
0.181344 0.000000 0.000000
0.242458 0.000000 0.000000
0.306437 0.000000 0.000000
0.367990 0.000000 0.000000
0.431950 0.000000 0.000000
0.516051 0.000000 0.000000
0.599019 0.000000 0.000000
0.682022 0.000000 0.000000
0.788493 0.000000 0.000000
0.895005 0.000000 0.029699
0.973452 0.000000 0.060561
1.000000 0.000000 0.100712
1.000000 0.000000 0.145479
1.000000 0.253625 0.197859
1.000000 0.387390 0.257304
1.000000 0.495459 0.336985
1.000000 0.588226 0.418857
1.000000 0.686496 0.498558
1.000000 0.766676 0.583393
1.000000 0.816494 0.666315
1.000000 0.859359 0.742885
1.000000 0.892610 0.797199
1.000000 0.921832 0.848099
1.000000 0.942667 0.884019
1.000000 0.957804 0.911757
0.000000 0.000000 0.000000
0.000000 0.000000 0.000000
0.000000 0.000000 0.000000
0.000000 0.000000 0.000000
0.000000 0.000000 0.000000
0.000000 0.000000 0.000000
0.083421 0.000000 0.000000
0.129724 0.000000 0.000000
0.178801 0.000000 0.000000
0.240707 0.000000 0.000000
0.302275 0.000000 0.000000
0.365351 0.000000 0.000000
0.428806 0.000000 0.000000
0.516092 0.000000 0.000000
0.599054 0.000000 0.000000
0.682029 0.000000 0.000000
0.788474 0.000000 0.000000
0.894888 0.000000 0.028672
0.970448 0.000000 0.060755
1.000000 0.000000 0.100405
1.000000 0.000000 0.146503
1.000000 0.258328 0.197532
1.000000 0.391027 0.257008
1.000000 0.495459 0.336985
1.000000 0.591249 0.418676
1.000000 0.686496 0.498558
1.000000 0.766676 0.583393
1.000000 0.816481 0.668829
1.000000 0.860477 0.742903
1.000000 0.893461 0.798758
1.000000 0.922518 0.848117
1.000000 0.942667 0.884019
1.000000 0.958247 0.911767
0.000000 0.008121 0.000000
0.000000 0.008121 0.000000
0.000000 0.008310 0.000000
0.000000 0.008587 0.000000
0.000000 0.002292 0.000000
0.000000 0.000000 0.014253
0.079801 0.000000 0.000000
0.125468 0.000000 0.000000
0.169187 0.000000 0.000000
0.237279 0.000000 0.000000
0.302224 0.000000 0.000000
0.365350 0.000000 0.000000
0.425703 0.000000 0.000000
0.516157 0.000000 0.000000
0.599097 0.000000 0.000000
0.686258 0.000000 0.000000
0.788448 0.000000 0.000000
0.894758 0.000000 0.027296
0.970262 0.000000 0.060762
1.000000 0.000000 0.100969
1.000000 0.000000 0.147534
1.000000 0.262968 0.198771
1.000000 0.394653 0.258612
1.000000 0.498733 0.336756
1.000000 0.591238 0.421247
1.000000 0.688994 0.501032
1.000000 0.766676 0.583393
1.000000 0.816481 0.668829
1.000000 0.860466 0.744915
1.000000 0.893461 0.798758
1.000000 0.922518 0.848117
1.000000 0.942667 0.884019
1.000000 0.958247 0.911767
0.000000 0.049783 0.000000
0.000000 0.048969 0.000000
0.000000 0.049012 0.000000
0.000000 0.047824 0.000000
0.000000 0.045526 0.000000
0.000000 0.044189 0.000000
0.062468 0.038840 0.000000
0.118032 0.022079 0.000000
0.168463 0.000000 0.000000
0.235188 0.000000 0.000000
0.297941 0.000000 0.000000
0.362794 0.000000 0.000000
0.428961 0.000000 0.000000
0.520032 0.000000 0.000000
0.603237 0.000000 0.000000
0.686280 0.000000 0.000000
0.784101 0.000000 0.000000
0.894620 0.000000 0.027634
0.969999 0.000000 0.061531
1.000000 0.000000 0.102426
1.000000 0.000000 0.148253
1.000000 0.267550 0.201610
1.000000 0.394653 0.258612
1.000000 0.498724 0.339120
1.000000 0.594269 0.421066
1.000000 0.688994 0.501032
1.000000 0.766676 0.583393
1.000000 0.816481 0.668829
1.000000 0.860466 0.744915
1.000000 0.893461 0.798758
1.000000 0.922518 0.848117
1.000000 0.942667 0.884019
1.000000 0.958247 0.911767
0.000000 0.078322 0.000000
0.000000 0.077037 0.000000
0.000000 0.075169 0.000000
0.000000 0.074015 0.000000
0.000000 0.072871 0.000000
0.000000 0.067716 0.000000
0.052673 0.063843 0.000000
0.109877 0.058539 0.000000
0.169380 0.042786 0.000000
0.236611 0.000000 0.000000
0.304208 0.000000 0.000000
0.365625 0.000000 0.000000
0.432372 0.000000 0.000000
0.520242 0.000000 0.000000
0.607413 0.000000 0.000000
0.686318 0.000000 0.000000
0.784028 0.000000 0.000000
0.894339 0.000000 0.026429
0.969719 0.000000 0.063505
1.000000 0.000000 0.102981
1.000000 0.081099 0.146909
1.000000 0.281063 0.202214
1.000000 0.401902 0.259932
1.000000 0.502002 0.338892
1.000000 0.594269 0.421066
1.000000 0.692638 0.501972
1.000000 0.768559 0.583361
1.000000 0.816481 0.668829
1.000000 0.860466 0.744915
1.000000 0.893461 0.798758
1.000000 0.922518 0.848117
1.000000 0.942667 0.884019
1.000000 0.958247 0.911767
0.000000 0.108894 0.000000
0.000000 0.108005 0.000000
0.000000 0.108004 0.000000
0.000000 0.105378 0.000000
0.000000 0.101974 0.000000
0.000000 0.100373 0.000000
0.000000 0.095544 0.000000
0.099177 0.089536 0.000000
0.163273 0.079825 0.000000
0.239921 0.064969 0.000000
0.306628 0.000000 0.000000
0.368825 0.000000 0.000000
0.442807 0.000000 0.000000
0.524663 0.000000 0.000000
0.607661 0.000000 0.000000
0.682203 0.000000 0.000000
0.788161 0.000000 0.000000
0.894013 0.000000 0.020998
0.966185 0.000000 0.061978
1.000000 0.000000 0.102023
1.000000 0.104719 0.148033
1.000000 0.289890 0.201522
1.000000 0.409148 0.259321
1.000000 0.505275 0.341049
1.000000 0.597294 0.423469
1.000000 0.695118 0.501861
1.000000 0.768559 0.583361
1.000000 0.816481 0.668829
1.000000 0.860466 0.744915
1.000000 0.893461 0.798758
1.000000 0.922518 0.848117
1.000000 0.943202 0.884954
1.000000 0.958247 0.911767
0.000000 0.154045 0.000000
0.000000 0.151505 0.000000
0.000000 0.147775 0.000000
0.000000 0.146553 0.000000
0.000000 0.145340 0.000000
0.000000 0.141798 0.000000
0.000000 0.135601 0.000000
0.064967 0.130778 0.000000
0.150298 0.129069 0.000000
0.242317 0.114693 0.000000
0.312054 0.101602 0.000000
0.375899 0.075143 0.000000
0.441424 0.032076 0.000000
0.522443 0.000000 0.000000
0.604485 0.000000 0.000000
0.686601 0.000000 0.000000
0.792212 0.000000 0.000000
0.893499 0.000000 0.000000
0.968479 0.000000 0.062378
1.000000 0.000000 0.102134
1.000000 0.143577 0.149385
1.000000 0.307184 0.203368
1.000000 0.416394 0.260643
1.000000 0.508552 0.343227
1.000000 0.600337 0.423288
1.000000 0.697580 0.504349
1.000000 0.768559 0.583361
1.000000 0.816481 0.668829
1.000000 0.861580 0.744933
1.000000 0.894320 0.798777
1.000000 0.922518 0.848117
1.000000 0.943202 0.884954
1.000000 0.958247 0.911767
0.000000 0.197758 0.000000
0.000000 0.197758 0.000000
0.000000 0.194528 0.000000
0.000000 0.189765 0.000000
0.000000 0.186645 0.000000
0.000000 0.186653 0.000000
0.000000 0.181804 0.000000
0.000000 0.177992 0.000000
0.119492 0.172565 0.000000
0.229928 0.160126 0.000000
0.311534 0.150707 0.000000
0.380856 0.135508 0.000000
0.447308 0.123482 0.000000
0.528490 0.093288 0.000000
0.610110 0.058888 0.000000
0.691261 0.000000 0.000000
0.796105 0.000000 0.000000
0.892713 0.000000 0.000000
0.970212 0.000000 0.058038
1.000000 0.000000 0.103294
1.000000 0.179926 0.151768
1.000000 0.325069 0.205803
1.000000 0.428350 0.264350
1.000000 0.518430 0.344968
1.000000 0.603375 0.425704
1.000000 0.700046 0.504241
1.000000 0.768547 0.585967
1.000000 0.817961 0.671347
1.000000 0.862687 0.744952
1.000000 0.894320 0.798777
1.000000 0.923202 0.848136
1.000000 0.943202 0.884954
1.000000 0.958247 0.911767
0.000000 0.240946 0.000000
0.000000 0.237335 0.000000
0.000000 0.233770 0.000000
0.000000 0.235530 0.000000
0.000000 0.231976 0.000000
0.000000 0.231901 0.000000
0.000000 0.229883 0.000000
0.000000 0.232774 0.000000
0.000000 0.227218 0.000000
0.187037 0.220435 0.000000
0.289437 0.208079 0.000000
0.384014 0.199160 0.000000
0.450872 0.186946 0.000000
0.535934 0.171557 0.000000
0.616472 0.163773 0.000000
0.700529 0.134794 0.000000
0.799912 0.089025 0.000000
0.898211 0.000000 0.000000
0.968263 0.000000 0.054114
1.000000 0.103107 0.105475
1.000000 0.221746 0.154767
1.000000 0.349662 0.206883
1.000000 0.439156 0.269483
1.000000 0.528352 0.346725
1.000000 0.612560 0.425154
1.000000 0.704957 0.504030
1.000000 0.772282 0.585909
1.000000 0.819451 0.671355
1.000000 0.862687 0.744952
1.000000 0.895178 0.798798
1.000000 0.923202 0.848136
1.000000 0.942967 0.884568
1.000000 0.958247 0.911767
0.000000 0.288939 0.000000
0.000000 0.284575 0.000000
0.000000 0.280277 0.000000
0.000000 0.282407 0.000000
0.000000 0.284536 0.000000
0.000000 0.284482 0.000000
0.000000 0.282194 0.000000
0.000000 0.284015 0.000000
0.000000 0.278763 0.000000
0.092193 0.273736 0.000000
0.232738 0.273124 0.000000
0.348572 0.259540 0.000000
0.454682 0.241507 0.000000
0.539846 0.240914 0.000000
0.627266 0.229781 0.000000
0.710271 0.222670 0.000000
0.803756 0.214099 0.000000
0.899224 0.194409 0.000000
0.973111 0.178645 0.040830
1.000000 0.201882 0.108738
1.000000 0.278128 0.152371
1.000000 0.378537 0.211688
1.000000 0.457173 0.272026
1.000000 0.539400 0.351847
1.000000 0.621797 0.424596
1.000000 0.709825 0.506438
1.000000 0.774122 0.588500
1.000000 0.820936 0.671365
1.000000 0.863789 0.744974
1.000000 0.896026 0.800355
1.000000 0.923884 0.848155
1.000000 0.943511 0.884581
1.000000 0.958247 0.911767
0.000000 0.352807 0.000000
0.000000 0.344717 0.000000
0.000000 0.344712 0.000000
0.000000 0.344698 0.000000
0.000000 0.347352 0.000000
0.000000 0.350013 0.000000
0.000000 0.349936 0.000000
0.000000 0.347073 0.000000
0.000000 0.351979 0.000000
0.000000 0.345095 0.000000
0.128360 0.347460 0.000000
0.282810 0.336830 0.000000
0.409653 0.322335 0.000000
0.537999 0.312194 0.000000
0.621485 0.313940 0.000000
0.704056 0.311910 0.000000
0.803198 0.309995 0.000000
0.898592 0.300845 0.000000
0.974244 0.302558 0.000000
1.000000 0.308521 0.100983
1.000000 0.342418 0.153385
1.000000 0.413131 0.212682
1.000000 0.478782 0.278606
1.000000 0.552706 0.353432
1.000000 0.632158 0.427582
1.000000 0.719457 0.511311
1.000000 0.778538 0.592161
1.000000 0.823894 0.671391
1.000000 0.865967 0.747022
1.000000 0.896881 0.800377
1.000000 0.924562 0.848176
1.000000 0.943511 0.884581
1.000000 0.958247 0.911767
0.000000 0.415425 0.000000
0.000000 0.412212 0.000000
0.000000 0.415416 0.000000
0.000000 0.415408 0.000000
0.000000 0.415391 0.000000
0.000000 0.418585 0.000000
0.000000 0.418533 0.000000
0.000000 0.421663 0.000000
0.000000 0.418164 0.000000
0.000000 0.420585 0.000000
0.000000 0.418919 0.000000
0.181631 0.415881 0.000000
0.346904 0.407276 0.000000
0.496852 0.390835 0.000000
0.616003 0.383068 0.000000
0.702578 0.384218 0.000000
0.797991 0.379971 0.000000
0.894063 0.379577 0.000000
0.967163 0.384640 0.000000
1.000000 0.395680 0.090932
1.000000 0.410356 0.162015
1.000000 0.455219 0.214554
1.000000 0.509656 0.278546
1.000000 0.571812 0.356284
1.000000 0.647377 0.429302
1.000000 0.728936 0.516266
1.000000 0.783912 0.594748
1.000000 0.828896 0.674965
1.000000 0.868136 0.747074
1.000000 0.898575 0.801955
1.000000 0.925231 0.849419
1.000000 0.944053 0.884594
1.000000 0.958683 0.912544
0.000000 0.493694 0.000000
0.000000 0.493687 0.000000
0.000000 0.493677 0.000000
0.000000 0.490147 0.000000
0.000000 0.490132 0.000000
0.000000 0.490108 0.000000
0.000000 0.493593 0.000000
0.000000 0.497044 0.000000
0.000000 0.496854 0.000000
0.000000 0.496383 0.000000
0.000000 0.495374 0.000000
0.000000 0.493276 0.000000
0.232920 0.489810 0.000000
0.442119 0.478640 0.000000
0.573551 0.470033 0.000000
0.699389 0.455252 0.000000
0.798648 0.452772 0.000000
0.885344 0.455940 0.000000
0.961041 0.462530 0.000000
1.000000 0.478057 0.090011
1.000000 0.495313 0.162493
1.000000 0.517327 0.223505
1.000000 0.546062 0.281764
1.000000 0.597977 0.363993
1.000000 0.669207 0.436997
1.000000 0.738252 0.518628
1.000000 0.789247 0.597362
1.000000 0.831761 0.679972
1.000000 0.869201 0.749093
1.000000 0.899806 0.802663
1.000000 0.925905 0.849441
1.000000 0.944047 0.885517
1.000000 0.959124 0.912555
0.000000 0.576569 0.083789
0.000000 0.576559 0.074031
0.000000 0.572878 0.060357
0.000000 0.572865 0.060442
0.000000 0.569185 0.050939
0.000000 0.572825 0.000000
0.000000 0.572777 0.000000
0.000000 0.576361 0.000000
0.000000 0.579854 0.000000
0.000000 0.583223 0.000000
0.000000 0.586130 0.000000
0.000000 0.584535 0.000000
0.000000 0.578267 0.000000
0.335312 0.573413 0.000000
0.506685 0.566608 0.000000
0.658048 0.549529 0.000000
0.787433 0.542730 0.000000
0.879085 0.546860 0.000000
0.946735 0.550961 0.000000
1.000000 0.554454 0.085817
1.000000 0.574642 0.161654
1.000000 0.594344 0.231981
1.000000 0.612256 0.295186
1.000000 0.642329 0.371555
1.000000 0.694365 0.448246
1.000000 0.750376 0.522013
1.000000 0.799797 0.600017
1.000000 0.837464 0.682547
1.000000 0.873436 0.751199
1.000000 0.902320 0.804258
1.000000 0.926570 0.850680
1.000000 0.944587 0.885530
1.000000 0.959564 0.912566
0.000000 0.665389 0.162550
0.000000 0.669100 0.154460
0.000000 0.665360 0.152417
0.000000 0.669068 0.147500
0.000000 0.669046 0.140287
0.000000 0.669012 0.132816
0.000000 0.665225 0.122883
0.000000 0.665113 0.110290
0.000000 0.668668 0.093421
0.000000 0.668395 0.050121
0.000000 0.667832 0.000000
0.000000 0.666573 0.000000
0.000000 0.668203 0.000000
0.199666 0.660473 0.000000
0.436665 0.655155 0.000000
0.597069 0.644331 0.000000
0.756084 0.630295 0.000000
0.861858 0.626316 0.000000
0.935793 0.629980 0.000000
0.984361 0.641125 0.073046
1.000000 0.651843 0.165615
1.000000 0.665487 0.242447
1.000000 0.680755 0.312028
1.000000 0.700819 0.388080
1.000000 0.727391 0.457865
1.000000 0.767713 0.532452
1.000000 0.808997 0.606445
1.000000 0.843567 0.691007
1.000000 0.878994 0.754192
1.000000 0.904820 0.805856
1.000000 0.928566 0.851961
1.000000 0.945662 0.885559
1.000000 0.959998 0.913341
0.000000 0.741793 0.253076
0.000000 0.745199 0.249103
0.000000 0.745168 0.245727
0.000000 0.745139 0.242346
0.000000 0.745114 0.238958
0.000000 0.745065 0.232163
0.000000 0.744989 0.225364
0.000000 0.744846 0.222054
0.000000 0.744683 0.215293
0.000000 0.744376 0.208575
0.000000 0.743902 0.194808
0.000000 0.742999 0.177188
0.000000 0.741165 0.138251
0.000000 0.737812 0.100184
0.346406 0.736696 0.062988
0.535309 0.727531 0.000000
0.700039 0.719433 0.000000
0.826716 0.711345 0.000000
0.913516 0.698848 0.000000
0.972113 0.704016 0.088513
1.000000 0.715516 0.178200
1.000000 0.728770 0.254071
1.000000 0.737284 0.328824
1.000000 0.750220 0.401901
1.000000 0.769346 0.472950
1.000000 0.789959 0.546043
1.000000 0.824517 0.615758
1.000000 0.854378 0.696199
1.000000 0.883002 0.758242
1.000000 0.908122 0.808992
1.000000 0.931446 0.854967
1.000000 0.947468 0.886899
1.000000 0.960864 0.914126
0.000000 0.810026 0.330248
0.000000 0.809983 0.330275
0.000000 0.809924 0.330311
0.000000 0.809892 0.326606
0.000000 0.812597 0.326463
0.000000 0.812546 0.322774
0.000000 0.812452 0.322827
0.000000 0.812323 0.315490
0.000000 0.814854 0.308032
0.000000 0.814514 0.297204
0.000000 0.816753 0.293572
0.000000 0.815974 0.282977
0.000000 0.814661 0.261676
0.000000 0.811749 0.237089
0.167618 0.805342 0.212722
0.452397 0.803109 0.195210
0.645361 0.790451 0.167902
0.786639 0.780024 0.140645
0.878604 0.777036 0.112856
0.950246 0.775789 0.109522
0.997349 0.777805 0.212488
1.000000 0.784232 0.274299
1.000000 0.794026 0.348471
1.000000 0.802585 0.425614
1.000000 0.812779 0.492656
1.000000 0.828735 0.559985
1.000000 0.844944 0.627307
1.000000 0.867924 0.703417
1.000000 0.891264 0.763249
1.000000 0.912516 0.811304
1.000000 0.933378 0.856233
1.000000 0.948519 0.887844
1.000000 0.961722 0.914909
0.000000 0.869143 0.419155
0.000000 0.869123 0.419162
0.000000 0.869069 0.415471
0.000000 0.869025 0.415487
0.000000 0.868980 0.415503
0.000000 0.868910 0.415528
0.000000 0.868818 0.411851
0.000000 0.868625 0.411916
0.000000 0.870507 0.408376
0.000000 0.870160 0.401077
0.000000 0.871657 0.397657
0.000000 0.870812 0.386812
0.000000 0.871740 0.376172
0.000000 0.869748 0.354557
0.000000 0.868406 0.329776
0.375835 0.864083 0.308852
0.598462 0.853448 0.296173
0.738640 0.849118 0.274546
0.844946 0.841035 0.263053
0.920309 0.834297 0.252080
0.979402 0.831472 0.249450
1.000000 0.835414 0.316711
1.000000 0.840392 0.383093
1.000000 0.847996 0.453504
1.000000 0.855032 0.518131
1.000000 0.863035 0.577813
1.000000 0.871179 0.649375
1.000000 0.883014 0.713928
1.000000 0.900195 0.771950
1.000000 0.918093 0.814551
1.000000 0.936764 0.859207
1.000000 0.951127 0.889752
1.000000 0.963426 0.915719
0.000000 0.909257 0.508163
0.000000 0.909234 0.504474
0.000000 0.909163 0.504488
0.000000 0.909062 0.500818
0.000000 0.909023 0.500825
0.000000 0.908903 0.500850
0.000000 0.908788 0.497184
0.000000 0.908609 0.497219
0.000000 0.908316 0.497274
0.000000 0.909625 0.493887
0.000000 0.908874 0.486660
0.000000 0.908124 0.475793
0.000000 0.907038 0.468661
0.000000 0.905399 0.461641
0.000000 0.904615 0.440589
0.307596 0.902319 0.423703
0.559518 0.897892 0.404188
0.710535 0.888624 0.391706
0.813491 0.883334 0.371255
0.893547 0.878630 0.357603
0.955889 0.876500 0.353862
0.997688 0.871577 0.352732
1.000000 0.876184 0.417911
1.000000 0.879789 0.483266
1.000000 0.884297 0.543663
1.000000 0.889794 0.605989
1.000000 0.895672 0.668277
1.000000 0.901701 0.727478
1.000000 0.912156 0.778282
1.000000 0.925998 0.821468
1.000000 0.940439 0.861711
1.000000 0.953698 0.891661
1.000000 0.964687 0.916517
0.000000 0.942204 0.606880
0.000000 0.942088 0.603263
0.000000 0.942022 0.603269
0.000000 0.941955 0.603275
0.000000 0.941900 0.599654
0.000000 0.941831 0.599660
0.000000 0.941702 0.596047
0.000000 0.941570 0.592437
0.000000 0.941279 0.588843
0.000000 0.940802 0.585270
0.000000 0.940295 0.578095
0.000000 0.940638 0.574930
0.000000 0.939674 0.567837
0.000000 0.938329 0.560805
0.000000 0.936647 0.553840
0.267458 0.934733 0.536851
0.529432 0.928237 0.516103
0.684287 0.923840 0.497175
0.786965 0.917748 0.485411
0.869510 0.914421 0.473452
0.937171 0.909152 0.458390
0.978552 0.906756 0.453567
1.000000 0.906883 0.458832
1.000000 0.906762 0.517970
1.000000 0.908644 0.568472
1.000000 0.912641 0.629775
1.000000 0.917961 0.692305
1.000000 0.923480 0.746311
1.000000 0.928440 0.790985
1.000000 0.936252 0.829970
1.000000 0.947129 0.867070
1.000000 0.957379 0.893963
1.000000 0.967566 0.918873
0.000000 0.963765 0.694429
0.000000 0.963687 0.691177
0.000000 0.963687 0.691177
0.000000 0.963593 0.691180
0.000000 0.963402 0.691186
0.000000 0.963319 0.687915
0.000000 0.963221 0.687919
0.000000 0.963121 0.687922
0.000000 0.962932 0.684636
0.000000 0.963492 0.681668
0.000000 0.962949 0.678368
0.000000 0.962249 0.675060
0.000000 0.961512 0.668365
0.000000 0.960161 0.658222
0.000000 0.959606 0.651842
0.334483 0.957013 0.645125
0.519967 0.952109 0.624232
0.663887 0.947217 0.611294
0.760916 0.943016 0.588790
0.849389 0.939404 0.578888
0.915576 0.934614 0.563814
0.962691 0.932769 0.556738
0.993173 0.930110 0.551197
1.000000 0.930366 0.556325
1.000000 0.930403 0.603390
1.000000 0.933010 0.655401
1.000000 0.936798 0.718266
1.000000 0.940228 0.764504
1.000000 0.945342 0.803720
1.000000 0.949613 0.838629
1.000000 0.953918 0.873015
1.000000 0.961237 0.898582
1.000000 0.970351 0.921945
0.000000 0.981005 0.764996
0.000000 0.981005 0.764996
0.000000 0.980883 0.764994
0.000000 0.980883 0.764994
0.000000 0.980760 0.764993
0.000000 0.981487 0.765241
0.000000 0.981376 0.762682
0.000000 0.981376 0.762682
0.000000 0.981008 0.760096
0.000000 0.980746 0.760094
0.000000 0.980081 0.757483
0.000000 0.979683 0.752197
0.000000 0.978821 0.746821
0.116058 0.977905 0.741363
0.331906 0.976778 0.738957
0.443372 0.974793 0.727792
0.547125 0.972163 0.716411
0.648510 0.968789 0.704965
0.743846 0.965594 0.694237
0.833454 0.960464 0.677258
0.896018 0.957012 0.664973
0.942820 0.954259 0.654601
0.976971 0.952201 0.650095
1.000000 0.950096 0.645222
1.000000 0.950344 0.648064
1.000000 0.951908 0.690235
1.000000 0.953037 0.743440
1.000000 0.956642 0.784358
1.000000 0.959381 0.819219
1.000000 0.962112 0.852038
1.000000 0.965018 0.881050
1.000000 0.968398 0.904278
1.000000 0.974590 0.925311
0.000000 0.993735 0.821382
0.000000 0.993735 0.821382
0.000000 0.993587 0.821377
0.000000 0.993587 0.821377
