Assets/Lutify-Free-LUTs-Pack/Lutify Free LUTs Pack/Cine World Pro Warm - Amy/Lutify.me-Amy-LogC3-to-Rec709.cube
# Created with: fylm.ai - Colour Grading and Collaboration Software in Cloud 
# Website: https://fylm.ai 
# META
# Option: Gamut compress
# Block 1: IDT | Arri Alexa - LogC3
# Block 2: colourMatch | Blending Mode: Normal | {"ColorSpace":0,"CrossCovarianceLimit":50,"ReshapingIterations":1,"PercentSaturationShift":100,"PercentShadingShift":100,"ExtraShading":true,"PercentTint":100,"PercentModified":100}
# Block 3: LUT | Filmic Curve Response: Standard Contrast 1 (100%)
# Block 4: LUT | Illuminant: D60 (100%)
# Block 5: hueSaturation | Blending Mode: Normal | {"hue":0,"saturation":-0.15}
# Block 6: logPrimaries | Blending Mode: Normal | {"wheels":{"shadows":{"Y":"0","R":"1","G":"1","B":"1"},"midtones":{"Y":"0","R":"1","G":"1","B":"1"},"highlights":{"Y":"0","R":"1","G":"1","B":"1"},"offset":{"Y":"0","R":"1","G":"1","B":"1"}},"sliders":{"shadows":{"Y":0,"R":-0.097,"G":0,"B":0.158},"midtones":{"Y":0,"R":0.024,"G":0.024,"B":-0.036},"highlights":{"Y":0,"R":0.154,"G":-0.084,"B":-0.024},"offset":{"Y":0.048,"R":0,"G":0,"B":0}}}
# Block 7: smartCurves | Blending Mode: Average | [[{"x":0,"y":0},{"x":0.11328125,"y":0.085540771484375},{"x":0.21484375,"y":0.218353271484375},{"x":0.37109375,"y":0.382415771484375},{"x":0.62109375,"y":0.589447021484375},{"x":0.8125,"y":0.765228271484375},{"x":1,"y":1}],[{"x":0,"y":0},{"x":1,"y":1}],[{"x":0,"y":0},{"x":1,"y":1}],[{"x":0,"y":0},{"x":1,"y":1}]]
# Block 8: LUT | Neutral Tint: Teal Tint 4 (100%)
# Block 9: contrast | Blending Mode: Normal | {"contrast":0.1}
# Block 10: ODT | Rec709
TITLE "Lutify.me-Amy-LogC3-to-Rec709" 
LUT_3D_SIZE 5
0.000000 0.000000 0.000000
0.220866 0.000000 0.000000
0.788431 0.000000 0.000000
1.000000 0.623559 0.417914
1.000000 0.962955 0.913245
0.000000 0.138274 0.000000
0.243201 0.098225 0.000000
0.800492 0.000000 0.000000
1.000000 0.640251 0.420506
1.000000 0.962955 0.913245
0.000000 0.583042 0.000000
0.000000 0.580074 0.000000
0.892746 0.541827 0.000000
1.000000 0.749106 0.440571
1.000000 0.965391 0.914678
0.638595 0.974916 0.460443
0.662756 0.973291 0.456729
0.814565 0.966410 0.443160
1.000000 0.957200 0.511197
1.000000 0.982007 0.924518
0.981205 1.000000 0.935622
0.981205 1.000000 0.935622
0.983981 1.000000 0.935134
1.000000 1.000000 0.931448
1.000000 1.000000 0.940444
0.000000 0.000000 0.140401
0.141316 0.000000 0.046594
0.750782 0.000000 0.094738
1.000000 0.620315 0.442257
1.000000 0.962949 0.914024
0.000000 0.144561 0.211217
0.055733 0.122141 0.162392
0.757795 0.000000 0.104344
1.000000 0.636022 0.444090
1.000000 0.962949 0.914024
0.000000 0.616851 0.091452
0.000000 0.626713 0.000000
0.782283 0.601290 0.000000
1.000000 0.748550 0.462170
1.000000 0.965391 0.914678
0.610424 0.976413 0.513115
0.646294 0.975122 0.510640
0.807103 0.967326 0.490969
1.000000 0.957122 0.538536
1.000000 0.982003 0.925204
0.981082 1.000000 0.937519
0.981082 1.000000 0.937519
0.983900 1.000000 0.936403
0.999865 1.000000 0.933264
1.000000 1.000000 0.941059
0.000000 0.000000 0.298743
0.077899 0.000000 0.092561
0.748219 0.000000 0.149949
1.000000 0.607589 0.600859
1.000000 0.962916 0.919424
0.000000 0.053274 0.379890
0.000000 0.049638 0.307886
0.705679 0.000000 0.370066
1.000000 0.624878 0.600587
1.000000 0.962916 0.919424
0.000000 0.648706 0.773512
0.000000 0.644706 0.770715
0.581795 0.630719 0.717283
1.000000 0.737638 0.627006
1.000000 0.964651 0.920234
0.526250 0.979545 0.768209
0.564158 0.978440 0.765783
0.746115 0.972976 0.744225
1.000000 0.959323 0.706360
1.000000 0.981972 0.930617
0.979308 1.000000 0.949625
0.979784 1.000000 0.949640
0.982584 1.000000 0.949160
0.998098 1.000000 0.944027
1.000000 1.000000 0.946130
0.134621 0.000000 0.227385
0.232137 0.000000 0.222225
0.630584 0.000000 0.210283
1.000000 0.000000 0.780407
1.000000 0.961552 0.963791
0.148793 0.000000 0.227178
0.240467 0.000000 0.220320
0.634538 0.000000 0.210292
1.000000 0.177079 0.825449
1.000000 0.961998 0.963770
0.000000 0.455485 0.906485
0.000000 0.455002 0.906411
0.327721 0.448810 0.910986
1.000000 0.523628 0.921926
1.000000 0.963464 0.964315
0.000000 0.993161 0.998222
0.000000 0.992113 0.998125
0.454976 0.983362 0.996276
0.977504 0.961508 0.984650
1.000000 0.981176 0.969880
0.969719 1.000000 0.992081
0.970250 1.000000 0.992081
0.973867 1.000000 0.991817
0.991301 1.000000 0.988596
1.000000 1.000000 0.979782
0.841446 0.000000 0.407987
0.863268 0.000000 0.408175
0.953164 0.000000 0.409723
1.000000 0.000000 0.465199
1.000000 0.877285 1.000000
0.845118 0.000000 0.408015
0.866857 0.000000 0.408211
0.953164 0.000000 0.409723
1.000000 0.000000 0.465733
1.000000 0.878321 1.000000
0.863268 0.000000 0.408175
0.880718 0.000000 0.405138
0.959096 0.000000 0.409892
1.000000 0.000000 0.465733
1.000000 0.892271 1.000000
0.460689 0.934969 1.000000
0.483630 0.934382 1.000000
0.594246 0.928737 1.000000
0.929495 0.912416 1.000000
1.000000 0.944894 1.000000
0.911161 1.000000 1.000000
0.911161 1.000000 1.000000
0.917018 1.000000 1.000000
0.961683 1.000000 1.000000
1.000000 1.000000 1.000000
