Assets/Lutify-Free-LUTs-Pack/Lutify Free LUTs Pack/Cine World Pro Warm - Amy/Lutify.me-Amy-DWG-to-DWG.cube
# Created with: fylm.ai - Colour Grading and Collaboration Software in Cloud 
# Website: https://fylm.ai 
# META
# Option: Gamut compress
# Block 2: colourMatch | Blending Mode: Normal | {"ColorSpace":0,"CrossCovarianceLimit":50,"ReshapingIterations":1,"PercentSaturationShift":100,"PercentShadingShift":100,"ExtraShading":true,"PercentTint":100,"PercentModified":100}
# Block 3: LUT | Filmic Curve Response: Standard Contrast 1 (100%)
# Block 4: LUT | Illuminant: D60 (100%)
# Block 5: hueSaturation | Blending Mode: Normal | {"hue":0,"saturation":-0.15}
# Block 6: logPrimaries | Blending Mode: Normal | {"wheels":{"shadows":{"Y":"0","R":"1","G":"1","B":"1"},"midtones":{"Y":"0","R":"1","G":"1","B":"1"},"highlights":{"Y":"0","R":"1","G":"1","B":"1"},"offset":{"Y":"0","R":"1","G":"1","B":"1"}},"sliders":{"shadows":{"Y":0,"R":-0.097,"G":0,"B":0.158},"midtones":{"Y":0,"R":0.024,"G":0.024,"B":-0.036},"highlights":{"Y":0,"R":0.154,"G":-0.084,"B":-0.024},"offset":{"Y":0.048,"R":0,"G":0,"B":0}}}
# Block 7: smartCurves | Blending Mode: Average | [[{"x":0,"y":0},{"x":0.11328125,"y":0.085540771484375},{"x":0.21484375,"y":0.218353271484375},{"x":0.37109375,"y":0.382415771484375},{"x":0.62109375,"y":0.589447021484375},{"x":0.8125,"y":0.765228271484375},{"x":1,"y":1}],[{"x":0,"y":0},{"x":1,"y":1}],[{"x":0,"y":0},{"x":1,"y":1}],[{"x":0,"y":0},{"x":1,"y":1}]]
# Block 8: LUT | Neutral Tint: Teal Tint 4 (100%)
# Block 9: contrast | Blending Mode: Normal | {"contrast":0.1}
TITLE "Lutify.me-Amy-ACEScct-to-ACEScct" 
LUT_3D_SIZE 5
-0.038888 -0.016275 0.006784
0.269211 0.037096 0.075479
0.537148 0.246607 0.276805
0.810837 0.506782 0.542372
1.037624 0.739505 0.770133
-0.009761 0.215455 0.070551
0.292078 0.204605 0.114153
0.555742 0.279951 0.294565
0.812074 0.509609 0.543565
1.037624 0.740031 0.770175
0.216111 0.426750 0.217886
0.320943 0.418463 0.223772
0.648250 0.428482 0.389266
0.819500 0.530962 0.550583
1.038782 0.742808 0.771408
0.550370 0.635551 0.429934
0.587364 0.625978 0.432703
0.681706 0.622163 0.469250
0.940929 0.668258 0.671704
1.044574 0.767586 0.777293
0.900166 0.819393 0.676764
0.901351 0.819471 0.677455
0.910790 0.819066 0.682818
0.972886 0.824793 0.726185
1.074659 0.841280 0.810216
-0.019484 0.038345 0.131261
0.235726 0.041428 0.115210
0.510716 0.236945 0.270063
0.809615 0.508727 0.543133
1.037625 0.739558 0.770324
0.080869 0.266589 0.297708
0.213950 0.245058 0.266535
0.513424 0.272872 0.276011
0.809615 0.510290 0.543135
1.037626 0.740084 0.770366
0.177639 0.450924 0.310797
0.242721 0.452651 0.293608
0.569386 0.434985 0.332990
0.815805 0.531526 0.548926
1.037627 0.742151 0.770408
0.462084 0.678895 0.460540
0.469967 0.678898 0.460018
0.609800 0.647001 0.453850
0.940929 0.668258 0.671704
1.042264 0.766473 0.775266
0.819126 0.843480 0.652482
0.831097 0.836810 0.652866
0.910790 0.819066 0.682818
0.972886 0.824793 0.726185
1.074659 0.841280 0.810216
0.024725 0.067038 0.186624
0.178244 0.053630 0.152652
0.537276 0.207783 0.293521
0.794849 0.504527 0.547345
1.036483 0.741464 0.771086
0.125473 0.234759 0.352665
0.166853 0.213396 0.330211
0.487914 0.218561 0.326414
0.796098 0.507834 0.548751
1.036483 0.741464 0.771086
0.312851 0.519671 0.555750
0.305504 0.499441 0.540761
0.481240 0.487238 0.507179
0.799868 0.532574 0.554474
1.037642 0.744749 0.772335
0.449378 0.701681 0.563504
0.455292 0.702809 0.561846
0.511892 0.699734 0.547354
0.823617 0.693187 0.585965
1.039969 0.768372 0.775128
0.722626 0.886231 0.678741
0.723807 0.886235 0.678700
0.734343 0.885098 0.677865
0.843739 0.870002 0.679388
1.074659 0.841280 0.810216
0.236892 0.134436 0.264791
0.282511 0.137293 0.264715
0.462626 0.187714 0.299033
0.814543 0.462723 0.547337
1.030889 0.743300 0.787573
0.236892 0.134436 0.264791
0.281372 0.137132 0.264611
0.462626 0.187714 0.299033
0.814543 0.462723 0.547337
1.030890 0.743793 0.787607
0.369546 0.491851 0.609302
0.375810 0.492837 0.609384
0.448734 0.489567 0.608827
0.764537 0.493048 0.600509
1.032049 0.746990 0.788945
0.593346 0.783860 0.841091
0.576328 0.764629 0.823828
0.593639 0.764180 0.828504
0.767758 0.746575 0.785652
1.036717 0.775919 0.796667
0.713466 0.911966 0.830633
0.713189 0.911862 0.829669
0.719558 0.912669 0.827187
0.785183 0.911097 0.806065
1.047248 0.905343 0.807154
0.503581 0.254081 0.381875
0.508771 0.255929 0.383073
0.554419 0.274151 0.394195
0.749390 0.410266 0.505001
1.022523 0.667140 0.749994
0.503581 0.254081 0.381875
0.508771 0.255929 0.383073
0.554419 0.274151 0.394195
0.749390 0.410266 0.505001
1.022523 0.667140 0.749994
0.502284 0.253618 0.381575
0.508771 0.255929 0.383073
0.554419 0.274081 0.394193
0.749390 0.410266 0.505001
1.020207 0.664866 0.747758
0.645152 0.756465 0.883619
0.645539 0.756470 0.883622
0.652029 0.755854 0.883652
0.721707 0.756567 0.887866
1.009572 0.755706 0.876876
0.766605 0.964686 1.014354
0.764860 0.957573 1.012823
0.780060 0.961814 1.027230
0.804152 0.966204 1.030909
1.014477 0.962024 1.008706
