Assets/Lutify-Free-LUTs-Pack/Lutify Free LUTs Pack/Cine World Pro Warm - Amy/Lutify.me-Amy-CanonLog1-to-Rec709.cube
# Created with: fylm.ai - Colour Grading and Collaboration Software in Cloud 
# Website: https://fylm.ai 
# META
# Option: Gamut compress
# Block 1: IDT | CanonLog Cinema Gamut Daylight
# Block 2: colourMatch | Blending Mode: Normal | {"ColorSpace":0,"CrossCovarianceLimit":50,"ReshapingIterations":1,"PercentSaturationShift":100,"PercentShadingShift":100,"ExtraShading":true,"PercentTint":100,"PercentModified":100}
# Block 3: LUT | Filmic Curve Response: Standard Contrast 1 (100%)
# Block 4: LUT | Illuminant: D60 (100%)
# Block 5: hueSaturation | Blending Mode: Normal | {"hue":0,"saturation":-0.15}
# Block 6: logPrimaries | Blending Mode: Normal | {"wheels":{"shadows":{"Y":"0","R":"1","G":"1","B":"1"},"midtones":{"Y":"0","R":"1","G":"1","B":"1"},"highlights":{"Y":"0","R":"1","G":"1","B":"1"},"offset":{"Y":"0","R":"1","G":"1","B":"1"}},"sliders":{"shadows":{"Y":0,"R":-0.097,"G":0,"B":0.158},"midtones":{"Y":0,"R":0.024,"G":0.024,"B":-0.036},"highlights":{"Y":0,"R":0.154,"G":-0.084,"B":-0.024},"offset":{"Y":0.048,"R":0,"G":0,"B":0}}}
# Block 7: smartCurves | Blending Mode: Average | [[{"x":0,"y":0},{"x":0.11328125,"y":0.085540771484375},{"x":0.21484375,"y":0.218353271484375},{"x":0.37109375,"y":0.382415771484375},{"x":0.62109375,"y":0.589447021484375},{"x":0.8125,"y":0.765228271484375},{"x":1,"y":1}],[{"x":0,"y":0},{"x":1,"y":1}],[{"x":0,"y":0},{"x":1,"y":1}],[{"x":0,"y":0},{"x":1,"y":1}]]
# Block 8: LUT | Neutral Tint: Teal Tint 4 (100%)
# Block 9: contrast | Blending Mode: Normal | {"contrast":0.1}
# Block 10: ODT | Rec709
TITLE "Lutify.me-Amy-CanonLog1-to-Rec709" 
LUT_3D_SIZE 9
0.000000 0.000000 0.000000
0.075422 0.000000 0.000000
0.504587 0.000000 0.000000
0.884524 0.000000 0.000000
1.000000 0.000000 0.060198
1.000000 0.000000 0.046516
1.000000 0.000000 0.132990
1.000000 0.408702 0.279773
1.000000 0.654651 0.481408
0.000000 0.075633 0.000000
0.000000 0.049399 0.000000
0.419429 0.000000 0.000000
0.788415 0.000000 0.000000
1.000000 0.000000 0.044231
1.000000 0.000000 0.049596
1.000000 0.106505 0.121172
1.000000 0.453265 0.277279
1.000000 0.670417 0.481908
0.000000 0.263867 0.000000
0.000000 0.226585 0.000000
0.458976 0.147086 0.000000
0.813410 0.000000 0.000000
1.000000 0.000000 0.000000
1.000000 0.000000 0.092436
1.000000 0.241155 0.097916
1.000000 0.484254 0.273301
1.000000 0.682224 0.478986
0.000000 0.441798 0.000000
0.000000 0.386917 0.000000
0.467230 0.341017 0.000000
0.843693 0.262728 0.000000
1.000000 0.212673 0.000000
1.000000 0.255212 0.135688
1.000000 0.378294 0.058867
1.000000 0.543609 0.260780
1.000000 0.706760 0.479176
0.000000 0.606147 0.000000
0.000000 0.557131 0.000000
0.396601 0.520335 0.000000
0.848815 0.478708 0.000000
1.000000 0.458544 0.000000
1.000000 0.484897 0.097453
1.000000 0.554049 0.126212
1.000000 0.629980 0.225820
1.000000 0.747446 0.474923
0.000000 0.734844 0.000000
0.000000 0.709232 0.000000
0.400962 0.689707 0.000000
0.824505 0.652296 0.000000
1.000000 0.646251 0.000000
1.000000 0.648813 0.000000
1.000000 0.695161 0.294043
1.000000 0.765644 0.179844
1.000000 0.798432 0.459455
0.000000 0.846843 0.000000
0.277022 0.834116 0.000000
0.560505 0.822316 0.000000
0.812656 0.802479 0.000000
0.986935 0.790407 0.000000
1.000000 0.790973 0.000000
1.000000 0.806286 0.305240
1.000000 0.833384 0.518995
1.000000 0.883183 0.406350
0.601631 0.907556 0.000000
0.710626 0.901544 0.000000
0.775229 0.895400 0.000000
0.871326 0.888436 0.000000
0.973559 0.877625 0.000000
1.000000 0.875329 0.000000
1.000000 0.879283 0.339875
1.000000 0.889607 0.539698
1.000000 0.905129 0.726837
0.868932 0.946404 0.000000
0.897119 0.943823 0.000000
0.914129 0.942791 0.000000
0.947241 0.940734 0.000000
0.986909 0.936380 0.000000
1.000000 0.935700 0.200451
1.000000 0.932246 0.396891
1.000000 0.935374 0.581966
1.000000 0.942065 0.749495
0.000000 0.000000 0.147575
0.000000 0.000000 0.020879
0.362856 0.000000 0.000000
0.681673 0.000000 0.000000
0.935805 0.000000 0.000000
1.000000 0.000000 0.087760
1.000000 0.000000 0.189151
1.000000 0.399868 0.327081
1.000000 0.652979 0.501898
0.000000 0.000000 0.010668
0.000000 0.000000 0.000000
0.306477 0.000000 0.000000
0.558865 0.000000 0.000000
0.814384 0.000000 0.030932
1.000000 0.000000 0.088270
1.000000 0.050578 0.191844
1.000000 0.445186 0.327439
1.000000 0.671249 0.502207
0.000000 0.248359 0.000000
0.000000 0.225115 0.000000
0.370492 0.162384 0.000000
0.630372 0.021336 0.000000
0.846583 0.000000 0.000000
1.000000 0.000000 0.065887
1.000000 0.240761 0.181423
1.000000 0.479692 0.329282
1.000000 0.680763 0.501753
0.000000 0.425196 0.000000
0.000000 0.381170 0.000000
0.436014 0.331721 0.000000
0.832340 0.249558 0.000000
0.954892 0.286597 0.000000
1.000000 0.321933 0.000000
1.000000 0.377793 0.153276
1.000000 0.539823 0.317980
1.000000 0.705490 0.501861
0.000000 0.617261 0.000000
0.000000 0.546622 0.000000
0.345628 0.518645 0.000000
0.835352 0.472189 0.000000
1.000000 0.450214 0.000000
1.000000 0.502561 0.000000
1.000000 0.585619 0.000000
1.000000 0.630455 0.289999
1.000000 0.745552 0.502904
0.000000 0.735035 0.000000
0.000000 0.706141 0.000000
0.350119 0.687358 0.000000
0.817920 0.648913 0.000000
1.000000 0.638137 0.000000
1.000000 0.648280 0.000000
1.000000 0.697022 0.262318
1.000000 0.774590 0.212263
1.000000 0.797761 0.491197
0.000000 0.847703 0.000000
0.221339 0.832483 0.000000
0.533124 0.823312 0.000000
0.802461 0.800596 0.000000
0.987619 0.787901 0.000000
1.000000 0.788491 0.000000
1.000000 0.804372 0.305190
1.000000 0.831369 0.515445
1.000000 0.882295 0.448343
0.576044 0.908481 0.000000
0.697016 0.900730 0.000000
0.771457 0.895599 0.000000
0.865922 0.888763 0.000000
0.970791 0.877772 0.000000
1.000000 0.873781 0.000000
1.000000 0.878967 0.332742
1.000000 0.889607 0.539698
1.000000 0.904378 0.726753
0.866581 0.946540 0.000000
0.893148 0.944061 0.000000
0.912305 0.942903 0.000000
0.946187 0.939871 0.000000
0.985878 0.936443 0.000000
1.000000 0.934787 0.194350
1.000000 0.932197 0.393881
1.000000 0.935374 0.581966
1.000000 0.942065 0.749495
0.000000 0.000000 0.348796
0.000000 0.000000 0.080302
0.300295 0.000000 0.052975
0.628109 0.000000 0.043176
0.929037 0.000000 0.024834
1.000000 0.000000 0.127200
1.000000 0.000000 0.238517
1.000000 0.391551 0.365408
1.000000 0.653715 0.526022
0.000000 0.000000 0.194353
0.000000 0.000000 0.116133
0.256039 0.000000 0.074184
0.506820 0.000000 0.096666
0.782158 0.000000 0.130759
1.000000 0.000000 0.171013
1.000000 0.000000 0.244664
1.000000 0.433937 0.369176
1.000000 0.669697 0.526369
0.000000 0.279344 0.357916
0.000000 0.252259 0.331358
0.125607 0.216319 0.267277
0.501686 0.135256 0.195818
0.792262 0.000000 0.157119
1.000000 0.000000 0.177274
1.000000 0.234391 0.242717
1.000000 0.475252 0.371992
1.000000 0.681687 0.525815
0.000000 0.486257 0.367195
0.000000 0.444891 0.318545
0.000000 0.447129 0.182371
0.487741 0.415658 0.113393
0.802765 0.375888 0.099869
1.000000 0.331417 0.155083
1.000000 0.388703 0.235869
1.000000 0.535187 0.374532
1.000000 0.706541 0.525852
0.000000 0.650493 0.302664
0.000000 0.632011 0.000000
0.000000 0.630850 0.000000
0.404490 0.615462 0.000000
0.824618 0.574575 0.000000
0.984019 0.577919 0.000000
1.000000 0.594751 0.189701
1.000000 0.624351 0.352873
1.000000 0.746725 0.526715
0.000000 0.765638 0.000000
0.000000 0.754368 0.000000
0.000000 0.740238 0.000000
0.637894 0.705463 0.000000
0.962484 0.663906 0.000000
1.000000 0.662165 0.000000
1.000000 0.751174 0.000000
1.000000 0.775882 0.299230
1.000000 0.797099 0.518486
0.000000 0.848287 0.000000
0.157016 0.833012 0.000000
0.506556 0.821852 0.000000
0.794611 0.801072 0.000000
0.984834 0.787931 0.000000
1.000000 0.788491 0.000000
1.000000 0.804372 0.305190
1.000000 0.863081 0.210875
1.000000 0.883882 0.489466
0.562660 0.908943 0.000000
0.687095 0.901181 0.000000
0.759775 0.896206 0.000000
0.863895 0.887365 0.000000
0.969953 0.876241 0.000000
1.000000 0.873781 0.000000
1.000000 0.878967 0.332742
1.000000 0.889607 0.539698
1.000000 0.917410 0.530037
0.861786 0.946816 0.000000
0.891137 0.944181 0.000000
0.910466 0.943015 0.000000
0.944672 0.939966 0.000000
0.986293 0.935470 0.000000
1.000000 0.934787 0.194350
1.000000 0.931301 0.392719
1.000000 0.935374 0.581966
1.000000 0.942065 0.749495
0.000000 0.000000 0.493985
0.000000 0.000000 0.130348
0.239811 0.000000 0.072387
0.584463 0.000000 0.071971
0.900406 0.000000 0.070476
1.000000 0.000000 0.142910
1.000000 0.000000 0.323830
1.000000 0.370829 0.423209
1.000000 0.645460 0.561848
0.000000 0.000000 0.315399
0.000000 0.000000 0.183357
0.200614 0.000000 0.107546
0.544882 0.000000 0.090874
0.765667 0.000000 0.180538
0.995603 0.000000 0.295487
1.000000 0.000000 0.346252
1.000000 0.422232 0.436672
1.000000 0.665622 0.565624
0.000000 0.218728 0.490128
0.000000 0.190246 0.425132
0.000000 0.138969 0.378060
0.492177 0.000000 0.347193
0.767379 0.000000 0.335847
0.993837 0.000000 0.341934
1.000000 0.190368 0.357907
1.000000 0.465566 0.441221
1.000000 0.677713 0.567848
0.000000 0.527820 0.623930
0.000000 0.495776 0.595494
0.000000 0.450133 0.553193
0.338479 0.442683 0.520156
0.739543 0.379945 0.433671
0.981114 0.305446 0.373919
1.000000 0.368899 0.368632
1.000000 0.523565 0.445612
1.000000 0.702817 0.570511
0.000000 0.723394 0.665778
0.000000 0.668176 0.608364
0.000000 0.664196 0.548301
0.000000 0.657214 0.456564
0.707863 0.629153 0.391937
0.949427 0.594927 0.342499
1.000000 0.588168 0.368606
1.000000 0.614725 0.444319
1.000000 0.747825 0.570875
0.000000 0.812835 0.562081
0.000000 0.815661 0.422673
0.000000 0.817432 0.371021
0.000000 0.819824 0.298314
0.641404 0.795969 0.224719
0.924187 0.774273 0.164578
1.000000 0.773909 0.276037
1.000000 0.776819 0.428697
1.000000 0.799515 0.562514
0.000000 0.914376 0.109582
0.000000 0.913175 0.000000
0.000000 0.911232 0.000000
0.000000 0.909435 0.000000
0.621712 0.891571 0.000000
0.904127 0.873585 0.000000
1.000000 0.861856 0.000000
1.000000 0.875281 0.315671
1.000000 0.887015 0.551687
0.513170 0.909109 0.000000
0.661057 0.902322 0.000000
0.748310 0.895300 0.000000
0.855446 0.887870 0.000000
0.965608 0.876480 0.000000
1.000000 0.872211 0.000000
1.000000 0.878811 0.329164
1.000000 0.888266 0.536025
1.000000 0.932494 0.444620
0.856863 0.947097 0.000000
0.884933 0.944549 0.000000
0.904852 0.943356 0.000000
0.941579 0.940160 0.000000
0.984199 0.935598 0.000000
1.000000 0.934808 0.190853
1.000000 0.931251 0.389700
1.000000 0.935374 0.581966
1.000000 0.942065 0.749495
0.000000 0.000000 0.637067
0.000000 0.000000 0.170017
0.179123 0.000000 0.097482
0.521595 0.000000 0.098203
0.870017 0.000000 0.102710
1.000000 0.000000 0.120458
1.000000 0.000000 0.411597
1.000000 0.338294 0.524211
1.000000 0.635101 0.622454
0.000000 0.000000 0.431672
0.000000 0.000000 0.230341
0.142994 0.000000 0.139432
0.492444 0.000000 0.115460
0.869996 0.000000 0.101791
0.983308 0.000000 0.295077
1.000000 0.000000 0.479781
1.000000 0.390044 0.541836
1.000000 0.650889 0.626927
0.000000 0.165961 0.586491
0.000000 0.145606 0.495855
0.000000 0.114954 0.430551
0.420824 0.000000 0.418549
0.733625 0.000000 0.382253
0.970673 0.000000 0.456107
1.000000 0.044900 0.515886
1.000000 0.439518 0.549019
1.000000 0.664458 0.625577
0.000000 0.477076 0.751092
0.000000 0.452995 0.706699
0.000000 0.399285 0.660438
0.272372 0.366583 0.657182
0.743410 0.280420 0.611991
0.970985 0.201264 0.558370
1.000000 0.324765 0.543342
1.000000 0.510202 0.557591
1.000000 0.691678 0.634925
0.000000 0.740261 0.826096
0.000000 0.722767 0.807878
0.000000 0.667253 0.778366
0.000000 0.658867 0.750682
0.578209 0.627156 0.714002
0.902812 0.592313 0.642124
1.000000 0.568599 0.577368
1.000000 0.611520 0.567773
1.000000 0.738253 0.640669
0.000000 0.880988 0.847501
0.000000 0.829997 0.810857
0.000000 0.829605 0.785376
0.000000 0.825930 0.750471
0.486457 0.815233 0.679592
0.857730 0.792692 0.622873
1.000000 0.778171 0.569970
1.000000 0.777195 0.565383
1.000000 0.795689 0.641751
0.000000 0.924049 0.738970
0.000000 0.927647 0.700559
0.000000 0.927890 0.669527
0.000000 0.921345 0.621838
0.448134 0.912141 0.564478
0.815882 0.896319 0.507740
0.981905 0.882539 0.464553
1.000000 0.881172 0.536004
1.000000 0.886084 0.634574
0.000000 0.975830 0.509059
0.000000 0.973949 0.493006
0.000000 0.972976 0.478057
0.000000 0.970404 0.454302
0.525873 0.961373 0.416954
0.822371 0.949295 0.384362
0.968646 0.938908 0.362748
1.000000 0.933606 0.371155
1.000000 0.937476 0.578248
0.843986 0.947824 0.000000
0.871678 0.945327 0.000000
0.899080 0.943705 0.000000
0.931928 0.940763 0.000000
0.980973 0.935797 0.000000
1.000000 0.933907 0.180875
1.000000 0.931202 0.386686
1.000000 0.935155 0.575590
1.000000 0.941454 0.749304
0.000000 0.000000 0.761832
0.000000 0.000000 0.194307
0.162156 0.000000 0.128190
0.411160 0.000000 0.127425
0.808503 0.000000 0.132535
1.000000 0.000000 0.151151
1.000000 0.000000 0.196398
1.000000 0.222331 0.635830
1.000000 0.609626 0.714496
0.000000 0.000000 0.584883
0.000000 0.000000 0.239292
0.144475 0.000000 0.154152
0.411047 0.000000 0.126378
0.808514 0.000000 0.131409
1.000000 0.000000 0.151151
1.000000 0.000000 0.435422
1.000000 0.310830 0.660895
1.000000 0.624916 0.716768
0.000000 0.152898 0.695447
0.000000 0.135345 0.565028
0.000000 0.109543 0.493078
0.284259 0.000000 0.484785
0.693083 0.000000 0.451059
0.966357 0.000000 0.358444
1.000000 0.000000 0.577625
1.000000 0.378371 0.677588
1.000000 0.644368 0.722202
0.000000 0.375758 0.810811
0.000000 0.343743 0.736692
0.000000 0.311576 0.690453
0.000000 0.290672 0.694406
0.673525 0.179333 0.669922
0.963211 0.000000 0.647646
1.000000 0.199666 0.668283
1.000000 0.460925 0.712695
1.000000 0.672194 0.729531
0.000000 0.700808 0.894310
0.000000 0.674651 0.868922
0.000000 0.626014 0.846822
0.000000 0.616520 0.844860
0.520644 0.579897 0.830739
0.913471 0.520878 0.798138
1.000000 0.487838 0.751126
1.000000 0.575006 0.731058
1.000000 0.720466 0.732574
0.000000 0.884613 0.922993
0.000000 0.876721 0.916241
0.000000 0.839364 0.898814
0.000000 0.835245 0.894399
0.264151 0.816006 0.872584
0.783806 0.795384 0.846973
0.975942 0.774431 0.801981
1.000000 0.761417 0.766717
1.000000 0.786090 0.742213
0.000000 0.938279 0.919216
0.000000 0.934059 0.914648
0.000000 0.932088 0.908450
0.000000 0.929130 0.900391
0.000000 0.921597 0.874698
0.744709 0.904616 0.837584
0.941885 0.892539 0.798382
1.000000 0.885648 0.767248
1.000000 0.882286 0.760542
0.000000 0.978632 0.866102
0.000000 0.977291 0.852114
0.000000 0.976277 0.840861
0.000000 0.974342 0.824929
0.322291 0.968609 0.799095
0.738127 0.958364 0.756294
0.924749 0.946961 0.713472
1.000000 0.940984 0.687368
1.000000 0.940552 0.735349
0.000000 1.000000 0.734071
0.185401 1.000000 0.728965
0.320560 0.999716 0.723817
0.464429 0.997680 0.711471
0.627173 0.993569 0.693977
0.772714 0.988189 0.674792
0.921469 0.979887 0.639004
0.994580 0.974957 0.623793
1.000000 0.971984 0.632297
0.000000 0.000000 0.867086
0.000000 0.000000 0.211716
0.174283 0.000000 0.171727
0.385737 0.000000 0.160008
0.684732 0.000000 0.164103
1.000000 0.000000 0.185393
1.000000 0.000000 0.227009
1.000000 0.000000 0.305561
1.000000 0.543517 0.805802
0.000000 0.000000 0.851012
0.000000 0.000000 0.214982
0.171212 0.000000 0.171749
0.385481 0.000000 0.158683
0.684732 0.000000 0.164103
1.000000 0.000000 0.185393
1.000000 0.000000 0.227009
1.000000 0.000000 0.615659
1.000000 0.572392 0.815813
0.000000 0.142169 0.798491
0.000000 0.115982 0.602459
0.000000 0.095296 0.547344
0.231483 0.000000 0.528179
0.588789 0.000000 0.482478
0.938926 0.000000 0.363316
1.000000 0.000000 0.227009
1.000000 0.000000 0.717080
1.000000 0.595888 0.823205
0.000000 0.369345 0.885193
0.000000 0.326271 0.801578
0.000000 0.302703 0.768669
0.000000 0.286427 0.765525
0.526603 0.213502 0.757167
0.934040 0.000000 0.731240
1.000000 0.000000 0.684250
1.000000 0.329116 0.790034
1.000000 0.634544 0.834110
0.000000 0.600523 0.926763
0.000000 0.552208 0.887515
0.000000 0.526515 0.871493
0.000000 0.514047 0.867779
0.383050 0.478816 0.869512
0.890303 0.394654 0.855060
1.000000 0.342016 0.828808
1.000000 0.507561 0.842078
1.000000 0.694316 0.847259
0.000000 0.868577 0.963246
0.000000 0.857775 0.949445
0.000000 0.816832 0.938121
0.000000 0.815727 0.938003
0.000000 0.794271 0.933730
0.752250 0.763715 0.921768
0.986058 0.728052 0.908110
1.000000 0.711716 0.881750
1.000000 0.771093 0.864747
0.000000 0.965491 0.976246
0.000000 0.962442 0.972891
0.000000 0.941745 0.963717
0.000000 0.936819 0.963162
0.000000 0.926938 0.958147
0.665270 0.907346 0.943503
0.906390 0.892108 0.929213
0.999089 0.883552 0.905776
1.000000 0.876601 0.884175
0.000000 0.987479 0.972032
0.000000 0.987459 0.970072
0.000000 0.984838 0.968826
0.000000 0.982490 0.965246
0.000000 0.975371 0.960738
0.647749 0.964463 0.942557
0.880963 0.951862 0.921909
0.976179 0.944882 0.902284
1.000000 0.942896 0.880101
0.000000 1.000000 0.940216
0.000000 1.000000 0.937489
0.000000 1.000000 0.933786
0.254403 1.000000 0.927935
0.517110 0.998544 0.916409
0.694691 0.992711 0.901501
0.876852 0.983626 0.877760
0.967440 0.978917 0.855666
1.000000 0.975682 0.836858
0.000000 0.000000 0.933773
0.000000 0.000000 0.235543
0.192429 0.000000 0.211055
0.388077 0.000000 0.197055
0.629372 0.000000 0.198515
0.957265 0.000000 0.209724
1.000000 0.000000 0.253167
1.000000 0.000000 0.312904
1.000000 0.259735 0.649375
0.000000 0.000000 0.933773
0.000000 0.000000 0.235554
0.188968 0.000000 0.211120
0.388077 0.000000 0.197055
0.629372 0.000000 0.198515
0.957265 0.000000 0.209724
1.000000 0.000000 0.253167
1.000000 0.000000 0.312904
1.000000 0.331781 0.774607
0.000000 0.076849 0.852625
0.000000 0.062033 0.588280
0.000000 0.041176 0.544089
0.248409 0.000000 0.499524
0.545832 0.000000 0.417799
0.909754 0.000000 0.276841
1.000000 0.000000 0.253167
1.000000 0.000000 0.312904
1.000000 0.410686 0.828134
0.000000 0.355021 0.937843
0.000000 0.307251 0.837182
0.000000 0.294274 0.822251
0.000000 0.283334 0.816737
0.434825 0.222164 0.809988
0.829608 0.000000 0.792545
1.000000 0.000000 0.743249
1.000000 0.000000 0.500163
1.000000 0.497314 0.865661
0.000000 0.568659 0.967153
0.000000 0.516097 0.914609
0.000000 0.497923 0.907666
0.000000 0.492835 0.907630
0.230000 0.469344 0.903972
0.778177 0.403168 0.898404
1.000000 0.311691 0.887054
1.000000 0.319722 0.863204
1.000000 0.605617 0.900502
0.000000 0.783591 0.978944
0.000000 0.733874 0.953226
0.000000 0.715941 0.950294
0.000000 0.707674 0.950626
0.000000 0.691011 0.949632
0.672953 0.654991 0.947385
0.994614 0.612748 0.939703
1.000000 0.587867 0.924156
1.000000 0.721033 0.922749
0.000000 0.958113 0.992818
0.000000 0.947937 0.987137
0.000000 0.930124 0.980726
0.000000 0.926447 0.981957
0.000000 0.917394 0.981804
0.504554 0.897446 0.976935
0.887427 0.872033 0.970444
1.000000 0.855708 0.960232
1.000000 0.849296 0.944982
0.000000 1.000000 0.998364
0.000000 1.000000 0.997836
0.000000 0.990622 0.991991
0.000000 0.988837 0.991948
0.000000 0.982535 0.990848
0.496556 0.968224 0.987010
0.846791 0.953309 0.979161
0.962062 0.943404 0.970981
1.000000 0.938990 0.959392
0.000000 1.000000 0.995641
0.000000 1.000000 0.995249
0.000000 1.000000 0.994504
0.000000 1.000000 0.993675
0.272148 1.000000 0.990982
0.608772 0.996912 0.987111
0.835112 0.987232 0.980211
0.945935 0.980999 0.969991
0.998223 0.978090 0.958422
0.000000 0.000000 0.486912
0.088118 0.000000 0.269867
0.236340 0.000000 0.257779
0.418089 0.000000 0.246735
0.632301 0.000000 0.249337
0.898434 0.000000 0.251560
1.000000 0.000000 0.282352
1.000000 0.000000 0.344899
1.000000 0.389972 0.439182
0.000000 0.000000 0.511805
0.082250 0.000000 0.269910
0.234251 0.000000 0.257812
0.417889 0.000000 0.244766
0.632301 0.000000 0.249337
0.898436 0.000000 0.251559
1.000000 0.000000 0.282352
1.000000 0.000000 0.344899
1.000000 0.389972 0.439182
0.000000 0.000000 0.633344
0.000000 0.000000 0.380039
0.179602 0.000000 0.342210
0.390618 0.000000 0.289693
0.628509 0.000000 0.249333
0.898436 0.000000 0.251559
1.000000 0.000000 0.282352
1.000000 0.000000 0.344899
1.000000 0.389972 0.439182
0.000000 0.318303 0.938016
0.000000 0.274686 0.866114
0.000000 0.271629 0.861682
0.000000 0.243543 0.857387
0.417843 0.178818 0.839648
0.753615 0.000000 0.816189
1.000000 0.000000 0.746186
1.000000 0.000000 0.344899
1.000000 0.389972 0.439182
0.000000 0.547864 0.982217
0.000000 0.502372 0.943562
0.000000 0.487725 0.938018
0.000000 0.482355 0.936649
0.171949 0.467220 0.938527
0.671595 0.416981 0.931717
0.994795 0.304255 0.926191
1.000000 0.260133 0.907853
1.000000 0.291858 0.833849
0.000000 0.766413 0.999521
0.000000 0.702375 0.974694
0.000000 0.698383 0.973322
0.000000 0.697366 0.974740
0.000000 0.677439 0.975037
0.544980 0.651502 0.974123
0.926388 0.594045 0.970015
1.000000 0.565969 0.963690
1.000000 0.600600 0.948822
0.000000 0.911666 1.000000
0.000000 0.877152 0.990670
0.000000 0.866677 0.990400
0.000000 0.861490 0.990606
0.000000 0.857235 0.990659
0.360387 0.842296 0.990415
0.825797 0.810177 0.987084
1.000000 0.780978 0.982592
1.000000 0.773820 0.975653
0.000000 0.998946 1.000000
0.000000 0.993988 1.000000
0.000000 0.986027 1.000000
0.000000 0.982722 1.000000
0.000000 0.977032 1.000000
0.244997 0.965441 1.000000
0.760267 0.949418 0.998370
0.949129 0.935330 0.994409
1.000000 0.925536 0.990084
0.000000 1.000000 1.000000
0.000000 1.000000 1.000000
0.000000 1.000000 1.000000
0.000000 1.000000 1.000000
0.000000 1.000000 1.000000
0.368135 1.000000 1.000000
0.758305 0.991327 1.000000
0.923280 0.981693 0.998345
0.989771 0.978171 0.994517
