Assets/Lutify-Free-LUTs-Pack/Lutify Free LUTs Pack/Cine World Pro Warm - Amy/Lutify.me-Amy-CanonLog3-to-Rec709.cube
# Created with: fylm.ai - Colour Grading and Collaboration Software in Cloud 
# Website: https://fylm.ai 
# META
# Option: Gamut compress
# Block 1: IDT | CanonLog3 Cinema Gamut Daylight
# Block 2: colourMatch | Blending Mode: Normal | {"ColorSpace":0,"CrossCovarianceLimit":50,"ReshapingIterations":1,"PercentSaturationShift":100,"PercentShadingShift":100,"ExtraShading":true,"PercentTint":100,"PercentModified":100}
# Block 3: LUT | Filmic Curve Response: Standard Contrast 1 (100%)
# Block 4: LUT | Illuminant: D60 (100%)
# Block 5: hueSaturation | Blending Mode: Normal | {"hue":0,"saturation":-0.15}
# Block 6: logPrimaries | Blending Mode: Normal | {"wheels":{"shadows":{"Y":"0","R":"1","G":"1","B":"1"},"midtones":{"Y":"0","R":"1","G":"1","B":"1"},"highlights":{"Y":"0","R":"1","G":"1","B":"1"},"offset":{"Y":"0","R":"1","G":"1","B":"1"}},"sliders":{"shadows":{"Y":0,"R":-0.097,"G":0,"B":0.158},"midtones":{"Y":0,"R":0.024,"G":0.024,"B":-0.036},"highlights":{"Y":0,"R":0.154,"G":-0.084,"B":-0.024},"offset":{"Y":0.048,"R":0,"G":0,"B":0}}}
# Block 7: smartCurves | Blending Mode: Average | [[{"x":0,"y":0},{"x":0.11328125,"y":0.085540771484375},{"x":0.21484375,"y":0.218353271484375},{"x":0.37109375,"y":0.382415771484375},{"x":0.62109375,"y":0.589447021484375},{"x":0.8125,"y":0.765228271484375},{"x":1,"y":1}],[{"x":0,"y":0},{"x":1,"y":1}],[{"x":0,"y":0},{"x":1,"y":1}],[{"x":0,"y":0},{"x":1,"y":1}]]
# Block 8: LUT | Neutral Tint: Teal Tint 4 (100%)
# Block 9: contrast | Blending Mode: Normal | {"contrast":0.1}
# Block 10: ODT | Rec709
TITLE "Lutify.me-Amy-CanonLog3-to-Rec709" 
LUT_3D_SIZE 5
0.000000 0.000000 0.000000
0.486308 0.000000 0.000000
1.000000 0.000000 0.051420
1.000000 0.282313 0.218181
1.000000 0.819383 0.686374
0.000000 0.256003 0.000000
0.438695 0.141929 0.000000
1.000000 0.000000 0.055090
1.000000 0.391472 0.211202
1.000000 0.826601 0.689787
0.000000 0.617261 0.000000
0.336310 0.558797 0.000000
1.000000 0.494610 0.000000
1.000000 0.636693 0.094575
1.000000 0.849725 0.691562
0.346601 0.889425 0.000000
0.708206 0.870572 0.000000
0.994126 0.845298 0.000000
1.000000 0.862526 0.456039
1.000000 0.926210 0.670366
0.979735 0.973909 0.282539
0.988237 0.972797 0.290908
1.000000 0.970260 0.342818
1.000000 0.968522 0.580823
1.000000 0.972950 0.863134
0.000000 0.000000 0.338126
0.288111 0.000000 0.052357
0.958882 0.000000 0.033013
1.000000 0.262479 0.313376
1.000000 0.817107 0.707617
0.000000 0.268686 0.344193
0.114965 0.206281 0.259311
0.842892 0.000000 0.146522
1.000000 0.382202 0.310042
1.000000 0.824426 0.706386
0.000000 0.672957 0.208284
0.000000 0.656892 0.000000
0.890539 0.593055 0.000000
1.000000 0.647746 0.274357
1.000000 0.848999 0.711887
0.259160 0.888975 0.000000
0.677666 0.872009 0.000000
0.989884 0.843449 0.000000
1.000000 0.861186 0.455828
1.000000 0.925931 0.696079
0.978775 0.973972 0.281269
0.987365 0.972855 0.289549
1.000000 0.970300 0.340599
1.000000 0.968522 0.580823
1.000000 0.972843 0.861763
0.000000 0.000000 0.663332
0.160607 0.000000 0.101639
0.919238 0.000000 0.110413
1.000000 0.000000 0.518948
1.000000 0.812481 0.756684
0.000000 0.154989 0.597921
0.000000 0.106629 0.434114
0.781243 0.000000 0.373238
1.000000 0.311689 0.556701
1.000000 0.820233 0.758585
0.000000 0.779467 0.854092
0.000000 0.700753 0.809270
0.629032 0.665689 0.754797
1.000000 0.607370 0.605840
1.000000 0.842507 0.759533
0.000000 0.961187 0.689003
0.000000 0.959428 0.644703
0.533978 0.944950 0.558405
1.000000 0.920575 0.473901
1.000000 0.924943 0.765101
0.974841 0.974229 0.276275
0.982863 0.973150 0.282673
1.000000 0.970466 0.331755
1.000000 0.968461 0.573011
1.000000 0.972843 0.861763
0.000000 0.000000 0.909323
0.173599 0.000000 0.192423
0.702221 0.000000 0.186122
1.000000 0.000000 0.275396
1.000000 0.777783 0.885348
0.000000 0.098052 0.827485
0.000000 0.058537 0.536775
0.611431 0.000000 0.414277
1.000000 0.000000 0.275396
1.000000 0.788135 0.887334
0.000000 0.616124 0.956488
0.000000 0.548519 0.903343
0.356091 0.508776 0.901433
1.000000 0.382153 0.869034
1.000000 0.822410 0.897202
0.000000 0.992213 0.991130
0.000000 0.973900 0.984049
0.000000 0.961120 0.979594
0.944970 0.925790 0.958034
1.000000 0.916598 0.915145
0.608879 1.000000 0.945274
0.647017 1.000000 0.942157
0.729842 1.000000 0.935630
0.923710 0.999729 0.907203
1.000000 0.993390 0.873935
0.068782 0.000000 0.332515
0.318986 0.000000 0.307240
0.694199 0.000000 0.297602
1.000000 0.000000 0.344746
1.000000 0.631446 0.584143
0.059100 0.000000 0.332546
0.316528 0.000000 0.304863
0.694199 0.000000 0.297602
1.000000 0.000000 0.344746
1.000000 0.631446 0.584143
0.000000 0.525524 0.975885
0.000000 0.517420 0.973453
0.287472 0.483654 0.969290
1.000000 0.277773 0.951296
1.000000 0.631446 0.584143
0.000000 0.925147 1.000000
0.000000 0.917348 1.000000
0.000000 0.903486 1.000000
0.865949 0.862210 1.000000
1.000000 0.842353 0.995695
0.154708 1.000000 1.000000
0.000000 1.000000 1.000000
0.268465 1.000000 1.000000
0.814294 1.000000 1.000000
1.000000 0.994185 1.000000
