Assets/Lutify-Free-LUTs-Pack/Lutify Free LUTs Pack/Cine World Pro Warm - Amy/Lutify.me-Amy-BMDFilmGen5-to-Rec709.cube
# Created with: fylm.ai - Colour Grading and Collaboration Software in Cloud 
# Website: https://fylm.ai 
# META
# Option: Gamut compress
# Block 1: IDT | BMD Wide Gamut BMDFilm Gen 5
# Block 2: colourMatch | Blending Mode: Normal | {"ColorSpace":0,"CrossCovarianceLimit":50,"ReshapingIterations":1,"PercentSaturationShift":100,"PercentShadingShift":100,"ExtraShading":true,"PercentTint":100,"PercentModified":100}
# Block 3: LUT | Filmic Curve Response: Standard Contrast 1 (100%)
# Block 4: LUT | Illuminant: D60 (100%)
# Block 5: hueSaturation | Blending Mode: Normal | {"hue":0,"saturation":-0.15}
# Block 6: logPrimaries | Blending Mode: Normal | {"wheels":{"shadows":{"Y":"0","R":"1","G":"1","B":"1"},"midtones":{"Y":"0","R":"1","G":"1","B":"1"},"highlights":{"Y":"0","R":"1","G":"1","B":"1"},"offset":{"Y":"0","R":"1","G":"1","B":"1"}},"sliders":{"shadows":{"Y":0,"R":-0.097,"G":0,"B":0.158},"midtones":{"Y":0,"R":0.024,"G":0.024,"B":-0.036},"highlights":{"Y":0,"R":0.154,"G":-0.084,"B":-0.024},"offset":{"Y":0.048,"R":0,"G":0,"B":0}}}
# Block 7: smartCurves | Blending Mode: Average | [[{"x":0,"y":0},{"x":0.11328125,"y":0.085540771484375},{"x":0.21484375,"y":0.218353271484375},{"x":0.37109375,"y":0.382415771484375},{"x":0.62109375,"y":0.589447021484375},{"x":0.8125,"y":0.765228271484375},{"x":1,"y":1}],[{"x":0,"y":0},{"x":1,"y":1}],[{"x":0,"y":0},{"x":1,"y":1}],[{"x":0,"y":0},{"x":1,"y":1}]]
# Block 8: LUT | Neutral Tint: Teal Tint 4 (100%)
# Block 9: contrast | Blending Mode: Normal | {"contrast":0.1}
# Block 10: ODT | Rec709
TITLE "Lutify.me-Amy-BMDFilmGen5-to-Rec709" 
LUT_3D_SIZE 5
0.000000 0.000000 0.000000
0.167510 0.000000 0.000000
0.894959 0.000000 0.000000
1.000000 0.812727 0.581074
1.000000 0.997274 0.977230
0.000000 0.119224 0.000000
0.172018 0.088399 0.000000
0.904637 0.000000 0.000000
1.000000 0.814283 0.581108
1.000000 0.997274 0.977230
0.000000 0.671058 0.000000
0.000000 0.665016 0.000000
1.000000 0.581980 0.000000
1.000000 0.852583 0.596236
1.000000 0.997544 0.977257
0.870875 0.995997 0.673426
0.876262 0.995709 0.671574
0.921527 0.993513 0.662330
1.000000 0.985322 0.679588
1.000000 1.000000 0.979167
1.000000 1.000000 0.989113
1.000000 1.000000 0.989113
1.000000 1.000000 0.988904
1.000000 1.000000 0.986905
1.000000 1.000000 0.968495
0.000000 0.000000 0.081661
0.108518 0.000000 0.048249
0.868122 0.000000 0.075502
1.000000 0.812678 0.592688
1.000000 0.997274 0.977230
0.000000 0.125726 0.180623
0.045845 0.101087 0.136500
0.870523 0.000000 0.070504
1.000000 0.815786 0.592751
1.000000 0.997274 0.977230
0.000000 0.697896 0.000000
0.000000 0.700257 0.000000
0.892288 0.651523 0.000000
1.000000 0.853917 0.603240
1.000000 0.997543 0.977564
0.866402 0.996127 0.690942
0.871895 0.995837 0.689042
0.917965 0.993603 0.681190
1.000000 0.985681 0.674693
1.000000 1.000000 0.979167
1.000000 1.000000 0.989345
1.000000 1.000000 0.989345
1.000000 1.000000 0.989125
1.000000 1.000000 0.986905
1.000000 1.000000 0.968655
0.000000 0.000000 0.163105
0.090432 0.000000 0.145835
0.842622 0.000000 0.201743
1.000000 0.807108 0.707748
1.000000 0.997264 0.978755
0.000000 0.050482 0.351345
0.000000 0.047053 0.343204
0.807302 0.000000 0.395026
1.000000 0.808725 0.707724
1.000000 0.997264 0.978755
0.000000 0.739943 0.841876
0.000000 0.732608 0.840108
0.687405 0.709835 0.789896
1.000000 0.847022 0.717441
1.000000 0.997533 0.979078
0.844511 0.997869 0.843886
0.850202 0.997565 0.843942
0.895256 0.995188 0.830299
1.000000 0.988521 0.786558
1.000000 1.000000 0.980340
1.000000 1.000000 0.991148
1.000000 1.000000 0.991148
1.000000 1.000000 0.990938
1.000000 1.000000 0.988844
1.000000 1.000000 0.971322
0.634352 0.000000 0.279009
0.656244 0.000000 0.276798
0.888196 0.000000 0.296815
1.000000 0.510466 0.920136
1.000000 0.996742 0.994210
0.549450 0.000000 0.507421
0.565790 0.000000 0.518032
0.797758 0.000000 0.630216
1.000000 0.535519 0.927687
1.000000 0.996742 0.994210
0.000000 0.592642 0.977879
0.176517 0.591506 0.977750
0.624604 0.571534 0.976258
1.000000 0.704286 0.973799
1.000000 0.997019 0.994416
0.698546 1.000000 1.000000
0.704275 1.000000 1.000000
0.781062 1.000000 1.000000
1.000000 0.991057 1.000000
1.000000 1.000000 0.995753
1.000000 1.000000 1.000000
1.000000 1.000000 1.000000
1.000000 1.000000 1.000000
1.000000 1.000000 1.000000
1.000000 1.000000 0.996736
1.000000 0.136011 0.623987
1.000000 0.136011 0.623987
1.000000 0.190460 0.626831
1.000000 0.504077 0.674801
1.000000 0.966596 1.000000
1.000000 0.136011 0.623987
1.000000 0.136011 0.623987
1.000000 0.190460 0.626831
1.000000 0.504077 0.674801
1.000000 0.966767 1.000000
1.000000 0.455128 1.000000
1.000000 0.455128 1.000000
1.000000 0.466357 1.000000
1.000000 0.650617 1.000000
1.000000 0.968647 1.000000
0.956878 0.975918 1.000000
0.957752 0.975865 1.000000
0.961772 0.976110 1.000000
0.998761 0.973072 1.000000
1.000000 0.987135 1.000000
0.990674 1.000000 1.000000
0.990674 1.000000 1.000000
0.991105 1.000000 1.000000
0.998787 1.000000 1.000000
1.000000 1.000000 1.000000
