Assets/Lutify-Free-LUTs-Pack/Lutify Free LUTs Pack/Cine World Pro Warm - Amy/Lutify.me-Amy-FLog-to-Rec709.cube
# Created with: fylm.ai - Colour Grading and Collaboration Software in Cloud 
# Website: https://fylm.ai 
# META
# Option: Gamut compress
# Block 1: IDT | Fujifilm F-Gamut F-Log
# Block 2: colourMatch | Blending Mode: Normal | {"ColorSpace":0,"CrossCovarianceLimit":50,"ReshapingIterations":1,"PercentSaturationShift":100,"PercentShadingShift":100,"ExtraShading":true,"PercentTint":100,"PercentModified":100}
# Block 3: LUT | Filmic Curve Response: Standard Contrast 1 (100%)
# Block 4: LUT | Illuminant: D60 (100%)
# Block 5: hueSaturation | Blending Mode: Normal | {"hue":0,"saturation":-0.15}
# Block 6: logPrimaries | Blending Mode: Normal | {"wheels":{"shadows":{"Y":"0","R":"1","G":"1","B":"1"},"midtones":{"Y":"0","R":"1","G":"1","B":"1"},"highlights":{"Y":"0","R":"1","G":"1","B":"1"},"offset":{"Y":"0","R":"1","G":"1","B":"1"}},"sliders":{"shadows":{"Y":0,"R":-0.097,"G":0,"B":0.158},"midtones":{"Y":0,"R":0.024,"G":0.024,"B":-0.036},"highlights":{"Y":0,"R":0.154,"G":-0.084,"B":-0.024},"offset":{"Y":0.048,"R":0,"G":0,"B":0}}}
# Block 7: smartCurves | Blending Mode: Average | [[{"x":0,"y":0},{"x":0.11328125,"y":0.085540771484375},{"x":0.21484375,"y":0.218353271484375},{"x":0.37109375,"y":0.382415771484375},{"x":0.62109375,"y":0.589447021484375},{"x":0.8125,"y":0.765228271484375},{"x":1,"y":1}],[{"x":0,"y":0},{"x":1,"y":1}],[{"x":0,"y":0},{"x":1,"y":1}],[{"x":0,"y":0},{"x":1,"y":1}]]
# Block 8: LUT | Neutral Tint: Teal Tint 4 (100%)
# Block 9: contrast | Blending Mode: Normal | {"contrast":0.1}
# Block 10: ODT | Rec709
TITLE "Lutify.me-Amy-FLog-to-Rec709" 
LUT_3D_SIZE 9
0.000000 0.000000 0.000000
0.000000 0.000000 0.000000
0.163237 0.000000 0.000000
0.354985 0.000000 0.000000
0.562685 0.000000 0.000000
0.827082 0.000000 0.009768
1.000000 0.000000 0.110354
1.000000 0.388649 0.259900
1.000000 0.679078 0.491534
0.000000 0.000000 0.000000
0.000000 0.000000 0.000000
0.148925 0.000000 0.000000
0.330804 0.000000 0.000000
0.562823 0.000000 0.000000
0.826960 0.000000 0.000000
1.000000 0.000000 0.111331
1.000000 0.395878 0.261228
1.000000 0.681636 0.491411
0.000000 0.091690 0.000000
0.000000 0.084528 0.000000
0.132826 0.065730 0.000000
0.333354 0.000000 0.000000
0.567239 0.000000 0.000000
0.822329 0.000000 0.000000
1.000000 0.000000 0.110571
1.000000 0.412677 0.263386
1.000000 0.684177 0.493872
0.000000 0.221744 0.000000
0.000000 0.211169 0.000000
0.000000 0.204688 0.000000
0.351018 0.173471 0.000000
0.571960 0.127739 0.000000
0.837624 0.000000 0.000000
1.000000 0.086949 0.114112
1.000000 0.441288 0.270894
1.000000 0.695391 0.499645
0.000000 0.381294 0.000000
0.000000 0.378301 0.000000
0.000000 0.380926 0.000000
0.164061 0.375178 0.000000
0.575337 0.342632 0.000000
0.844486 0.338428 0.000000
1.000000 0.353556 0.111615
1.000000 0.494959 0.283073
1.000000 0.717586 0.503959
0.000000 0.609715 0.112255
0.000000 0.605961 0.084810
0.000000 0.609415 0.000000
0.000000 0.615126 0.000000
0.393567 0.604705 0.000000
0.824272 0.574611 0.000000
1.000000 0.590446 0.098084
1.000000 0.642808 0.307409
1.000000 0.754096 0.518206
0.000000 0.823329 0.355678
0.000000 0.825760 0.344508
0.000000 0.825377 0.329787
0.000000 0.829181 0.307778
0.000000 0.823131 0.251079
0.693280 0.801351 0.187490
0.956908 0.788672 0.145017
1.000000 0.803339 0.359267
1.000000 0.837086 0.556801
0.000000 0.944416 0.607526
0.000000 0.944141 0.607550
0.000000 0.943726 0.600353
0.000000 0.943309 0.582818
0.000000 0.939896 0.565248
0.595222 0.928488 0.514020
0.883045 0.914817 0.478550
1.000000 0.908044 0.466330
1.000000 0.914615 0.626401
0.000000 0.993344 0.817231
0.000000 0.993208 0.815218
0.095863 0.992922 0.813186
0.263528 0.991279 0.810900
0.453490 0.988838 0.802776
0.626079 0.983968 0.785703
0.833558 0.976240 0.752848
0.964959 0.968775 0.729329
1.000000 0.965440 0.725171
0.000000 0.000000 0.006596
0.000000 0.000000 0.000000
0.143736 0.000000 0.000000
0.317274 0.000000 0.000000
0.523825 0.000000 0.016179
0.818597 0.000000 0.043037
1.000000 0.000000 0.123933
1.000000 0.392238 0.267328
1.000000 0.679054 0.496707
0.000000 0.000000 0.022870
0.000000 0.000000 0.017047
0.129054 0.000000 0.000000
0.296171 0.000000 0.011531
0.520139 0.000000 0.022309
0.818444 0.000000 0.042784
1.000000 0.000000 0.126230
1.000000 0.395839 0.271015
1.000000 0.681613 0.496586
0.000000 0.092443 0.046161
0.000000 0.088762 0.030786
0.097734 0.079158 0.005813
0.293574 0.000000 0.016172
0.520608 0.000000 0.020489
0.809522 0.000000 0.043589
1.000000 0.000000 0.127034
1.000000 0.413875 0.273645
1.000000 0.684154 0.499073
0.000000 0.224804 0.052906
0.000000 0.223250 0.000000
0.000000 0.217216 0.000000
0.289190 0.198905 0.000000
0.538149 0.160528 0.000000
0.825036 0.000000 0.017721
1.000000 0.086814 0.131533
1.000000 0.441254 0.281296
1.000000 0.695380 0.502261
0.000000 0.390139 0.097897
0.000000 0.390190 0.023504
0.000000 0.389986 0.000000
0.000000 0.388752 0.000000
0.534119 0.363652 0.000000
0.836337 0.343723 0.000000
1.000000 0.357769 0.136366
1.000000 0.498516 0.294013
1.000000 0.717553 0.511914
0.000000 0.617083 0.194883
0.000000 0.617036 0.171638
0.000000 0.613106 0.135926
0.000000 0.618864 0.061989
0.386398 0.604914 0.000000
0.807637 0.579859 0.000000
1.000000 0.594430 0.135214
1.000000 0.646340 0.320547
1.000000 0.754075 0.523570
0.000000 0.825869 0.385287
0.000000 0.825710 0.377949
0.000000 0.827892 0.363205
0.000000 0.829184 0.333882
0.000000 0.825591 0.283850
0.686072 0.804220 0.224857
0.954116 0.791281 0.186782
1.000000 0.803323 0.374206
1.000000 0.836769 0.561479
0.000000 0.944427 0.622008
0.000000 0.944100 0.618412
0.000000 0.943685 0.611206
0.000000 0.943244 0.600832
0.000000 0.939860 0.575988
0.588229 0.928667 0.527994
0.882647 0.914782 0.491893
1.000000 0.908019 0.477965
1.000000 0.914596 0.631933
0.000000 0.993321 0.821196
0.000000 0.993186 0.819214
0.090867 0.992900 0.817214
0.266074 0.991837 0.813148
0.453203 0.988827 0.804858
0.625885 0.983957 0.787886
0.832935 0.976811 0.760520
0.964959 0.968775 0.729329
1.000000 0.965431 0.727325
0.000000 0.000000 0.069215
0.000000 0.000000 0.050826
0.111440 0.000000 0.048650
0.280381 0.000000 0.050851
0.498480 0.000000 0.054177
0.806001 0.000000 0.078269
1.000000 0.000000 0.149027
1.000000 0.390900 0.287028
1.000000 0.681589 0.501816
0.000000 0.000000 0.087309
0.000000 0.000000 0.072176
0.096771 0.000000 0.065302
0.264997 0.000000 0.063403
0.498615 0.000000 0.062280
0.805808 0.000000 0.081274
1.000000 0.000000 0.152182
1.000000 0.398158 0.288648
1.000000 0.681576 0.504450
0.000000 0.119686 0.168843
0.000000 0.105671 0.160893
0.040545 0.093971 0.126745
0.261281 0.059401 0.095675
0.502213 0.000000 0.073647
0.801002 0.000000 0.086221
1.000000 0.000000 0.156620
1.000000 0.413808 0.290423
1.000000 0.686665 0.506859
0.000000 0.246889 0.235387
0.000000 0.235887 0.219126
0.000000 0.235011 0.160963
0.233292 0.225747 0.117366
0.517453 0.181745 0.081025
0.816140 0.000000 0.094001
1.000000 0.122389 0.159903
1.000000 0.439058 0.297350
1.000000 0.696773 0.509062
0.000000 0.404995 0.271475
0.000000 0.401828 0.238776
0.000000 0.411634 0.181969
0.000000 0.412033 0.121728
0.500658 0.390482 0.067571
0.815099 0.362642 0.087147
1.000000 0.366285 0.175692
1.000000 0.496732 0.309092
1.000000 0.717531 0.517271
0.000000 0.620655 0.306544
0.000000 0.624338 0.287476
0.000000 0.616774 0.258639
0.000000 0.630076 0.213017
0.334280 0.621099 0.139684
0.792849 0.588791 0.049029
0.999399 0.598320 0.185607
1.000000 0.645323 0.338731
1.000000 0.755549 0.530661
0.000000 0.828337 0.437359
0.000000 0.828184 0.426232
0.000000 0.830320 0.415144
0.000000 0.829119 0.389532
0.000000 0.828125 0.331724
0.671438 0.809847 0.278439
0.951789 0.791334 0.237948
1.000000 0.807608 0.392021
1.000000 0.836740 0.569950
0.000000 0.945513 0.647660
0.000000 0.945257 0.644056
0.000000 0.944759 0.640469
0.000000 0.943343 0.626098
0.000000 0.939910 0.601123
0.586551 0.928578 0.556209
0.879612 0.914854 0.515260
1.000000 0.909175 0.496305
1.000000 0.914577 0.637498
0.000000 0.993277 0.828954
0.000000 0.993131 0.828948
0.079787 0.992856 0.825085
0.263764 0.991793 0.821135
0.444489 0.988969 0.811031
0.625499 0.983935 0.792196
0.832368 0.976767 0.769899
0.964494 0.968731 0.739148
1.000000 0.965405 0.733365
0.000000 0.000000 0.137016
0.000000 0.000000 0.104395
0.087530 0.000000 0.094833
0.270886 0.000000 0.097218
0.486013 0.000000 0.131978
0.794987 0.000000 0.157339
1.000000 0.000000 0.206620
1.000000 0.393108 0.326790
1.000000 0.680326 0.519530
0.000000 0.035394 0.174220
0.000000 0.029351 0.147486
0.074690 0.000000 0.141256
0.265323 0.000000 0.136261
0.483827 0.000000 0.157298
0.794712 0.000000 0.165250
1.000000 0.000000 0.209076
1.000000 0.400397 0.328810
1.000000 0.682898 0.519412
0.000000 0.133937 0.269975
0.000000 0.119530 0.254200
0.000000 0.106170 0.250690
0.250920 0.074187 0.226556
0.488474 0.000000 0.190312
0.797919 0.000000 0.175894
1.000000 0.000000 0.210913
1.000000 0.416078 0.333504
1.000000 0.688010 0.521899
0.000000 0.276980 0.366985
0.000000 0.262155 0.350145
0.000000 0.249937 0.334319
0.153741 0.247311 0.300417
0.486794 0.212254 0.245586
0.797859 0.105576 0.205864
1.000000 0.155662 0.218147
1.000000 0.441445 0.339567
1.000000 0.699211 0.525128
0.000000 0.441034 0.438105
0.000000 0.427560 0.431952
0.000000 0.427567 0.404650
0.000000 0.439190 0.349101
0.447433 0.424928 0.287982
0.791887 0.389281 0.240982
1.000000 0.383203 0.246835
1.000000 0.499343 0.354473
1.000000 0.718948 0.535330
0.000000 0.635051 0.486740
0.000000 0.635035 0.475754
0.000000 0.638681 0.446404
0.000000 0.637438 0.400212
0.265748 0.640587 0.334709
0.757817 0.614442 0.282018
0.990746 0.606241 0.278122
1.000000 0.644761 0.382054
1.000000 0.755470 0.550027
0.000000 0.830601 0.535153
0.000000 0.830454 0.527626
0.000000 0.830121 0.516371
0.000000 0.833926 0.490137
0.000000 0.833154 0.431332
0.649028 0.815480 0.379653
0.941296 0.796589 0.341245
1.000000 0.809621 0.441242
1.000000 0.836691 0.584255
0.000000 0.945446 0.693018
0.000000 0.946307 0.689869
0.000000 0.945802 0.689885
0.000000 0.943151 0.672614
0.000000 0.941203 0.644672
0.577136 0.928638 0.602411
0.870053 0.917637 0.553165
1.000000 0.909143 0.531280
1.000000 0.914437 0.656421
0.000000 0.993347 0.841970
0.000000 0.993056 0.841955
0.048177 0.992769 0.840128
0.259805 0.991717 0.834549
0.441939 0.988871 0.828776
0.624125 0.984428 0.811198
0.829163 0.976828 0.783295
0.962476 0.969346 0.753716
1.000000 0.965352 0.745720
0.000000 0.051966 0.254067
0.000000 0.049540 0.237172
0.000000 0.043207 0.235283
0.240121 0.000000 0.236672
0.488018 0.000000 0.232201
0.781545 0.000000 0.297914
1.000000 0.000000 0.335793
1.000000 0.393878 0.400474
1.000000 0.684130 0.557458
0.000000 0.078690 0.288955
0.000000 0.075669 0.278113
0.000000 0.068092 0.276080
0.234082 0.000000 0.278766
0.492365 0.000000 0.268391
0.782051 0.000000 0.315041
1.000000 0.000000 0.338168
1.000000 0.401232 0.403072
1.000000 0.686693 0.560213
0.000000 0.138161 0.352233
0.000000 0.132541 0.344202
0.000000 0.122101 0.339162
0.211252 0.099622 0.343877
0.502631 0.000000 0.328106
0.789388 0.000000 0.332953
1.000000 0.000000 0.345828
1.000000 0.420682 0.408627
1.000000 0.691829 0.559993
0.000000 0.294548 0.469677
0.000000 0.278287 0.466813
0.000000 0.275895 0.463463
0.000000 0.267702 0.453273
0.482400 0.232811 0.432405
0.784704 0.142125 0.386627
1.000000 0.174052 0.364375
1.000000 0.442600 0.416514
1.000000 0.701977 0.565339
0.000000 0.474709 0.585339
0.000000 0.464313 0.574676
0.000000 0.460746 0.574902
0.000000 0.455781 0.552938
0.350675 0.455963 0.534096
0.750235 0.416539 0.449334
1.000000 0.395173 0.408123
1.000000 0.504634 0.431649
1.000000 0.722739 0.571189
0.000000 0.660364 0.673302
0.000000 0.664090 0.665525
0.000000 0.660283 0.650619
0.000000 0.663045 0.627784
0.000000 0.656359 0.567692
0.693725 0.640945 0.509209
0.962434 0.630147 0.456970
1.000000 0.650766 0.461589
1.000000 0.756151 0.585619
0.000000 0.839632 0.724297
0.000000 0.839499 0.717598
0.000000 0.841593 0.707263
0.000000 0.838321 0.686182
0.000000 0.840162 0.637762
0.602542 0.828268 0.571112
0.915522 0.811602 0.522480
1.000000 0.811166 0.520698
1.000000 0.837657 0.627079
0.000000 0.947565 0.777064
0.000000 0.947130 0.774441
0.000000 0.946735 0.769119
0.000000 0.946446 0.758219
0.000000 0.943287 0.731956
0.548734 0.932554 0.687650
0.854811 0.921541 0.640484
0.995576 0.912583 0.603952
1.000000 0.916321 0.694994
0.000000 0.993174 0.870303
0.000000 0.993599 0.868845
0.000000 0.993315 0.867282
0.237239 0.992253 0.865657
0.439288 0.989287 0.855770
0.616700 0.985019 0.841886
0.824718 0.977409 0.812509
0.957472 0.970006 0.784598
1.000000 0.965833 0.771800
0.000000 0.143033 0.443537
0.000000 0.139023 0.443645
0.000000 0.134480 0.443730
0.162214 0.120181 0.450217
0.483284 0.000000 0.451767
0.785787 0.000000 0.440822
1.000000 0.000000 0.518405
1.000000 0.413820 0.549330
1.000000 0.682933 0.629867
0.000000 0.163098 0.463721
0.000000 0.158600 0.463854
0.000000 0.153871 0.460490
0.144890 0.144330 0.467122
0.480500 0.000000 0.472362
0.786942 0.000000 0.454280
1.000000 0.000000 0.521710
1.000000 0.421300 0.552474
1.000000 0.685563 0.629757
0.000000 0.202226 0.504968
0.000000 0.200313 0.508626
0.000000 0.194826 0.505205
0.036389 0.187996 0.515819
0.477184 0.119324 0.514234
0.791697 0.000000 0.495525
1.000000 0.069698 0.528188
1.000000 0.432471 0.558897
1.000000 0.690777 0.632639
0.000000 0.305434 0.589305
0.000000 0.305382 0.589318
0.000000 0.297682 0.589624
0.000000 0.295345 0.597025
0.437978 0.261459 0.592518
0.790915 0.158582 0.569421
1.000000 0.211865 0.555725
1.000000 0.462301 0.568119
1.000000 0.702102 0.635939
0.000000 0.491430 0.712130
0.000000 0.494921 0.715569
0.000000 0.494790 0.715582
0.000000 0.490140 0.712149
0.311310 0.472999 0.697398
0.754515 0.440777 0.659303
0.989163 0.417713 0.616415
1.000000 0.518772 0.586971
1.000000 0.722146 0.647632
0.000000 0.693360 0.804582
0.000000 0.689602 0.802184
0.000000 0.696904 0.806942
0.000000 0.696041 0.793601
0.000000 0.682561 0.776701
0.629032 0.665689 0.754797
0.935344 0.649640 0.680951
1.000000 0.669138 0.629321
1.000000 0.758883 0.663308
0.000000 0.859505 0.860554
0.000000 0.859387 0.856696
0.000000 0.861291 0.852610
0.000000 0.858232 0.846648
0.000000 0.855549 0.827020
0.528050 0.840565 0.785806
0.881198 0.821436 0.731938
1.000000 0.823153 0.691184
1.000000 0.836772 0.701151
0.000000 0.950665 0.885364
0.000000 0.950383 0.883857
0.000000 0.949675 0.880773
0.000000 0.948427 0.875988
0.000000 0.947374 0.864071
0.500913 0.939564 0.835501
0.836877 0.924827 0.794895
0.983057 0.915673 0.756326
1.000000 0.918911 0.760230
0.000000 0.994436 0.910820
0.000000 0.994020 0.909639
0.000000 0.993739 0.908459
0.213965 0.993247 0.906059
0.410640 0.990648 0.899869
0.598005 0.986418 0.886946
0.816180 0.978587 0.861049
0.949815 0.971223 0.834762
1.000000 0.967958 0.818243
0.000000 0.295959 0.694780
0.000000 0.295763 0.694770
0.000000 0.290306 0.694919
0.000000 0.292765 0.698323
0.397136 0.263001 0.697364
0.776269 0.157853 0.695152
1.000000 0.000000 0.680857
1.000000 0.426961 0.737585
1.000000 0.686046 0.761998
0.000000 0.308449 0.705558
0.000000 0.308250 0.705547
0.000000 0.305212 0.701878
0.000000 0.305376 0.709054
0.387772 0.274265 0.708262
0.779000 0.180535 0.702267
1.000000 0.000000 0.691647
1.000000 0.430715 0.740653
1.000000 0.688762 0.761872
0.000000 0.329594 0.715795
0.000000 0.329332 0.719422
0.000000 0.326117 0.719498
0.000000 0.326632 0.726425
0.368756 0.297518 0.722227
0.775744 0.216841 0.712720
1.000000 0.107034 0.705791
1.000000 0.441096 0.749607
1.000000 0.691431 0.764411
0.000000 0.379023 0.752313
0.000000 0.375738 0.752439
0.000000 0.375271 0.755751
0.000000 0.376700 0.755475
0.331651 0.358734 0.754801
0.760999 0.292227 0.749468
1.000000 0.236129 0.729127
1.000000 0.471450 0.754805
1.000000 0.705615 0.769286
0.000000 0.526374 0.821920
0.000000 0.522656 0.822104
0.000000 0.522425 0.822083
0.000000 0.524917 0.824286
0.167324 0.510135 0.823963
0.702237 0.471580 0.814971
0.985691 0.435364 0.792893
1.000000 0.526692 0.776157
1.000000 0.723589 0.778639
0.000000 0.729374 0.887370
0.000000 0.729276 0.887360
0.000000 0.725530 0.885855
0.000000 0.724721 0.885775
0.000000 0.716264 0.883800
0.596155 0.696277 0.866146
0.928256 0.675181 0.847075
1.000000 0.682626 0.812954
1.000000 0.760955 0.791858
0.000000 0.880119 0.924406
0.000000 0.879995 0.923211
0.000000 0.877743 0.924513
0.000000 0.874873 0.924578
0.000000 0.868119 0.918273
0.477939 0.855844 0.904441
0.845095 0.835340 0.885228
0.997440 0.832464 0.849586
1.000000 0.846511 0.820457
0.000000 0.960129 0.951805
0.000000 0.959966 0.951790
0.000000 0.958212 0.950986
0.000000 0.956964 0.948372
0.000000 0.953951 0.943726
0.463778 0.943983 0.930378
0.809345 0.930803 0.909452
0.963400 0.922318 0.884171
1.000000 0.922228 0.857806
0.000000 0.997565 0.961985
0.000000 0.997304 0.961293
0.000000 0.996750 0.961245
0.172102 0.996394 0.960466
0.389334 0.993879 0.958884
0.580319 0.989743 0.952777
0.797542 0.980523 0.935186
0.940216 0.973889 0.914675
1.000000 0.969865 0.897315
0.000000 0.506219 0.885824
0.000000 0.502364 0.885977
0.000000 0.501505 0.885874
0.000000 0.495827 0.887678
0.258260 0.482930 0.885562
0.664375 0.459380 0.887192
0.980455 0.407225 0.877828
1.000000 0.444115 0.865436
1.000000 0.698723 0.886784
0.000000 0.513448 0.887317
0.000000 0.513201 0.887287
0.000000 0.508750 0.889213
0.000000 0.506624 0.890786
0.248764 0.490288 0.888920
0.661993 0.467241 0.888698
0.979006 0.416147 0.879440
1.000000 0.447803 0.867267
1.000000 0.701389 0.888165
0.000000 0.528008 0.892022
0.000000 0.527769 0.891993
0.000000 0.526961 0.891896
0.000000 0.521259 0.893625
0.228919 0.505047 0.891837
0.657042 0.482966 0.891630
0.976599 0.429456 0.884527
1.000000 0.463184 0.870613
1.000000 0.704904 0.889553
0.000000 0.553758 0.901016
0.000000 0.553490 0.900983
0.000000 0.549031 0.899416
0.000000 0.543510 0.901068
0.195893 0.530927 0.900884
0.647505 0.510567 0.899009
0.970153 0.464435 0.892125
1.000000 0.490694 0.877140
1.000000 0.715409 0.890482
0.000000 0.613195 0.916120
0.000000 0.612998 0.916096
0.000000 0.608640 0.914818
0.000000 0.603151 0.913388
0.000000 0.594747 0.914522
0.611427 0.574347 0.911689
0.954627 0.537020 0.905351
1.000000 0.554486 0.891876
1.000000 0.735708 0.895132
0.000000 0.761983 0.941604
0.000000 0.758550 0.942883
0.000000 0.757973 0.942819
0.000000 0.753283 0.943953
0.000000 0.739923 0.939905
0.538309 0.726820 0.937505
0.895615 0.702752 0.929015
1.000000 0.697495 0.917515
1.000000 0.772549 0.907532
0.000000 0.889996 0.968744
0.000000 0.887886 0.968857
0.000000 0.889257 0.968669
0.000000 0.889651 0.967669
0.000000 0.883169 0.966946
0.414939 0.870931 0.963155
0.823087 0.852490 0.955660
0.994952 0.839106 0.941257
1.000000 0.852943 0.921732
0.000000 0.967088 0.983565
0.000000 0.966730 0.983530
0.000000 0.966335 0.983492
0.000000 0.966005 0.982305
0.000000 0.962053 0.981595
0.417108 0.952791 0.977601
0.783504 0.938877 0.970264
0.949749 0.928562 0.960648
1.000000 0.927390 0.943486
0.000000 1.000000 0.990966
0.000000 1.000000 0.990911
0.000000 1.000000 0.990876
0.150837 0.999425 0.990079
0.386200 0.997367 0.989086
0.570656 0.992906 0.987201
0.781012 0.984134 0.981655
0.927670 0.977789 0.971843
0.995481 0.973507 0.959704
0.000000 0.722472 0.973376
0.000000 0.725516 0.973108
0.000000 0.724914 0.973801
0.000000 0.723543 0.973654
0.336808 0.720154 0.973298
0.584387 0.701344 0.971604
0.880902 0.672038 0.969677
1.000000 0.662730 0.965989
1.000000 0.704754 0.959152
0.000000 0.726004 0.973919
0.000000 0.725549 0.973870
0.000000 0.724914 0.973801
0.000000 0.723577 0.974408
0.336808 0.720154 0.973298
0.582240 0.705014 0.972161
0.879629 0.675855 0.969478
1.000000 0.666500 0.966587
1.000000 0.707332 0.959838
0.000000 0.726038 0.974674
0.000000 0.729057 0.974406
0.000000 0.728459 0.975087
0.000000 0.727095 0.974940
0.332263 0.723726 0.974587
0.577962 0.712232 0.972504
0.877020 0.683443 0.969854
1.000000 0.673856 0.967780
1.000000 0.713598 0.960324
0.000000 0.739853 0.976032
0.000000 0.739408 0.975984
0.000000 0.738786 0.975917
0.000000 0.740847 0.976290
0.318303 0.734163 0.976156
0.571473 0.722891 0.974124
0.873015 0.694656 0.971538
1.000000 0.688334 0.968571
1.000000 0.724148 0.961346
0.000000 0.769198 0.978417
0.000000 0.768772 0.978372
0.000000 0.771422 0.978122
0.000000 0.769992 0.977972
0.266117 0.766836 0.977649
0.560949 0.749621 0.976788
0.858063 0.726694 0.974903
1.000000 0.712627 0.972435
1.000000 0.742352 0.964214
0.000000 0.820047 0.982818
0.000000 0.819783 0.982790
0.000000 0.819234 0.982734
0.000000 0.818051 0.982614
0.133938 0.814961 0.982914
0.540384 0.799462 0.981463
0.831003 0.784898 0.978863
1.000000 0.761941 0.976493
1.000000 0.776208 0.970217
0.000000 0.901554 0.992050
0.000000 0.901426 0.991596
0.000000 0.900916 0.991546
0.000000 0.898324 0.991130
0.000000 0.896963 0.991167
0.456344 0.889500 0.990748
0.795264 0.874220 0.988761
0.975552 0.860526 0.984697
1.000000 0.862287 0.977380
0.000000 0.971214 0.999140
0.000000 0.970981 0.999118
0.000000 0.969663 0.999144
0.000000 0.968639 0.998749
0.000000 0.966978 0.998747
0.478515 0.960547 0.998315
0.759983 0.949408 0.995965
0.934477 0.938016 0.992327
1.000000 0.933188 0.987667
0.000000 1.000000 1.000000
0.000000 1.000000 1.000000
0.036233 1.000000 1.000000
0.247276 1.000000 1.000000
0.401707 1.000000 1.000000
0.567091 0.996814 1.000000
0.771531 0.988902 1.000000
0.913923 0.980382 0.998061
0.989385 0.976828 0.994059
