Assets/Lutify-Free-LUTs-Pack/Lutify Free LUTs Pack/Cine World Pro Warm - Amy/Lutify.me-Amy-CanonLog2-to-Rec709.cube
# Created with: fylm.ai - Colour Grading and Collaboration Software in Cloud 
# Website: https://fylm.ai 
# META
# Option: Gamut compress
# Block 1: IDT | CanonLog2 Cinema Gamut Daylight
# Block 2: colourMatch | Blending Mode: Normal | {"ColorSpace":0,"CrossCovarianceLimit":50,"ReshapingIterations":1,"PercentSaturationShift":100,"PercentShadingShift":100,"ExtraShading":true,"PercentTint":100,"PercentModified":100}
# Block 3: LUT | Filmic Curve Response: Standard Contrast 1 (100%)
# Block 4: LUT | Illuminant: D60 (100%)
# Block 5: hueSaturation | Blending Mode: Normal | {"hue":0,"saturation":-0.15}
# Block 6: logPrimaries | Blending Mode: Normal | {"wheels":{"shadows":{"Y":"0","R":"1","G":"1","B":"1"},"midtones":{"Y":"0","R":"1","G":"1","B":"1"},"highlights":{"Y":"0","R":"1","G":"1","B":"1"},"offset":{"Y":"0","R":"1","G":"1","B":"1"}},"sliders":{"shadows":{"Y":0,"R":-0.097,"G":0,"B":0.158},"midtones":{"Y":0,"R":0.024,"G":0.024,"B":-0.036},"highlights":{"Y":0,"R":0.154,"G":-0.084,"B":-0.024},"offset":{"Y":0.048,"R":0,"G":0,"B":0}}}
# Block 7: smartCurves | Blending Mode: Average | [[{"x":0,"y":0},{"x":0.11328125,"y":0.085540771484375},{"x":0.21484375,"y":0.218353271484375},{"x":0.37109375,"y":0.382415771484375},{"x":0.62109375,"y":0.589447021484375},{"x":0.8125,"y":0.765228271484375},{"x":1,"y":1}],[{"x":0,"y":0},{"x":1,"y":1}],[{"x":0,"y":0},{"x":1,"y":1}],[{"x":0,"y":0},{"x":1,"y":1}]]
# Block 8: LUT | Neutral Tint: Teal Tint 4 (100%)
# Block 9: contrast | Blending Mode: Normal | {"contrast":0.1}
# Block 10: ODT | Rec709
TITLE "Lutify.me-Amy-CanonLog2-to-Rec709" 
LUT_3D_SIZE 9
0.000000 0.000000 0.000000
0.000000 0.000000 0.000000
0.227280 0.000000 0.000000
0.504668 0.000000 0.000000
0.822925 0.000000 0.000000
1.000000 0.000000 0.143707
1.000000 0.562325 0.418801
1.000000 0.851520 0.746289
1.000000 0.955258 0.913393
0.000000 0.011802 0.000000
0.000000 0.000000 0.000000
0.207001 0.000000 0.000000
0.490131 0.000000 0.000000
0.827089 0.000000 0.000000
1.000000 0.000000 0.141369
1.000000 0.567861 0.418480
1.000000 0.852579 0.746293
1.000000 0.955258 0.913393
0.000000 0.136015 0.000000
0.000000 0.119233 0.000000
0.234384 0.076381 0.000000
0.532120 0.000000 0.000000
0.851806 0.000000 0.000000
1.000000 0.000000 0.134800
1.000000 0.577787 0.419057
1.000000 0.853625 0.748193
1.000000 0.955258 0.913393
0.000000 0.314327 0.000000
0.000000 0.295438 0.000000
0.170811 0.271689 0.000000
0.634037 0.191991 0.000000
0.944607 0.000000 0.000000
1.000000 0.231183 0.107926
1.000000 0.604694 0.413842
1.000000 0.857434 0.749177
1.000000 0.955258 0.913393
0.000000 0.543452 0.000000
0.000000 0.542821 0.000000
0.000000 0.529070 0.000000
0.656145 0.492975 0.000000
1.000000 0.441548 0.000000
1.000000 0.557655 0.000000
1.000000 0.690092 0.405206
1.000000 0.868225 0.750304
1.000000 0.957130 0.914474
0.000000 0.805994 0.000000
0.000000 0.801784 0.000000
0.282686 0.796259 0.000000
0.644354 0.776637 0.000000
0.988679 0.752177 0.000000
1.000000 0.765681 0.228005
1.000000 0.854682 0.304507
1.000000 0.898672 0.745964
1.000000 0.961790 0.913513
0.805726 0.930726 0.000000
0.812099 0.930384 0.000000
0.833858 0.928066 0.000000
0.874343 0.924600 0.000000
0.974364 0.916155 0.000000
1.000000 0.911108 0.304259
1.000000 0.922583 0.666557
1.000000 0.961262 0.719025
1.000000 0.974204 0.912976
0.996641 0.979896 0.362814
0.997353 0.979847 0.364524
0.998320 0.979313 0.363659
1.000000 0.979077 0.373146
1.000000 0.977825 0.408611
1.000000 0.976349 0.504725
1.000000 0.975202 0.728915
1.000000 0.979168 0.884254
1.000000 0.996406 0.898822
1.000000 0.999588 0.749226
1.000000 0.999588 0.749226
1.000000 0.999588 0.749226
1.000000 0.999559 0.751981
1.000000 0.999320 0.756093
1.000000 0.998953 0.774643
1.000000 0.998822 0.821910
1.000000 0.998372 0.904526
1.000000 0.998322 0.941985
0.000000 0.000000 0.025484
0.000000 0.000000 0.012708
0.174126 0.000000 0.000000
0.441700 0.000000 0.000000
0.797350 0.000000 0.036456
1.000000 0.000000 0.158951
1.000000 0.559545 0.423778
1.000000 0.851509 0.748186
1.000000 0.955258 0.913393
0.000000 0.000000 0.024676
0.000000 0.000000 0.013914
0.157521 0.000000 0.000000
0.407422 0.000000 0.010132
0.801525 0.000000 0.034798
1.000000 0.000000 0.157823
1.000000 0.565065 0.423464
1.000000 0.852568 0.748189
1.000000 0.955258 0.913393
0.000000 0.133801 0.000000
0.000000 0.124246 0.000000
0.148802 0.099846 0.000000
0.433064 0.000000 0.000000
0.805446 0.000000 0.014725
1.000000 0.000000 0.154088
1.000000 0.576200 0.425262
1.000000 0.853613 0.750086
1.000000 0.955254 0.914112
0.000000 0.324151 0.000000
0.000000 0.304727 0.000000
0.000000 0.292696 0.000000
0.581057 0.222264 0.000000
0.863807 0.178782 0.000000
1.000000 0.230156 0.134578
1.000000 0.603233 0.419942
1.000000 0.857423 0.751050
1.000000 0.955254 0.914112
0.000000 0.543497 0.000000
0.000000 0.542898 0.000000
0.000000 0.529296 0.000000
0.652411 0.489542 0.000000
1.000000 0.441406 0.000000
1.000000 0.567602 0.000000
1.000000 0.686381 0.413669
1.000000 0.868215 0.752150
1.000000 0.957130 0.914474
0.000000 0.806258 0.000000
0.000000 0.801936 0.000000
0.270001 0.796444 0.000000
0.644354 0.776637 0.000000
0.989453 0.749192 0.000000
1.000000 0.765681 0.228005
1.000000 0.854658 0.321953
1.000000 0.898654 0.749484
1.000000 0.961785 0.914215
0.802488 0.930899 0.000000
0.808930 0.930554 0.000000
0.833858 0.928066 0.000000
0.874343 0.924600 0.000000
0.973093 0.916232 0.000000
1.000000 0.911108 0.304259
1.000000 0.922583 0.666557
1.000000 0.961179 0.720084
1.000000 0.974204 0.912976
0.995911 0.979945 0.361580
0.996641 0.979896 0.362814
0.998320 0.979313 0.363659
1.000000 0.979123 0.371236
1.000000 0.977825 0.408611
1.000000 0.976357 0.502547
1.000000 0.975202 0.728915
1.000000 0.979168 0.884254
1.000000 0.996406 0.898822
1.000000 0.999588 0.749226
1.000000 0.999588 0.749226
1.000000 0.999588 0.749226
1.000000 0.999559 0.751981
1.000000 0.999320 0.756093
1.000000 0.998953 0.774643
1.000000 0.998822 0.821910
1.000000 0.998372 0.904526
1.000000 0.998322 0.941985
0.000000 0.000000 0.117098
0.000000 0.000000 0.055088
0.148870 0.000000 0.046172
0.411376 0.000000 0.047578
0.780710 0.000000 0.074616
1.000000 0.000000 0.184531
1.000000 0.557833 0.437588
1.000000 0.851498 0.750081
1.000000 0.954840 0.914108
0.000000 0.000000 0.111452
0.000000 0.000000 0.073946
0.116992 0.000000 0.060530
0.371708 0.000000 0.064171
0.784891 0.000000 0.080711
1.000000 0.000000 0.186725
1.000000 0.563385 0.437285
1.000000 0.852557 0.750083
1.000000 0.955254 0.914112
0.000000 0.145031 0.201297
0.000000 0.131049 0.183520
0.047737 0.105327 0.142297
0.370833 0.000000 0.089102
0.792936 0.000000 0.081969
1.000000 0.000000 0.187369
1.000000 0.571778 0.436823
1.000000 0.853613 0.750086
1.000000 0.955254 0.914112
0.000000 0.341439 0.168938
0.000000 0.326362 0.088974
0.000000 0.323552 0.000000
0.382335 0.297659 0.000000
0.811453 0.215782 0.000000
1.000000 0.233522 0.171997
1.000000 0.600294 0.437381
1.000000 0.856759 0.751987
1.000000 0.955254 0.914112
0.000000 0.576555 0.000000
0.000000 0.580033 0.000000
0.000000 0.571715 0.000000
0.466513 0.531723 0.000000
0.983433 0.477412 0.000000
1.000000 0.569798 0.000000
1.000000 0.686333 0.428319
1.000000 0.868204 0.753993
1.000000 0.957126 0.915186
0.000000 0.806514 0.000000
0.000000 0.802234 0.000000
0.226870 0.796986 0.000000
0.638438 0.776921 0.000000
0.988009 0.749182 0.000000
1.000000 0.765678 0.228005
1.000000 0.855967 0.351801
1.000000 0.898636 0.752996
1.000000 0.961785 0.914215
0.802488 0.930899 0.000000
0.808930 0.930554 0.000000
0.830926 0.928230 0.000000
0.871913 0.924744 0.000000
0.973093 0.916232 0.000000
1.000000 0.911108 0.304259
1.000000 0.922583 0.666557
1.000000 0.961164 0.723795
1.000000 0.974199 0.913654
0.995911 0.979945 0.361580
0.996641 0.979896 0.362814
0.998320 0.979313 0.363659
1.000000 0.979123 0.371236
1.000000 0.977825 0.408611
1.000000 0.976357 0.502547
1.000000 0.975202 0.728915
1.000000 0.979168 0.884254
1.000000 0.996400 0.899775
1.000000 0.999588 0.749226
1.000000 0.999588 0.749226
1.000000 0.999588 0.749226
1.000000 0.999559 0.751981
1.000000 0.999320 0.756093
1.000000 0.998953 0.774643
1.000000 0.998822 0.821910
1.000000 0.998372 0.904526
1.000000 0.998322 0.941985
0.000000 0.000000 0.280962
0.000000 0.000000 0.101808
0.088544 0.000000 0.065814
0.429907 0.000000 0.059864
0.765605 0.000000 0.143873
1.000000 0.000000 0.264555
1.000000 0.552806 0.468609
1.000000 0.851464 0.755741
1.000000 0.954831 0.915545
0.000000 0.000000 0.239355
0.000000 0.000000 0.147602
0.064417 0.000000 0.104849
0.372062 0.000000 0.092770
0.753055 0.000000 0.186477
1.000000 0.000000 0.267944
1.000000 0.558440 0.471019
1.000000 0.851464 0.755741
1.000000 0.955244 0.915548
0.000000 0.080943 0.319572
0.000000 0.070811 0.265673
0.000000 0.056936 0.224585
0.346542 0.000000 0.203008
0.761985 0.000000 0.224907
1.000000 0.000000 0.271432
1.000000 0.569845 0.470443
1.000000 0.853568 0.757615
1.000000 0.955244 0.915548
0.000000 0.391150 0.490269
0.000000 0.369795 0.455856
0.000000 0.338378 0.436549
0.229805 0.317563 0.390623
0.769322 0.220386 0.283592
1.000000 0.226527 0.276139
1.000000 0.600132 0.474400
1.000000 0.855676 0.757615
1.000000 0.955244 0.915548
0.000000 0.635306 0.428404
0.000000 0.635359 0.392769
0.000000 0.642771 0.343375
0.000000 0.643417 0.255079
0.739004 0.608362 0.146612
1.000000 0.583444 0.240902
1.000000 0.681472 0.470340
1.000000 0.866598 0.760429
1.000000 0.957121 0.915896
0.000000 0.871170 0.000000
0.000000 0.870727 0.000000
0.000000 0.869913 0.000000
0.000000 0.861426 0.000000
0.789952 0.827380 0.000000
1.000000 0.793618 0.000000
1.000000 0.857739 0.424834
1.000000 0.898255 0.759065
1.000000 0.961772 0.916317
0.792563 0.931423 0.000000
0.806251 0.929580 0.000000
0.821928 0.928728 0.000000
0.866956 0.925035 0.000000
0.970502 0.916389 0.000000
1.000000 0.911047 0.300904
1.000000 0.922583 0.666557
1.000000 0.961037 0.735276
1.000000 0.974187 0.915689
0.995173 0.979995 0.360356
0.995911 0.979945 0.361580
0.997618 0.979362 0.361780
1.000000 0.979123 0.371236
1.000000 0.977825 0.408611
1.000000 0.976357 0.502547
1.000000 0.975202 0.728915
1.000000 0.979168 0.884254
1.000000 0.996569 0.901917
1.000000 0.999619 0.746452
1.000000 0.999588 0.749226
1.000000 0.999588 0.749226
1.000000 0.999574 0.750606
1.000000 0.999320 0.756093
1.000000 0.998964 0.773363
1.000000 0.998822 0.821910
1.000000 0.998372 0.904526
1.000000 0.998322 0.941985
0.000000 0.000000 0.377109
0.000000 0.000000 0.153835
0.066798 0.000000 0.101422
0.337228 0.000000 0.096382
0.857883 0.000000 0.099816
1.000000 0.000000 0.431037
1.000000 0.532621 0.569936
1.000000 0.849915 0.780464
1.000000 0.954807 0.919122
0.000000 0.000000 0.357080
0.000000 0.000000 0.223416
0.010225 0.000000 0.164348
0.303617 0.000000 0.139526
0.857883 0.000000 0.099816
1.000000 0.000000 0.450022
1.000000 0.538354 0.572800
1.000000 0.850967 0.780447
1.000000 0.954807 0.919122
0.000000 0.056372 0.455327
0.000000 0.055920 0.365271
0.000000 0.047724 0.307944
0.249395 0.000000 0.289647
0.732829 0.000000 0.215964
1.000000 0.000000 0.472284
1.000000 0.548550 0.576117
1.000000 0.852018 0.780430
1.000000 0.954807 0.919122
0.000000 0.289955 0.646098
0.000000 0.263497 0.579698
0.000000 0.239051 0.536337
0.000000 0.216546 0.536757
0.738792 0.000000 0.499073
1.000000 0.114000 0.521298
1.000000 0.580858 0.580983
1.000000 0.855149 0.782165
1.000000 0.955220 0.919122
0.000000 0.733347 0.817082
0.000000 0.700929 0.793388
0.000000 0.667395 0.775392
0.000000 0.655108 0.760781
0.572717 0.616122 0.711089
1.000000 0.564221 0.585212
1.000000 0.671290 0.588215
1.000000 0.864870 0.783135
1.000000 0.956870 0.919129
0.000000 0.903269 0.738727
0.000000 0.901414 0.729269
0.000000 0.901073 0.722836
0.000000 0.901206 0.682077
0.411309 0.889862 0.583347
0.954135 0.859198 0.488693
1.000000 0.859042 0.584853
1.000000 0.896853 0.785768
1.000000 0.961154 0.919487
0.000000 0.986462 0.223654
0.000000 0.986327 0.219455
0.000000 0.985615 0.217775
0.359017 0.981546 0.199279
0.664838 0.973159 0.176262
0.955283 0.954395 0.175765
1.000000 0.943298 0.427448
1.000000 0.961098 0.779337
1.000000 0.973814 0.919711
0.993943 0.979611 0.354626
0.994699 0.979560 0.355848
0.996184 0.979461 0.358318
1.000000 0.979170 0.369335
1.000000 0.977969 0.400383
1.000000 0.975886 0.498445
1.000000 0.975172 0.726634
1.000000 0.979168 0.884254
1.000000 0.996516 0.908494
1.000000 0.999619 0.746452
1.000000 0.999619 0.746452
1.000000 0.999588 0.749226
1.000000 0.999574 0.750606
1.000000 0.999334 0.754735
1.000000 0.998964 0.773363
1.000000 0.998822 0.821910
1.000000 0.998372 0.904526
1.000000 0.998322 0.941985
0.000000 0.000000 0.315345
0.000000 0.000000 0.199119
0.069961 0.000000 0.165481
0.279218 0.000000 0.153514
0.722571 0.000000 0.153603
1.000000 0.000000 0.204190
1.000000 0.424863 0.760995
1.000000 0.842882 0.842756
1.000000 0.953645 0.930766
0.000000 0.000000 0.343415
0.000000 0.000000 0.226813
0.053659 0.000000 0.187770
0.279218 0.000000 0.153514
0.722571 0.000000 0.153603
1.000000 0.000000 0.204190
1.000000 0.430911 0.763410
1.000000 0.843975 0.842709
1.000000 0.953645 0.930766
0.000000 0.000000 0.504631
0.000000 0.000000 0.411617
0.000000 0.000000 0.365507
0.181617 0.000000 0.329102
0.638219 0.000000 0.239490
1.000000 0.000000 0.204190
1.000000 0.445558 0.768364
1.000000 0.845068 0.842662
1.000000 0.953645 0.930766
0.000000 0.247239 0.760823
0.000000 0.228025 0.697162
0.000000 0.215079 0.667481
0.000000 0.196597 0.656561
0.596196 0.000000 0.634828
1.000000 0.000000 0.539274
1.000000 0.500318 0.788139
1.000000 0.850491 0.844000
1.000000 0.954480 0.930751
0.000000 0.592804 0.900885
0.000000 0.563168 0.873529
0.000000 0.537510 0.860531
0.000000 0.522530 0.856960
0.430828 0.487634 0.849645
1.000000 0.362732 0.818563
1.000000 0.623920 0.821613
1.000000 0.862791 0.848506
1.000000 0.955730 0.930732
0.000000 0.946791 0.965509
0.000000 0.938171 0.958773
0.000000 0.924792 0.949934
0.000000 0.912269 0.949009
0.000000 0.901578 0.937766
0.882261 0.864002 0.908022
1.000000 0.847405 0.857869
1.000000 0.894089 0.856466
1.000000 0.960473 0.930921
0.000000 0.998033 0.927472
0.000000 0.998223 0.926418
0.000000 0.997658 0.925349
0.000000 0.995677 0.918839
0.351575 0.988045 0.903428
0.838835 0.973873 0.855622
1.000000 0.962852 0.814217
1.000000 0.961965 0.861157
1.000000 0.973276 0.931375
0.780757 1.000000 0.674656
0.783261 1.000000 0.673041
0.788026 1.000000 0.673166
0.799693 1.000000 0.671830
0.837588 1.000000 0.665084
0.914176 1.000000 0.652880
1.000000 0.996002 0.658785
1.000000 0.992390 0.783903
1.000000 0.996378 0.927167
1.000000 0.999650 0.743662
1.000000 0.999650 0.743662
1.000000 0.999634 0.745059
1.000000 0.999619 0.746452
1.000000 0.999362 0.752003
1.000000 0.998975 0.772077
1.000000 0.998828 0.820728
1.000000 0.998220 0.904327
1.000000 0.998186 0.941916
0.000000 0.000000 0.264213
0.041201 0.000000 0.252136
0.129401 0.000000 0.240073
0.307406 0.000000 0.229711
0.619928 0.000000 0.219029
1.000000 0.000000 0.251941
1.000000 0.241664 0.380322
1.000000 0.798332 0.929299
1.000000 0.950829 0.960494
0.000000 0.000000 0.264215
0.038987 0.000000 0.252142
0.129401 0.000000 0.240073
0.307406 0.000000 0.229711
0.619928 0.000000 0.219029
1.000000 0.000000 0.251941
1.000000 0.241664 0.380322
1.000000 0.799545 0.930222
1.000000 0.950829 0.960494
0.000000 0.000000 0.264218
0.034077 0.000000 0.252156
0.128012 0.000000 0.240091
0.307406 0.000000 0.229711
0.619928 0.000000 0.219029
1.000000 0.000000 0.251941
1.000000 0.241664 0.380322
1.000000 0.801828 0.931164
1.000000 0.950829 0.960494
0.000000 0.172219 0.785603
0.000000 0.171092 0.766341
0.000000 0.162630 0.759846
0.000000 0.148795 0.746082
0.469282 0.000000 0.700063
1.000000 0.000000 0.457384
1.000000 0.241664 0.380322
1.000000 0.811482 0.934458
1.000000 0.951956 0.960534
0.000000 0.502039 0.929523
0.000000 0.498390 0.927006
0.000000 0.494747 0.925810
0.000000 0.483471 0.923475
0.181098 0.459773 0.920123
0.953372 0.326218 0.910874
1.000000 0.295861 0.863175
1.000000 0.831662 0.942397
1.000000 0.953680 0.960997
0.000000 0.862534 0.983591
0.000000 0.849232 0.980904
0.000000 0.844509 0.977351
0.000000 0.839471 0.978956
0.000000 0.824905 0.979105
0.795990 0.781506 0.973470
1.000000 0.733564 0.961451
1.000000 0.875192 0.953365
1.000000 0.959207 0.962540
0.000000 1.000000 1.000000
0.000000 1.000000 1.000000
0.000000 1.000000 1.000000
0.000000 1.000000 1.000000
0.000000 0.999960 1.000000
0.712299 0.979928 0.994868
0.978392 0.962726 0.985357
1.000000 0.958320 0.968432
1.000000 0.973054 0.963915
0.656099 1.000000 0.992236
0.658869 1.000000 0.992227
0.664317 1.000000 0.991912
0.677831 1.000000 0.991264
0.727047 1.000000 0.989527
0.833029 1.000000 0.984292
0.963509 1.000000 0.970115
1.000000 0.997940 0.950512
1.000000 0.996815 0.965334
0.943148 1.000000 0.881986
0.943148 1.000000 0.881986
0.943965 1.000000 0.882016
0.945582 1.000000 0.882078
0.948796 1.000000 0.881496
0.960772 1.000000 0.877898
0.988614 1.000000 0.872490
1.000000 1.000000 0.879016
1.000000 1.000000 0.915068
0.251456 0.000000 0.333351
0.273434 0.000000 0.327870
0.317588 0.000000 0.322151
0.425186 0.000000 0.323231
0.667799 0.000000 0.314814
1.000000 0.000000 0.331070
1.000000 0.000000 0.420147
1.000000 0.691534 0.639591
1.000000 0.932719 0.994524
0.251456 0.000000 0.333351
0.273434 0.000000 0.327870
0.314892 0.000000 0.322188
0.425186 0.000000 0.323231
0.667799 0.000000 0.314814
1.000000 0.000000 0.331070
1.000000 0.000000 0.420147
1.000000 0.691534 0.639591
1.000000 0.932719 0.994524
0.249145 0.000000 0.333381
0.271010 0.000000 0.327903
0.314892 0.000000 0.322188
0.425186 0.000000 0.323231
0.667799 0.000000 0.314814
1.000000 0.000000 0.331070
1.000000 0.000000 0.420147
1.000000 0.691534 0.639591
1.000000 0.933186 0.994491
0.246846 0.000000 0.333411
0.268299 0.000000 0.330526
0.312215 0.000000 0.322225
0.421723 0.000000 0.323278
0.667799 0.000000 0.314814
1.000000 0.000000 0.331070
1.000000 0.000000 0.420147
1.000000 0.691534 0.639591
1.000000 0.934577 0.995261
0.000000 0.443785 0.969611
0.000000 0.446994 0.968428
0.000000 0.446602 0.967370
0.000000 0.434638 0.967599
0.301873 0.409346 0.964766
0.864543 0.264486 0.948972
1.000000 0.000000 0.853215
1.000000 0.691534 0.639591
1.000000 0.938173 0.995866
0.000000 0.815947 1.000000
0.000000 0.813291 1.000000
0.000000 0.810540 1.000000
0.000000 0.812390 1.000000
0.000000 0.793868 1.000000
0.665849 0.759349 1.000000
1.000000 0.696749 0.999531
1.000000 0.748070 0.980395
1.000000 0.947486 0.997090
0.000000 0.985086 1.000000
0.000000 0.983520 1.000000
0.000000 0.981813 1.000000
0.000000 0.981877 1.000000
0.000000 0.975099 1.000000
0.560260 0.956757 1.000000
0.955790 0.929546 1.000000
1.000000 0.916559 1.000000
1.000000 0.965749 0.999684
0.399619 1.000000 1.000000
0.399619 1.000000 1.000000
0.390688 1.000000 1.000000
0.000000 1.000000 1.000000
0.349096 1.000000 1.000000
0.671439 1.000000 1.000000
0.924227 1.000000 1.000000
1.000000 0.998181 1.000000
1.000000 0.995716 1.000000
0.892719 1.000000 1.000000
0.892719 1.000000 1.000000
0.893660 1.000000 1.000000
0.896442 1.000000 1.000000
0.901911 1.000000 1.000000
0.918711 1.000000 1.000000
0.956397 1.000000 1.000000
1.000000 1.000000 1.000000
1.000000 1.000000 0.997361
0.636671 0.000000 0.430718
0.648884 0.000000 0.430693
0.660985 0.000000 0.430674
0.707774 0.000000 0.427302
0.834604 0.000000 0.434247
1.000000 0.000000 0.435981
1.000000 0.000000 0.483516
1.000000 0.580319 0.624720
1.000000 0.872408 0.846835
0.632578 0.000000 0.430728
0.648884 0.000000 0.430693
0.656962 0.000000 0.430680
0.707774 0.000000 0.427302
0.834604 0.000000 0.434247
1.000000 0.000000 0.435981
1.000000 0.000000 0.483516
1.000000 0.580319 0.624720
1.000000 0.872408 0.846835
0.632578 0.000000 0.430728
0.648884 0.000000 0.430693
0.656962 0.000000 0.430680
0.707774 0.000000 0.427302
0.834604 0.000000 0.434247
1.000000 0.000000 0.435981
1.000000 0.000000 0.483516
1.000000 0.580319 0.624720
1.000000 0.872408 0.846835
0.632578 0.000000 0.430728
0.644824 0.000000 0.430701
0.656962 0.000000 0.430680
0.703933 0.000000 0.427302
0.834604 0.000000 0.434247
1.000000 0.000000 0.435981
1.000000 0.000000 0.483516
1.000000 0.580319 0.624720
1.000000 0.872408 0.846835
0.628476 0.000000 0.430738
0.644824 0.000000 0.430701
0.652927 0.000000 0.430687
0.703933 0.000000 0.427302
0.830405 0.000000 0.430891
1.000000 0.000000 0.435837
1.000000 0.000000 0.483516
1.000000 0.580319 0.624720
1.000000 0.872408 0.846835
0.000000 0.758803 1.000000
0.000000 0.755472 1.000000
0.000000 0.758156 1.000000
0.000000 0.756613 1.000000
0.276699 0.743875 1.000000
0.735354 0.713741 1.000000
1.000000 0.642746 1.000000
1.000000 0.552341 0.990787
1.000000 0.872408 0.846835
0.000000 0.965818 1.000000
0.000000 0.966558 1.000000
0.000000 0.966001 1.000000
0.000000 0.963918 1.000000
0.000000 0.958089 1.000000
0.600151 0.943790 1.000000
0.907538 0.923908 1.000000
1.000000 0.902269 1.000000
1.000000 0.912344 1.000000
0.000000 1.000000 1.000000
0.000000 1.000000 1.000000
0.000000 1.000000 1.000000
0.000000 1.000000 1.000000
0.295228 1.000000 1.000000
0.634620 1.000000 1.000000
0.871175 0.996004 1.000000
1.000000 0.987065 1.000000
1.000000 0.981281 1.000000
0.766170 1.000000 1.000000
0.766170 1.000000 1.000000
0.766170 1.000000 1.000000
0.766170 1.000000 1.000000
0.729655 1.000000 1.000000
0.795750 1.000000 1.000000
0.889446 1.000000 1.000000
0.987768 1.000000 1.000000
1.000000 1.000000 1.000000
