Assets/Lutify-Free-LUTs-Pack/Lutify Free LUTs Pack/Cine World Pro Warm - Amy/Lutify.me-Amy-ProTune-to-Rec709.cube
# Created with: fylm.ai - Colour Grading and Collaboration Software in Cloud 
# Website: https://fylm.ai 
# META
# Option: Gamut compress
# Block 1: IDT | GoPro ProTune Native ProTune Flat
# Block 2: colourMatch | Blending Mode: Normal | {"ColorSpace":0,"CrossCovarianceLimit":50,"ReshapingIterations":1,"PercentSaturationShift":100,"PercentShadingShift":100,"ExtraShading":true,"PercentTint":100,"PercentModified":100}
# Block 3: LUT | Filmic Curve Response: Standard Contrast 1 (100%)
# Block 4: LUT | Illuminant: D60 (100%)
# Block 5: hueSaturation | Blending Mode: Normal | {"hue":0,"saturation":-0.15}
# Block 6: logPrimaries | Blending Mode: Normal | {"wheels":{"shadows":{"Y":"0","R":"1","G":"1","B":"1"},"midtones":{"Y":"0","R":"1","G":"1","B":"1"},"highlights":{"Y":"0","R":"1","G":"1","B":"1"},"offset":{"Y":"0","R":"1","G":"1","B":"1"}},"sliders":{"shadows":{"Y":0,"R":-0.097,"G":0,"B":0.158},"midtones":{"Y":0,"R":0.024,"G":0.024,"B":-0.036},"highlights":{"Y":0,"R":0.154,"G":-0.084,"B":-0.024},"offset":{"Y":0.048,"R":0,"G":0,"B":0}}}
# Block 7: smartCurves | Blending Mode: Average | [[{"x":0,"y":0},{"x":0.11328125,"y":0.085540771484375},{"x":0.21484375,"y":0.218353271484375},{"x":0.37109375,"y":0.382415771484375},{"x":0.62109375,"y":0.589447021484375},{"x":0.8125,"y":0.765228271484375},{"x":1,"y":1}],[{"x":0,"y":0},{"x":1,"y":1}],[{"x":0,"y":0},{"x":1,"y":1}],[{"x":0,"y":0},{"x":1,"y":1}]]
# Block 8: LUT | Neutral Tint: Teal Tint 4 (100%)
# Block 9: contrast | Blending Mode: Normal | {"contrast":0.1}
# Block 10: ODT | Rec709
TITLE "Lutify.me-Amy-ProTune-to-Rec709" 
LUT_3D_SIZE 9
0.000000 0.000000 0.000000
0.000000 0.000000 0.000000
0.070922 0.000000 0.000000
0.149077 0.000000 0.000000
0.253363 0.000000 0.000000
0.362991 0.000000 0.020943
0.523961 0.000000 0.031714
0.699397 0.000000 0.052523
0.907825 0.000000 0.096382
0.000000 0.002792 0.000000
0.000000 0.000000 0.014361
0.080700 0.000000 0.000000
0.147706 0.000000 0.000000
0.244303 0.000000 0.000000
0.360435 0.000000 0.023191
0.516469 0.000000 0.035554
0.695233 0.000000 0.057031
0.904105 0.000000 0.102497
0.000000 0.071082 0.000000
0.000000 0.065473 0.000000
0.076921 0.056912 0.000000
0.158069 0.031810 0.000000
0.253009 0.000000 0.000000
0.360288 0.000000 0.023441
0.509111 0.000000 0.038946
0.691049 0.000000 0.061976
0.907674 0.000000 0.111876
0.000000 0.133716 0.000000
0.000000 0.129954 0.000000
0.090809 0.121540 0.000000
0.194781 0.107607 0.000000
0.302751 0.070007 0.000000
0.387881 0.000000 0.000000
0.520479 0.000000 0.034186
0.703571 0.000000 0.062526
0.907208 0.000000 0.117071
0.000000 0.203132 0.000000
0.057210 0.198739 0.000000
0.161354 0.193600 0.000000
0.279043 0.179140 0.000000
0.378886 0.160672 0.000000
0.475260 0.130047 0.000000
0.578159 0.065173 0.000000
0.720110 0.000000 0.051339
0.923399 0.000000 0.120727
0.189299 0.288578 0.000000
0.243387 0.281448 0.000000
0.307364 0.274760 0.000000
0.403073 0.258105 0.000000
0.521115 0.230952 0.000000
0.646291 0.200866 0.000000
0.706888 0.220070 0.000000
0.779202 0.202289 0.000000
0.935959 0.000000 0.104850
0.395157 0.384699 0.000000
0.427822 0.382546 0.000000
0.470329 0.376029 0.000000
0.543147 0.362746 0.000000
0.636429 0.348889 0.000000
0.760459 0.324471 0.000000
0.906506 0.290644 0.000000
0.910470 0.336474 0.000000
0.950906 0.369239 0.000000
0.617730 0.511080 0.000000
0.642249 0.509167 0.000000
0.671076 0.506803 0.000000
0.718359 0.498861 0.000000
0.784273 0.488791 0.000000
0.865736 0.477151 0.000000
0.959846 0.462142 0.000000
1.000000 0.446499 0.000000
1.000000 0.510769 0.000000
0.851608 0.630935 0.000000
0.855032 0.630687 0.000000
0.861732 0.630205 0.000000
0.883647 0.628697 0.000000
0.911966 0.623093 0.000000
0.950829 0.617521 0.000000
1.000000 0.617474 0.000000
1.000000 0.615283 0.000000
1.000000 0.609917 0.000000
0.000000 0.000000 0.028803
0.000000 0.000000 0.023575
0.047753 0.000000 0.023898
0.134210 0.000000 0.026087
0.233819 0.000000 0.030048
0.355597 0.000000 0.034534
0.516625 0.000000 0.040746
0.699547 0.000000 0.059307
0.904210 0.000000 0.100898
0.000000 0.000000 0.041422
0.000000 0.000000 0.035690
0.054513 0.000000 0.025680
0.131590 0.000000 0.026078
0.230551 0.000000 0.030857
0.348113 0.000000 0.036462
0.509280 0.000000 0.044359
0.691225 0.000000 0.066042
0.904187 0.000000 0.107303
0.000000 0.068202 0.012881
0.000000 0.066529 0.000000
0.056440 0.058756 0.009552
0.137323 0.041389 0.021350
0.231534 0.000000 0.030371
0.347811 0.000000 0.037181
0.501996 0.000000 0.049691
0.687067 0.000000 0.071964
0.907790 0.000000 0.119135
0.000000 0.139450 0.000000
0.000000 0.134573 0.000000
0.057192 0.126659 0.000000
0.165769 0.116506 0.000000
0.268005 0.089325 0.000000
0.371230 0.000000 0.024467
0.512998 0.000000 0.048013
0.699544 0.000000 0.074771
0.907340 0.000000 0.125837
0.000000 0.220672 0.000000
0.000000 0.218166 0.000000
0.079704 0.212712 0.000000
0.233363 0.196085 0.000000
0.342715 0.176724 0.000000
0.432674 0.156435 0.000000
0.570064 0.073999 0.000000
0.720083 0.000000 0.066727
0.923456 0.000000 0.130216
0.185736 0.288715 0.000000
0.240101 0.281634 0.000000
0.297310 0.275552 0.000000
0.380656 0.265457 0.000000
0.476427 0.250668 0.000000
0.593272 0.236689 0.000000
0.663367 0.237111 0.000000
0.762539 0.211488 0.000000
0.932653 0.000000 0.116906
0.395157 0.384699 0.000000
0.423179 0.382867 0.000000
0.470329 0.376029 0.000000
0.534445 0.363610 0.000000
0.636429 0.348889 0.000000
0.760459 0.324471 0.000000
0.906506 0.290644 0.000000
0.883269 0.356616 0.000000
0.948052 0.369550 0.000000
0.612774 0.511455 0.000000
0.637379 0.509554 0.000000
0.666319 0.507201 0.000000
0.718359 0.498861 0.000000
0.784273 0.488791 0.000000
0.865736 0.477151 0.000000
0.959846 0.462142 0.000000
1.000000 0.446499 0.000000
1.000000 0.521986 0.000000
0.851608 0.630935 0.000000
0.855032 0.630687 0.000000
0.861732 0.630205 0.000000
0.883647 0.628697 0.000000
0.911966 0.623093 0.000000
0.950829 0.617521 0.000000
1.000000 0.617474 0.000000
1.000000 0.615030 0.000000
1.000000 0.609917 0.000000
0.000000 0.000000 0.056920
0.000000 0.000000 0.050015
0.037026 0.000000 0.048562
0.117416 0.000000 0.048645
0.225462 0.000000 0.049154
0.353274 0.000000 0.049318
0.513332 0.000000 0.052685
0.695664 0.000000 0.071827
0.904376 0.000000 0.110500
0.000000 0.000000 0.071105
0.000000 0.000000 0.063804
0.042391 0.000000 0.058510
0.112946 0.000000 0.054034
0.215870 0.000000 0.053875
0.333821 0.000000 0.054720
0.502510 0.000000 0.059481
0.687483 0.000000 0.081288
0.900671 0.000000 0.117318
0.000000 0.072519 0.106313
0.000000 0.066746 0.097935
0.024885 0.059853 0.087230
0.106098 0.045092 0.076222
0.213407 0.000000 0.066587
0.329363 0.000000 0.061983
0.495384 0.000000 0.068307
0.683396 0.000000 0.088851
0.907978 0.000000 0.128953
0.000000 0.144112 0.065873
0.000000 0.140279 0.059327
0.000000 0.138448 0.053448
0.109602 0.126555 0.054874
0.229211 0.105771 0.060457
0.344503 0.000000 0.066661
0.502360 0.000000 0.073338
0.695886 0.000000 0.098070
0.907586 0.000000 0.139916
0.000000 0.229749 0.000000
0.000000 0.227667 0.000000
0.000000 0.226758 0.000000
0.140203 0.217587 0.000000
0.272251 0.204451 0.000000
0.389417 0.176122 0.000000
0.542604 0.109677 0.049025
0.715896 0.000000 0.092243
0.920145 0.000000 0.146704
0.000000 0.321723 0.000000
0.000000 0.320734 0.000000
0.146582 0.313535 0.000000
0.250607 0.307203 0.000000
0.375700 0.295675 0.000000
0.501458 0.279091 0.000000
0.613057 0.268393 0.000000
0.753726 0.217925 0.000000
0.929402 0.000000 0.136649
0.390497 0.384985 0.000000
0.424497 0.379476 0.000000
0.466854 0.372992 0.000000
0.534445 0.363610 0.000000
0.632568 0.345905 0.000000
0.736617 0.339122 0.000000
0.811514 0.347124 0.000000
0.828946 0.383608 0.000000
0.941825 0.374383 0.000000
0.612774 0.511455 0.000000
0.637379 0.509554 0.000000
0.667343 0.503336 0.000000
0.713818 0.499273 0.000000
0.784273 0.488791 0.000000
0.862413 0.477453 0.000000
0.959846 0.462142 0.000000
1.000000 0.446499 0.000000
0.981108 0.537963 0.000000
0.848134 0.631189 0.000000
0.851608 0.630935 0.000000
0.861732 0.630205 0.000000
0.883647 0.628697 0.000000
0.911966 0.623093 0.000000
0.950829 0.617521 0.000000
1.000000 0.613485 0.000000
1.000000 0.615030 0.000000
1.000000 0.609917 0.000000
0.000000 0.000000 0.085061
0.000000 0.000000 0.075171
0.000000 0.000000 0.067553
0.099192 0.000000 0.065223
0.220893 0.000000 0.063386
0.345719 0.000000 0.066791
0.510469 0.000000 0.072171
0.687862 0.000000 0.088444
0.901101 0.000000 0.132608
0.000000 0.000000 0.098659
0.000000 0.000000 0.088689
0.018928 0.000000 0.082333
0.102493 0.000000 0.079008
0.211692 0.000000 0.074291
0.331591 0.000000 0.078016
0.492120 0.000000 0.083869
0.684097 0.000000 0.100120
0.901138 0.000000 0.139508
0.000000 0.071814 0.160675
0.000000 0.064287 0.155569
0.000000 0.056522 0.148031
0.095074 0.037717 0.132714
0.206539 0.000000 0.113147
0.325498 0.000000 0.103252
0.488890 0.000000 0.102676
0.680672 0.000000 0.118940
0.901124 0.000000 0.152949
0.000000 0.147475 0.201175
0.000000 0.146608 0.193339
0.000000 0.140463 0.184296
0.060734 0.128255 0.170765
0.203806 0.101936 0.150000
0.330986 0.000000 0.139228
0.500525 0.000000 0.124036
0.684983 0.000000 0.135902
0.904506 0.000000 0.168885
0.000000 0.241044 0.158806
0.000000 0.242897 0.149704
0.000000 0.242536 0.138385
0.000000 0.238720 0.126428
0.202154 0.223892 0.122817
0.354472 0.195763 0.123878
0.520675 0.123235 0.130864
0.699778 0.000000 0.142254
0.917062 0.000000 0.176360
0.000000 0.346681 0.000000
0.000000 0.349096 0.000000
0.000000 0.348355 0.000000
0.000000 0.343943 0.000000
0.227215 0.334012 0.000000
0.403766 0.314382 0.000000
0.576332 0.286260 0.014521
0.743616 0.224631 0.116478
0.922340 0.000000 0.175477
0.000000 0.444168 0.000000
0.117628 0.440028 0.000000
0.200504 0.438856 0.000000
0.276390 0.443748 0.000000
0.392431 0.439040 0.000000
0.530235 0.430107 0.000000
0.671298 0.413443 0.000000
0.792816 0.411259 0.000000
0.934668 0.383473 0.124473
0.607800 0.511828 0.000000
0.628796 0.506476 0.000000
0.667343 0.503336 0.000000
0.713818 0.499273 0.000000
0.780152 0.489190 0.000000
0.862745 0.473501 0.000000
0.955410 0.458353 0.000000
0.971744 0.497912 0.000000
0.953429 0.558491 0.000000
0.848134 0.631189 0.000000
0.851608 0.630935 0.000000
0.861732 0.630205 0.000000
0.883647 0.628697 0.000000
0.911966 0.623093 0.000000
0.950829 0.617521 0.000000
1.000000 0.613485 0.000000
1.000000 0.615030 0.000000
1.000000 0.609917 0.000000
0.000000 0.000000 0.122085
0.000000 0.000000 0.109645
0.000000 0.000000 0.096202
0.084680 0.000000 0.090992
0.201445 0.000000 0.086860
0.345869 0.000000 0.077042
0.514038 0.000000 0.084345
0.701268 0.000000 0.104652
0.901800 0.000000 0.158539
0.000000 0.000000 0.140546
0.000000 0.000000 0.127331
0.000000 0.000000 0.117268
0.085367 0.000000 0.110976
0.195652 0.000000 0.100755
0.329840 0.000000 0.091197
0.495763 0.000000 0.101801
0.680281 0.000000 0.125283
0.898417 0.000000 0.173648
0.000000 0.052442 0.182914
0.000000 0.048016 0.179960
0.000000 0.042417 0.166943
0.080018 0.025187 0.162617
0.193082 0.000000 0.147644
0.326698 0.000000 0.130096
0.482867 0.000000 0.137661
0.672252 0.000000 0.154671
0.894677 0.000000 0.191414
0.000000 0.144452 0.273826
0.000000 0.137522 0.267778
0.000000 0.133830 0.265863
0.000000 0.118410 0.262094
0.184295 0.092687 0.244053
0.337522 0.000000 0.214933
0.494164 0.000000 0.189013
0.677197 0.000000 0.190625
0.901920 0.000000 0.210910
0.000000 0.252560 0.318291
0.000000 0.248581 0.313425
0.000000 0.248541 0.308436
0.000000 0.240054 0.294225
0.145444 0.230164 0.282157
0.319637 0.198910 0.266767
0.514880 0.120857 0.231957
0.693704 0.000000 0.216719
0.907561 0.000000 0.231482
0.000000 0.376656 0.276854
0.000000 0.376634 0.269667
0.000000 0.373413 0.260653
0.000000 0.369662 0.251934
0.000000 0.361349 0.237174
0.323945 0.345265 0.231980
0.525915 0.307964 0.223660
0.714366 0.242636 0.226375
0.912327 0.000000 0.241841
0.000000 0.495867 0.000000
0.000000 0.495618 0.000000
0.000000 0.495120 0.000000
0.000000 0.493927 0.000000
0.047975 0.491753 0.000000
0.379164 0.478104 0.000000
0.584812 0.461786 0.032874
0.759650 0.434271 0.146065
0.923354 0.393032 0.214543
0.114198 0.606242 0.000000
0.170178 0.605793 0.000000
0.241983 0.604822 0.000000
0.323361 0.606787 0.000000
0.420176 0.603805 0.000000
0.539144 0.598545 0.000000
0.668367 0.590651 0.000000
0.830462 0.581905 0.000000
0.936676 0.582964 0.000000
0.842030 0.627753 0.000000
0.852565 0.626975 0.000000
0.862654 0.626245 0.000000
0.881524 0.624936 0.000000
0.909371 0.623234 0.000000
0.949331 0.613646 0.000000
1.000000 0.613485 0.000000
1.000000 0.611179 0.000000
1.000000 0.662774 0.000000
0.000000 0.000000 0.171597
0.000000 0.000000 0.163197
0.000000 0.000000 0.147722
0.060116 0.000000 0.134513
0.176901 0.000000 0.125029
0.324515 0.000000 0.108472
0.529288 0.000000 0.087165
0.722662 0.000000 0.113190
0.909686 0.000000 0.172603
0.000000 0.026196 0.194292
0.000000 0.021143 0.184907
0.000000 0.014791 0.171578
0.055734 0.000000 0.162972
0.172339 0.000000 0.156682
0.318550 0.000000 0.130277
0.514180 0.000000 0.105091
0.697085 0.000000 0.134098
0.898364 0.000000 0.194753
0.000000 0.053647 0.235280
0.000000 0.052153 0.226446
0.000000 0.048013 0.223103
0.000000 0.038217 0.216251
0.170022 0.000000 0.201927
0.314339 0.000000 0.178757
0.484338 0.000000 0.152149
0.668729 0.000000 0.181453
0.898222 0.000000 0.230542
0.000000 0.118594 0.306393
0.000000 0.114738 0.301774
0.000000 0.106961 0.297346
0.000000 0.094161 0.293009
0.163740 0.065214 0.283716
0.318927 0.000000 0.262704
0.487441 0.000000 0.232208
0.673349 0.000000 0.249505
0.886828 0.000000 0.269836
0.000000 0.246836 0.406485
0.000000 0.246802 0.406504
0.000000 0.240702 0.403451
0.000000 0.230397 0.400571
0.056939 0.219930 0.387942
0.309760 0.180296 0.372860
0.520655 0.000000 0.338319
0.692899 0.000000 0.307193
0.897204 0.000000 0.311183
0.000000 0.378724 0.459035
0.000000 0.378686 0.452056
0.000000 0.378504 0.445140
0.000000 0.374853 0.441912
0.000000 0.367027 0.425153
0.253016 0.349617 0.429281
0.501142 0.308817 0.390357
0.704265 0.232549 0.366744
0.903260 0.000000 0.343780
0.000000 0.520722 0.405623
0.000000 0.520570 0.402220
0.000000 0.520253 0.398860
0.000000 0.523002 0.395340
0.000000 0.521363 0.378596
0.244478 0.509873 0.369580
0.495791 0.489154 0.358133
0.711205 0.454570 0.351055
0.906378 0.398940 0.361737
0.000000 0.665808 0.183174
0.000000 0.665607 0.180057
0.000000 0.664919 0.177100
0.000000 0.664000 0.167646
0.000000 0.661793 0.161718
0.339401 0.657882 0.159495
0.540047 0.643318 0.170394
0.755667 0.626298 0.202938
0.911520 0.592284 0.264469
0.347773 0.759562 0.000000
0.366034 0.759161 0.000000
0.388369 0.761768 0.000000
0.428847 0.760698 0.000000
0.487734 0.758869 0.000000
0.571654 0.758810 0.000000
0.707108 0.748979 0.000000
0.831947 0.737998 0.000000
0.932361 0.735090 0.000000
0.000000 0.029787 0.241054
0.000000 0.027764 0.232037
0.000000 0.023027 0.223376
0.000000 0.000000 0.211562
0.135579 0.000000 0.199420
0.296874 0.000000 0.174798
0.493422 0.000000 0.133006
0.789885 0.000000 0.087433
0.943780 0.000000 0.144841
0.000000 0.043983 0.266129
0.000000 0.042031 0.260117
0.000000 0.039775 0.252303
0.000000 0.031862 0.240909
0.131656 0.000000 0.231062
0.296600 0.000000 0.207392
0.481915 0.000000 0.159994
0.752176 0.000000 0.106563
0.923971 0.000000 0.171643
0.000000 0.067645 0.300566
0.000000 0.067161 0.298277
0.000000 0.063978 0.291512
0.000000 0.055692 0.289332
0.119206 0.027264 0.277952
0.289387 0.000000 0.263202
0.472170 0.000000 0.216012
0.692949 0.000000 0.152171
0.898256 0.000000 0.226921
0.000000 0.111626 0.358585
0.000000 0.111685 0.355787
0.000000 0.107508 0.355892
0.000000 0.098522 0.350543
0.100590 0.080681 0.350421
0.292853 0.000000 0.335510
0.481552 0.000000 0.305315
0.659154 0.000000 0.255562
0.884078 0.000000 0.303967
0.000000 0.217378 0.455078
0.000000 0.217346 0.455087
0.000000 0.213619 0.455226
0.000000 0.199239 0.452241
0.000000 0.178175 0.452718
0.284245 0.140568 0.432029
0.502273 0.000000 0.401511
0.692328 0.000000 0.370018
0.885490 0.000000 0.377007
0.000000 0.377935 0.571416
0.000000 0.374822 0.571562
0.000000 0.368672 0.568135
0.000000 0.365334 0.560891
0.000000 0.357886 0.553782
0.211672 0.337954 0.539572
0.485857 0.293432 0.521786
0.708899 0.190661 0.487050
0.896502 0.000000 0.450522
0.000000 0.534574 0.616127
0.000000 0.534444 0.616140
0.000000 0.530502 0.616358
0.000000 0.529857 0.616390
0.000000 0.528534 0.605141
0.000000 0.513979 0.583258
0.407002 0.502882 0.583403
0.673596 0.455899 0.540533
0.890171 0.390742 0.514017
0.000000 0.688276 0.573302
0.000000 0.688001 0.569555
0.000000 0.691431 0.565577
0.000000 0.686792 0.558352
0.000000 0.681215 0.547436
0.061954 0.678213 0.536364
0.416837 0.669156 0.533166
0.681494 0.645522 0.512585
0.864817 0.610832 0.504609
0.000000 0.804672 0.332657
0.000000 0.804375 0.332728
0.000000 0.803916 0.332839
0.000000 0.800492 0.333156
0.259851 0.798751 0.329898
0.389770 0.796384 0.326822
0.556292 0.791245 0.320940
0.745742 0.779297 0.328079
0.880658 0.762208 0.355778
0.000000 0.062176 0.345805
0.000000 0.059397 0.343154
0.000000 0.056034 0.343173
0.000000 0.049698 0.335261
0.084642 0.025978 0.319707
0.232865 0.000000 0.299055
0.448595 0.000000 0.248302
0.689068 0.000000 0.168348
0.994139 0.000000 0.116320
0.000000 0.075008 0.373736
0.000000 0.072885 0.367947
0.000000 0.069388 0.367984
0.000000 0.062230 0.356676
0.052457 0.045533 0.350988
0.228494 0.000000 0.328544
0.449446 0.000000 0.286657
0.673619 0.000000 0.195436
0.996816 0.000000 0.116546
0.000000 0.098757 0.410875
0.000000 0.096102 0.404349
0.000000 0.093359 0.397923
0.000000 0.086384 0.398019
0.000000 0.073559 0.385359
0.222253 0.000000 0.375472
0.449170 0.000000 0.341939
0.648696 0.000000 0.259652
0.971826 0.000000 0.135726
0.000000 0.136386 0.454023
0.000000 0.135080 0.454056
0.000000 0.131344 0.450699
0.000000 0.123709 0.450855
0.000000 0.113534 0.440631
0.222592 0.072912 0.436703
0.451777 0.000000 0.415071
0.661417 0.000000 0.361179
0.898292 0.000000 0.236115
0.000000 0.205335 0.522902
0.000000 0.201767 0.523016
0.000000 0.196452 0.523181
0.000000 0.191084 0.519711
0.000000 0.186257 0.523380
0.207109 0.159933 0.508853
0.470184 0.000000 0.496985
0.680069 0.000000 0.464731
0.879196 0.000000 0.411685
0.000000 0.339198 0.632909
0.000000 0.336384 0.633025
0.000000 0.333613 0.625625
0.000000 0.330620 0.625740
0.000000 0.324155 0.625929
0.110275 0.298453 0.618964
0.454972 0.240626 0.596585
0.692899 0.102699 0.563133
0.896972 0.000000 0.534617
0.000000 0.530371 0.741679
0.000000 0.530277 0.745046
0.000000 0.530133 0.745045
0.000000 0.529768 0.741671
0.000000 0.525166 0.735010
0.000000 0.514464 0.724802
0.393440 0.487503 0.711006
0.666995 0.438705 0.689643
0.895033 0.344119 0.654342
0.000000 0.699246 0.776292
0.000000 0.699148 0.776288
0.000000 0.695125 0.776506
0.000000 0.694346 0.773519
0.000000 0.692681 0.770459
0.000000 0.686139 0.758315
0.344840 0.673183 0.739296
0.610927 0.647872 0.739856
0.839598 0.610437 0.696399
0.000000 0.818697 0.725021
0.000000 0.818475 0.721683
0.000000 0.818247 0.718319
0.000000 0.817352 0.714926
0.000000 0.816083 0.708071
0.128855 0.816184 0.701026
0.450308 0.811285 0.686946
0.654330 0.798532 0.680245
0.833089 0.780699 0.659847
0.000000 0.115698 0.496543
0.000000 0.114601 0.493010
0.000000 0.110943 0.493067
0.000000 0.105902 0.486031
0.000000 0.094071 0.478979
0.175232 0.059946 0.471593
0.382079 0.000000 0.435678
0.630704 0.000000 0.370045
0.927380 0.000000 0.195611
0.000000 0.128089 0.510570
0.000000 0.125679 0.507036
0.000000 0.121955 0.503526
0.000000 0.116622 0.500022
0.000000 0.105749 0.496473
0.169382 0.078480 0.492568
0.379721 0.000000 0.456172
0.633856 0.000000 0.397983
0.901994 0.000000 0.225204
0.000000 0.146852 0.531815
0.000000 0.144136 0.528244
0.000000 0.141233 0.528302
0.000000 0.135397 0.524768
0.000000 0.128012 0.524771
0.156675 0.107563 0.520858
0.378251 0.000000 0.494540
0.644248 0.000000 0.447751
0.872963 0.000000 0.298962
0.000000 0.177176 0.567682
0.000000 0.175499 0.567725
0.000000 0.173807 0.564071
0.000000 0.168687 0.560492
0.000000 0.165569 0.564141
0.130893 0.147707 0.560307
0.381027 0.054804 0.540932
0.646625 0.000000 0.513942
0.863148 0.000000 0.418024
0.000000 0.237103 0.629187
0.000000 0.235022 0.629252
0.000000 0.232885 0.629313
0.000000 0.226703 0.625736
0.000000 0.219898 0.622108
0.000000 0.209945 0.621999
0.382880 0.156311 0.613737
0.644046 0.000000 0.586255
0.872946 0.000000 0.524334
0.000000 0.316571 0.694010
0.000000 0.313886 0.694110
0.000000 0.313748 0.694105
0.000000 0.310850 0.694190
0.000000 0.309992 0.694137
0.000000 0.296833 0.690547
0.382604 0.259917 0.678858
0.648335 0.162945 0.662917
0.889463 0.000000 0.625533
0.000000 0.494037 0.793802
0.000000 0.493998 0.793799
0.000000 0.493875 0.793790
0.000000 0.493581 0.793768
0.000000 0.489305 0.793889
0.000000 0.469145 0.794549
0.328581 0.442929 0.782865
0.639086 0.373262 0.755060
0.894177 0.249216 0.721932
0.000000 0.695865 0.859393
0.000000 0.695755 0.859384
0.000000 0.695557 0.859366
0.000000 0.695131 0.859328
0.000000 0.686364 0.859680
0.000000 0.680043 0.853466
0.213254 0.667190 0.849227
0.584193 0.637093 0.834068
0.834724 0.588502 0.818454
0.000000 0.827037 0.876599
0.000000 0.826746 0.876575
0.000000 0.826544 0.876559
0.000000 0.825910 0.874760
0.000000 0.827052 0.872726
0.000000 0.822304 0.869117
0.291290 0.818158 0.861375
0.588640 0.802579 0.851593
0.771928 0.788298 0.841288
