Assets/Lutify-Free-LUTs-Pack/Lutify Free LUTs Pack/Cine World Pro Warm - Amy/Lutify.me-Amy-DJIDlog-to-Rec709.cube
# Created with: fylm.ai - Colour Grading and Collaboration Software in Cloud 
# Website: https://fylm.ai 
# META
# Option: Gamut compress
# Block 1: IDT | DJI D-Gamut D-Log
# Block 2: colourMatch | Blending Mode: Normal | {"ColorSpace":0,"CrossCovarianceLimit":50,"ReshapingIterations":1,"PercentSaturationShift":100,"PercentShadingShift":100,"ExtraShading":true,"PercentTint":100,"PercentModified":100}
# Block 3: LUT | Filmic Curve Response: Standard Contrast 1 (100%)
# Block 4: LUT | Illuminant: D60 (100%)
# Block 5: hueSaturation | Blending Mode: Normal | {"hue":0,"saturation":-0.15}
# Block 6: logPrimaries | Blending Mode: Normal | {"wheels":{"shadows":{"Y":"0","R":"1","G":"1","B":"1"},"midtones":{"Y":"0","R":"1","G":"1","B":"1"},"highlights":{"Y":"0","R":"1","G":"1","B":"1"},"offset":{"Y":"0","R":"1","G":"1","B":"1"}},"sliders":{"shadows":{"Y":0,"R":-0.097,"G":0,"B":0.158},"midtones":{"Y":0,"R":0.024,"G":0.024,"B":-0.036},"highlights":{"Y":0,"R":0.154,"G":-0.084,"B":-0.024},"offset":{"Y":0.048,"R":0,"G":0,"B":0}}}
# Block 7: smartCurves | Blending Mode: Average | [[{"x":0,"y":0},{"x":0.11328125,"y":0.085540771484375},{"x":0.21484375,"y":0.218353271484375},{"x":0.37109375,"y":0.382415771484375},{"x":0.62109375,"y":0.589447021484375},{"x":0.8125,"y":0.765228271484375},{"x":1,"y":1}],[{"x":0,"y":0},{"x":1,"y":1}],[{"x":0,"y":0},{"x":1,"y":1}],[{"x":0,"y":0},{"x":1,"y":1}]]
# Block 8: LUT | Neutral Tint: Teal Tint 4 (100%)
# Block 9: contrast | Blending Mode: Normal | {"contrast":0.1}
# Block 10: ODT | Rec709
TITLE "Lutify.me-Amy-DJIDlog-to-Rec709" 
LUT_3D_SIZE 33
0.000000 0.000000 0.000000
0.000000 0.000000 0.000000
0.000000 0.000000 0.000000
0.000000 0.000000 0.000000
0.000000 0.000000 0.000000
0.129392 0.000000 0.000000
0.161065 0.000000 0.000000
0.202760 0.000000 0.000000
0.253269 0.000000 0.000000
0.306399 0.000000 0.000000
0.365237 0.000000 0.000000
0.416230 0.000000 0.000000
0.468585 0.000000 0.000000
0.558558 0.000000 0.000000
0.623360 0.000000 0.000000
0.694521 0.000000 0.000000
0.762744 0.000000 0.000000
0.872102 0.000000 0.000000
0.950006 0.000000 0.000000
1.000000 0.000000 0.045613
1.000000 0.000000 0.087058
1.000000 0.168181 0.133816
1.000000 0.327058 0.188192
1.000000 0.445772 0.245887
1.000000 0.539836 0.313650
1.000000 0.631440 0.400213
1.000000 0.718780 0.480464
1.000000 0.782746 0.562651
1.000000 0.832324 0.646351
1.000000 0.869820 0.723956
1.000000 0.901610 0.781267
1.000000 0.925448 0.826991
1.000000 0.944569 0.867796
0.000000 0.000000 0.000000
0.000000 0.000000 0.000000
0.000000 0.000000 0.000000
0.000000 0.000000 0.000000
0.000000 0.000000 0.000000
0.126549 0.000000 0.000000
0.159096 0.000000 0.000000
0.198488 0.000000 0.000000
0.253254 0.000000 0.000000
0.304284 0.000000 0.000000
0.357500 0.000000 0.000000
0.410202 0.000000 0.000000
0.465112 0.000000 0.000000
0.550719 0.000000 0.000000
0.619290 0.000000 0.000000
0.694541 0.000000 0.000000
0.767009 0.000000 0.000000
0.872018 0.000000 0.000000
0.949838 0.000000 0.000000
1.000000 0.000000 0.043994
1.000000 0.000000 0.085977
1.000000 0.174928 0.133336
1.000000 0.331070 0.187767
1.000000 0.445772 0.245887
1.000000 0.543069 0.313372
1.000000 0.634392 0.400019
1.000000 0.718780 0.480464
1.000000 0.782746 0.562651
1.000000 0.832324 0.646351
1.000000 0.869820 0.723956
1.000000 0.901610 0.781267
1.000000 0.925448 0.826991
1.000000 0.944569 0.867796
0.000000 0.000000 0.000000
0.000000 0.000000 0.000000
0.000000 0.000000 0.000000
0.000000 0.000000 0.000000
0.000000 0.000000 0.000000
0.126197 0.000000 0.000000
0.154094 0.000000 0.000000
0.192969 0.000000 0.000000
0.244220 0.000000 0.000000
0.296025 0.000000 0.000000
0.352491 0.000000 0.000000
0.407239 0.000000 0.000000
0.465142 0.000000 0.000000
0.546863 0.000000 0.000000
0.619332 0.000000 0.000000
0.694554 0.000000 0.000000
0.775556 0.000000 0.000000
0.871908 0.000000 0.000000
0.946507 0.000000 0.000000
1.000000 0.000000 0.040270
1.000000 0.000000 0.084835
1.000000 0.181440 0.132844
1.000000 0.339045 0.186895
1.000000 0.445767 0.247701
1.000000 0.543069 0.313372
1.000000 0.634392 0.400019
1.000000 0.721120 0.480373
1.000000 0.782746 0.562651
1.000000 0.832324 0.646351
1.000000 0.870880 0.724008
1.000000 0.901610 0.781267
1.000000 0.925448 0.826991
1.000000 0.944569 0.867796
0.000000 0.000000 0.000000
0.000000 0.000000 0.000000
0.000000 0.000000 0.000000
0.000000 0.000000 0.000000
0.000000 0.000000 0.004917
0.122839 0.000000 0.000000
0.151870 0.000000 0.000000
0.190225 0.000000 0.000000
0.240693 0.000000 0.000000
0.296071 0.000000 0.000000
0.352527 0.000000 0.000000
0.407245 0.000000 0.000000
0.461764 0.000000 0.000000
0.546936 0.000000 0.000000
0.623494 0.000000 0.000000
0.694577 0.000000 0.000000
0.775537 0.000000 0.000000
0.871801 0.000000 0.000000
0.946320 0.000000 0.000000
1.000000 0.000000 0.036915
1.000000 0.000000 0.082993
1.000000 0.187746 0.132341
1.000000 0.339045 0.186895
1.000000 0.449244 0.247343
1.000000 0.543069 0.313372
1.000000 0.634392 0.400019
1.000000 0.721111 0.482814
1.000000 0.782746 0.562651
1.000000 0.832324 0.646351
1.000000 0.870880 0.724008
1.000000 0.901610 0.781267
1.000000 0.925448 0.826991
1.000000 0.944569 0.867796
0.000000 0.006598 0.000000
0.000000 0.008079 0.000000
0.000000 0.009667 0.000000
0.000000 0.006014 0.000000
0.000000 0.000000 0.005840
0.120367 0.000000 0.000000
0.149319 0.000000 0.000000
0.187448 0.000000 0.000000
0.237264 0.000000 0.000000
0.293998 0.000000 0.000000
0.352505 0.000000 0.000000
0.407288 0.000000 0.000000
0.468780 0.000000 0.000000
0.550932 0.000000 0.000000
0.627656 0.000000 0.000000
0.694597 0.000000 0.000000
0.779794 0.000000 0.000000
0.871664 0.000000 0.000000
0.946172 0.000000 0.000000
1.000000 0.000000 0.032702
1.000000 0.000000 0.082344
1.000000 0.193872 0.131825
1.000000 0.343010 0.186449
1.000000 0.452723 0.246980
1.000000 0.546307 0.313091
1.000000 0.634392 0.400019
1.000000 0.721111 0.482814
1.000000 0.784505 0.562646
1.000000 0.832324 0.646351
1.000000 0.870880 0.724008
1.000000 0.902449 0.781316
1.000000 0.925448 0.826991
1.000000 0.944569 0.867796
0.000000 0.082301 0.000000
0.000000 0.080975 0.000000
0.000000 0.077759 0.000000
0.000000 0.074714 0.000000
0.000000 0.069405 0.000000
0.113035 0.058052 0.000000
0.152362 0.051072 0.000000
0.199005 0.029291 0.000000
0.256805 0.000000 0.000000
0.304257 0.000000 0.000000
0.363038 0.000000 0.000000
0.422951 0.000000 0.000000
0.490695 0.000000 0.000000
0.567089 0.000000 0.000000
0.640233 0.000000 0.000000
0.703126 0.000000 0.000000
0.788228 0.000000 0.000000
0.875218 0.000000 0.000000
0.948688 0.000000 0.000000
1.000000 0.000000 0.015964
1.000000 0.000000 0.077385
1.000000 0.215861 0.129002
1.000000 0.354825 0.185066
1.000000 0.457352 0.247455
1.000000 0.549550 0.312808
1.000000 0.640280 0.399635
1.000000 0.723443 0.482725
1.000000 0.784505 0.562646
1.000000 0.832324 0.646351
1.000000 0.870880 0.724008
1.000000 0.902449 0.781316
1.000000 0.925448 0.826991
1.000000 0.944569 0.867796
0.000000 0.101138 0.000000
0.000000 0.097896 0.000000
0.000000 0.094754 0.000000
0.000000 0.091707 0.000000
0.000000 0.088814 0.000000
0.114742 0.076850 0.000000
0.155417 0.070252 0.000000
0.204329 0.056820 0.000000
0.262713 0.021200 0.000000
0.310841 0.000000 0.000000
0.368568 0.000000 0.000000
0.429524 0.000000 0.000000
0.498307 0.000000 0.000000
0.575307 0.000000 0.000000
0.644530 0.000000 0.000000
0.707406 0.000000 0.000000
0.792420 0.000000 0.000000
0.878925 0.000000 0.000000
0.948498 0.000000 0.000000
1.000000 0.000000 0.000000
1.000000 0.000000 0.075721
1.000000 0.226802 0.127814
1.000000 0.362643 0.184109
1.000000 0.460819 0.247085
1.000000 0.553940 0.313520
1.000000 0.643216 0.399444
1.000000 0.723443 0.482725
1.000000 0.786261 0.562644
1.000000 0.832324 0.646351
1.000000 0.871935 0.724062
1.000000 0.902449 0.781316
1.000000 0.925448 0.826991
1.000000 0.944569 0.867796
0.000000 0.126306 0.000000
0.000000 0.125270 0.000000
0.000000 0.122211 0.000000
0.000000 0.118243 0.000000
0.000000 0.110686 0.000000
0.115087 0.100101 0.000000
0.157505 0.094140 0.000000
0.211128 0.085358 0.000000
0.268464 0.071520 0.000000
0.320180 0.037041 0.000000
0.377321 0.000000 0.000000
0.443178 0.000000 0.000000
0.510026 0.000000 0.000000
0.587812 0.000000 0.000000
0.657248 0.000000 0.000000
0.720170 0.000000 0.000000
0.796594 0.000000 0.000000
0.882468 0.000000 0.000000
0.951227 0.000000 0.000000
1.000000 0.000000 0.000000
1.000000 0.044606 0.074595
1.000000 0.237393 0.126566
1.000000 0.370420 0.183120
1.000000 0.467758 0.246334
1.000000 0.553934 0.315686
1.000000 0.643216 0.399444
1.000000 0.725766 0.482638
1.000000 0.786261 0.562644
1.000000 0.833735 0.646394
1.000000 0.871935 0.724062
1.000000 0.902449 0.781316
1.000000 0.925448 0.826991
1.000000 0.944569 0.867796
0.000000 0.154043 0.000000
0.000000 0.151503 0.000000
0.000000 0.147773 0.000000
0.000000 0.144137 0.000000
0.000000 0.140514 0.000000
0.110443 0.130340 0.000000
0.161737 0.124707 0.000000
0.220917 0.115539 0.000000
0.276013 0.105882 0.000000
0.330248 0.085333 0.000000
0.389580 0.057404 0.000000
0.451043 0.000000 0.000000
0.518569 0.000000 0.000000
0.600511 0.000000 0.000000
0.665901 0.000000 0.000000
0.724501 0.000000 0.000000
0.800679 0.000000 0.000000
0.893336 0.000000 0.000000
0.953618 0.000000 0.000000
1.000000 0.000000 0.000000
1.000000 0.112970 0.071256
1.000000 0.252658 0.124590
1.000000 0.378161 0.182099
1.000000 0.474704 0.245564
1.000000 0.557174 0.315404
1.000000 0.646138 0.401657
1.000000 0.725766 0.482638
1.000000 0.788012 0.562645
1.000000 0.833735 0.646394
1.000000 0.871935 0.724062
1.000000 0.903287 0.781366
1.000000 0.925448 0.826991
1.000000 0.944569 0.867796
0.000000 0.188198 0.000000
0.000000 0.183566 0.000000
0.000000 0.179030 0.000000
0.000000 0.176084 0.000000
0.000000 0.171549 0.000000
0.099797 0.161768 0.000000
0.155943 0.157947 0.000000
0.224714 0.149333 0.000000
0.285077 0.138206 0.000000
0.343429 0.121931 0.000000
0.411464 0.098624 0.000000
0.469826 0.083190 0.000000
0.531267 0.000000 0.000000
0.609446 0.000000 0.000000
0.678828 0.000000 0.000000
0.741501 0.000000 0.000000
0.808929 0.000000 0.000000
0.892506 0.000000 0.000000
0.952798 0.000000 0.000000
1.000000 0.000000 0.000000
1.000000 0.156973 0.065275
1.000000 0.277638 0.121674
1.000000 0.385869 0.181047
1.000000 0.481657 0.244777
1.000000 0.563667 0.314833
1.000000 0.649062 0.401470
1.000000 0.730384 0.482473
1.000000 0.788012 0.562645
1.000000 0.835130 0.648867
1.000000 0.872985 0.724117
1.000000 0.903287 0.781366
1.000000 0.925448 0.826991
1.000000 0.945116 0.867830
0.000000 0.223449 0.000000
0.000000 0.221738 0.000000
0.000000 0.216424 0.000000
0.000000 0.209409 0.000000
0.000000 0.205858 0.000000
0.065674 0.197015 0.000000
0.141278 0.193183 0.000000
0.219513 0.184306 0.000000
0.289328 0.176051 0.000000
0.351320 0.167889 0.000000
0.422967 0.146317 0.000000
0.496685 0.129589 0.000000
0.567799 0.109423 0.000000
0.630881 0.081727 0.000000
0.692037 0.046285 0.000000
0.754306 0.000000 0.000000
0.817079 0.000000 0.000000
0.902162 0.000000 0.000000
0.954008 0.000000 0.000000
1.000000 0.070669 0.000000
1.000000 0.197195 0.059123
1.000000 0.300580 0.119260
1.000000 0.401219 0.178838
1.000000 0.488617 0.243971
1.000000 0.570173 0.316451
1.000000 0.655974 0.402221
1.000000 0.732668 0.484849
1.000000 0.788002 0.565099
1.000000 0.836531 0.648914
1.000000 0.874028 0.724176
1.000000 0.903287 0.781366
1.000000 0.925448 0.826991
1.000000 0.945110 0.868839
0.000000 0.255960 0.000000
0.000000 0.254003 0.000000
0.000000 0.246358 0.000000
0.000000 0.248094 0.000000
0.000000 0.245974 0.000000
0.000000 0.237987 0.000000
0.119682 0.234123 0.000000
0.205440 0.228360 0.000000
0.283099 0.220110 0.000000
0.359232 0.208984 0.000000
0.431347 0.192995 0.000000
0.514106 0.174688 0.000000
0.589337 0.160852 0.000000
0.660497 0.146360 0.000000
0.721764 0.144968 0.000000
0.779595 0.136716 0.000000
0.833121 0.142274 0.000000
0.904067 0.148368 0.000000
0.957278 0.166103 0.000000
1.000000 0.198364 0.000000
1.000000 0.252581 0.038740
1.000000 0.331979 0.117105
1.000000 0.415649 0.177407
1.000000 0.502562 0.242305
1.000000 0.576703 0.315870
1.000000 0.661725 0.404271
1.000000 0.736746 0.487191
1.000000 0.791494 0.565106
1.000000 0.837927 0.648964
1.000000 0.875501 0.725286
1.000000 0.904122 0.781418
1.000000 0.926130 0.827035
1.000000 0.945110 0.868839
0.000000 0.302454 0.000000
0.000000 0.297805 0.000000
0.000000 0.297727 0.000000
0.000000 0.297597 0.000000
0.000000 0.297375 0.000000
0.000000 0.286635 0.000000
0.026929 0.282806 0.000000
0.192109 0.277314 0.000000
0.271123 0.270686 0.000000
0.355377 0.258831 0.000000
0.432853 0.247071 0.000000
0.517504 0.234146 0.000000
0.607905 0.219308 0.000000
0.686314 0.202386 0.000000
0.747151 0.201254 0.000000
0.800404 0.214986 0.000000
0.851860 0.223716 0.000000
0.901718 0.239944 0.000000
0.956524 0.254565 0.000000
1.000000 0.285596 0.000000
1.000000 0.315123 0.000000
1.000000 0.365686 0.112627
1.000000 0.431727 0.177425
1.000000 0.515621 0.239674
1.000000 0.586531 0.314982
1.000000 0.670293 0.406171
1.000000 0.741217 0.487054
1.000000 0.793929 0.566350
1.000000 0.839881 0.650239
1.000000 0.876523 0.725349
1.000000 0.904122 0.781418
1.000000 0.926701 0.828411
1.000000 0.945656 0.868873
0.000000 0.350034 0.000000
0.000000 0.349964 0.000000
0.000000 0.347171 0.000000
0.000000 0.347037 0.000000
0.000000 0.344151 0.000000
0.000000 0.340096 0.000000
0.000000 0.338706 0.000000
0.151268 0.333685 0.000000
0.251275 0.327643 0.000000
0.341932 0.316853 0.000000
0.426036 0.306803 0.000000
0.519734 0.296606 0.000000
0.618127 0.285862 0.000000
0.708056 0.263444 0.000000
0.784281 0.261149 0.000000
0.832117 0.265418 0.000000
0.872377 0.288920 0.000000
0.918140 0.310116 0.000000
0.957404 0.326236 0.000000
1.000000 0.357145 0.000000
1.000000 0.380868 0.000000
1.000000 0.411734 0.102827
1.000000 0.462018 0.173887
1.000000 0.533230 0.237370
1.000000 0.602033 0.312441
1.000000 0.681597 0.405498
1.000000 0.747840 0.486871
1.000000 0.799088 0.566389
1.000000 0.841256 0.650295
1.000000 0.877539 0.725415
1.000000 0.904948 0.783023
1.000000 0.927370 0.828455
1.000000 0.945656 0.868873
0.000000 0.405714 0.000000
0.000000 0.402467 0.000000
0.000000 0.402359 0.000000
0.000000 0.405399 0.000000
0.000000 0.402022 0.000000
0.000000 0.397612 0.000000
0.000000 0.393337 0.000000
0.000000 0.391686 0.000000
0.223369 0.385802 0.000000
0.318328 0.379183 0.000000
0.409961 0.370742 0.000000
0.508903 0.362728 0.000000
0.616112 0.347914 0.000000
0.712820 0.338852 0.000000
0.800207 0.321797 0.000000
0.867851 0.318353 0.000000
0.894227 0.338808 0.000000
0.934659 0.374775 0.000000
0.967091 0.392712 0.000000
1.000000 0.416146 0.000000
1.000000 0.439389 0.000000
1.000000 0.468393 0.080346
1.000000 0.504119 0.168321
1.000000 0.557166 0.233018
1.000000 0.622874 0.313850
1.000000 0.694624 0.406034
1.000000 0.754348 0.489165
1.000000 0.804198 0.566452
1.000000 0.843989 0.650415
1.000000 0.879553 0.725553
1.000000 0.905780 0.783077
1.000000 0.928038 0.828502
1.000000 0.946407 0.869403
0.000000 0.465523 0.000000
0.000000 0.465437 0.000000
0.000000 0.468786 0.000000
0.000000 0.468643 0.000000
0.000000 0.468454 0.000000
0.000000 0.463843 0.000000
0.000000 0.463190 0.000000
0.000000 0.462187 0.000000
0.099282 0.457098 0.000000
0.258415 0.451100 0.000000
0.369753 0.443605 0.000000
0.487026 0.433317 0.000000
0.600909 0.420439 0.000000
0.701603 0.406447 0.000000
0.790808 0.399846 0.000000
0.882071 0.380792 0.000000
0.933067 0.395329 0.000000
0.949186 0.422504 0.000000
0.972616 0.453703 0.000000
1.000000 0.481675 0.000000
1.000000 0.500454 0.000000
1.000000 0.527883 0.000000
1.000000 0.565729 0.156731
1.000000 0.604767 0.234220
1.000000 0.653263 0.312107
1.000000 0.711750 0.408779
1.000000 0.760741 0.491502
1.000000 0.807578 0.566509
1.000000 0.846697 0.650547
1.000000 0.880556 0.725625
1.000000 0.907771 0.784021
1.000000 0.929359 0.829845
1.000000 0.946947 0.869439
0.000000 0.546935 0.000000
0.000000 0.543165 0.000000
0.000000 0.543004 0.000000
0.000000 0.542821 0.000000
0.000000 0.542598 0.000000
0.000000 0.541636 0.000000
0.000000 0.537566 0.000000
0.000000 0.536725 0.000000
0.000000 0.535702 0.000000
0.144017 0.533621 0.000000
0.299984 0.527239 0.000000
0.430678 0.518843 0.000000
0.558638 0.511592 0.000000
0.673993 0.495213 0.000000
0.772290 0.486100 0.000000
0.859033 0.477766 0.000000
0.939842 0.463330 0.000000
0.980663 0.481561 0.000000
0.979330 0.521977 0.000000
1.000000 0.546117 0.000000
1.000000 0.572618 0.000000
1.000000 0.598020 0.000000
1.000000 0.637180 0.134406
1.000000 0.662023 0.231850
1.000000 0.691459 0.316962
1.000000 0.733327 0.409012
1.000000 0.773803 0.495039
1.000000 0.816491 0.567960
1.000000 0.854295 0.653388
1.000000 0.883939 0.726904
1.000000 0.909403 0.785662
1.000000 0.930019 0.829894
1.000000 0.947485 0.869476
0.000000 0.619999 0.000000
0.000000 0.619879 0.000000
0.000000 0.619696 0.000000
0.000000 0.619539 0.000000
0.000000 0.619363 0.000000
0.000000 0.614928 0.000000
0.000000 0.614430 0.000000
0.000000 0.613954 0.000000
0.000000 0.613163 0.000000
0.000000 0.611648 0.000000
0.159802 0.609555 0.000000
0.349509 0.602403 0.000000
0.489699 0.597229 0.000000
0.624605 0.586008 0.000000
0.733207 0.570457 0.000000
0.834615 0.562034 0.000000
0.912938 0.556268 0.000000
0.985593 0.549714 0.000000
1.000000 0.569913 0.000000
1.000000 0.605919 0.000000
1.000000 0.631501 0.000000
1.000000 0.655973 0.000000
1.000000 0.683788 0.115921
1.000000 0.710456 0.222165
1.000000 0.729216 0.319157
1.000000 0.758394 0.411951
1.000000 0.791393 0.495124
1.000000 0.826735 0.571991
1.000000 0.859414 0.653747
1.000000 0.888857 0.729279
1.000000 0.911846 0.785844
1.000000 0.931333 0.829997
1.000000 0.948023 0.869514
0.000000 0.705113 0.000000
0.000000 0.705002 0.000000
0.000000 0.704787 0.000000
0.000000 0.704651 0.000000
0.000000 0.704505 0.000000
0.000000 0.700180 0.000000
0.000000 0.699917 0.000000
0.000000 0.699565 0.000000
0.000000 0.698876 0.000000
0.000000 0.694104 0.000000
0.000000 0.688520 0.000000
0.233086 0.682181 0.000000
0.414871 0.674485 0.000000
0.532147 0.670089 0.000000
0.653020 0.663885 0.000000
0.772878 0.648345 0.000000
0.874859 0.640967 0.000000
0.944857 0.637307 0.000000
1.000000 0.629373 0.000000
1.000000 0.657508 0.000000
1.000000 0.691622 0.000000
1.000000 0.708373 0.000000
1.000000 0.731873 0.053681
1.000000 0.754885 0.214557
1.000000 0.769048 0.317621
1.000000 0.788957 0.410824
1.000000 0.813771 0.498201
1.000000 0.839213 0.577507
1.000000 0.869646 0.658190
1.000000 0.894045 0.730778
1.000000 0.915061 0.787616
1.000000 0.933284 0.830162
1.000000 0.949625 0.869634
0.000000 0.776180 0.000000
0.000000 0.776009 0.000000
0.000000 0.775872 0.000000
0.000000 0.775727 0.000000
0.000000 0.775626 0.000000
0.000000 0.775118 0.000000
0.000000 0.774795 0.000000
0.000000 0.774364 0.000000
0.000000 0.770811 0.000000
0.000000 0.769984 0.000000
0.000000 0.765572 0.000000
0.000000 0.766600 0.000000
0.280525 0.763928 0.000000
0.454631 0.756798 0.000000
0.586335 0.745459 0.000000
0.708531 0.735943 0.000000
0.819904 0.732276 0.000000
0.902899 0.723591 0.000000
0.966249 0.714170 0.000000
1.000000 0.714704 0.000000
1.000000 0.735322 0.000000
1.000000 0.757791 0.000000
1.000000 0.781470 0.000000
1.000000 0.796501 0.204377
1.000000 0.809571 0.316641
1.000000 0.823783 0.418673
1.000000 0.841421 0.502576
1.000000 0.859651 0.581727
1.000000 0.879204 0.662802
1.000000 0.899746 0.733326
1.000000 0.919280 0.790252
1.000000 0.936064 0.832299
1.000000 0.951215 0.869765
0.000000 0.838357 0.000000
0.000000 0.838033 0.000000
0.000000 0.837895 0.000000
0.000000 0.837751 0.000000
0.000000 0.837602 0.000000
0.000000 0.837120 0.000000
0.000000 0.836766 0.000000
0.000000 0.836385 0.000000
0.000000 0.838236 0.000000
0.000000 0.837341 0.000000
0.000000 0.836342 0.000000
0.000000 0.834934 0.000000
0.194965 0.835011 0.000000
0.379271 0.829977 0.000000
0.511632 0.824029 0.000000
0.651315 0.813692 0.000000
0.775700 0.807149 0.000000
0.861696 0.801864 0.000000
0.928879 0.792702 0.000000
0.976174 0.793141 0.000000
1.000000 0.790764 0.000000
1.000000 0.803621 0.000000
1.000000 0.822180 0.000000
1.000000 0.834510 0.189033
1.000000 0.846438 0.310761
1.000000 0.855577 0.420757
1.000000 0.869245 0.513871
1.000000 0.881600 0.587659
1.000000 0.893022 0.668405
1.000000 0.908605 0.738310
1.000000 0.924883 0.793051
1.000000 0.939786 0.833912
1.000000 0.953132 0.870889
0.000000 0.888856 0.000000
0.000000 0.888657 0.000000
0.000000 0.888454 0.000000
0.000000 0.888244 0.000000
0.000000 0.888029 0.000000
0.000000 0.885711 0.000000
0.000000 0.885477 0.000000
0.000000 0.885114 0.000000
0.000000 0.884607 0.000000
0.000000 0.882179 0.000000
0.000000 0.881474 0.000000
0.000000 0.880092 0.000000
0.190203 0.878740 0.000000
0.371576 0.876288 0.000000
0.501313 0.873056 0.000000
0.631233 0.866488 0.000000
0.742135 0.857394 0.000000
0.822255 0.854914 0.000000
0.894043 0.848556 0.000000
0.945123 0.845461 0.000000
0.992832 0.841474 0.000000
1.000000 0.841722 0.000000
1.000000 0.850117 0.000000
1.000000 0.864838 0.163334
1.000000 0.872818 0.307947
1.000000 0.883500 0.421537
1.000000 0.893693 0.518485
1.000000 0.901385 0.599920
1.000000 0.909958 0.675460
1.000000 0.919963 0.743887
1.000000 0.930478 0.795250
1.000000 0.943589 0.836201
1.000000 0.955687 0.872099
0.000000 0.921481 0.000000
0.000000 0.921349 0.000000
0.000000 0.922592 0.000000
0.000000 0.922457 0.000000
0.000000 0.922321 0.000000
0.000000 0.922044 0.000000
0.000000 0.921758 0.000000
0.000000 0.921468 0.000000
0.000000 0.921019 0.000000
0.000000 0.919332 0.000000
0.000000 0.919911 0.000000
0.169533 0.919068 0.000000
0.309910 0.917628 0.000000
0.418188 0.914275 0.000000
0.533340 0.909804 0.000000
0.637223 0.904664 0.000000
0.728165 0.900624 0.000000
0.805147 0.896632 0.000000
0.870161 0.889939 0.000000
0.925523 0.885029 0.000000
0.973767 0.883676 0.000000
1.000000 0.880939 0.000000
1.000000 0.879629 0.000000
1.000000 0.885787 0.114749
1.000000 0.897033 0.294690
1.000000 0.905622 0.419542
1.000000 0.912800 0.524024
1.000000 0.919080 0.606898
1.000000 0.925475 0.677329
1.000000 0.932558 0.754670
1.000000 0.939632 0.797509
1.000000 0.949590 0.840017
1.000000 0.958817 0.874785
0.000000 0.945960 0.176892
0.000000 0.945801 0.177006
0.000000 0.945479 0.177235
0.000000 0.945316 0.177352
0.076664 0.945156 0.169541
0.164699 0.944823 0.165759
0.190854 0.944653 0.165893
0.212957 0.944481 0.166029
0.250129 0.944135 0.162218
0.295434 0.943602 0.158506
0.345143 0.942864 0.159146
0.387910 0.942101 0.155622
0.434788 0.942243 0.146105
0.516300 0.940148 0.134725
0.590738 0.937781 0.118146
0.669109 0.934790 0.101787
0.733663 0.930797 0.070394
0.799507 0.927501 0.000000
0.861922 0.922884 0.000000
0.911660 0.918742 0.000000
0.959226 0.915802 0.000000
0.991336 0.913963 0.082031
1.000000 0.909586 0.115250
1.000000 0.910876 0.174302
1.000000 0.916903 0.276084
1.000000 0.923926 0.412224
1.000000 0.929714 0.518958
1.000000 0.933790 0.614600
1.000000 0.939500 0.688260
1.000000 0.944052 0.756647
1.000000 0.950515 0.806157
1.000000 0.956808 0.842476
1.000000 0.964185 0.876842
0.389337 0.963117 0.320246
0.399119 0.962928 0.320326
0.399119 0.962928 0.320326
0.408655 0.962737 0.320408
0.417966 0.962545 0.320491
0.436105 0.962159 0.317711
0.444834 0.961962 0.317799
0.461816 0.962463 0.319571
0.470091 0.962268 0.316739
0.486007 0.961871 0.314009
0.515911 0.961069 0.311497
0.537062 0.960469 0.306005
0.576144 0.959255 0.300922
0.606066 0.958246 0.295810
0.654358 0.957349 0.293278
0.692570 0.955807 0.283426
0.749363 0.953274 0.272597
0.800494 0.950741 0.268689
0.855097 0.945974 0.255699
0.903044 0.943195 0.244327
0.947153 0.940491 0.247308
0.980941 0.937472 0.256710
1.000000 0.936209 0.268104
1.000000 0.933732 0.281796
1.000000 0.933896 0.303134
1.000000 0.939591 0.398712
1.000000 0.944804 0.515265
1.000000 0.948616 0.615430
1.000000 0.952282 0.694448
1.000000 0.956349 0.764684
1.000000 0.961870 0.809288
1.000000 0.965676 0.849081
1.000000 0.970989 0.879769
0.598506 0.978555 0.431435
0.598506 0.978555 0.431435
0.603981 0.978368 0.431518
0.609378 0.978182 0.431602
0.609487 0.978187 0.428953
