Assets/Lutify-Free-LUTs-Pack/Lutify Free LUTs Pack/Cine World Pro Warm - Amy/Lutify.me-Amy-BolexLog-to-Rec709.cube
# Created with: fylm.ai - Colour Grading and Collaboration Software in Cloud 
# Website: https://fylm.ai 
# META
# Option: Gamut compress
# Block 1: IDT | Bolex Wide Gamut RGB Bolex Log
# Block 2: colourMatch | Blending Mode: Normal | {"ColorSpace":0,"CrossCovarianceLimit":50,"ReshapingIterations":1,"PercentSaturationShift":100,"PercentShadingShift":100,"ExtraShading":true,"PercentTint":100,"PercentModified":100}
# Block 3: LUT | Filmic Curve Response: Standard Contrast 1 (100%)
# Block 4: LUT | Illuminant: D60 (100%)
# Block 5: hueSaturation | Blending Mode: Normal | {"hue":0,"saturation":-0.15}
# Block 6: logPrimaries | Blending Mode: Normal | {"wheels":{"shadows":{"Y":"0","R":"1","G":"1","B":"1"},"midtones":{"Y":"0","R":"1","G":"1","B":"1"},"highlights":{"Y":"0","R":"1","G":"1","B":"1"},"offset":{"Y":"0","R":"1","G":"1","B":"1"}},"sliders":{"shadows":{"Y":0,"R":-0.097,"G":0,"B":0.158},"midtones":{"Y":0,"R":0.024,"G":0.024,"B":-0.036},"highlights":{"Y":0,"R":0.154,"G":-0.084,"B":-0.024},"offset":{"Y":0.048,"R":0,"G":0,"B":0}}}
# Block 7: smartCurves | Blending Mode: Average | [[{"x":0,"y":0},{"x":0.11328125,"y":0.085540771484375},{"x":0.21484375,"y":0.218353271484375},{"x":0.37109375,"y":0.382415771484375},{"x":0.62109375,"y":0.589447021484375},{"x":0.8125,"y":0.765228271484375},{"x":1,"y":1}],[{"x":0,"y":0},{"x":1,"y":1}],[{"x":0,"y":0},{"x":1,"y":1}],[{"x":0,"y":0},{"x":1,"y":1}]]
# Block 8: LUT | Neutral Tint: Teal Tint 4 (100%)
# Block 9: contrast | Blending Mode: Normal | {"contrast":0.1}
# Block 10: ODT | Rec709
TITLE "Lutify.me-Amy-BolexLog-to-Rec709" 
LUT_3D_SIZE 5
0.000000 0.000000 0.000000
0.190339 0.000000 0.000000
0.644227 0.000000 0.000000
1.000000 0.316286 0.238341
1.000000 0.879690 0.788853
0.000000 0.132703 0.000000
0.180342 0.103068 0.000000
0.657194 0.000000 0.000000
1.000000 0.356321 0.243231
1.000000 0.881511 0.788876
0.000000 0.518349 0.000000
0.000000 0.527857 0.000000
0.675476 0.487546 0.000000
1.000000 0.534655 0.273811
1.000000 0.888707 0.793633
0.000000 0.947623 0.604185
0.000000 0.946354 0.600759
0.625232 0.934177 0.555621
1.000000 0.916235 0.507316
1.000000 0.935735 0.828370
0.916113 1.000000 0.957593
0.917214 1.000000 0.957593
0.923786 1.000000 0.955750
0.969073 1.000000 0.948469
1.000000 1.000000 0.930761
0.000000 0.000000 0.084386
0.127894 0.000000 0.050233
0.600166 0.000000 0.069936
1.000000 0.309201 0.270778
1.000000 0.879690 0.788853
0.000000 0.148150 0.212722
0.045543 0.119504 0.170179
0.608240 0.000000 0.096773
1.000000 0.349816 0.279226
1.000000 0.881501 0.790517
0.000000 0.532595 0.287313
0.000000 0.542539 0.237374
0.615043 0.514907 0.137532
1.000000 0.533911 0.320096
1.000000 0.887828 0.795466
0.000000 0.948723 0.643709
0.000000 0.947486 0.636680
0.616989 0.934248 0.597753
0.998466 0.916187 0.537007
1.000000 0.935727 0.829780
0.914923 1.000000 0.958803
0.916030 1.000000 0.958802
0.923702 1.000000 0.956985
0.968936 1.000000 0.949853
1.000000 1.000000 0.932090
0.000000 0.000000 0.199177
0.061575 0.000000 0.151073
0.609720 0.000000 0.139672
1.000000 0.278744 0.448175
1.000000 0.880004 0.807676
0.000000 0.094763 0.356155
0.000000 0.082538 0.332228
0.591120 0.000000 0.322718
1.000000 0.326452 0.456776
1.000000 0.880921 0.807674
0.000000 0.560117 0.697617
0.000000 0.559876 0.686477
0.465083 0.539838 0.645039
1.000000 0.529968 0.509336
1.000000 0.888617 0.814629
0.000000 0.951112 0.810638
0.000000 0.949980 0.803858
0.556795 0.941709 0.772437
0.983814 0.919317 0.700347
1.000000 0.934769 0.844534
0.912396 1.000000 0.964056
0.914665 1.000000 0.963496
0.922326 1.000000 0.962363
0.967221 1.000000 0.956131
1.000000 1.000000 0.936673
0.000000 0.156804 0.665169
0.000000 0.154248 0.661236
0.434027 0.000000 0.655242
1.000000 0.000000 0.633467
1.000000 0.875531 0.897027
0.000000 0.228201 0.730219
0.000000 0.224858 0.733743
0.414111 0.168482 0.731980
1.000000 0.000000 0.704317
1.000000 0.875518 0.898158
0.000000 0.472426 0.874197
0.000000 0.475328 0.873941
0.252305 0.451307 0.873520
1.000000 0.358774 0.855264
1.000000 0.884350 0.900126
0.000000 0.961538 0.982054
0.000000 0.960641 0.980942
0.219482 0.951729 0.978161
0.941782 0.923865 0.960308
1.000000 0.931577 0.923813
0.900706 1.000000 0.992130
0.903070 1.000000 0.992120
0.909946 1.000000 0.991526
0.960291 1.000000 0.987057
1.000000 1.000000 0.973496
0.462580 0.649717 0.997971
0.492859 0.644750 0.997513
0.620085 0.634875 0.997636
0.996418 0.584636 0.996262
1.000000 0.761773 0.980489
0.461624 0.661068 0.998933
0.482775 0.660191 0.998318
0.614630 0.646673 0.998647
0.992323 0.601189 0.997148
1.000000 0.769896 0.981738
0.437461 0.730345 1.000000
0.471312 0.725959 1.000000
0.577252 0.718548 1.000000
0.967061 0.684892 1.000000
1.000000 0.792598 0.988624
0.420340 0.917171 1.000000
0.447297 0.916544 1.000000
0.566534 0.910488 1.000000
0.884887 0.892741 1.000000
1.000000 0.889915 1.000000
0.846611 1.000000 1.000000
0.849491 1.000000 1.000000
0.859385 1.000000 1.000000
0.928974 1.000000 1.000000
1.000000 1.000000 1.000000
