Assets/Lutify-Free-LUTs-Pack/Lutify Free LUTs Pack/Cine World Pro Warm - Amy/Lutify.me-Amy-SLog3-to-Rec709.cube
# Created with: fylm.ai - Colour Grading and Collaboration Software in Cloud 
# Website: https://fylm.ai 
# META
# Option: Gamut compress
# Block 1: IDT | Sony S-Log3 S-Gamut3
# Block 2: colourMatch | Blending Mode: Normal | {"ColorSpace":0,"CrossCovarianceLimit":50,"ReshapingIterations":1,"PercentSaturationShift":100,"PercentShadingShift":100,"ExtraShading":true,"PercentTint":100,"PercentModified":100}
# Block 3: LUT | Filmic Curve Response: Standard Contrast 1 (100%)
# Block 4: LUT | Illuminant: D60 (100%)
# Block 5: hueSaturation | Blending Mode: Normal | {"hue":0,"saturation":-0.15}
# Block 6: logPrimaries | Blending Mode: Normal | {"wheels":{"shadows":{"Y":"0","R":"1","G":"1","B":"1"},"midtones":{"Y":"0","R":"1","G":"1","B":"1"},"highlights":{"Y":"0","R":"1","G":"1","B":"1"},"offset":{"Y":"0","R":"1","G":"1","B":"1"}},"sliders":{"shadows":{"Y":0,"R":-0.097,"G":0,"B":0.158},"midtones":{"Y":0,"R":0.024,"G":0.024,"B":-0.036},"highlights":{"Y":0,"R":0.154,"G":-0.084,"B":-0.024},"offset":{"Y":0.048,"R":0,"G":0,"B":0}}}
# Block 7: smartCurves | Blending Mode: Average | [[{"x":0,"y":0},{"x":0.11328125,"y":0.085540771484375},{"x":0.21484375,"y":0.218353271484375},{"x":0.37109375,"y":0.382415771484375},{"x":0.62109375,"y":0.589447021484375},{"x":0.8125,"y":0.765228271484375},{"x":1,"y":1}],[{"x":0,"y":0},{"x":1,"y":1}],[{"x":0,"y":0},{"x":1,"y":1}],[{"x":0,"y":0},{"x":1,"y":1}]]
# Block 8: LUT | Neutral Tint: Teal Tint 4 (100%)
# Block 9: contrast | Blending Mode: Normal | {"contrast":0.1}
# Block 10: ODT | Rec709
TITLE "Lutify.me-Amy-SLog3-to-Rec709" 
LUT_3D_SIZE 9
0.000000 0.000000 0.000000
0.000000 0.000000 0.000000
0.213123 0.000000 0.000000
0.461623 0.000000 0.000000
0.749963 0.000000 0.000000
1.000000 0.000000 0.105199
1.000000 0.474845 0.330629
1.000000 0.801588 0.650968
1.000000 0.933611 0.870874
0.000000 0.000000 0.000000
0.000000 0.000000 0.006944
0.179978 0.000000 0.000000
0.438363 0.000000 0.000000
0.754227 0.000000 0.000000
1.000000 0.000000 0.104793
1.000000 0.481117 0.332401
1.000000 0.801588 0.650968
1.000000 0.933611 0.870874
0.000000 0.125272 0.000000
0.000000 0.109789 0.000000
0.171279 0.083888 0.000000
0.449186 0.000000 0.000000
0.758399 0.000000 0.000000
1.000000 0.000000 0.103331
1.000000 0.491970 0.334889
1.000000 0.806202 0.653320
1.000000 0.934177 0.871898
0.000000 0.297904 0.000000
0.000000 0.280284 0.000000
0.000000 0.270441 0.000000
0.469511 0.222339 0.000000
0.775290 0.171258 0.000000
1.000000 0.156646 0.101138
1.000000 0.523670 0.341791
1.000000 0.809138 0.655789
1.000000 0.934748 0.871911
0.000000 0.547431 0.000000
0.000000 0.554676 0.000000
0.000000 0.547252 0.000000
0.000000 0.546872 0.000000
0.752468 0.503391 0.000000
1.000000 0.511819 0.000000
1.000000 0.608559 0.355074
1.000000 0.824340 0.666845
1.000000 0.936443 0.872956
0.000000 0.841226 0.351209
0.000000 0.843461 0.328843
0.000000 0.845473 0.310255
0.000000 0.848409 0.262770
0.448809 0.832646 0.142987
0.961248 0.798426 0.000000
1.000000 0.818828 0.404462
1.000000 0.864660 0.690491
1.000000 0.943008 0.877968
0.000000 0.974377 0.696882
0.000000 0.974811 0.694049
0.000000 0.974075 0.684390
0.000000 0.973089 0.665062
0.000000 0.967763 0.628510
0.841655 0.948468 0.548279
1.000000 0.936984 0.518521
1.000000 0.943506 0.748190
1.000000 0.958252 0.887444
0.426654 1.000000 0.903235
0.448736 1.000000 0.903314
0.466523 1.000000 0.903287
0.516140 1.000000 0.899832
0.618932 1.000000 0.890467
0.780790 1.000000 0.874387
0.962280 0.991796 0.835947
1.000000 0.987372 0.818165
1.000000 0.989374 0.911982
0.828063 1.000000 0.982497
0.829516 1.000000 0.982491
0.830967 1.000000 0.982486
0.838169 1.000000 0.982088
0.850884 1.000000 0.980909
0.880435 1.000000 0.978080
0.938511 1.000000 0.969974
1.000000 1.000000 0.954524
1.000000 1.000000 0.941641
0.000000 0.000000 0.012871
0.000000 0.000000 0.000000
0.174191 0.000000 0.000000
0.407340 0.000000 0.000000
0.724543 0.000000 0.029819
1.000000 0.000000 0.120665
1.000000 0.474815 0.337286
1.000000 0.800083 0.650972
1.000000 0.933605 0.871886
0.000000 0.000000 0.031825
0.000000 0.000000 0.020905
0.146605 0.000000 0.000000
0.373434 0.000000 0.015031
0.728781 0.000000 0.031624
1.000000 0.000000 0.122069
1.000000 0.481077 0.341410
1.000000 0.801574 0.653463
1.000000 0.933605 0.871886
0.000000 0.118230 0.052191
0.000000 0.108889 0.028448
0.111276 0.096867 0.000000
0.379441 0.000000 0.012942
0.724439 0.000000 0.030194
1.000000 0.000000 0.123947
1.000000 0.490531 0.343089
1.000000 0.804578 0.653459
1.000000 0.934177 0.871898
0.000000 0.302173 0.087999
0.000000 0.288825 0.000000
0.000000 0.288315 0.000000
0.374687 0.261402 0.000000
0.746089 0.198097 0.000000
1.000000 0.156351 0.126140
1.000000 0.523624 0.353725
1.000000 0.809113 0.660718
1.000000 0.934748 0.871911
0.000000 0.561938 0.185938
0.000000 0.565600 0.113413
0.000000 0.558181 0.000000
0.000000 0.565656 0.000000
0.732123 0.516760 0.000000
1.000000 0.519567 0.105119
1.000000 0.608530 0.365316
1.000000 0.823651 0.668181
1.000000 0.936443 0.872956
0.000000 0.841151 0.395880
0.000000 0.843402 0.377355
0.000000 0.847770 0.355216
0.000000 0.850705 0.307371
0.437169 0.835154 0.207415
0.955254 0.801045 0.085290
1.000000 0.818813 0.412829
1.000000 0.864649 0.692828
1.000000 0.943008 0.877968
0.000000 0.974368 0.709476
0.000000 0.974823 0.703560
0.000000 0.974083 0.697261
0.000000 0.973019 0.681592
0.000000 0.968568 0.642732
0.838425 0.948562 0.564301
1.000000 0.936963 0.526291
1.000000 0.943420 0.749447
1.000000 0.958252 0.887444
0.426360 1.000000 0.905457
0.448596 1.000000 0.904426
0.466523 1.000000 0.903287
0.515892 1.000000 0.902089
0.618708 1.000000 0.892833
0.780790 1.000000 0.874387
0.962192 0.991789 0.837485
1.000000 0.987365 0.819471
1.000000 0.989369 0.912720
0.828049 1.000000 0.982865
0.829502 1.000000 0.982860
0.830967 1.000000 0.982486
0.838169 1.000000 0.982088
0.850884 1.000000 0.980909
0.880411 1.000000 0.978483
0.938511 1.000000 0.969974
1.000000 1.000000 0.955085
1.000000 1.000000 0.941641
0.000000 0.000000 0.084386
0.000000 0.000000 0.047537
0.145934 0.000000 0.044521
0.374266 0.000000 0.045430
0.707946 0.000000 0.061525
1.000000 0.000000 0.148113
1.000000 0.473259 0.355020
1.000000 0.800057 0.655967
1.000000 0.934197 0.873833
0.000000 0.000000 0.096207
0.000000 0.000000 0.069185
0.115192 0.000000 0.060042
0.346047 0.000000 0.060797
0.716422 0.000000 0.068806
1.000000 0.000000 0.148277
1.000000 0.479565 0.357051
1.000000 0.801548 0.658461
1.000000 0.933599 0.872893
0.000000 0.137204 0.193845
0.000000 0.123658 0.179166
0.048131 0.101857 0.137606
0.334740 0.000000 0.090334
0.707750 0.000000 0.077008
1.000000 0.000000 0.152405
1.000000 0.490443 0.362233
1.000000 0.803051 0.658455
1.000000 0.934171 0.872904
0.000000 0.329501 0.276054
0.000000 0.307379 0.250949
0.000000 0.301179 0.176827
0.300000 0.289459 0.102878
0.728361 0.214583 0.073117
1.000000 0.156033 0.157592
1.000000 0.523561 0.368593
1.000000 0.807534 0.660945
1.000000 0.934741 0.872916
0.000000 0.569036 0.334246
0.000000 0.569125 0.274028
0.000000 0.569081 0.221778
0.000000 0.577035 0.115980
0.700051 0.534783 0.000000
1.000000 0.523150 0.162067
1.000000 0.608473 0.383632
1.000000 0.823638 0.670633
1.000000 0.936437 0.873955
0.000000 0.843378 0.455622
0.000000 0.845621 0.440712
0.000000 0.847700 0.414728
0.000000 0.852997 0.374538
0.413437 0.840119 0.270928
0.952503 0.808207 0.183632
1.000000 0.820779 0.435681
1.000000 0.864217 0.696520
1.000000 0.943002 0.878924
0.000000 0.975194 0.730944
0.000000 0.974791 0.722018
0.000000 0.974139 0.712898
0.000000 0.973039 0.697663
0.000000 0.968660 0.659640
0.832435 0.948802 0.580355
1.000000 0.937835 0.544535
1.000000 0.943394 0.755238
1.000000 0.958247 0.888338
0.429427 1.000000 0.908827
0.448189 1.000000 0.907717
0.466126 1.000000 0.906600
0.510568 1.000000 0.903216
0.618378 1.000000 0.896332
0.780497 1.000000 0.878249
0.961932 0.991765 0.842041
1.000000 0.987680 0.823871
1.000000 0.989369 0.912720
0.828036 1.000000 0.983231
0.829502 1.000000 0.982860
0.830952 1.000000 0.982855
0.838152 1.000000 0.982460
0.850866 1.000000 0.981290
0.879162 1.000000 0.978487
0.938522 1.000000 0.970496
1.000000 1.000000 0.955643
1.000000 1.000000 0.941641
0.000000 0.000000 0.168594
0.000000 0.000000 0.089327
0.103696 0.000000 0.073281
0.379526 0.000000 0.069739
0.684823 0.000000 0.145843
1.000000 0.000000 0.216117
1.000000 0.468732 0.390433
1.000000 0.799153 0.667406
1.000000 0.934184 0.875804
0.000000 0.000000 0.200763
0.000000 0.000000 0.138205
0.080792 0.000000 0.116694
0.333522 0.000000 0.109236
0.685261 0.000000 0.175483
1.000000 0.000000 0.220502
1.000000 0.476546 0.390855
1.000000 0.801494 0.668458
1.000000 0.934184 0.875804
0.000000 0.105426 0.292762
0.000000 0.093074 0.257043
0.000000 0.077796 0.238282
0.331403 0.000000 0.215191
0.689823 0.000000 0.205106
1.000000 0.000000 0.226529
1.000000 0.486148 0.392968
1.000000 0.802984 0.670946
1.000000 0.934184 0.875804
0.000000 0.360929 0.452781
0.000000 0.335782 0.426320
0.000000 0.314768 0.410450
0.205625 0.300709 0.366204
0.693726 0.226909 0.278918
1.000000 0.169464 0.246629
1.000000 0.520884 0.406077
1.000000 0.807467 0.673417
1.000000 0.935302 0.876800
0.000000 0.608849 0.555346
0.000000 0.590434 0.534060
0.000000 0.586768 0.508381
0.000000 0.588631 0.425387
0.638006 0.565597 0.326646
1.000000 0.523067 0.284946
1.000000 0.606486 0.423246
1.000000 0.823574 0.682884
1.000000 0.936425 0.875941
0.000000 0.849876 0.606765
0.000000 0.847500 0.599237
0.000000 0.849630 0.568912
0.000000 0.855181 0.516281
0.348342 0.847622 0.421564
0.939236 0.815517 0.339037
1.000000 0.822325 0.478552
1.000000 0.864160 0.708209
1.000000 0.942530 0.879035
0.000000 0.975097 0.777324
0.000000 0.975667 0.772426
0.000000 0.975048 0.767259
0.000000 0.973837 0.748596
0.000000 0.969488 0.702056
0.827274 0.949697 0.627141
1.000000 0.938626 0.583246
1.000000 0.943351 0.764754
1.000000 0.958236 0.890122
0.422087 1.000000 0.916209
0.434833 1.000000 0.916190
0.459401 1.000000 0.914083
0.504588 1.000000 0.909782
0.613713 1.000000 0.903139
0.777683 1.000000 0.885795
0.960712 0.991789 0.847925
1.000000 0.987980 0.830218
1.000000 0.989357 0.914925
0.827998 1.000000 0.984309
0.827998 1.000000 0.984309
0.830925 1.000000 0.983583
0.836694 1.000000 0.983199
0.850830 1.000000 0.982042
0.879093 1.000000 0.979672
0.938428 1.000000 0.971900
1.000000 1.000000 0.956750
1.000000 1.000000 0.942663
0.000000 0.000000 0.233944
0.000000 0.000000 0.180363
0.057454 0.000000 0.157534
0.316865 0.000000 0.145105
0.726823 0.000000 0.128648
1.000000 0.000000 0.391792
1.000000 0.463738 0.490903
1.000000 0.796570 0.704083
1.000000 0.934153 0.880660
0.000000 0.034755 0.305664
0.000000 0.031384 0.258227
0.000000 0.020978 0.235528
0.295339 0.000000 0.226490
0.677798 0.000000 0.197089
1.000000 0.000000 0.407102
1.000000 0.470246 0.493701
1.000000 0.798102 0.704054
1.000000 0.934153 0.880660
0.000000 0.098288 0.401027
0.000000 0.088193 0.350766
0.000000 0.081864 0.337479
0.265605 0.000000 0.335861
0.667518 0.000000 0.307423
1.000000 0.000000 0.422550
1.000000 0.484647 0.496767
1.000000 0.799631 0.704026
1.000000 0.934147 0.881618
0.000000 0.318378 0.581328
0.000000 0.296220 0.537884
0.000000 0.279750 0.531232
0.000000 0.261481 0.531656
0.684516 0.104588 0.494977
1.000000 0.131557 0.456761
1.000000 0.517489 0.507753
1.000000 0.804194 0.706429
1.000000 0.935271 0.881626
0.000000 0.667443 0.769365
0.000000 0.637704 0.742464
0.000000 0.607963 0.727209
0.000000 0.599429 0.706453
0.510943 0.578346 0.665502
0.986062 0.530337 0.547395
1.000000 0.610049 0.529852
1.000000 0.819895 0.714420
1.000000 0.936940 0.882593
0.000000 0.866575 0.831533
0.000000 0.862223 0.829591
0.000000 0.864253 0.820487
0.000000 0.863296 0.799097
0.000000 0.853144 0.729992
0.899316 0.825419 0.638970
1.000000 0.820722 0.595298
1.000000 0.861525 0.735806
1.000000 0.942961 0.885493
0.000000 0.977723 0.866081
0.000000 0.977413 0.860987
0.000000 0.976855 0.855698
0.000000 0.975598 0.842725
0.000000 0.969843 0.814173
0.805614 0.953513 0.740267
1.000000 0.940119 0.686899
1.000000 0.943080 0.789315
1.000000 0.958215 0.893682
0.403921 1.000000 0.936066
0.417242 1.000000 0.935187
0.436350 1.000000 0.934289
0.494322 1.000000 0.930639
0.609374 1.000000 0.921042
0.768360 1.000000 0.905286
0.958364 0.992066 0.870342
1.000000 0.988540 0.849695
1.000000 0.989601 0.920118
0.825033 1.000000 0.986050
0.826490 1.000000 0.986044
0.827954 1.000000 0.985701
0.835186 1.000000 0.985332
0.848406 1.000000 0.984601
0.877711 1.000000 0.981963
0.938263 1.000000 0.975069
1.000000 1.000000 0.960507
1.000000 1.000000 0.946774
0.000000 0.066918 0.428010
0.000000 0.062911 0.418019
0.000000 0.055323 0.411393
0.199895 0.000000 0.403924
0.631547 0.000000 0.376077
1.000000 0.000000 0.299867
1.000000 0.406835 0.697629
1.000000 0.793647 0.778842
1.000000 0.932879 0.894986
0.000000 0.102216 0.493243
0.000000 0.100328 0.482675
0.000000 0.092559 0.475740
0.156953 0.058619 0.471732
0.636048 0.000000 0.451179
1.000000 0.000000 0.394122
1.000000 0.416924 0.700717
1.000000 0.795179 0.780940
1.000000 0.932879 0.894986
0.000000 0.153530 0.553577
0.000000 0.148084 0.542724
0.000000 0.139580 0.539257
0.083486 0.124573 0.538973
0.628259 0.000000 0.524751
1.000000 0.000000 0.488511
1.000000 0.435132 0.710411
1.000000 0.796726 0.780879
1.000000 0.933488 0.895624
0.000000 0.270991 0.665613
0.000000 0.271002 0.661855
0.000000 0.264110 0.662098
0.000000 0.252986 0.662262
0.600974 0.141838 0.659923
1.000000 0.000000 0.630486
1.000000 0.476889 0.725559
1.000000 0.800526 0.784532
1.000000 0.934610 0.896530
0.000000 0.585282 0.844746
0.000000 0.570508 0.836423
0.000000 0.570446 0.838737
0.000000 0.558772 0.839291
0.426553 0.532111 0.829109
0.984169 0.444130 0.792617
1.000000 0.575488 0.758384
1.000000 0.815123 0.793932
1.000000 0.936842 0.897425
0.000000 0.904576 0.936053
0.000000 0.890310 0.926094
0.000000 0.880620 0.923268
0.000000 0.876150 0.922319
0.000000 0.863885 0.908055
0.836340 0.829486 0.879315
1.000000 0.816524 0.821793
1.000000 0.857744 0.807060
1.000000 0.942867 0.900128
0.000000 0.984528 0.960277
0.000000 0.984290 0.960255
0.000000 0.984654 0.959443
0.000000 0.982953 0.956340
0.000000 0.976621 0.946427
0.743572 0.958315 0.914469
0.983433 0.943936 0.873600
1.000000 0.942986 0.853516
1.000000 0.957984 0.907409
0.348684 1.000000 0.970679
0.366195 1.000000 0.970109
0.380573 1.000000 0.969533
0.454261 1.000000 0.968283
0.578863 1.000000 0.962682
0.751860 1.000000 0.950894
0.948407 0.992850 0.921303
1.000000 0.988635 0.896651
1.000000 0.990046 0.932662
0.822688 1.000000 0.991908
0.824135 1.000000 0.991902
0.824135 1.000000 0.991902
0.828460 1.000000 0.991605
0.844052 1.000000 0.990685
0.875181 1.000000 0.988466
0.936065 1.000000 0.982932
0.998872 1.000000 0.969948
1.000000 1.000000 0.956374
0.000000 0.245890 0.780220
0.000000 0.247721 0.776941
0.000000 0.244671 0.776927
0.000000 0.229282 0.773635
0.491721 0.154812 0.761854
0.989026 0.000000 0.738779
1.000000 0.000000 0.663552
1.000000 0.766586 0.901763
1.000000 0.930251 0.928120
0.000000 0.267877 0.797826
0.000000 0.269908 0.794729
0.000000 0.269300 0.791650
0.000000 0.256100 0.791575
0.484463 0.192436 0.786664
0.988255 0.000000 0.758323
1.000000 0.000000 0.697652
1.000000 0.768296 0.901668
1.000000 0.930244 0.928935
0.000000 0.299123 0.813876
0.000000 0.298855 0.813845
0.000000 0.298303 0.810997
0.000000 0.287334 0.810921
0.471130 0.232995 0.806499
0.986123 0.000000 0.791450
1.000000 0.000000 0.736994
1.000000 0.771697 0.902721
1.000000 0.930833 0.928910
0.000000 0.371994 0.853214
0.000000 0.371788 0.853186
0.000000 0.374492 0.855254
0.000000 0.366292 0.855278
0.411337 0.326189 0.854315
0.974221 0.124142 0.838930
1.000000 0.203995 0.809882
1.000000 0.778407 0.906027
1.000000 0.930833 0.928910
0.000000 0.541156 0.910126
0.000000 0.541063 0.910113
0.000000 0.540873 0.911629
0.000000 0.539641 0.911463
0.228321 0.515894 0.909627
0.939285 0.429933 0.903478
1.000000 0.445306 0.881133
1.000000 0.798923 0.912080
1.000000 0.933752 0.929597
0.000000 0.851037 0.967575
0.000000 0.853197 0.968155
0.000000 0.855257 0.967224
0.000000 0.847821 0.969131
0.000000 0.838016 0.968918
0.788267 0.799799 0.959587
1.000000 0.764918 0.942875
1.000000 0.850275 0.923601
1.000000 0.940253 0.932673
0.000000 0.994839 0.992747
0.000000 0.992759 0.992186
0.000000 0.990540 0.992726
0.000000 0.989235 0.993095
0.000000 0.984006 0.991988
0.669383 0.964057 0.985569
0.963887 0.945732 0.972514
1.000000 0.942603 0.953074
1.000000 0.957463 0.941837
0.174176 1.000000 1.000000
0.200890 1.000000 1.000000
0.246353 1.000000 1.000000
0.322944 1.000000 0.999806
0.512963 1.000000 0.998557
0.712171 1.000000 0.995246
0.930355 0.994878 0.985591
1.000000 0.990511 0.971457
1.000000 0.989806 0.961227
0.811180 1.000000 1.000000
0.811180 1.000000 1.000000
0.812580 1.000000 1.000000
0.819726 1.000000 1.000000
0.832983 1.000000 1.000000
0.866856 1.000000 0.999604
0.930110 1.000000 0.996404
0.995724 1.000000 0.987419
1.000000 1.000000 0.977184
0.000000 0.518764 0.961763
0.000000 0.514579 0.960858
0.000000 0.517701 0.960612
0.000000 0.515293 0.960325
0.459656 0.494274 0.959768
0.856673 0.426024 0.957840
1.000000 0.367168 0.945493
1.000000 0.552832 0.910922
1.000000 0.920830 0.982207
0.000000 0.526168 0.963416
0.000000 0.525690 0.963356
0.000000 0.525122 0.962287
0.000000 0.522758 0.962005
0.453614 0.505672 0.961304
0.854250 0.438652 0.958455
1.000000 0.383614 0.948378
1.000000 0.560023 0.916893
1.000000 0.920830 0.982207
0.000000 0.537420 0.965823
0.000000 0.536964 0.965766
0.000000 0.536340 0.965689
0.000000 0.534037 0.965414
0.431895 0.521602 0.964633
0.845970 0.460207 0.961769
1.000000 0.395324 0.953331
1.000000 0.574930 0.922398
1.000000 0.921456 0.982589
0.000000 0.582331 0.971820
0.000000 0.581829 0.971757
0.000000 0.581275 0.971689
0.000000 0.571678 0.972690
0.401128 0.567577 0.971620
0.830331 0.510640 0.968337
1.000000 0.447970 0.961606
1.000000 0.608820 0.934608
1.000000 0.922708 0.982925
0.000000 0.673082 0.982525
0.000000 0.672675 0.983182
0.000000 0.668344 0.983331
0.000000 0.662851 0.983342
0.280964 0.660340 0.981713
0.779083 0.614663 0.981387
1.000000 0.567103 0.975519
1.000000 0.679257 0.958100
1.000000 0.925819 0.983948
0.000000 0.832577 0.994801
0.000000 0.832349 0.994776
0.000000 0.829308 0.994876
0.000000 0.825676 0.995390
0.000000 0.815678 0.994265
0.673431 0.791844 0.994171
1.000000 0.748801 0.990855
1.000000 0.783644 0.980822
1.000000 0.934323 0.985350
0.000000 0.978981 1.000000
0.000000 0.977956 1.000000
0.000000 0.977499 1.000000
0.000000 0.975304 1.000000
0.000000 0.971254 1.000000
0.571181 0.956234 1.000000
0.947228 0.933685 1.000000
1.000000 0.921562 0.996397
1.000000 0.953105 0.989173
0.000000 1.000000 1.000000
0.000000 1.000000 1.000000
0.000000 1.000000 1.000000
0.000000 1.000000 1.000000
0.000000 1.000000 1.000000
0.603981 1.000000 1.000000
0.901274 0.997630 1.000000
1.000000 0.991073 1.000000
1.000000 0.989944 0.997191
0.781246 1.000000 1.000000
0.782604 1.000000 1.000000
0.782604 1.000000 1.000000
0.789372 1.000000 1.000000
0.803929 1.000000 1.000000
0.842731 1.000000 1.000000
0.912805 1.000000 1.000000
0.990773 1.000000 1.000000
1.000000 1.000000 1.000000
0.491940 0.801213 1.000000
0.506964 0.800721 1.000000
0.521623 0.800222 1.000000
0.551819 0.796572 1.000000
0.642580 0.787452 1.000000
0.804847 0.778690 1.000000
0.998247 0.748391 1.000000
1.000000 0.734439 1.000000
1.000000 0.844366 0.988968
0.491940 0.801213 1.000000
0.506964 0.800721 1.000000
0.521866 0.800277 1.000000
0.550189 0.799254 1.000000
0.641146 0.790221 1.000000
0.803651 0.781491 1.000000
0.997237 0.751393 1.000000
1.000000 0.736945 1.000000
1.000000 0.844898 0.989756
0.488252 0.806455 1.000000
0.495884 0.806212 1.000000
0.520149 0.802919 1.000000
0.548581 0.801899 1.000000
0.638182 0.795592 1.000000
0.802466 0.784256 1.000000
0.995838 0.751503 1.000000
1.000000 0.739345 1.000000
1.000000 0.847795 0.990397
0.480875 0.816455 1.000000
0.488654 0.816215 1.000000
0.511368 0.815485 1.000000
0.542124 0.812068 1.000000
0.638446 0.805758 1.000000
0.797780 0.794825 1.000000
0.989556 0.765872 1.000000
1.000000 0.754440 1.000000
1.000000 0.851823 0.992471
0.450738 0.844146 1.000000
0.459501 0.843955 1.000000
0.475837 0.843493 1.000000
0.516265 0.840144 1.000000
0.622722 0.834035 1.000000
0.783260 0.819461 1.000000
0.974138 0.796975 1.000000
1.000000 0.783616 1.000000
1.000000 0.863420 0.995696
0.386330 0.890775 1.000000
0.386330 0.890775 1.000000
0.405998 0.890358 1.000000
0.469514 0.887189 1.000000
0.578311 0.882158 1.000000
0.758923 0.870839 1.000000
0.948330 0.851232 1.000000
1.000000 0.841532 1.000000
1.000000 0.884876 1.000000
0.316927 0.956093 1.000000
0.328887 0.955918 1.000000
0.353668 0.955552 1.000000
0.403038 0.954648 1.000000
0.518295 0.952793 1.000000
0.702391 0.942373 1.000000
0.909272 0.929608 1.000000
1.000000 0.917562 1.000000
1.000000 0.928412 1.000000
0.443279 1.000000 1.000000
0.452483 1.000000 1.000000
0.471546 1.000000 1.000000
0.501467 1.000000 1.000000
0.574555 1.000000 1.000000
0.699224 1.000000 1.000000
0.868136 0.995132 1.000000
0.996135 0.986198 1.000000
1.000000 0.982650 1.000000
0.656318 1.000000 1.000000
0.658378 1.000000 1.000000
0.657946 1.000000 1.000000
0.666955 1.000000 1.000000
0.698404 1.000000 1.000000
0.765724 1.000000 1.000000
0.870327 1.000000 1.000000
0.981649 1.000000 1.000000
1.000000 1.000000 1.000000
