Assets/Lutify-Free-LUTs-Pack/Lutify Free LUTs Pack/Cine World Pro Warm - Amy/Lutify.me-Amy-SLog2-to-Rec709.cube
# Created with: fylm.ai - Colour Grading and Collaboration Software in Cloud 
# Website: https://fylm.ai 
# META
# Option: Gamut compress
# Block 1: IDT | Sony S-Log2 S-Gamut Daylight 10-bit
# Block 2: colourMatch | Blending Mode: Normal | {"ColorSpace":0,"CrossCovarianceLimit":50,"ReshapingIterations":1,"PercentSaturationShift":100,"PercentShadingShift":100,"ExtraShading":true,"PercentTint":100,"PercentModified":100}
# Block 3: LUT | Filmic Curve Response: Standard Contrast 1 (100%)
# Block 4: LUT | Illuminant: D60 (100%)
# Block 5: hueSaturation | Blending Mode: Normal | {"hue":0,"saturation":-0.15}
# Block 6: logPrimaries | Blending Mode: Normal | {"wheels":{"shadows":{"Y":"0","R":"1","G":"1","B":"1"},"midtones":{"Y":"0","R":"1","G":"1","B":"1"},"highlights":{"Y":"0","R":"1","G":"1","B":"1"},"offset":{"Y":"0","R":"1","G":"1","B":"1"}},"sliders":{"shadows":{"Y":0,"R":-0.097,"G":0,"B":0.158},"midtones":{"Y":0,"R":0.024,"G":0.024,"B":-0.036},"highlights":{"Y":0,"R":0.154,"G":-0.084,"B":-0.024},"offset":{"Y":0.048,"R":0,"G":0,"B":0}}}
# Block 7: smartCurves | Blending Mode: Average | [[{"x":0,"y":0},{"x":0.11328125,"y":0.085540771484375},{"x":0.21484375,"y":0.218353271484375},{"x":0.37109375,"y":0.382415771484375},{"x":0.62109375,"y":0.589447021484375},{"x":0.8125,"y":0.765228271484375},{"x":1,"y":1}],[{"x":0,"y":0},{"x":1,"y":1}],[{"x":0,"y":0},{"x":1,"y":1}],[{"x":0,"y":0},{"x":1,"y":1}]]
# Block 8: LUT | Neutral Tint: Teal Tint 4 (100%)
# Block 9: contrast | Blending Mode: Normal | {"contrast":0.1}
# Block 10: ODT | Rec709
TITLE "Lutify.me-Amy-SLog2-to-Rec709" 
LUT_3D_SIZE 33
0.000000 0.000000 0.000000
0.000000 0.000000 0.000000
0.000000 0.000000 0.000000
0.032013 0.000000 0.000000
0.149905 0.000000 0.000000
0.237318 0.000000 0.000000
0.323840 0.000000 0.000000
0.381325 0.000000 0.000000
0.431766 0.000000 0.000000
0.490009 0.000000 0.000000
0.538835 0.000000 0.000000
0.578513 0.000000 0.000000
0.619312 0.000000 0.000000
0.677777 0.000000 0.000000
0.745826 0.000000 0.024005
0.827201 0.000000 0.041776
0.899015 0.000000 0.063571
0.949996 0.000000 0.092391
1.000000 0.000000 0.121063
1.000000 0.000000 0.155831
1.000000 0.000000 0.195364
1.000000 0.191103 0.231586
1.000000 0.298596 0.279021
1.000000 0.389485 0.334873
1.000000 0.459108 0.387547
1.000000 0.526887 0.439689
1.000000 0.596999 0.490689
1.000000 0.663710 0.546244
1.000000 0.720917 0.605470
1.000000 0.765096 0.666784
1.000000 0.800810 0.708981
1.000000 0.831755 0.751710
1.000000 0.862026 0.791890
0.000000 0.000000 0.000000
0.000000 0.000000 0.000000
0.000000 0.000000 0.000000
0.000000 0.000000 0.000000
0.136572 0.000000 0.000000
0.222458 0.000000 0.000000
0.308523 0.000000 0.000000
0.373180 0.000000 0.000000
0.419275 0.000000 0.000000
0.465076 0.000000 0.000000
0.527247 0.000000 0.000000
0.578596 0.000000 0.000000
0.619366 0.000000 0.000000
0.677797 0.000000 0.000000
0.750066 0.000000 0.020295
0.835576 0.000000 0.039504
0.902409 0.000000 0.062358
0.949655 0.000000 0.092279
1.000000 0.000000 0.120386
1.000000 0.000000 0.156033
1.000000 0.000000 0.194759
1.000000 0.208743 0.230911
1.000000 0.307094 0.278588
1.000000 0.393187 0.334676
1.000000 0.462557 0.387369
1.000000 0.530186 0.439520
1.000000 0.600125 0.490531
1.000000 0.666489 0.549059
1.000000 0.723262 0.608333
1.000000 0.765096 0.666784
1.000000 0.800810 0.708981
1.000000 0.833169 0.751688
1.000000 0.863165 0.791875
0.000000 0.000000 0.000000
0.000000 0.000000 0.000000
0.000000 0.000000 0.000000
0.000000 0.000000 0.000000
0.122171 0.000000 0.000000
0.205658 0.000000 0.000000
0.298080 0.000000 0.000000
0.357500 0.000000 0.000000
0.407200 0.000000 0.000000
0.461660 0.000000 0.000000
0.523468 0.000000 0.000000
0.574656 0.000000 0.000000
0.623539 0.000000 0.000000
0.682020 0.000000 0.000000
0.750028 0.000000 0.014928
0.826989 0.000000 0.038340
0.898471 0.000000 0.060598
0.949327 0.000000 0.090056
1.000000 0.000000 0.121099
1.000000 0.000000 0.155464
1.000000 0.062255 0.193166
1.000000 0.219890 0.230438
1.000000 0.315488 0.278143
1.000000 0.396886 0.334477
1.000000 0.466007 0.387189
1.000000 0.533473 0.442226
1.000000 0.601300 0.491243
1.000000 0.667588 0.549806
1.000000 0.723262 0.608333
1.000000 0.767054 0.666735
1.000000 0.802464 0.708951
1.000000 0.833169 0.751688
1.000000 0.863165 0.791875
0.000000 0.000000 0.000000
0.000000 0.000000 0.000000
0.000000 0.000000 0.000000
0.000000 0.000000 0.000000
0.102837 0.000000 0.000000
0.183746 0.000000 0.000000
0.276352 0.000000 0.000000
0.352515 0.000000 0.000000
0.410222 0.000000 0.000000
0.458303 0.000000 0.000000
0.516017 0.000000 0.000000
0.578764 0.000000 0.000000
0.627709 0.000000 0.000000
0.682042 0.000000 0.000000
0.745724 0.000000 0.000000
0.822604 0.000000 0.035643
0.898139 0.000000 0.057920
0.952181 0.000000 0.089110
1.000000 0.000000 0.119658
1.000000 0.000000 0.155762
1.000000 0.081624 0.192938
1.000000 0.228442 0.229106
1.000000 0.323790 0.277685
1.000000 0.404270 0.334071
1.000000 0.472898 0.389595
1.000000 0.536780 0.442056
1.000000 0.604418 0.491085
1.000000 0.667588 0.549806
1.000000 0.725613 0.608249
1.000000 0.767054 0.666735
1.000000 0.802464 0.708951
1.000000 0.833169 0.751688
1.000000 0.863165 0.791875
0.000000 0.055902 0.000000
0.000000 0.054559 0.000000
0.000000 0.051078 0.000000
0.000000 0.047537 0.000000
0.069264 0.037481 0.000000
0.169915 0.000000 0.000000
0.262534 0.000000 0.000000
0.347551 0.000000 0.000000
0.410371 0.000000 0.000000
0.465357 0.000000 0.000000
0.527621 0.000000 0.000000
0.582898 0.000000 0.000000
0.627795 0.000000 0.000000
0.686283 0.000000 0.000000
0.741412 0.000000 0.000000
0.822428 0.000000 0.031625
0.894112 0.000000 0.055199
0.951721 0.000000 0.086235
1.000000 0.000000 0.120025
1.000000 0.000000 0.156320
1.000000 0.118397 0.191863
1.000000 0.233749 0.228851
1.000000 0.333065 0.279856
1.000000 0.411643 0.336177
1.000000 0.476353 0.389412
1.000000 0.536780 0.442056
1.000000 0.607541 0.490925
1.000000 0.670359 0.549680
1.000000 0.727955 0.608167
1.000000 0.769001 0.666688
1.000000 0.804096 0.711518
1.000000 0.834579 0.751667
1.000000 0.863165 0.791875
0.000000 0.094658 0.000000
0.000000 0.094673 0.000000
0.000000 0.090148 0.000000
0.000000 0.084524 0.000000
0.033961 0.071876 0.000000
0.157752 0.056016 0.000000
0.258723 0.000000 0.000000
0.352785 0.000000 0.000000
0.419853 0.000000 0.000000
0.476315 0.000000 0.000000
0.531864 0.000000 0.000000
0.591213 0.000000 0.000000
0.636226 0.000000 0.000000
0.686352 0.000000 0.000000
0.749857 0.000000 0.000000
0.822206 0.000000 0.022001
0.893776 0.000000 0.053082
0.951209 0.000000 0.085335
0.997438 0.000000 0.119614
1.000000 0.000000 0.156292
1.000000 0.153539 0.190830
1.000000 0.249149 0.228063
1.000000 0.341179 0.279380
1.000000 0.419025 0.335757
1.000000 0.479812 0.389227
1.000000 0.540092 0.441884
1.000000 0.610670 0.490765
1.000000 0.673121 0.549555
1.000000 0.730287 0.608086
1.000000 0.769001 0.666688
1.000000 0.804096 0.711518
1.000000 0.834579 0.751667
1.000000 0.864793 0.792405
0.000000 0.144135 0.000000
0.000000 0.144135 0.000000
0.000000 0.132700 0.000000
0.000000 0.126305 0.000000
0.000000 0.113374 0.000000
0.133622 0.099480 0.000000
0.253152 0.075735 0.000000
0.348587 0.000000 0.000000
0.430121 0.000000 0.000000
0.491573 0.000000 0.000000
0.552172 0.000000 0.000000
0.608036 0.000000 0.000000
0.649113 0.000000 0.000000
0.686546 0.000000 0.000000
0.749763 0.000000 0.000000
0.826143 0.000000 0.000000
0.893246 0.000000 0.046986
0.950461 0.000000 0.083400
0.996439 0.000000 0.117353
1.000000 0.000000 0.154978
1.000000 0.174442 0.189642
1.000000 0.268688 0.228809
1.000000 0.353236 0.278641
1.000000 0.426396 0.335327
1.000000 0.486734 0.388851
1.000000 0.546728 0.441538
1.000000 0.613805 0.490604
1.000000 0.678622 0.549308
1.000000 0.730287 0.608086
1.000000 0.769001 0.666688
1.000000 0.805741 0.711490
1.000000 0.835983 0.751648
1.000000 0.864793 0.792405
0.000000 0.186643 0.000000
0.000000 0.188197 0.000000
0.000000 0.180531 0.000000
0.000000 0.170238 0.000000
0.000000 0.156655 0.000000
0.078933 0.143049 0.000000
0.234880 0.128885 0.000000
0.337861 0.099724 0.000000
0.441419 0.000000 0.000000
0.514943 0.000000 0.000000
0.568949 0.000000 0.000000
0.625162 0.000000 0.000000
0.662120 0.000000 0.000000
0.703665 0.000000 0.000000
0.753957 0.000000 0.000000
0.834057 0.000000 0.000000
0.896197 0.000000 0.032723
0.952584 0.000000 0.079178
0.997833 0.000000 0.116241
1.000000 0.071269 0.153199
1.000000 0.205808 0.188122
1.000000 0.292029 0.227335
1.000000 0.369121 0.279793
1.000000 0.434745 0.338018
1.000000 0.493651 0.391261
1.000000 0.550036 0.444256
1.000000 0.620074 0.493202
1.000000 0.681359 0.549186
1.000000 0.732607 0.608007
1.000000 0.770935 0.666643
1.000000 0.807380 0.711463
1.000000 0.835983 0.751648
1.000000 0.865913 0.792393
0.000000 0.228601 0.000000
0.000000 0.228601 0.000000
0.000000 0.225169 0.000000
0.000000 0.212904 0.000000
0.000000 0.199388 0.000000
0.000000 0.184305 0.000000
0.192579 0.171557 0.000000
0.326155 0.149621 0.000000
0.434243 0.119008 0.000000
0.531806 0.058504 0.000000
0.594041 0.000000 0.000000
0.642519 0.000000 0.000000
0.679424 0.000000 0.000000
0.720906 0.000000 0.000000
0.758332 0.038302 0.000000
0.837392 0.000000 0.000000
0.898448 0.000000 0.000000
0.954085 0.000000 0.069819
0.996333 0.000000 0.112553
1.000000 0.148586 0.149236
1.000000 0.233804 0.186427
1.000000 0.314402 0.227650
1.000000 0.384848 0.278720
1.000000 0.442077 0.337576
1.000000 0.500591 0.390876
1.000000 0.557742 0.444553
1.000000 0.623224 0.493040
1.000000 0.686790 0.551894
1.000000 0.734901 0.610887
1.000000 0.772858 0.666600
1.000000 0.807380 0.711463
1.000000 0.837382 0.751631
1.000000 0.867026 0.792383
0.000000 0.265870 0.000000
0.000000 0.265870 0.000000
0.000000 0.261877 0.000000
0.000000 0.250240 0.000000
0.000000 0.240939 0.000000
0.000000 0.228086 0.000000
0.117082 0.218413 0.000000
0.302702 0.197231 0.000000
0.424261 0.173104 0.000000
0.530761 0.141218 0.000000
0.615436 0.116278 0.000000
0.672022 0.111397 0.000000
0.705173 0.136452 0.000000
0.729955 0.149441 0.000000
0.775266 0.158180 0.000000
0.840713 0.149032 0.000000
0.900123 0.156618 0.000000
0.951498 0.156048 0.045456
0.996436 0.165079 0.106363
1.000000 0.201695 0.146208
1.000000 0.279890 0.186779
1.000000 0.340335 0.227548
1.000000 0.404363 0.277298
1.000000 0.456724 0.336663
1.000000 0.514492 0.392899
1.000000 0.564378 0.447100
1.000000 0.629529 0.492714
1.000000 0.692199 0.551661
1.000000 0.740324 0.611507
1.000000 0.774767 0.666560
1.000000 0.807380 0.711463
1.000000 0.838775 0.751615
1.000000 0.867026 0.792383
0.000000 0.311941 0.000000
0.000000 0.311940 0.000000
0.000000 0.311940 0.000000
0.000000 0.297919 0.000000
0.000000 0.286774 0.000000
0.000000 0.271728 0.000000
0.000000 0.263745 0.000000
0.256068 0.246205 0.000000
0.407469 0.225364 0.000000
0.523178 0.200030 0.000000
0.621662 0.180416 0.000000
0.697515 0.163773 0.000000
0.726489 0.186076 0.000000
0.755375 0.213461 0.000000
0.775736 0.237388 0.000000
0.843716 0.230407 0.000000
0.897857 0.241088 0.000000
0.953826 0.245874 0.000000
0.994487 0.258255 0.092759
1.000000 0.275646 0.142359
1.000000 0.317005 0.185072
1.000000 0.373829 0.226563
1.000000 0.422987 0.275267
1.000000 0.470482 0.335130
1.000000 0.521473 0.392496
1.000000 0.574385 0.446563
1.000000 0.635807 0.492390
1.000000 0.697566 0.551434
1.000000 0.744831 0.611369
1.000000 0.778547 0.666485
1.000000 0.809014 0.711438
1.000000 0.838775 0.751615
1.000000 0.867014 0.794197
0.000000 0.363964 0.000000
0.000000 0.363964 0.000000
0.000000 0.363964 0.000000
0.000000 0.350147 0.000000
0.000000 0.334289 0.000000
0.000000 0.319090 0.000000
0.000000 0.311157 0.000000
0.156819 0.298889 0.000000
0.366587 0.278960 0.000000
0.510266 0.253553 0.000000
0.616703 0.240776 0.000000
0.723010 0.215661 0.000000
0.759740 0.230528 0.000000
0.788289 0.260238 0.000000
0.796223 0.284680 0.000000
0.846280 0.298100 0.000000
0.898239 0.313463 0.000000
0.952179 0.318349 0.000000
0.991466 0.332053 0.063506
1.000000 0.344450 0.133821
1.000000 0.369617 0.181219
1.000000 0.402519 0.225741
1.000000 0.445461 0.275086
1.000000 0.488010 0.333304
1.000000 0.535461 0.391672
1.000000 0.583473 0.445367
1.000000 0.648237 0.494692
1.000000 0.705520 0.554064
1.000000 0.749288 0.611240
1.000000 0.780417 0.666452
1.000000 0.812267 0.711392
1.000000 0.841545 0.751587
1.000000 0.868122 0.794187
0.000000 0.405920 0.000000
0.000000 0.405920 0.000000
0.000000 0.405920 0.000000
0.000000 0.396522 0.000000
0.000000 0.381354 0.000000
0.000000 0.361086 0.000000
0.000000 0.357961 0.000000
0.000000 0.347818 0.000000
0.301772 0.330304 0.000000
0.473807 0.310551 0.000000
0.610330 0.287066 0.000000
0.712100 0.266000 0.000000
0.796420 0.262101 0.000000
0.820098 0.295167 0.000000
0.831087 0.320537 0.000000
0.852137 0.349060 0.000000
0.902082 0.362328 0.000000
0.947519 0.377832 0.000000
0.986243 0.387695 0.000000
1.000000 0.404156 0.118039
1.000000 0.424412 0.176058
1.000000 0.446769 0.227133
1.000000 0.471771 0.274479
1.000000 0.509352 0.333791
1.000000 0.555665 0.392611
1.000000 0.600329 0.444431
1.000000 0.657463 0.494227
1.000000 0.713383 0.553754
1.000000 0.751498 0.611179
1.000000 0.784135 0.666391
1.000000 0.815499 0.711353
1.000000 0.843457 0.752214
1.000000 0.869223 0.794178
0.000000 0.452018 0.000000
0.000000 0.452018 0.000000
0.000000 0.452018 0.000000
0.000000 0.452018 0.000000
0.000000 0.428444 0.000000
0.000000 0.409078 0.000000
0.000000 0.402550 0.000000
0.000000 0.392208 0.000000
0.165533 0.378111 0.000000
0.421541 0.363541 0.000000
0.579752 0.342107 0.000000
0.701023 0.326263 0.000000
0.792314 0.315504 0.000000
0.853435 0.320758 0.000000
0.862816 0.355430 0.000000
0.871367 0.390081 0.000000
0.902102 0.410585 0.000000
0.940355 0.427331 0.000000
0.985435 0.437214 0.000000
1.000000 0.457696 0.090193
1.000000 0.481186 0.163308
1.000000 0.499023 0.221478
1.000000 0.514489 0.270864
1.000000 0.538887 0.331579
1.000000 0.576070 0.393541
1.000000 0.617267 0.443471
1.000000 0.672601 0.496434
1.000000 0.721899 0.557190
1.000000 0.758046 0.611011
1.000000 0.789672 0.666312
1.000000 0.819879 0.712733
1.000000 0.844804 0.754432
1.000000 0.871406 0.794165
0.000000 0.497237 0.000000
0.000000 0.497237 0.000000
0.000000 0.497237 0.000000
0.000000 0.497237 0.000000
0.000000 0.479674 0.000000
0.000000 0.465775 0.000000
0.000000 0.448549 0.000000
0.000000 0.441322 0.000000
0.000000 0.429170 0.000000
0.318490 0.415219 0.000000
0.526936 0.395205 0.000000
0.679378 0.375907 0.000000
0.779739 0.370760 0.000000
0.844333 0.373740 0.000000
0.894953 0.383247 0.000000
0.901882 0.418508 0.000000
0.908136 0.449799 0.000000
0.940057 0.479490 0.000000
0.972545 0.486182 0.000000
1.000000 0.502426 0.044098
1.000000 0.529129 0.146922
1.000000 0.545947 0.212119
1.000000 0.564437 0.268442
1.000000 0.583168 0.328014
1.000000 0.604471 0.391714
1.000000 0.640961 0.445058
1.000000 0.690347 0.498567
1.000000 0.734463 0.556759
1.000000 0.764451 0.613819
1.000000 0.795742 0.669875
1.000000 0.823010 0.715257
1.000000 0.848847 0.754409
1.000000 0.874620 0.795949
0.000000 0.551071 0.000000
0.000000 0.551071 0.000000
0.000000 0.551071 0.000000
0.000000 0.551071 0.000000
0.000000 0.543803 0.000000
0.000000 0.525739 0.000000
0.000000 0.500752 0.000000
0.000000 0.493432 0.000000
0.000000 0.492386 0.000000
0.068870 0.470952 0.000000
0.449616 0.453362 0.000000
0.633200 0.435617 0.000000
0.757547 0.426520 0.000000
0.834645 0.429512 0.000000
0.887928 0.439696 0.000000
0.932870 0.455799 0.000000
0.931454 0.491854 0.000000
0.936777 0.527404 0.000000
0.973003 0.546142 0.000000
0.999429 0.566235 0.000000
1.000000 0.580620 0.112405
1.000000 0.596613 0.196324
1.000000 0.613995 0.265689
1.000000 0.631571 0.327302
1.000000 0.651009 0.389300
1.000000 0.674318 0.446878
1.000000 0.708244 0.501517
1.000000 0.744245 0.556462
1.000000 0.772799 0.613664
1.000000 0.799344 0.669842
1.000000 0.829225 0.715225
1.000000 0.852809 0.756610
1.000000 0.876735 0.795948
0.000000 0.606148 0.000000
0.000000 0.606148 0.000000
0.000000 0.606148 0.000000
0.000000 0.606148 0.000000
0.000000 0.606148 0.000000
0.000000 0.591377 0.000000
0.000000 0.562006 0.000000
0.000000 0.547285 0.000000
0.000000 0.542970 0.000000
0.000000 0.533215 0.000000
0.283764 0.516917 0.000000
0.552940 0.500890 0.000000
0.725030 0.486802 0.000000
0.811603 0.490028 0.000000
0.873685 0.496098 0.000000
0.921805 0.508314 0.000000
0.953991 0.526587 0.000000
0.950353 0.566415 0.000000
0.966085 0.589795 0.000000
0.995245 0.609736 0.000000
1.000000 0.630924 0.000000
1.000000 0.650173 0.173784
1.000000 0.662203 0.251573
1.000000 0.674608 0.324323
1.000000 0.691448 0.390413
1.000000 0.707733 0.444527
1.000000 0.726923 0.503042
1.000000 0.758423 0.556112
1.000000 0.785397 0.614313
1.000000 0.808233 0.669795
1.000000 0.833815 0.715222
1.000000 0.858008 0.756619
1.000000 0.878822 0.795954
0.000000 0.665621 0.000000
0.000000 0.665621 0.000000
0.000000 0.665621 0.000000
0.000000 0.665621 0.000000
0.000000 0.665621 0.000000
0.000000 0.658170 0.000000
0.000000 0.620972 0.000000
0.000000 0.606074 0.000000
0.000000 0.598292 0.000000
0.000000 0.589379 0.000000
0.000000 0.574435 0.000000
0.424371 0.555672 0.000000
0.662114 0.537846 0.000000
0.788753 0.538716 0.000000
0.853658 0.552652 0.000000
0.907017 0.560555 0.000000
0.944593 0.574494 0.000000
0.966474 0.589710 0.000000
0.966094 0.625152 0.000000
0.984131 0.656443 0.000000
1.000000 0.672855 0.000000
1.000000 0.689359 0.134821
1.000000 0.700190 0.238381
1.000000 0.711119 0.316475
1.000000 0.722373 0.388811
1.000000 0.736559 0.446396
1.000000 0.752526 0.501562
1.000000 0.775812 0.558050
1.000000 0.797009 0.617217
1.000000 0.818653 0.669815
1.000000 0.839831 0.715248
1.000000 0.861814 0.758831
1.000000 0.882280 0.798269
0.000000 0.713910 0.000000
0.000000 0.713910 0.000000
0.000000 0.713910 0.000000
0.000000 0.713910 0.000000
0.000000 0.713910 0.000000
0.000000 0.713910 0.000000
0.000000 0.691696 0.000000
0.000000 0.658145 0.000000
0.000000 0.646743 0.000000
0.000000 0.634648 0.000000
0.000000 0.628344 0.000000
0.268845 0.611678 0.000000
0.539208 0.598545 0.000000
0.752423 0.584337 0.000000
0.831196 0.597435 0.000000
0.887747 0.608892 0.000000
0.926215 0.626300 0.000000
0.954160 0.644860 0.000000
0.972867 0.660102 0.000000
0.980495 0.689759 0.000000
0.999238 0.707824 0.000000
1.000000 0.726157 0.065293
1.000000 0.734703 0.209747
1.000000 0.749890 0.299798
1.000000 0.761583 0.381665
1.000000 0.770823 0.449434
1.000000 0.783268 0.507295
1.000000 0.798334 0.560314
1.000000 0.813447 0.616563
1.000000 0.829634 0.671441
1.000000 0.850425 0.718583
1.000000 0.868752 0.762272
1.000000 0.887363 0.800079
0.000000 0.755863 0.000000
0.000000 0.755863 0.000000
0.000000 0.755863 0.000000
0.000000 0.755863 0.000000
0.000000 0.755863 0.000000
0.000000 0.755863 0.000000
0.000000 0.755863 0.000000
0.000000 0.721158 0.000000
0.000000 0.702735 0.000000
0.000000 0.687281 0.000000
0.000000 0.677826 0.000000
0.000000 0.662834 0.000000
0.413742 0.652268 0.000000
0.645510 0.634017 0.000000
0.783053 0.643758 0.000000
0.858069 0.657635 0.000000
0.905917 0.673692 0.000000
0.934740 0.694246 0.000000
0.959340 0.704016 0.000000
0.982346 0.717472 0.000000
0.995721 0.740312 0.000000
1.000000 0.756107 0.000000
1.000000 0.768953 0.176501
1.000000 0.781144 0.277526
1.000000 0.793232 0.367330
1.000000 0.802752 0.444064
1.000000 0.813165 0.511691
1.000000 0.823692 0.560987
1.000000 0.834375 0.622278
1.000000 0.844824 0.675953
1.000000 0.860097 0.723762
1.000000 0.874652 0.762395
1.000000 0.892378 0.800157
0.000000 0.802532 0.000000
0.000000 0.802532 0.000000
0.000000 0.802532 0.000000
0.000000 0.802532 0.000000
0.000000 0.802532 0.000000
0.000000 0.802532 0.000000
0.000000 0.802532 0.000000
0.000000 0.793759 0.000000
0.000000 0.762441 0.000000
0.000000 0.748758 0.000000
0.000000 0.740777 0.000000
0.000000 0.730854 0.000000
0.205593 0.718599 0.000000
0.531123 0.699732 0.000000
0.714650 0.701064 0.000000
0.817463 0.708567 0.000000
0.881880 0.721523 0.000000
0.915911 0.739157 0.000000
0.942877 0.753253 0.000000
0.966464 0.766970 0.000000
0.990971 0.774983 0.000000
1.000000 0.793099 0.000000
1.000000 0.800963 0.120936
1.000000 0.811172 0.256294
1.000000 0.821353 0.357096
1.000000 0.831712 0.441669
1.000000 0.839929 0.507559
1.000000 0.848677 0.563419
1.000000 0.855544 0.623576
1.000000 0.863786 0.681753
1.000000 0.871526 0.728444
1.000000 0.883922 0.765401
1.000000 0.897594 0.802515
0.000000 0.841899 0.000000
0.000000 0.841899 0.000000
0.000000 0.841899 0.000000
0.000000 0.841899 0.000000
0.000000 0.841899 0.000000
0.000000 0.841899 0.000000
0.000000 0.841899 0.000000
0.000000 0.841899 0.000000
0.000000 0.827075 0.000000
0.000000 0.796559 0.000000
0.000000 0.792853 0.000000
0.000000 0.787696 0.000000
0.000000 0.774441 0.000000
0.383708 0.758756 0.000000
0.624808 0.750121 0.000000
0.756816 0.755512 0.000000
0.842180 0.765242 0.000000
0.895682 0.778901 0.000000
0.924532 0.792957 0.000000
0.953193 0.801238 0.000000
0.978616 0.809698 0.000000
1.000000 0.816233 0.000000
1.000000 0.829391 0.000000
1.000000 0.840040 0.218964
1.000000 0.844856 0.338266
1.000000 0.853305 0.428297
1.000000 0.862009 0.501836
1.000000 0.869160 0.566805
1.000000 0.874568 0.623607
1.000000 0.880952 0.683354
1.000000 0.886618 0.730640
1.000000 0.895478 0.769538
1.000000 0.904328 0.802729
0.000000 0.873049 0.000000
0.000000 0.873049 0.000000
0.000000 0.873049 0.000000
0.000000 0.873049 0.000000
0.000000 0.873049 0.000000
0.000000 0.873049 0.000000
0.000000 0.873049 0.000000
0.000000 0.873049 0.000000
0.000000 0.873049 0.000000
0.000000 0.848909 0.000000
0.000000 0.834210 0.000000
0.000000 0.825150 0.000000
0.000000 0.814047 0.000000
0.054845 0.803452 0.000000
0.533249 0.787086 0.000000
0.684070 0.794227 0.000000
0.779452 0.799437 0.000000
0.861771 0.809115 0.000000
0.896316 0.825314 0.000000
0.932646 0.829637 0.000000
0.957693 0.842801 0.000000
0.992735 0.845387 0.000000
1.000000 0.849134 0.000000
1.000000 0.861888 0.151202
1.000000 0.865723 0.298722
1.000000 0.874225 0.408818
1.000000 0.881003 0.496459
1.000000 0.885390 0.566692
1.000000 0.889995 0.624430
1.000000 0.895475 0.683495
1.000000 0.900454 0.733270
1.000000 0.906171 0.774787
1.000000 0.913361 0.806090
0.000000 0.898397 0.000000
0.000000 0.898397 0.000000
0.000000 0.898397 0.000000
0.000000 0.898397 0.000000
0.000000 0.898397 0.000000
0.000000 0.898397 0.000000
0.000000 0.898397 0.000000
0.000000 0.898397 0.000000
0.000000 0.898397 0.000000
0.000000 0.898397 0.000000
0.000000 0.868742 0.000000
0.000000 0.863577 0.000000
0.000000 0.854564 0.000000
0.000000 0.843207 0.000000
0.379655 0.829988 0.000000
0.641367 0.821313 0.000000
0.725712 0.837552 0.000000
0.802529 0.839763 0.000000
0.873697 0.847858 0.000000
0.906144 0.859358 0.000000
0.940758 0.866234 0.000000
0.976238 0.869407 0.000000
1.000000 0.871767 0.000000
1.000000 0.877902 0.000000
1.000000 0.885240 0.247180
1.000000 0.890889 0.377521
1.000000 0.896613 0.483208
1.000000 0.900103 0.555944
1.000000 0.905107 0.622257
1.000000 0.910072 0.685337
1.000000 0.914923 0.735488
1.000000 0.919838 0.776687
1.000000 0.925717 0.810801
0.000000 0.924646 0.000000
0.000000 0.924646 0.000000
0.000000 0.924646 0.000000
0.000000 0.924646 0.000000
0.000000 0.924646 0.000000
0.000000 0.924646 0.000000
0.000000 0.924646 0.000000
0.000000 0.924646 0.000000
0.000000 0.924646 0.000000
0.000000 0.924646 0.000000
0.000000 0.918592 0.000000
0.000000 0.892541 0.000000
0.000000 0.888978 0.000000
0.000000 0.879548 0.000000
0.000000 0.869971 0.000000
0.557199 0.855504 0.000000
0.695657 0.857781 0.000000
0.755791 0.864431 0.000000
0.822536 0.875170 0.000000
0.882046 0.881563 0.000000
0.923864 0.885173 0.000000
0.959639 0.891630 0.000000
0.988263 0.894131 0.000000
1.000000 0.898621 0.081576
1.000000 0.900989 0.201478
1.000000 0.907131 0.331778
1.000000 0.910944 0.448856
1.000000 0.914844 0.544072
1.000000 0.917855 0.612216
1.000000 0.922171 0.683912
1.000000 0.926367 0.738583
1.000000 0.931473 0.777589
1.000000 0.936042 0.811980
0.000000 0.943490 0.000000
0.000000 0.943490 0.000000
0.000000 0.943490 0.000000
0.000000 0.943490 0.000000
