Assets/Lutify-Free-LUTs-Pack/Lutify Free LUTs Pack/Cine World Pro Warm - Amy/Lutify.me-Amy-RWG-to-Rec709.cube
# Created with: fylm.ai - Colour Grading and Collaboration Software in Cloud 
# Website: https://fylm.ai 
# META
# Option: Gamut compress
# Block 1: IDT | RED REDWideGamutRGB Log3G10
# Block 2: colourMatch | Blending Mode: Normal | {"ColorSpace":0,"CrossCovarianceLimit":50,"ReshapingIterations":1,"PercentSaturationShift":100,"PercentShadingShift":100,"ExtraShading":true,"PercentTint":100,"PercentModified":100}
# Block 3: LUT | Filmic Curve Response: Standard Contrast 1 (100%)
# Block 4: LUT | Illuminant: D60 (100%)
# Block 5: hueSaturation | Blending Mode: Normal | {"hue":0,"saturation":-0.15}
# Block 6: logPrimaries | Blending Mode: Normal | {"wheels":{"shadows":{"Y":"0","R":"1","G":"1","B":"1"},"midtones":{"Y":"0","R":"1","G":"1","B":"1"},"highlights":{"Y":"0","R":"1","G":"1","B":"1"},"offset":{"Y":"0","R":"1","G":"1","B":"1"}},"sliders":{"shadows":{"Y":0,"R":-0.097,"G":0,"B":0.158},"midtones":{"Y":0,"R":0.024,"G":0.024,"B":-0.036},"highlights":{"Y":0,"R":0.154,"G":-0.084,"B":-0.024},"offset":{"Y":0.048,"R":0,"G":0,"B":0}}}
# Block 7: smartCurves | Blending Mode: Average | [[{"x":0,"y":0},{"x":0.11328125,"y":0.085540771484375},{"x":0.21484375,"y":0.218353271484375},{"x":0.37109375,"y":0.382415771484375},{"x":0.62109375,"y":0.589447021484375},{"x":0.8125,"y":0.765228271484375},{"x":1,"y":1}],[{"x":0,"y":0},{"x":1,"y":1}],[{"x":0,"y":0},{"x":1,"y":1}],[{"x":0,"y":0},{"x":1,"y":1}]]
# Block 8: LUT | Neutral Tint: Teal Tint 4 (100%)
# Block 9: contrast | Blending Mode: Normal | {"contrast":0.1}
# Block 10: ODT | Rec709
TITLE "Lutify.me-Amy-RWG-to-Rec709" 
LUT_3D_SIZE 5
0.000000 0.000000 0.000000
0.340162 0.000000 0.000000
1.000000 0.000000 0.000000
1.000000 0.832348 0.578266
1.000000 0.993297 0.952690
0.000000 0.207727 0.000000
0.374852 0.120156 0.000000
1.000000 0.000000 0.034867
1.000000 0.836740 0.577297
1.000000 0.993297 0.952690
0.000000 0.734938 0.000000
0.000000 0.716599 0.000000
1.000000 0.663119 0.000000
1.000000 0.870638 0.590240
1.000000 0.993639 0.951372
0.828462 0.983456 0.200844
0.854618 0.981496 0.201768
0.993356 0.970758 0.289525
1.000000 0.971838 0.853135
1.000000 0.998016 0.941820
1.000000 1.000000 0.848105
1.000000 1.000000 0.848105
1.000000 1.000000 0.855730
1.000000 1.000000 0.904492
1.000000 1.000000 0.947957
0.000000 0.000000 0.129279
0.253627 0.000000 0.061235
1.000000 0.000000 0.123574
1.000000 0.834686 0.598365
1.000000 0.993295 0.953039
0.000000 0.240568 0.321408
0.108977 0.190269 0.237737
1.000000 0.000000 0.103023
1.000000 0.835902 0.596695
1.000000 0.993295 0.953039
0.000000 0.735073 0.000000
0.000000 0.713464 0.000000
1.000000 0.655754 0.000000
1.000000 0.870471 0.586842
1.000000 0.993800 0.952098
0.825919 0.983590 0.200286
0.852400 0.981618 0.201124
0.993356 0.970758 0.289525
1.000000 0.971838 0.853135
1.000000 0.998018 0.941820
1.000000 1.000000 0.848105
1.000000 1.000000 0.848105
1.000000 1.000000 0.855730
1.000000 1.000000 0.904492
1.000000 1.000000 0.947957
0.000000 0.000000 0.194231
0.206234 0.000000 0.168630
1.000000 0.000000 0.161105
1.000000 0.825939 0.751368
1.000000 0.993434 0.957657
0.000000 0.120596 0.528766
0.000000 0.105860 0.507275
0.978271 0.000000 0.410594
1.000000 0.830559 0.752050
1.000000 0.993436 0.957301
0.000000 0.886527 0.928661
0.000000 0.853291 0.908880
0.793647 0.797295 0.852793
1.000000 0.869692 0.746158
1.000000 0.993770 0.957002
0.787233 0.985557 0.192786
0.820861 0.983307 0.193312
0.987722 0.970554 0.273344
1.000000 0.971458 0.853017
1.000000 0.998145 0.945180
1.000000 1.000000 0.847338
1.000000 1.000000 0.847338
1.000000 1.000000 0.854973
1.000000 1.000000 0.904492
1.000000 1.000000 0.947957
0.684231 0.000000 0.304856
0.714590 0.000000 0.304928
1.000000 0.000000 0.320920
1.000000 0.642786 0.593900
1.000000 0.992877 0.990154
0.521081 0.000000 0.794486
0.567911 0.000000 0.784850
0.928747 0.000000 0.589728
1.000000 0.642786 0.593900
1.000000 0.992877 0.990154
0.000000 0.723401 0.997640
0.000000 0.725228 0.996715
0.698196 0.679131 0.996021
1.000000 0.699784 0.973089
1.000000 0.993381 0.990139
0.000000 1.000000 1.000000
0.000000 1.000000 1.000000
0.241058 1.000000 1.000000
1.000000 0.993448 1.000000
1.000000 0.998407 0.989594
1.000000 1.000000 0.836529
1.000000 1.000000 0.837299
1.000000 1.000000 0.845024
1.000000 1.000000 0.900678
1.000000 1.000000 0.947957
1.000000 0.000000 0.611089
1.000000 0.000000 0.611568
1.000000 0.000000 0.616578
1.000000 0.542590 0.683294
1.000000 0.944699 0.932505
1.000000 0.000000 0.611089
1.000000 0.000000 0.611568
1.000000 0.000000 0.616578
1.000000 0.542590 0.683294
1.000000 0.944699 0.932505
1.000000 0.703658 1.000000
1.000000 0.703772 1.000000
1.000000 0.695367 1.000000
1.000000 0.592940 1.000000
1.000000 0.944699 0.932505
0.899729 0.984831 1.000000
0.901081 0.984753 1.000000
0.918910 0.983283 1.000000
0.995861 0.977437 1.000000
1.000000 0.976861 1.000000
0.869484 1.000000 1.000000
0.869484 1.000000 1.000000
0.869484 1.000000 1.000000
0.927093 1.000000 1.000000
1.000000 1.000000 1.000000
