Assets/Lutify-Free-LUTs-Pack/Lutify Free LUTs Pack/Cine World Pro Warm - Amy/Lutify.me-Amy-SLog3-to-Rec709.cube
# Created with: fylm.ai - Colour Grading and Collaboration Software in Cloud 
# Website: https://fylm.ai 
# META
# Option: Gamut compress
# Block 1: IDT | Sony S-Log3 S-Gamut3
# Block 2: colourMatch | Blending Mode: Normal | {"ColorSpace":0,"CrossCovarianceLimit":50,"ReshapingIterations":1,"PercentSaturationShift":100,"PercentShadingShift":100,"ExtraShading":true,"PercentTint":100,"PercentModified":100}
# Block 3: LUT | Filmic Curve Response: Standard Contrast 1 (100%)
# Block 4: LUT | Illuminant: D60 (100%)
# Block 5: hueSaturation | Blending Mode: Normal | {"hue":0,"saturation":-0.15}
# Block 6: logPrimaries | Blending Mode: Normal | {"wheels":{"shadows":{"Y":"0","R":"1","G":"1","B":"1"},"midtones":{"Y":"0","R":"1","G":"1","B":"1"},"highlights":{"Y":"0","R":"1","G":"1","B":"1"},"offset":{"Y":"0","R":"1","G":"1","B":"1"}},"sliders":{"shadows":{"Y":0,"R":-0.097,"G":0,"B":0.158},"midtones":{"Y":0,"R":0.024,"G":0.024,"B":-0.036},"highlights":{"Y":0,"R":0.154,"G":-0.084,"B":-0.024},"offset":{"Y":0.048,"R":0,"G":0,"B":0}}}
# Block 7: smartCurves | Blending Mode: Average | [[{"x":0,"y":0},{"x":0.11328125,"y":0.085540771484375},{"x":0.21484375,"y":0.218353271484375},{"x":0.37109375,"y":0.382415771484375},{"x":0.62109375,"y":0.589447021484375},{"x":0.8125,"y":0.765228271484375},{"x":1,"y":1}],[{"x":0,"y":0},{"x":1,"y":1}],[{"x":0,"y":0},{"x":1,"y":1}],[{"x":0,"y":0},{"x":1,"y":1}]]
# Block 8: LUT | Neutral Tint: Teal Tint 4 (100%)
# Block 9: contrast | Blending Mode: Normal | {"contrast":0.1}
# Block 10: ODT | Rec709
TITLE "Lutify.me-Amy-SLog3-to-Rec709" 
LUT_3D_SIZE 33
0.000000 0.000000 0.000000
0.000000 0.000000 0.000000
0.000000 0.000000 0.000000
0.000000 0.000000 0.000000
0.000000 0.000000 0.000000
0.060540 0.000000 0.000000
0.114209 0.000000 0.000000
0.157963 0.000000 0.000000
0.213123 0.000000 0.000000
0.272342 0.000000 0.000000
0.333038 0.000000 0.000000
0.398316 0.000000 0.000000
0.461623 0.000000 0.000000
0.531093 0.000000 0.000000
0.606880 0.000000 0.000000
0.673392 0.000000 0.000000
0.749963 0.000000 0.000000
0.860462 0.000000 0.000000
0.941456 0.000000 0.030567
1.000000 0.000000 0.064989
1.000000 0.000000 0.105199
1.000000 0.000000 0.149159
1.000000 0.226988 0.200652
1.000000 0.364413 0.254027
1.000000 0.474845 0.330629
1.000000 0.575899 0.413475
1.000000 0.666681 0.488988
1.000000 0.746640 0.566971
1.000000 0.801588 0.650968
1.000000 0.848715 0.727449
1.000000 0.882458 0.789231
1.000000 0.912169 0.834120
1.000000 0.933611 0.870874
0.000000 0.000000 0.000000
0.000000 0.000000 0.000000
0.000000 0.000000 0.000000
0.000000 0.000000 0.000000
0.000000 0.000000 0.000000
0.055195 0.000000 0.000000
0.109170 0.000000 0.000000
0.152054 0.000000 0.000000
0.204196 0.000000 0.000000
0.268406 0.000000 0.000000
0.326105 0.000000 0.000000
0.392572 0.000000 0.000000
0.451470 0.000000 0.000000
0.527247 0.000000 0.000000
0.606928 0.000000 0.000000
0.673413 0.000000 0.000000
0.749968 0.000000 0.000000
0.860420 0.000000 0.000000
0.944582 0.000000 0.029193
1.000000 0.000000 0.063863
1.000000 0.000000 0.105552
1.000000 0.000000 0.149212
1.000000 0.226988 0.200652
1.000000 0.367906 0.255510
1.000000 0.477973 0.332617
1.000000 0.575899 0.413475
1.000000 0.666681 0.488988
1.000000 0.746640 0.566971
1.000000 0.801588 0.650968
1.000000 0.848715 0.727449
1.000000 0.882458 0.789231
1.000000 0.912169 0.834120
1.000000 0.933611 0.870874
0.000000 0.000000 0.000000
0.000000 0.000000 0.000000
0.000000 0.000000 0.000000
0.000000 0.000000 0.000000
0.000000 0.000000 0.000000
0.054058 0.000000 0.000000
0.107455 0.000000 0.000000
0.146640 0.000000 0.000000
0.195692 0.000000 0.000000
0.262606 0.000000 0.000000
0.323835 0.000000 0.000000
0.381407 0.000000 0.000000
0.448149 0.000000 0.000000
0.527294 0.000000 0.000000
0.602894 0.000000 0.000000
0.673437 0.000000 0.000000
0.749961 0.000000 0.000000
0.864410 0.000000 0.000000
0.944439 0.000000 0.028078
1.000000 0.000000 0.064021
1.000000 0.000000 0.104782
1.000000 0.000000 0.149924
1.000000 0.236659 0.200079
1.000000 0.371403 0.255241
1.000000 0.481117 0.332401
1.000000 0.575899 0.413475
1.000000 0.669157 0.488865
1.000000 0.748573 0.566918
1.000000 0.801588 0.650968
1.000000 0.848715 0.727449
1.000000 0.882458 0.789231
1.000000 0.912169 0.834120
1.000000 0.933611 0.870874
0.000000 0.000000 0.000000
0.000000 0.000000 0.000000
0.000000 0.000000 0.000000
0.000000 0.000000 0.000000
0.000000 0.000000 0.000000
0.047956 0.000000 0.000000
0.101838 0.000000 0.000000
0.140433 0.000000 0.000000
0.188958 0.000000 0.000000
0.255074 0.000000 0.000000
0.310672 0.000000 0.000000
0.375979 0.000000 0.000000
0.441571 0.000000 0.000000
0.519675 0.000000 0.000000
0.602931 0.000000 0.000000
0.673460 0.000000 0.000000
0.754234 0.000000 0.000000
0.864350 0.000000 0.000000
0.944309 0.000000 0.029038
1.000000 0.000000 0.064151
1.000000 0.000000 0.104239
1.000000 0.000000 0.149654
1.000000 0.241388 0.199786
1.000000 0.371403 0.255241
1.000000 0.481117 0.332401
1.000000 0.575899 0.413475
1.000000 0.669157 0.488865
1.000000 0.748573 0.566918
1.000000 0.801588 0.650968
1.000000 0.848715 0.727449
1.000000 0.882458 0.789231
1.000000 0.912169 0.834120
1.000000 0.933611 0.870874
0.000000 0.000000 0.000000
0.000000 0.000000 0.000000
0.000000 0.000000 0.000000
0.000000 0.000000 0.000000
0.000000 0.000000 0.006944
0.039304 0.000000 0.000000
0.093407 0.000000 0.000000
0.133058 0.000000 0.000000
0.179978 0.000000 0.000000
0.253283 0.000000 0.000000
0.310718 0.000000 0.000000
0.367974 0.000000 0.000000
0.438363 0.000000 0.000000
0.515990 0.000000 0.000000
0.602977 0.000000 0.000000
0.673485 0.000000 0.000000
0.754227 0.000000 0.000000
0.864292 0.000000 0.000000
0.947384 0.000000 0.027547
1.000000 0.000000 0.063901
1.000000 0.000000 0.104793
1.000000 0.000000 0.149098
1.000000 0.246045 0.200964
1.000000 0.374890 0.256738
1.000000 0.481117 0.332401
1.000000 0.575899 0.413475
1.000000 0.669157 0.488865
1.000000 0.748573 0.566918
1.000000 0.801588 0.650968
1.000000 0.848715 0.727449
1.000000 0.882458 0.789231
1.000000 0.912169 0.834120
1.000000 0.933611 0.870874
0.000000 0.040983 0.000000
0.000000 0.038283 0.000000
0.000000 0.036624 0.000000
0.000000 0.032980 0.000000
0.000000 0.028980 0.000000
0.015270 0.025233 0.000000
0.082960 0.006103 0.000000
0.130890 0.000000 0.000000
0.178226 0.000000 0.000000
0.242416 0.000000 0.000000
0.304275 0.000000 0.000000
0.367967 0.000000 0.000000
0.431988 0.000000 0.000000
0.512330 0.000000 0.000000
0.603028 0.000000 0.000000
0.673501 0.000000 0.000000
0.754217 0.000000 0.000000
0.868241 0.000000 0.000000
0.947224 0.000000 0.028119
1.000000 0.000000 0.063949
1.000000 0.000000 0.104211
1.000000 0.000000 0.149782
1.000000 0.255203 0.200360
1.000000 0.378382 0.256465
1.000000 0.481107 0.334625
1.000000 0.578786 0.413302
1.000000 0.671631 0.488742
1.000000 0.750487 0.569361
1.000000 0.803090 0.650966
1.000000 0.848715 0.727449
1.000000 0.882458 0.789231
1.000000 0.912169 0.834120
1.000000 0.933605 0.871886
0.000000 0.063406 0.000000
0.000000 0.062393 0.000000
0.000000 0.059895 0.000000
0.000000 0.060005 0.000000
0.000000 0.056527 0.000000
0.000000 0.051336 0.000000
0.069694 0.047993 0.000000
0.120710 0.034953 0.000000
0.176518 0.000000 0.000000
0.243946 0.000000 0.000000
0.304191 0.000000 0.000000
0.368029 0.000000 0.000000
0.438510 0.000000 0.000000
0.516144 0.000000 0.000000
0.603081 0.000000 0.000000
0.673530 0.000000 0.000000
0.758476 0.000000 0.000000
0.864130 0.000000 0.000000
0.947083 0.000000 0.024998
1.000000 0.000000 0.064726
1.000000 0.000000 0.104743
1.000000 0.000000 0.149184
1.000000 0.259704 0.200050
1.000000 0.385357 0.255908
1.000000 0.485688 0.335324
1.000000 0.578786 0.413302
1.000000 0.671631 0.488742
1.000000 0.750487 0.569361
1.000000 0.803090 0.650966
1.000000 0.848715 0.727449
1.000000 0.882458 0.789231
1.000000 0.912169 0.834120
1.000000 0.933605 0.871886
0.000000 0.092402 0.000000
0.000000 0.089428 0.000000
0.000000 0.087293 0.000000
0.000000 0.083836 0.000000
0.000000 0.079159 0.000000
0.000000 0.074723 0.000000
0.055844 0.069999 0.000000
0.115062 0.061588 0.000000
0.174238 0.047501 0.000000
0.249301 0.000000 0.000000
0.308497 0.000000 0.000000
0.368258 0.000000 0.000000
0.442008 0.000000 0.000000
0.516302 0.000000 0.000000
0.599126 0.000000 0.000000
0.673581 0.000000 0.000000
0.758447 0.000000 0.000000
0.863968 0.000000 0.000000
0.946734 0.000000 0.020685
1.000000 0.000000 0.063851
1.000000 0.000000 0.103910
1.000000 0.000000 0.149846
1.000000 0.268560 0.200919
1.000000 0.388834 0.257418
1.000000 0.488827 0.335108
1.000000 0.581681 0.413128
1.000000 0.674103 0.488620
1.000000 0.752407 0.569312
1.000000 0.804725 0.653319
1.000000 0.848715 0.727449
1.000000 0.883310 0.789243
1.000000 0.912872 0.834135
1.000000 0.933605 0.871886
0.000000 0.125272 0.000000
0.000000 0.123224 0.000000
0.000000 0.120212 0.000000
0.000000 0.115349 0.000000
0.000000 0.109789 0.000000
0.000000 0.106263 0.000000
0.000000 0.101155 0.000000
0.100587 0.094267 0.000000
0.171279 0.083888 0.000000
0.253099 0.062507 0.000000
0.313212 0.000000 0.000000
0.374141 0.000000 0.000000
0.449186 0.000000 0.000000
0.524432 0.000000 0.000000
0.599371 0.000000 0.000000
0.677862 0.000000 0.000000
0.758399 0.000000 0.000000
0.859695 0.000000 0.000000
0.943140 0.000000 0.018416
1.000000 0.000000 0.066033
1.000000 0.000000 0.103331
1.000000 0.099930 0.149498
1.000000 0.277256 0.200273
1.000000 0.395792 0.258659
1.000000 0.491970 0.334889
1.000000 0.587455 0.415031
1.000000 0.674103 0.488620
1.000000 0.752407 0.569312
1.000000 0.806202 0.653320
1.000000 0.848715 0.727449
1.000000 0.883310 0.789243
1.000000 0.912872 0.834135
1.000000 0.934177 0.871898
0.000000 0.163282 0.000000
0.000000 0.159255 0.000000
0.000000 0.156627 0.000000
0.000000 0.154043 0.000000
0.000000 0.149007 0.000000
0.000000 0.146582 0.000000
0.000000 0.141366 0.000000
0.064609 0.134088 0.000000
0.157931 0.126172 0.000000
0.252211 0.112791 0.000000
0.318766 0.094692 0.000000
0.381167 0.061344 0.000000
0.454141 0.000000 0.000000
0.529544 0.000000 0.000000
0.608182 0.000000 0.000000
0.682281 0.000000 0.000000
0.754066 0.000000 0.000000
0.859371 0.000000 0.000000
0.939413 0.000000 0.000000
1.000000 0.000000 0.063993
1.000000 0.000000 0.105074
1.000000 0.131022 0.151094
1.000000 0.290022 0.202334
1.000000 0.406224 0.259617
1.000000 0.498265 0.336695
1.000000 0.590336 0.414857
1.000000 0.676561 0.490978
1.000000 0.754319 0.569265
1.000000 0.806202 0.653320
1.000000 0.849848 0.729503
1.000000 0.883310 0.789243
1.000000 0.912872 0.834135
1.000000 0.934177 0.871898
0.000000 0.209443 0.000000
0.000000 0.204354 0.000000
0.000000 0.201032 0.000000
0.000000 0.196136 0.000000
0.000000 0.189764 0.000000
0.000000 0.188217 0.000000
0.000000 0.183381 0.000000
0.000000 0.178014 0.000000
0.122786 0.170970 0.000000
0.234720 0.158027 0.000000
0.321481 0.142116 0.000000
0.386100 0.124413 0.000000
0.459955 0.100662 0.000000
0.543064 0.040682 0.000000
0.613529 0.000000 0.000000
0.686955 0.000000 0.000000
0.758218 0.000000 0.000000
0.862861 0.000000 0.000000
0.938635 0.000000 0.000000
1.000000 0.000000 0.059937
1.000000 0.000000 0.104182
1.000000 0.169578 0.151923
1.000000 0.310772 0.205307
1.000000 0.417956 0.261361
1.000000 0.507762 0.336020
1.000000 0.593214 0.417116
1.000000 0.679027 0.490859
1.000000 0.755302 0.572944
1.000000 0.806202 0.653320
1.000000 0.849848 0.729503
1.000000 0.884161 0.789256
1.000000 0.912872 0.834135
1.000000 0.934177 0.871898
0.000000 0.250231 0.000000
0.000000 0.246483 0.000000
0.000000 0.240965 0.000000
0.000000 0.235560 0.000000
0.000000 0.237318 0.000000
0.000000 0.231946 0.000000
0.000000 0.228268 0.000000
0.000000 0.227595 0.000000
0.000000 0.225719 0.000000
0.195541 0.214604 0.000000
0.302269 0.199131 0.000000
0.387572 0.186391 0.000000
0.467084 0.167543 0.000000
0.550003 0.148363 0.000000
0.623568 0.127169 0.000000
0.692107 0.090241 0.000000
0.762496 0.000000 0.000000
0.865788 0.000000 0.000000
0.940666 0.000000 0.000000
1.000000 0.000000 0.051635
1.000000 0.000000 0.101697
1.000000 0.205586 0.153095
1.000000 0.331016 0.205093
1.000000 0.431818 0.263902
1.000000 0.510929 0.338068
1.000000 0.601924 0.416587
1.000000 0.683934 0.493115
1.000000 0.759071 0.572858
1.000000 0.807665 0.655786
1.000000 0.850990 0.729516
1.000000 0.885014 0.789271
1.000000 0.912872 0.834135
1.000000 0.934177 0.871898
0.000000 0.297904 0.000000
0.000000 0.288968 0.000000
0.000000 0.286776 0.000000
0.000000 0.282439 0.000000
0.000000 0.280284 0.000000
0.000000 0.276015 0.000000
0.000000 0.278015 0.000000
0.000000 0.275618 0.000000
0.000000 0.270441 0.000000
0.112155 0.263050 0.000000
0.253866 0.256731 0.000000
0.365957 0.241923 0.000000
0.469511 0.222339 0.000000
0.557442 0.210923 0.000000
0.630451 0.205106 0.000000
0.693830 0.193449 0.000000
0.775290 0.171258 0.000000
0.868065 0.125849 0.000000
0.944125 0.070279 0.000000
1.000000 0.079183 0.035750
1.000000 0.156646 0.101138
1.000000 0.247580 0.153218
1.000000 0.359763 0.207969
1.000000 0.445716 0.264555
1.000000 0.523670 0.341791
1.000000 0.607757 0.418682
1.000000 0.690054 0.494021
1.000000 0.762796 0.575286
1.000000 0.809138 0.655789
1.000000 0.852117 0.731566
1.000000 0.885380 0.788497
1.000000 0.913566 0.835417
1.000000 0.934748 0.871911
0.000000 0.347431 0.000000
0.000000 0.344757 0.000000
0.000000 0.342101 0.000000
0.000000 0.342093 0.000000
0.000000 0.339444 0.000000
0.000000 0.342045 0.000000
0.000000 0.341986 0.000000
0.000000 0.339218 0.000000
0.000000 0.341466 0.000000
0.000000 0.337438 0.000000
0.157375 0.325791 0.000000
0.310304 0.313829 0.000000
0.430778 0.303581 0.000000
0.551807 0.283660 0.000000
0.637286 0.276547 0.000000
0.704014 0.274364 0.000000
0.775784 0.266804 0.000000
0.869543 0.248370 0.000000
0.945539 0.242918 0.000000
1.000000 0.226633 0.000000
1.000000 0.241635 0.100029
1.000000 0.305015 0.151930
1.000000 0.394440 0.209318
1.000000 0.464225 0.269601
1.000000 0.540935 0.343913
1.000000 0.616565 0.420615
1.000000 0.697300 0.496187
1.000000 0.766500 0.575218
1.000000 0.812065 0.658262
1.000000 0.854385 0.731597
1.000000 0.886238 0.788514
1.000000 0.914267 0.835433
1.000000 0.935316 0.871924
0.000000 0.405888 0.000000
0.000000 0.402731 0.000000
0.000000 0.402728 0.000000
0.000000 0.399589 0.000000
0.000000 0.402707 0.000000
0.000000 0.402688 0.000000
0.000000 0.399513 0.000000
0.000000 0.402569 0.000000
0.000000 0.399251 0.000000
0.000000 0.404887 0.000000
0.000000 0.396736 0.000000
0.177968 0.393185 0.000000
0.356905 0.380427 0.000000
0.503625 0.366526 0.000000
0.628094 0.349918 0.000000
0.708524 0.343094 0.000000
0.779684 0.340389 0.000000
0.869777 0.342534 0.000000
0.942103 0.345073 0.000000
1.000000 0.344459 0.000000
1.000000 0.345927 0.086664
1.000000 0.361509 0.149089
1.000000 0.427882 0.208058
1.000000 0.488540 0.275420
1.000000 0.553832 0.347752
1.000000 0.632587 0.423238
1.000000 0.709263 0.498179
1.000000 0.771975 0.577647
1.000000 0.816441 0.660747
1.000000 0.855502 0.733644
1.000000 0.887954 0.788550
1.000000 0.914968 0.835451
1.000000 0.935316 0.871924
0.000000 0.469247 0.000000
0.000000 0.469247 0.000000
0.000000 0.469246 0.000000
0.000000 0.472711 0.000000
0.000000 0.472702 0.000000
0.000000 0.472689 0.000000
0.000000 0.465734 0.000000
0.000000 0.465691 0.000000
0.000000 0.472530 0.000000
0.000000 0.475747 0.000000
0.000000 0.471466 0.000000
0.000000 0.473040 0.000000
0.219149 0.458894 0.000000
0.412328 0.448432 0.000000
0.563668 0.441754 0.000000
0.687091 0.422875 0.000000
0.777854 0.416683 0.000000
0.869065 0.422002 0.000000
0.933006 0.419833 0.000000
0.993799 0.424666 0.000000
1.000000 0.430422 0.063348
1.000000 0.438823 0.153016
1.000000 0.469528 0.209983
1.000000 0.519061 0.277863
1.000000 0.577666 0.351902
1.000000 0.647189 0.427374
1.000000 0.723024 0.505029
1.000000 0.775572 0.580127
1.000000 0.819338 0.663228
1.000000 0.858321 0.736668
1.000000 0.889669 0.788591
1.000000 0.915667 0.835469
1.000000 0.936450 0.871954
0.000000 0.547431 0.000000
0.000000 0.547430 0.000000
0.000000 0.551059 0.000000
0.000000 0.551048 0.000000
0.000000 0.554676 0.000000
0.000000 0.554658 0.000000
0.000000 0.550998 0.000000
0.000000 0.543696 0.000000
0.000000 0.547252 0.000000
0.000000 0.550705 0.000000
0.000000 0.553878 0.000000
0.000000 0.556294 0.000000
0.000000 0.546872 0.000000
0.280825 0.538533 0.000000
0.490212 0.526809 0.000000
0.640969 0.513031 0.000000
0.752468 0.503391 0.000000
0.863354 0.497052 0.000000
0.927250 0.500192 0.000000
0.980916 0.506108 0.000000
1.000000 0.511819 0.000000
1.000000 0.526789 0.142318
1.000000 0.537305 0.214077
1.000000 0.559873 0.278464
1.000000 0.608559 0.355074
1.000000 0.674044 0.431998
1.000000 0.734407 0.509704
1.000000 0.783422 0.583763
1.000000 0.824340 0.666845
1.000000 0.860520 0.738712
1.000000 0.890525 0.788613
1.000000 0.917055 0.836767
1.000000 0.936443 0.872956
0.000000 0.632057 0.071585
0.000000 0.635765 0.014502
0.000000 0.635756 0.000000
0.000000 0.635746 0.000000
0.000000 0.635731 0.000000
0.000000 0.635716 0.000000
0.000000 0.635692 0.000000
0.000000 0.635653 0.000000
0.000000 0.635587 0.000000
0.000000 0.635420 0.000000
0.000000 0.635091 0.000000
0.000000 0.638117 0.000000
0.000000 0.640152 0.000000
0.000000 0.629715 0.000000
0.370353 0.623943 0.000000
0.542047 0.613389 0.000000
0.703407 0.603443 0.000000
0.840661 0.584996 0.000000
0.913235 0.583893 0.000000
0.969786 0.589839 0.000000
1.000000 0.602716 0.000000
1.000000 0.619923 0.128336
1.000000 0.628054 0.213971
1.000000 0.636060 0.288385
1.000000 0.654101 0.360995
1.000000 0.700046 0.433603
1.000000 0.752095 0.514329
1.000000 0.793833 0.588817
1.000000 0.831425 0.669389
1.000000 0.865952 0.740831
1.000000 0.893082 0.790235
1.000000 0.918446 0.836809
1.000000 0.937569 0.872987
0.000000 0.710087 0.171567
0.000000 0.710077 0.160712
0.000000 0.710067 0.149395
0.000000 0.713710 0.135844
0.000000 0.713693 0.127309
0.000000 0.713674 0.113406
0.000000 0.717280 0.094789
0.000000 0.717233 0.074367
0.000000 0.720765 0.000000
0.000000 0.724200 0.000000
0.000000 0.723896 0.000000
0.000000 0.716157 0.000000
0.000000 0.715003 0.000000
0.000000 0.716394 0.000000
0.150199 0.712005 0.000000
0.450751 0.695445 0.000000
0.622390 0.691764 0.000000
0.799251 0.669471 0.000000
0.894782 0.662975 0.000000
0.954778 0.667991 0.000000
0.999012 0.675828 0.000000
1.000000 0.686178 0.111784
1.000000 0.695894 0.213964
1.000000 0.706531 0.294938
1.000000 0.716800 0.377581
1.000000 0.735093 0.448940
1.000000 0.768976 0.521793
1.000000 0.804708 0.597681
1.000000 0.839765 0.674432
1.000000 0.870205 0.742942
1.000000 0.896492 0.790343
1.000000 0.920523 0.836878
1.000000 0.939238 0.874034
0.000000 0.778147 0.260897
0.000000 0.781250 0.253384
0.000000 0.781233 0.246316
0.000000 0.781216 0.239226
0.000000 0.781194 0.232108
0.000000 0.784244 0.228000
0.000000 0.784202 0.220803
0.000000 0.787177 0.212980
0.000000 0.787073 0.205699
0.000000 0.789951 0.186119
0.000000 0.789669 0.166232
0.000000 0.792202 0.152804
0.000000 0.791375 0.107333
0.000000 0.789777 0.009869
0.000000 0.780141 0.000000
0.319033 0.778341 0.000000
0.538289 0.769266 0.000000
0.723846 0.754263 0.000000
0.849894 0.743209 0.000000
0.935469 0.731726 0.000000
0.981110 0.737035 0.000000
1.000000 0.744695 0.123379
1.000000 0.753491 0.220110
1.000000 0.761672 0.304252
1.000000 0.767920 0.390600
1.000000 0.777729 0.464339
1.000000 0.793184 0.530711
1.000000 0.822874 0.603169
1.000000 0.850248 0.681677
1.000000 0.878859 0.746158
1.000000 0.901913 0.794339
1.000000 0.923255 0.839480
1.000000 0.940343 0.875060
0.000000 0.841226 0.351209
0.000000 0.841209 0.343759
0.000000 0.841183 0.336301
0.000000 0.843499 0.332567
0.000000 0.843461 0.328843
0.000000 0.843418 0.325117
0.000000 0.843353 0.325162
0.000000 0.845608 0.317679
0.000000 0.845473 0.310255
0.000000 0.847639 0.299114
0.000000 0.847368 0.291843
0.000000 0.849195 0.280947
0.000000 0.848409 0.262770
0.000000 0.849406 0.240835
0.000000 0.846981 0.207125
0.000000 0.840690 0.176257
0.448809 0.832646 0.142987
0.659723 0.824917 0.071092
0.796488 0.810585 0.000000
0.892113 0.807031 0.000000
0.961248 0.798426 0.000000
1.000000 0.800221 0.134019
1.000000 0.803808 0.237412
1.000000 0.808563 0.323558
1.000000 0.818828 0.404462
1.000000 0.824676 0.480536
1.000000 0.834291 0.546964
1.000000 0.843626 0.610319
1.000000 0.864660 0.690491
1.000000 0.885807 0.748479
1.000000 0.906882 0.796074
1.000000 0.926248 0.841433
1.000000 0.943008 0.877968
0.000000 0.891713 0.435192
0.000000 0.891671 0.431516
0.000000 0.891642 0.424144
0.000000 0.891590 0.420476
0.000000 0.893409 0.420695
0.000000 0.893346 0.417035
0.000000 0.893280 0.417062
0.000000 0.891310 0.413215
0.000000 0.891159 0.405903
0.000000 0.890956 0.398612
0.000000 0.890726 0.395015
0.000000 0.892161 0.388046
0.000000 0.891422 0.377286
0.000000 0.891956 0.355925
0.000000 0.891904 0.334687
0.000000 0.888929 0.309687
0.319436 0.884138 0.281709
0.585141 0.875424 0.258523
0.751956 0.866148 0.230322
0.856344 0.856462 0.212931
0.933995 0.851724 0.193256
0.985702 0.847379 0.186504
1.000000 0.849141 0.261932
1.000000 0.852027 0.347620
1.000000 0.857420 0.423159
1.000000 0.865771 0.501228
1.000000 0.869852 0.566921
1.000000 0.873575 0.629298
1.000000 0.882353 0.699864
1.000000 0.896799 0.753922
1.000000 0.913681 0.801639
1.000000 0.930858 0.844111
1.000000 0.945159 0.879952
0.000000 0.929864 0.518845
0.000000 0.929811 0.515211
0.000000 0.929771 0.511577
0.000000 0.929718 0.511590
0.000000 0.928273 0.511272
0.000000 0.928204 0.507643
0.000000 0.928108 0.504022
0.000000 0.928026 0.500400
0.000000 0.926494 0.496449
0.000000 0.926218 0.492872
0.000000 0.927251 0.486047
0.000000 0.926813 0.478903
0.000000 0.927534 0.472201
0.000000 0.926342 0.461628
0.000000 0.924474 0.444057
0.000000 0.922265 0.426670
0.109695 0.920016 0.403204
0.522887 0.913622 0.380526
0.702176 0.906871 0.355909
0.812631 0.899938 0.339770
0.902348 0.894684 0.326311
0.962558 0.888261 0.312094
1.000000 0.886567 0.311887
1.000000 0.886438 0.369390
1.000000 0.891054 0.448262
1.000000 0.892655 0.518071
1.000000 0.896620 0.588364
1.000000 0.899785 0.646758
1.000000 0.903007 0.714336
1.000000 0.910269 0.765973
1.000000 0.921762 0.808743
1.000000 0.935579 0.847366
1.000000 0.948363 0.880089
0.000000 0.954857 0.609698
0.000000 0.954745 0.609712
0.000000 0.954700 0.606131
0.000000 0.954609 0.606143
0.000000 0.955672 0.602950
0.000000 0.955606 0.602958
0.000000 0.955517 0.599392
0.000000 0.955309 0.595842
0.000000 0.955119 0.592293
0.000000 0.954878 0.585184
0.000000 0.955603 0.578541
0.000000 0.954913 0.571521
0.000000 0.954310 0.564506
0.000000 0.954301 0.551000
0.000000 0.951857 0.543637
0.000000 0.947502 0.532377
0.000000 0.944574 0.511825
0.455148 0.940883 0.492527
0.650313 0.935862 0.471048
0.775023 0.931406 0.451476
0.867501 0.926420 0.434350
0.937127 0.918877 0.417386
0.982222 0.917365 0.412909
1.000000 0.913963 0.417280
1.000000 0.913907 0.471682
1.000000 0.915777 0.539766
1.000000 0.919263 0.603570
1.000000 0.921389 0.669450
1.000000 0.924095 0.730274
1.000000 0.927588 0.778394
1.000000 0.934619 0.815564
1.000000 0.943087 0.853181
1.000000 0.953228 0.884422
0.000000 0.974377 0.696882
0.000000 0.974281 0.696885
0.000000 0.974181 0.696888
0.000000 0.974026 0.696893
0.000000 0.974811 0.694049
0.000000 0.974756 0.694051
0.000000 0.974658 0.690844
0.000000 0.974438 0.687623
0.000000 0.974075 0.684390
0.000000 0.973751 0.681137
0.000000 0.973478 0.677866
0.000000 0.973586 0.671701
0.000000 0.973089 0.665062
0.000000 0.972252 0.658380
0.000000 0.971816 0.655542
0.000000 0.970067 0.648871
0.000000 0.967763 0.628510
0.424175 0.964756 0.612456
0.604533 0.958955 0.589070
0.737071 0.951909 0.562840
0.841655 0.948468 0.548279
0.912109 0.944450 0.535455
0.963607 0.938614 0.524867
0.994025 0.937828 0.515345
1.000000 0.936984 0.518521
1.000000 0.936140 0.564766
1.000000 0.936808 0.622400
1.000000 0.939532 0.686939
1.000000 0.943506 0.748190
1.000000 0.945828 0.788795
1.000000 0.947828 0.825053
1.000000 0.951197 0.858561
1.000000 0.958252 0.887444
0.000000 0.991172 0.769924
0.000000 0.991111 0.767443
0.000000 0.991036 0.767442
0.000000 0.990884 0.767439
0.000000 0.990728 0.767436
