Assets/Lutify-Free-LUTs-Pack/Lutify Free LUTs Pack/Cine World Pro Warm - Amy/Lutify.me-Amy-SLog3Cine-to-Rec709.cube
# Created with: fylm.ai - Colour Grading and Collaboration Software in Cloud 
# Website: https://fylm.ai 
# META
# Option: Gamut compress
# Block 1: IDT | Sony S-Log3 S-Gamut3.Cine
# Block 2: colourMatch | Blending Mode: Normal | {"ColorSpace":0,"CrossCovarianceLimit":50,"ReshapingIterations":1,"PercentSaturationShift":100,"PercentShadingShift":100,"ExtraShading":true,"PercentTint":100,"PercentModified":100}
# Block 3: LUT | Filmic Curve Response: Standard Contrast 1 (100%)
# Block 4: LUT | Illuminant: D60 (100%)
# Block 5: hueSaturation | Blending Mode: Normal | {"hue":0,"saturation":-0.15}
# Block 6: logPrimaries | Blending Mode: Normal | {"wheels":{"shadows":{"Y":"0","R":"1","G":"1","B":"1"},"midtones":{"Y":"0","R":"1","G":"1","B":"1"},"highlights":{"Y":"0","R":"1","G":"1","B":"1"},"offset":{"Y":"0","R":"1","G":"1","B":"1"}},"sliders":{"shadows":{"Y":0,"R":-0.097,"G":0,"B":0.158},"midtones":{"Y":0,"R":0.024,"G":0.024,"B":-0.036},"highlights":{"Y":0,"R":0.154,"G":-0.084,"B":-0.024},"offset":{"Y":0.048,"R":0,"G":0,"B":0}}}
# Block 7: smartCurves | Blending Mode: Average | [[{"x":0,"y":0},{"x":0.11328125,"y":0.085540771484375},{"x":0.21484375,"y":0.218353271484375},{"x":0.37109375,"y":0.382415771484375},{"x":0.62109375,"y":0.589447021484375},{"x":0.8125,"y":0.765228271484375},{"x":1,"y":1}],[{"x":0,"y":0},{"x":1,"y":1}],[{"x":0,"y":0},{"x":1,"y":1}],[{"x":0,"y":0},{"x":1,"y":1}]]
# Block 8: LUT | Neutral Tint: Teal Tint 4 (100%)
# Block 9: contrast | Blending Mode: Normal | {"contrast":0.1}
# Block 10: ODT | Rec709
TITLE "Lutify.me-Amy-SLog3Cine-to-Rec709" 
LUT_3D_SIZE 9
0.000000 0.000000 0.000000
0.000000 0.000000 0.000000
0.180275 0.000000 0.000000
0.444759 0.000000 0.000000
0.745550 0.000000 0.000000
1.000000 0.000000 0.051290
1.000000 0.369772 0.234184
1.000000 0.751026 0.545695
1.000000 0.912220 0.820144
0.000000 0.013039 0.000000
0.000000 0.000000 0.002412
0.166001 0.000000 0.000000
0.419357 0.000000 0.000000
0.741307 0.000000 0.000000
1.000000 0.000000 0.048855
1.000000 0.379549 0.234780
1.000000 0.752773 0.545652
1.000000 0.912220 0.820144
0.000000 0.129466 0.000000
0.000000 0.113413 0.000000
0.183040 0.086621 0.000000
0.445806 0.000000 0.000000
0.745590 0.000000 0.000000
1.000000 0.000000 0.044133
1.000000 0.397517 0.238740
1.000000 0.756244 0.547750
1.000000 0.912862 0.820167
0.000000 0.291089 0.000000
0.000000 0.284010 0.000000
0.148215 0.270347 0.000000
0.509146 0.212854 0.000000
0.796159 0.131842 0.000000
1.000000 0.000000 0.000000
1.000000 0.444612 0.241424
1.000000 0.765878 0.553423
1.000000 0.914139 0.821385
0.000000 0.568708 0.000000
0.000000 0.568280 0.000000
0.000000 0.559652 0.000000
0.349385 0.543831 0.000000
0.841000 0.487263 0.000000
1.000000 0.498809 0.000000
1.000000 0.563391 0.243170
1.000000 0.788179 0.563572
1.000000 0.917341 0.822687
0.000000 0.859233 0.109347
0.000000 0.858462 0.077547
0.000000 0.857246 0.000000
0.144499 0.846409 0.000000
0.685432 0.828366 0.000000
0.977374 0.793112 0.000000
1.000000 0.809986 0.270219
1.000000 0.841433 0.588599
1.000000 0.926528 0.827072
0.559573 0.963347 0.534654
0.572366 0.962100 0.530705
0.584544 0.961698 0.530810
0.645840 0.959539 0.521757
0.763755 0.954506 0.501995
0.924990 0.944051 0.447730
1.000000 0.935394 0.398586
1.000000 0.940407 0.660247
1.000000 0.949757 0.841357
0.869276 0.997993 0.829725
0.870988 0.997899 0.829754
0.872699 0.997478 0.829378
0.879483 0.997113 0.827874
0.897063 0.996155 0.823360
0.936599 0.994256 0.810579
0.991432 0.990714 0.786980
1.000000 0.987976 0.764686
1.000000 0.988893 0.875994
0.968231 1.000000 0.953716
0.968826 1.000000 0.953725
0.968826 1.000000 0.953725
0.969455 1.000000 0.953147
0.972374 1.000000 0.952607
0.979494 1.000000 0.949776
0.992666 1.000000 0.944353
1.000000 1.000000 0.930608
1.000000 1.000000 0.913882
0.000000 0.000000 0.017106
0.000000 0.000000 0.006468
0.149978 0.000000 0.000000
0.384210 0.000000 0.000000
0.686160 0.000000 0.000000
1.000000 0.000000 0.071316
1.000000 0.367903 0.243780
1.000000 0.751006 0.550066
1.000000 0.912213 0.821313
0.000000 0.000000 0.034508
0.000000 0.000000 0.020905
0.135497 0.000000 0.000000
0.360269 0.000000 0.000000
0.682016 0.000000 0.000000
1.000000 0.000000 0.070412
1.000000 0.379506 0.245439
1.000000 0.752753 0.550023
1.000000 0.912213 0.821313
0.000000 0.124239 0.039727
0.000000 0.112527 0.000000
0.116324 0.100005 0.000000
0.366020 0.000000 0.000000
0.694748 0.000000 0.000000
1.000000 0.000000 0.072854
1.000000 0.395814 0.247199
1.000000 0.756224 0.552150
1.000000 0.912855 0.821337
0.000000 0.297812 0.000000
0.000000 0.297614 0.000000
0.000000 0.295836 0.000000
0.399406 0.258555 0.000000
0.730072 0.188621 0.000000
1.000000 0.000000 0.054091
1.000000 0.447848 0.254443
1.000000 0.767558 0.555605
1.000000 0.914139 0.821385
0.000000 0.576199 0.000000
0.000000 0.579503 0.000000
0.000000 0.578529 0.000000
0.238710 0.564745 0.000000
0.754854 0.514711 0.000000
1.000000 0.502658 0.000000
1.000000 0.563368 0.256450
1.000000 0.788169 0.565812
1.000000 0.917341 0.822687
0.000000 0.859529 0.206186
0.000000 0.858705 0.198499
0.000000 0.857545 0.178088
0.000000 0.851487 0.137770
0.664765 0.836015 0.000000
0.972106 0.800490 0.000000
1.000000 0.809771 0.288278
1.000000 0.841415 0.593133
1.000000 0.926521 0.828235
0.552098 0.964341 0.551686
0.571319 0.962906 0.547790
0.583702 0.962516 0.544621
0.640054 0.959697 0.534636
0.759640 0.954632 0.517684
0.922948 0.944121 0.461739
1.000000 0.935366 0.413213
1.000000 0.940399 0.662296
1.000000 0.949751 0.842431
0.869070 0.997977 0.832949
0.870783 0.997882 0.832977
0.872483 0.997788 0.833006
0.879381 0.997105 0.829502
0.896963 0.996147 0.825004
0.936411 0.994240 0.813906
0.991269 0.990699 0.790219
1.000000 0.987965 0.766542
1.000000 0.988889 0.876761
0.968192 1.000000 0.954301
0.968787 1.000000 0.954310
0.968826 1.000000 0.953725
0.969416 1.000000 0.953735
0.972374 1.000000 0.952607
0.978954 1.000000 0.950367
0.992626 1.000000 0.944973
1.000000 1.000000 0.931248
1.000000 1.000000 0.914390
0.000000 0.000000 0.091559
0.000000 0.000000 0.051246
0.113922 0.000000 0.043684
0.360907 0.000000 0.039397
0.669687 0.000000 0.041906
1.000000 0.000000 0.101846
1.000000 0.362716 0.257608
1.000000 0.750986 0.554495
1.000000 0.912206 0.822484
0.000000 0.000000 0.093093
0.000000 0.000000 0.068624
0.096785 0.000000 0.058157
0.320019 0.000000 0.055458
0.657284 0.000000 0.053082
1.000000 0.000000 0.102633
1.000000 0.377677 0.260840
1.000000 0.752733 0.554452
1.000000 0.912206 0.822484
0.000000 0.138429 0.192235
0.000000 0.117645 0.174845
0.048131 0.101857 0.137606
0.311629 0.000000 0.088655
0.665630 0.000000 0.060119
1.000000 0.000000 0.104480
1.000000 0.394102 0.261254
1.000000 0.757937 0.556564
1.000000 0.912848 0.822506
0.000000 0.312469 0.239868
0.000000 0.315650 0.187178
0.000000 0.310319 0.139057
0.306193 0.291479 0.076908
0.692420 0.214261 0.027580
1.000000 0.000000 0.104745
1.000000 0.449687 0.269178
1.000000 0.767528 0.562300
1.000000 0.914132 0.822553
0.000000 0.583609 0.152936
0.000000 0.587009 0.127400
0.000000 0.589823 0.089006
0.101449 0.577127 0.000000
0.708893 0.537894 0.000000
1.000000 0.506597 0.000000
1.000000 0.562353 0.281695
1.000000 0.788139 0.572601
1.000000 0.917334 0.823852
0.000000 0.859682 0.289757
0.000000 0.859090 0.282520
0.000000 0.857791 0.271801
0.000000 0.853934 0.231904
0.655647 0.840706 0.147872
0.964049 0.805472 0.000000
1.000000 0.811464 0.313973
1.000000 0.842821 0.597801
1.000000 0.926514 0.829398
0.550086 0.965078 0.582009
0.563109 0.964691 0.578785
0.581758 0.964104 0.575616
0.632932 0.961518 0.565473
0.754978 0.955624 0.537569
0.919746 0.945985 0.486734
1.000000 0.936228 0.436252
1.000000 0.940367 0.670526
1.000000 0.950291 0.843587
0.868764 0.997952 0.837714
0.868764 0.997952 0.837714
0.872178 0.997763 0.837766
0.877323 0.997165 0.835899
0.895101 0.996538 0.830254
0.936223 0.994223 0.817208
0.991023 0.990676 0.795062
1.000000 0.987948 0.769663
1.000000 0.988885 0.877528
0.968114 1.000000 0.955462
0.968114 1.000000 0.955462
0.968787 1.000000 0.954310
0.969377 1.000000 0.954320
0.971768 1.000000 0.953187
0.978914 1.000000 0.950970
0.992586 1.000000 0.945590
1.000000 1.000000 0.931885
1.000000 1.000000 0.914899
0.000000 0.000000 0.194307
0.000000 0.000000 0.091547
0.069665 0.000000 0.063260
0.358143 0.000000 0.057493
0.671408 0.000000 0.093418
1.000000 0.000000 0.168633
1.000000 0.353932 0.307035
1.000000 0.749724 0.571357
1.000000 0.912184 0.826002
0.000000 0.000000 0.188059
0.000000 0.000000 0.129315
0.060780 0.000000 0.099823
0.312017 0.000000 0.090036
0.634593 0.000000 0.139718
1.000000 0.000000 0.180824
1.000000 0.367264 0.310440
1.000000 0.751489 0.571311
1.000000 0.912184 0.826002
0.000000 0.084648 0.271536
0.000000 0.074139 0.238459
0.000000 0.061832 0.219297
0.300815 0.000000 0.194376
0.631711 0.000000 0.187338
1.000000 0.000000 0.193126
1.000000 0.385572 0.314482
1.000000 0.754996 0.573560
1.000000 0.912826 0.826022
0.000000 0.338484 0.429615
0.000000 0.317380 0.413626
0.000000 0.312044 0.407288
0.205625 0.300709 0.366204
0.660846 0.222173 0.272306
1.000000 0.000000 0.209314
1.000000 0.446717 0.324727
1.000000 0.766423 0.579350
1.000000 0.914104 0.827235
0.000000 0.601524 0.485411
0.000000 0.601411 0.467254
0.000000 0.600852 0.442168
0.000000 0.600746 0.382620
0.641022 0.573071 0.298333
0.993396 0.518562 0.240565
1.000000 0.560285 0.347489
1.000000 0.787213 0.589913
1.000000 0.916905 0.827743
0.000000 0.864088 0.456964
0.000000 0.863643 0.453329
0.000000 0.862606 0.438674
0.000000 0.858737 0.409841
0.603902 0.842539 0.350524
0.948036 0.819726 0.259777
1.000000 0.815343 0.394687
1.000000 0.842247 0.615291
1.000000 0.926494 0.832888
0.518143 0.967273 0.646595
0.532236 0.966891 0.643302
0.558710 0.966112 0.640061
0.612555 0.964377 0.630311
0.737215 0.956976 0.599937
0.911207 0.948763 0.555036
1.000000 0.939647 0.501509
1.000000 0.940136 0.687280
1.000000 0.950267 0.847868
0.866136 0.997974 0.851465
0.867963 0.997887 0.849995
0.869679 0.997792 0.850016
0.874847 0.997519 0.848584
0.892609 0.996543 0.845854
0.934241 0.994556 0.830491
0.989516 0.991327 0.807134
1.000000 0.987897 0.779790
1.000000 0.988829 0.879019
0.967436 1.000000 0.956601
0.968037 1.000000 0.956609
0.968037 1.000000 0.956609
0.969261 1.000000 0.956054
0.971613 1.000000 0.955515
0.978796 1.000000 0.952750
0.992467 1.000000 0.947425
1.000000 1.000000 0.934585
1.000000 1.000000 0.916744
0.000000 0.000000 0.239299
0.000000 0.000000 0.138089
0.055061 0.000000 0.102366
0.297273 0.000000 0.086706
0.730120 0.000000 0.085956
0.998943 0.000000 0.305271
1.000000 0.320693 0.428260
1.000000 0.744100 0.622165
1.000000 0.912320 0.835883
0.000000 0.000000 0.268462
0.000000 0.000000 0.202250
0.000000 0.000000 0.165792
0.261298 0.000000 0.149145
0.697049 0.000000 0.103767
1.000000 0.000000 0.338174
1.000000 0.334778 0.430724
1.000000 0.745925 0.622110
1.000000 0.912320 0.835883
0.000000 0.064389 0.365171
0.000000 0.059102 0.312590
0.000000 0.052580 0.291667
0.222609 0.000000 0.278973
0.615349 0.000000 0.217312
0.999433 0.000000 0.374223
1.000000 0.359211 0.438671
1.000000 0.747730 0.624664
1.000000 0.912961 0.837078
0.000000 0.272973 0.535107
0.000000 0.253662 0.521247
0.000000 0.249466 0.514185
0.069613 0.224250 0.514724
0.650527 0.000000 0.464299
0.997909 0.000000 0.442734
1.000000 0.424194 0.452273
1.000000 0.758522 0.629614
1.000000 0.913610 0.837091
0.000000 0.607932 0.727216
0.000000 0.615274 0.733675
0.000000 0.603964 0.723979
0.000000 0.597720 0.702824
0.510943 0.578346 0.665502
0.965969 0.518697 0.539786
1.000000 0.552555 0.482472
1.000000 0.785265 0.642845
1.000000 0.917487 0.838363
0.000000 0.872422 0.780340
0.000000 0.869986 0.774929
0.000000 0.866970 0.772198
0.000000 0.865878 0.742442
0.496347 0.857131 0.685902
0.903835 0.829694 0.606255
1.000000 0.815572 0.542133
1.000000 0.840989 0.673403
1.000000 0.927064 0.843365
0.433364 0.969257 0.773847
0.450968 0.968882 0.771364
0.490761 0.967906 0.771367
0.560278 0.965978 0.763809
0.704466 0.961624 0.737695
0.894189 0.949771 0.693995
1.000000 0.941086 0.631193
1.000000 0.942029 0.739169
1.000000 0.950042 0.856883
0.857425 0.999169 0.878153
0.857425 0.999169 0.878153
0.859203 0.999072 0.878162
0.864615 0.998801 0.875685
0.884689 0.997405 0.871780
0.930277 0.994544 0.858826
0.986369 0.991902 0.838189
1.000000 0.988403 0.811781
1.000000 0.988779 0.888296
0.967084 1.000000 0.961199
0.967084 1.000000 0.961199
0.967084 1.000000 0.961199
0.968305 1.000000 0.961139
0.970707 1.000000 0.960080
0.977855 1.000000 0.958071
0.992052 1.000000 0.952880
1.000000 1.000000 0.939639
1.000000 1.000000 0.922302
0.000000 0.000000 0.210082
0.000000 0.000000 0.180321
0.076513 0.000000 0.159992
0.260689 0.000000 0.135166
0.638195 0.000000 0.131690
1.000000 0.000000 0.156816
1.000000 0.107581 0.625787
1.000000 0.725906 0.730891
1.000000 0.911713 0.861015
0.000000 0.000000 0.294267
0.000000 0.000000 0.266424
0.000000 0.000000 0.252351
0.198543 0.000000 0.219477
0.610659 0.000000 0.162475
1.000000 0.000000 0.156816
1.000000 0.173795 0.639417
1.000000 0.725906 0.730891
1.000000 0.911705 0.862158
0.000000 0.059629 0.438187
0.000000 0.057793 0.421408
0.000000 0.052322 0.404908
0.138183 0.000000 0.379267
0.552515 0.000000 0.315021
1.000000 0.000000 0.157196
1.000000 0.228960 0.648942
1.000000 0.729667 0.733304
1.000000 0.912360 0.862153
0.000000 0.216090 0.626115
0.000000 0.216101 0.622369
0.000000 0.208665 0.615107
0.000000 0.195615 0.607815
0.541280 0.000000 0.598042
0.978036 0.000000 0.525451
1.000000 0.326820 0.678459
1.000000 0.742770 0.737860
1.000000 0.913007 0.863287
0.000000 0.537497 0.826324
0.000000 0.537443 0.826320
0.000000 0.530036 0.826700
0.000000 0.529099 0.826612
0.417294 0.488609 0.819076
0.970148 0.357895 0.771831
1.000000 0.501496 0.741030
1.000000 0.773539 0.746682
1.000000 0.917574 0.864398
0.000000 0.877668 0.924507
0.000000 0.877444 0.924486
0.000000 0.877071 0.923268
0.000000 0.872485 0.921982
0.233166 0.856457 0.906431
0.836340 0.829486 0.879315
1.000000 0.806876 0.815015
1.000000 0.832472 0.771910
1.000000 0.927526 0.870405
0.236031 0.973916 0.936082
0.270495 0.973572 0.935107
0.312625 0.972287 0.934145
0.420868 0.969663 0.932092
0.635139 0.964394 0.918051
0.851651 0.955328 0.897533
0.985585 0.945565 0.856703
1.000000 0.941898 0.824454
1.000000 0.949726 0.881116
0.841098 1.000000 0.931289
0.842960 1.000000 0.931287
0.844872 1.000000 0.930410
0.850344 0.999975 0.930406
0.866222 0.999144 0.927735
0.918955 0.996231 0.918535
0.976777 0.992563 0.900397
1.000000 0.989395 0.871408
1.000000 0.988926 0.909157
0.964490 1.000000 0.972151
0.964490 1.000000 0.972151
0.964490 1.000000 0.972151
0.965138 1.000000 0.971699
0.968163 1.000000 0.971257
0.975991 1.000000 0.969927
0.990477 1.000000 0.964860
1.000000 1.000000 0.955442
1.000000 1.000000 0.937136
0.091936 0.000000 0.246093
0.132929 0.000000 0.236366
0.185661 0.000000 0.223080
0.320438 0.000000 0.195298
0.554953 0.000000 0.190402
1.000000 0.000000 0.209057
1.000000 0.000000 0.293980
1.000000 0.650917 0.869537
1.000000 0.902491 0.905676
0.000000 0.000000 0.359729
0.047095 0.000000 0.351252
0.127979 0.000000 0.337435
0.254585 0.000000 0.308217
0.535727 0.000000 0.224447
1.000000 0.000000 0.209057
1.000000 0.000000 0.294967
1.000000 0.652980 0.869439
1.000000 0.902482 0.906655
0.000000 0.055687 0.547779
0.000000 0.050942 0.540454
0.000000 0.036756 0.533096
0.172331 0.000000 0.507217
0.472606 0.000000 0.418219
1.000000 0.000000 0.209275
1.000000 0.000000 0.294967
1.000000 0.659209 0.874090
1.000000 0.903175 0.906623
0.000000 0.224093 0.761524
0.000000 0.221870 0.761565
0.000000 0.219407 0.761582
0.000000 0.208438 0.758187
0.396068 0.134685 0.732679
0.929890 0.000000 0.666950
1.000000 0.000000 0.294967
1.000000 0.679604 0.881165
1.000000 0.904552 0.907534
0.000000 0.462343 0.888447
0.000000 0.462230 0.888430
0.000000 0.461994 0.890261
0.000000 0.460742 0.891932
0.211026 0.441708 0.889603
0.902627 0.318163 0.879256
1.000000 0.227810 0.830064
1.000000 0.726247 0.894839
1.000000 0.910249 0.909648
0.000000 0.823867 0.966275
0.000000 0.823705 0.966257
0.000000 0.823442 0.966228
0.000000 0.824591 0.965900
0.000000 0.806225 0.964681
0.781988 0.765117 0.956920
1.000000 0.701901 0.938171
1.000000 0.811570 0.917377
1.000000 0.923002 0.916055
0.000000 0.981765 0.991647
0.000000 0.981435 0.991616
0.000000 0.980868 0.991190
0.000000 0.978505 0.990724
0.419548 0.973061 0.988950
0.786838 0.958783 0.983417
0.963887 0.945732 0.972514
1.000000 0.939744 0.950798
1.000000 0.947783 0.927714
0.800646 1.000000 0.992606
0.802793 1.000000 0.992597
0.807016 1.000000 0.992581
0.813160 1.000000 0.992260
0.836173 1.000000 0.991566
0.891887 0.998012 0.987460
0.960663 0.994565 0.980442
1.000000 0.991102 0.966343
1.000000 0.989453 0.951053
0.958024 1.000000 0.991161
0.958024 1.000000 0.991161
0.958694 1.000000 0.991160
0.959375 1.000000 0.990881
0.961982 1.000000 0.990595
0.970302 1.000000 0.989151
0.986579 1.000000 0.986428
1.000000 1.000000 0.979624
1.000000 1.000000 0.966960
0.354918 0.000000 0.316601
0.382921 0.000000 0.311232
0.412693 0.000000 0.301088
0.509546 0.000000 0.270362
0.651634 0.000000 0.272389
0.960095 0.000000 0.278363
1.000000 0.000000 0.344149
1.000000 0.522194 0.507002
1.000000 0.876277 0.971062
0.296844 0.000000 0.463923
0.315148 0.000000 0.456816
0.337755 0.000000 0.442861
0.431182 0.000000 0.408540
0.635159 0.000000 0.314813
0.960095 0.000000 0.278363
1.000000 0.000000 0.344149
1.000000 0.522194 0.507002
1.000000 0.876977 0.971017
0.191967 0.000000 0.684276
0.224915 0.000000 0.676580
0.263001 0.000000 0.668815
0.356951 0.000000 0.649205
0.555535 0.000000 0.543431
0.960095 0.000000 0.278363
1.000000 0.000000 0.344149
1.000000 0.522194 0.507002
1.000000 0.877680 0.971539
0.000000 0.241052 0.877042
0.000000 0.237935 0.877025
0.000000 0.233786 0.876912
0.209182 0.215771 0.872447
0.470353 0.141619 0.858016
0.842514 0.000000 0.801993
1.000000 0.000000 0.344847
1.000000 0.522194 0.507002
1.000000 0.879089 0.972010
0.000000 0.493123 0.957349
0.000000 0.492785 0.957302
0.000000 0.488480 0.957378
0.000000 0.482719 0.955088
0.303979 0.468111 0.952331
0.781389 0.391620 0.947030
1.000000 0.182261 0.925501
1.000000 0.522194 0.507002
1.000000 0.885399 0.974380
0.000000 0.768523 0.991879
0.000000 0.768335 0.991857
0.000000 0.764636 0.992001
0.000000 0.760114 0.991498
0.000000 0.752110 0.990617
0.663043 0.719533 0.990599
1.000000 0.663585 0.985541
1.000000 0.680095 0.966401
1.000000 0.902662 0.979896
0.000000 0.962037 1.000000
0.000000 0.961795 1.000000
0.000000 0.960486 1.000000
0.000000 0.958201 1.000000
0.251707 0.953599 1.000000
0.647980 0.942128 1.000000
0.947769 0.919367 1.000000
1.000000 0.897453 0.995168
1.000000 0.938941 0.988196
0.697439 1.000000 1.000000
0.700244 1.000000 1.000000
0.702842 1.000000 1.000000
0.716581 1.000000 1.000000
0.747764 1.000000 1.000000
0.834562 1.000000 1.000000
0.940380 0.995026 1.000000
1.000000 0.991073 1.000000
1.000000 0.988690 0.996785
0.942114 1.000000 1.000000
0.942114 1.000000 1.000000
0.942114 1.000000 1.000000
0.943669 1.000000 1.000000
0.947431 1.000000 1.000000
0.956533 1.000000 1.000000
0.977228 1.000000 1.000000
0.999632 1.000000 1.000000
1.000000 1.000000 1.000000
0.742982 0.000000 0.414123
0.752740 0.000000 0.407604
0.768021 0.000000 0.391564
0.809546 0.000000 0.370272
0.881487 0.000000 0.373946
1.000000 0.000000 0.381610
1.000000 0.000000 0.418872
1.000000 0.432868 0.541382
1.000000 0.805443 0.768100
0.676273 0.000000 0.571776
0.685737 0.000000 0.560741
0.708162 0.000000 0.553338
0.751291 0.000000 0.520721
0.864034 0.000000 0.414682
1.000000 0.000000 0.381610
1.000000 0.000000 0.418872
1.000000 0.432868 0.541382
1.000000 0.805443 0.768100
0.626209 0.000000 0.804975
0.631150 0.000000 0.802057
0.640947 0.000000 0.796114
0.675128 0.000000 0.774348
0.800465 0.000000 0.671077
1.000000 0.000000 0.381767
1.000000 0.000000 0.418872
1.000000 0.432868 0.541382
1.000000 0.805443 0.768100
0.555249 0.220009 0.945480
0.565161 0.217828 0.945369
0.575930 0.208725 0.944122
0.621569 0.181726 0.941283
0.730629 0.000000 0.933940
0.919854 0.000000 0.895408
1.000000 0.000000 0.418872
1.000000 0.437534 0.542636
1.000000 0.805443 0.768100
0.447302 0.516462 0.995687
0.460012 0.515836 0.995620
0.466289 0.515518 0.995587
0.524147 0.504832 0.994957
0.634285 0.485618 0.994033
0.847472 0.426926 0.991400
1.000000 0.264713 0.976078
1.000000 0.437534 0.542636
1.000000 0.805443 0.768100
0.215822 0.782361 1.000000
0.233325 0.782168 1.000000
0.291109 0.781377 1.000000
0.347599 0.780216 1.000000
0.494224 0.767676 1.000000
0.727270 0.748123 1.000000
0.978170 0.703887 1.000000
1.000000 0.644935 1.000000
1.000000 0.807450 0.770499
0.367560 0.933237 1.000000
0.367560 0.933237 1.000000
0.377973 0.933045 1.000000
0.417478 0.932266 1.000000
0.520351 0.928486 1.000000
0.699583 0.918335 1.000000
0.898193 0.901664 1.000000
1.000000 0.879649 1.000000
1.000000 0.884701 1.000000
0.706796 1.000000 1.000000
0.709717 1.000000 1.000000
0.709717 1.000000 1.000000
0.717840 0.999982 1.000000
0.742472 0.998555 1.000000
0.796118 0.994935 1.000000
0.897109 0.989556 1.000000
0.997101 0.980840 1.000000
1.000000 0.973242 1.000000
0.902842 1.000000 1.000000
0.902842 1.000000 1.000000
0.902842 1.000000 1.000000
0.904759 1.000000 1.000000
0.908506 1.000000 1.000000
0.920302 1.000000 1.000000
0.954022 1.000000 1.000000
0.992204 1.000000 1.000000
1.000000 1.000000 1.000000
