Assets/Lutify-Free-LUTs-Pack/Lutify Free LUTs Pack/Cine World Pro Warm - Amy/Lutify.me-Amy-ACEScct-to-ACEScct.cube
# Created with: fylm.ai - Colour Grading and Collaboration Software in Cloud 
# Website: https://fylm.ai 
# META
# Option: Gamut compress
# Block 1: LUT | Filmic Curve Response: Standard Contrast 1 (100%)
# Block 2: LUT | Illuminant: D60 (100%)
# Block 3: hueSaturation | Blending Mode: Normal | {"hue":0,"saturation":-0.15}
# Block 4: logPrimaries | Blending Mode: Normal | {"wheels":{"shadows":{"Y":"0","R":"1","G":"1","B":"1"},"midtones":{"Y":"0","R":"1","G":"1","B":"1"},"highlights":{"Y":"0","R":"1","G":"1","B":"1"},"offset":{"Y":"0","R":"1","G":"1","B":"1"}},"sliders":{"shadows":{"Y":0,"R":-0.097,"G":0,"B":0.158},"midtones":{"Y":0,"R":0.024,"G":0.024,"B":-0.036},"highlights":{"Y":0,"R":0.154,"G":-0.084,"B":-0.024},"offset":{"Y":0.048,"R":0,"G":0,"B":0}}}
# Block 5: smartCurves | Blending Mode: Average | [[{"x":0,"y":0},{"x":0.11328125,"y":0.085540771484375},{"x":0.21484375,"y":0.218353271484375},{"x":0.37109375,"y":0.382415771484375},{"x":0.62109375,"y":0.589447021484375},{"x":0.8125,"y":0.765228271484375},{"x":1,"y":1}],[{"x":0,"y":0},{"x":1,"y":1}],[{"x":0,"y":0},{"x":1,"y":1}],[{"x":0,"y":0},{"x":1,"y":1}]]
# Block 6: LUT | Neutral Tint: Teal Tint 4 (100%)
# Block 7: contrast | Blending Mode: Normal | {"contrast":0.1}
TITLE "Lutify.me-Amy-ACEScct-to-ACEScct" 
LUT_3D_SIZE 5
0.017993 0.040516 0.075814
0.238584 0.054967 0.084908
0.508893 0.225822 0.156932
0.787805 0.512032 0.450328
1.000000 0.754490 0.711437
0.028797 0.197723 0.091297
0.221914 0.182438 0.092210
0.507847 0.264450 0.162571
0.788777 0.513078 0.451373
1.000000 0.754490 0.711437
0.135463 0.462871 0.290580
0.214139 0.462871 0.271444
0.515170 0.461825 0.199651
0.789747 0.529813 0.455554
1.000000 0.755479 0.712446
0.480645 0.711437 0.567407
0.482737 0.710428 0.565320
0.522494 0.709420 0.555933
0.790710 0.709420 0.500523
1.000000 0.775159 0.720514
0.752511 0.912354 0.847750
0.753500 0.912354 0.847750
0.755479 0.912354 0.846814
0.796494 0.914179 0.839314
1.000000 0.916911 0.775159
0.024293 0.060392 0.173896
0.197723 0.059488 0.147567
0.504708 0.232685 0.202543
0.787805 0.513078 0.452419
1.000000 0.754490 0.712446
0.033302 0.225822 0.274443
0.169169 0.202543 0.241553
0.501569 0.271444 0.211223
0.787805 0.513078 0.452419
1.000000 0.754490 0.712446
0.131754 0.467051 0.363086
0.206398 0.467051 0.343536
0.508893 0.467051 0.264450
0.789747 0.529813 0.457645
1.000000 0.755479 0.712446
0.480645 0.711437 0.570536
0.482737 0.711437 0.569493
0.521448 0.709420 0.558019
0.790710 0.709420 0.502616
1.000000 0.775159 0.720514
0.752511 0.912354 0.847750
0.753500 0.912354 0.847750
0.755479 0.912354 0.847750
0.796494 0.914179 0.840256
1.000000 0.916911 0.775159
0.110525 0.280494 0.420088
0.182438 0.274443 0.420088
0.491107 0.261453 0.420088
0.784889 0.513078 0.484830
1.000000 0.754490 0.714463
0.112367 0.312885 0.435723
0.180540 0.308817 0.435723
0.492153 0.296631 0.432593
0.784889 0.515170 0.485876
1.000000 0.754490 0.714463
0.110525 0.491107 0.532949
0.175794 0.489015 0.531904
0.479598 0.486922 0.512032
0.786833 0.531904 0.491107
1.000000 0.755479 0.714463
0.478552 0.713454 0.614179
0.481691 0.713454 0.613143
0.519355 0.715471 0.601750
0.786833 0.715471 0.538175
1.000000 0.775159 0.723540
0.752511 0.912354 0.850560
0.752511 0.912354 0.850560
0.755479 0.912354 0.848687
0.796494 0.914179 0.842132
1.000000 0.916911 0.776139
0.457645 0.543401 0.702360
0.461825 0.543401 0.702360
0.501569 0.540265 0.702360
0.771237 0.535039 0.689149
1.000000 0.757458 0.753500
0.457645 0.544446 0.703369
0.461825 0.544446 0.703369
0.501569 0.541310 0.703369
0.771237 0.536084 0.690166
1.000000 0.757458 0.753500
0.455554 0.559062 0.715471
0.460780 0.560105 0.715471
0.501569 0.558019 0.715471
0.772217 0.553846 0.702360
1.000000 0.758447 0.754490
0.458690 0.736549 0.817562
0.462871 0.736549 0.817562
0.500523 0.735550 0.814710
0.761416 0.735550 0.782945
1.000000 0.778086 0.760426
0.746540 0.913266 0.883029
0.747540 0.913266 0.883029
0.750532 0.914179 0.883029
0.794566 0.916911 0.875650
1.000000 0.918730 0.815663
0.726558 0.785861 0.942320
0.726558 0.785861 0.942320
0.729555 0.784889 0.942320
0.775159 0.783917 0.941416
1.000000 0.775159 0.933262
0.726558 0.785861 0.942320
0.726558 0.785861 0.942320
0.729555 0.785861 0.942320
0.775159 0.783917 0.941416
1.000000 0.775159 0.933262
0.726558 0.786833 0.942320
0.726558 0.786833 0.942320
0.728556 0.786833 0.942320
0.775159 0.784889 0.941416
1.000000 0.776139 0.933262
0.727557 0.804191 0.950458
0.727557 0.804191 0.950458
0.729555 0.804191 0.950458
0.773198 0.802277 0.951363
1.000000 0.796494 0.940512
0.719506 0.927822 0.987407
0.719506 0.927822 0.987407
0.722531 0.927822 0.987407
0.766335 0.928729 0.991005
0.999101 0.934169 0.991905
