Assets/Lutify-Free-LUTs-Pack/Lutify Free LUTs Pack/Cine World Pro Warm - Amy/Lutify.me-Amy-SLog3CineVenice-to-Rec709.cube
# Created with: fylm.ai - Colour Grading and Collaboration Software in Cloud 
# Website: https://fylm.ai 
# META
# Option: Gamut compress
# Block 1: IDT | Sony Venice S-Log3 S-Gamut3.Cine
# Block 2: colourMatch | Blending Mode: Normal | {"ColorSpace":0,"CrossCovarianceLimit":50,"ReshapingIterations":1,"PercentSaturationShift":100,"PercentShadingShift":100,"ExtraShading":true,"PercentTint":100,"PercentModified":100}
# Block 3: LUT | Filmic Curve Response: Standard Contrast 1 (100%)
# Block 4: LUT | Illuminant: D60 (100%)
# Block 5: hueSaturation | Blending Mode: Normal | {"hue":0,"saturation":-0.15}
# Block 6: logPrimaries | Blending Mode: Normal | {"wheels":{"shadows":{"Y":"0","R":"1","G":"1","B":"1"},"midtones":{"Y":"0","R":"1","G":"1","B":"1"},"highlights":{"Y":"0","R":"1","G":"1","B":"1"},"offset":{"Y":"0","R":"1","G":"1","B":"1"}},"sliders":{"shadows":{"Y":0,"R":-0.097,"G":0,"B":0.158},"midtones":{"Y":0,"R":0.024,"G":0.024,"B":-0.036},"highlights":{"Y":0,"R":0.154,"G":-0.084,"B":-0.024},"offset":{"Y":0.048,"R":0,"G":0,"B":0}}}
# Block 7: smartCurves | Blending Mode: Average | [[{"x":0,"y":0},{"x":0.11328125,"y":0.085540771484375},{"x":0.21484375,"y":0.218353271484375},{"x":0.37109375,"y":0.382415771484375},{"x":0.62109375,"y":0.589447021484375},{"x":0.8125,"y":0.765228271484375},{"x":1,"y":1}],[{"x":0,"y":0},{"x":1,"y":1}],[{"x":0,"y":0},{"x":1,"y":1}],[{"x":0,"y":0},{"x":1,"y":1}]]
# Block 8: LUT | Neutral Tint: Teal Tint 4 (100%)
# Block 9: contrast | Blending Mode: Normal | {"contrast":0.1}
# Block 10: ODT | Rec709
TITLE "Lutify.me-Amy-SLog3CineVenice-to-Rec709" 
LUT_3D_SIZE 5
0.000000 0.000000 0.000000
0.194362 0.000000 0.000000
0.766979 0.000000 0.000000
1.000000 0.382298 0.230296
1.000000 0.914208 0.819314
0.000000 0.133798 0.000000
0.176387 0.089618 0.000000
0.766950 0.000000 0.000000
1.000000 0.406094 0.236286
1.000000 0.914826 0.820473
0.000000 0.569191 0.000000
0.000000 0.572106 0.000000
0.826545 0.488617 0.000000
1.000000 0.567355 0.238522
1.000000 0.919200 0.820681
0.000000 0.973471 0.608261
0.087778 0.972720 0.598308
0.617691 0.963000 0.549746
1.000000 0.936289 0.404815
1.000000 0.949946 0.840917
0.932814 1.000000 0.967297
0.933741 1.000000 0.966798
0.939076 1.000000 0.965284
0.976415 1.000000 0.956356
1.000000 1.000000 0.915284
0.000000 0.000000 0.087188
0.133007 0.000000 0.042355
0.690713 0.000000 0.039537
1.000000 0.377142 0.256287
1.000000 0.914201 0.820448
0.000000 0.139427 0.195275
0.048131 0.101857 0.137606
0.682372 0.000000 0.056909
1.000000 0.407423 0.261424
1.000000 0.914826 0.820473
0.000000 0.591168 0.217496
0.000000 0.594423 0.143364
0.699375 0.538675 0.000000
1.000000 0.567293 0.272334
1.000000 0.919585 0.823789
0.000000 0.974698 0.652569
0.000000 0.973671 0.642593
0.609471 0.964705 0.593719
1.000000 0.937119 0.442237
1.000000 0.949946 0.840917
0.932781 1.000000 0.967792
0.932781 1.000000 0.967792
0.939041 1.000000 0.965793
0.975850 1.000000 0.956910
1.000000 1.000000 0.915796
0.000000 0.000000 0.147575
0.097136 0.000000 0.083032
0.777007 0.000000 0.085822
1.000000 0.328781 0.416369
1.000000 0.914112 0.835287
0.000000 0.055728 0.325005
0.000000 0.042797 0.272260
0.648357 0.000000 0.184393
1.000000 0.369612 0.427596
1.000000 0.915362 0.835318
0.000000 0.622809 0.736625
0.000000 0.615252 0.730260
0.510943 0.578346 0.665502
1.000000 0.552876 0.475431
1.000000 0.919737 0.835453
0.000000 0.976363 0.808544
0.000000 0.975668 0.806352
0.533800 0.968295 0.771801
1.000000 0.941139 0.632908
1.000000 0.950050 0.853267
0.931592 1.000000 0.972073
0.931592 1.000000 0.972073
0.937822 1.000000 0.971146
0.974378 1.000000 0.962430
1.000000 1.000000 0.923427
0.294849 0.000000 0.194306
0.341955 0.000000 0.193229
0.648936 0.000000 0.192130
1.000000 0.000000 0.303228
1.000000 0.905477 0.904078
0.270393 0.000000 0.221492
0.337942 0.000000 0.208042
0.652996 0.000000 0.192143
1.000000 0.000000 0.303228
1.000000 0.906125 0.905014
0.000000 0.440779 0.881674
0.000000 0.436543 0.881733
0.389147 0.396993 0.881139
1.000000 0.000000 0.794245
1.000000 0.913112 0.906874
0.000000 0.985368 0.993441
0.000000 0.985471 0.992964
0.000000 0.977796 0.990532
0.963887 0.945732 0.972514
1.000000 0.947780 0.924888
0.924927 1.000000 0.995987
0.924936 1.000000 0.995766
0.930393 1.000000 0.995291
0.967936 1.000000 0.990871
1.000000 1.000000 0.967729
0.999600 0.000000 0.380314
1.000000 0.000000 0.380584
1.000000 0.000000 0.382944
1.000000 0.000000 0.433741
1.000000 0.815286 0.779799
0.999600 0.000000 0.380314
1.000000 0.000000 0.380584
1.000000 0.000000 0.383124
1.000000 0.000000 0.433741
1.000000 0.815286 0.779799
1.000000 0.000000 0.380449
1.000000 0.000000 0.380723
1.000000 0.000000 0.383124
1.000000 0.000000 0.433741
1.000000 0.815286 0.779799
0.605985 0.913396 1.000000
0.617050 0.912981 1.000000
0.687374 0.907526 1.000000
0.937167 0.884652 1.000000
1.000000 0.871545 1.000000
0.858395 1.000000 1.000000
0.859525 1.000000 1.000000
0.870141 1.000000 1.000000
0.929844 1.000000 1.000000
1.000000 1.000000 1.000000
