Assets/Lutify-Free-LUTs-Pack/Lutify Free LUTs Pack/Cine World Pro Warm - Amy/Lutify.me-Amy-DWG-to-DWG.cube
# Created with: fylm.ai - Colour Grading and Collaboration Software in Cloud 
# Website: https://fylm.ai 
# META
# Option: Gamut compress
# Block 2: colourMatch | Blending Mode: Normal | {"ColorSpace":0,"CrossCovarianceLimit":50,"ReshapingIterations":1,"PercentSaturationShift":100,"PercentShadingShift":100,"ExtraShading":true,"PercentTint":100,"PercentModified":100}
# Block 3: LUT | Filmic Curve Response: Standard Contrast 1 (100%)
# Block 4: LUT | Illuminant: D60 (100%)
# Block 5: hueSaturation | Blending Mode: Normal | {"hue":0,"saturation":-0.15}
# Block 6: logPrimaries | Blending Mode: Normal | {"wheels":{"shadows":{"Y":"0","R":"1","G":"1","B":"1"},"midtones":{"Y":"0","R":"1","G":"1","B":"1"},"highlights":{"Y":"0","R":"1","G":"1","B":"1"},"offset":{"Y":"0","R":"1","G":"1","B":"1"}},"sliders":{"shadows":{"Y":0,"R":-0.097,"G":0,"B":0.158},"midtones":{"Y":0,"R":0.024,"G":0.024,"B":-0.036},"highlights":{"Y":0,"R":0.154,"G":-0.084,"B":-0.024},"offset":{"Y":0.048,"R":0,"G":0,"B":0}}}
# Block 7: smartCurves | Blending Mode: Average | [[{"x":0,"y":0},{"x":0.11328125,"y":0.085540771484375},{"x":0.21484375,"y":0.218353271484375},{"x":0.37109375,"y":0.382415771484375},{"x":0.62109375,"y":0.589447021484375},{"x":0.8125,"y":0.765228271484375},{"x":1,"y":1}],[{"x":0,"y":0},{"x":1,"y":1}],[{"x":0,"y":0},{"x":1,"y":1}],[{"x":0,"y":0},{"x":1,"y":1}]]
# Block 8: LUT | Neutral Tint: Teal Tint 4 (100%)
# Block 9: contrast | Blending Mode: Normal | {"contrast":0.1}
TITLE "Lutify.me-Amy-ACEScct-to-ACEScct" 
LUT_3D_SIZE 9
-0.038888 -0.016275 0.006784
0.099179 -0.004999 0.019191
0.269211 0.037096 0.075479
0.405918 0.124407 0.163148
0.537148 0.246607 0.276805
0.676902 0.380066 0.409915
0.810837 0.506782 0.542372
0.930315 0.625894 0.662194
1.037624 0.739505 0.770133
-0.032376 0.082271 0.025661
0.089580 0.075902 0.032273
0.269373 0.090648 0.082754
0.411209 0.143217 0.168779
0.542458 0.255654 0.281833
0.676904 0.382138 0.410008
0.810837 0.507304 0.542372
0.930316 0.626431 0.662237
1.037624 0.739505 0.770133
-0.009761 0.215455 0.070551
0.086843 0.208195 0.072100
0.292078 0.204605 0.114153
0.432395 0.222092 0.192712
0.555742 0.279951 0.294565
0.680818 0.389611 0.413900
0.812074 0.509609 0.543565
0.930316 0.626953 0.662236
1.037624 0.740031 0.770175
0.074637 0.322538 0.133572
0.123857 0.321473 0.135169
0.295993 0.316368 0.157776
0.478924 0.315648 0.241556
0.621897 0.355655 0.357692
0.688648 0.407940 0.421732
0.813312 0.514557 0.544767
0.931498 0.628704 0.663380
1.037625 0.740556 0.770217
0.216111 0.426750 0.217886
0.246773 0.425604 0.219452
0.320943 0.418463 0.223772
0.483399 0.406507 0.271943
0.648250 0.428482 0.389266
0.795899 0.491118 0.524478
0.819500 0.530962 0.550583
0.932683 0.634141 0.664605
1.038782 0.742808 0.771408
0.376164 0.534425 0.320422
0.386761 0.530562 0.318475
0.423536 0.521787 0.317531
0.509576 0.509478 0.333396
0.656390 0.518828 0.415430
0.807159 0.550298 0.540393
0.930277 0.614047 0.657281
0.937400 0.652427 0.669059
1.039943 0.750142 0.772795
0.550370 0.635551 0.429934
0.560520 0.633129 0.430384
0.587364 0.625978 0.432703
0.620947 0.623124 0.442405
0.681706 0.622163 0.469250
0.818449 0.634678 0.563540
0.940929 0.668258 0.671704
1.039889 0.722477 0.766618
1.044574 0.767586 0.777293
0.756824 0.727057 0.558487
0.758079 0.727116 0.559099
0.760588 0.727232 0.560324
0.766862 0.727523 0.563386
0.786820 0.727412 0.573347
0.843288 0.731857 0.608428
0.952801 0.745497 0.692773
1.052646 0.776827 0.782941
1.074575 0.782593 0.803299
0.900166 0.819393 0.676764
0.901351 0.819471 0.677455
0.901351 0.819471 0.677455
0.904886 0.818558 0.679006
0.910790 0.819066 0.682818
0.929641 0.820829 0.695456
0.972886 0.824793 0.726185
1.063129 0.840974 0.800298
1.074659 0.841280 0.810216
-0.034608 0.004216 0.062550
0.070692 0.004108 0.057121
0.241713 0.031995 0.079779
0.385026 0.116226 0.154645
0.526549 0.243142 0.270434
0.674303 0.379854 0.408446
0.810840 0.507977 0.542848
0.930317 0.626463 0.662348
1.037624 0.739505 0.770133
-0.014790 0.103690 0.134542
0.060596 0.084776 0.107586
0.235071 0.081801 0.088494
0.386367 0.138294 0.157883
0.527886 0.251835 0.272011
0.674305 0.381932 0.408575
0.810840 0.507977 0.542848
0.930317 0.626463 0.662348
1.037624 0.739505 0.770133
0.006692 0.227093 0.159213
0.058304 0.218515 0.112734
0.245203 0.213136 0.111923
0.395681 0.225717 0.174513
0.534546 0.275705 0.278968
0.675612 0.387692 0.410009
0.810840 0.508996 0.542761
0.930317 0.626982 0.662328
1.037624 0.740031 0.770175
0.059024 0.333625 0.163991
0.099950 0.330930 0.157123
0.244421 0.329236 0.159771
0.436735 0.323348 0.218072
0.569110 0.351538 0.314393
0.682139 0.406243 0.416603
0.813316 0.515226 0.545281
0.931499 0.628732 0.663469
1.037625 0.740556 0.770217
0.181105 0.437370 0.231688
0.204701 0.436092 0.230443
0.271682 0.432434 0.230090
0.442875 0.420353 0.259564
0.648250 0.428482 0.389266
0.794652 0.490385 0.523285
0.818266 0.531091 0.549778
0.932684 0.634183 0.664738
1.038782 0.742808 0.771408
0.340427 0.550070 0.331730
0.349410 0.548797 0.331204
0.376878 0.543669 0.328893
0.469681 0.526483 0.331581
0.656390 0.518828 0.415430
0.807159 0.550298 0.540393
0.930277 0.614047 0.657281
0.937401 0.652457 0.669178
1.039943 0.750142 0.772795
0.495174 0.658212 0.439420
0.499910 0.655662 0.437767
0.519461 0.651954 0.437242
0.592692 0.632509 0.438738
0.681706 0.622163 0.469250
0.818449 0.634678 0.563540
0.940929 0.668258 0.671704
1.039889 0.722477 0.766618
1.044574 0.767594 0.777323
0.705318 0.742604 0.548166
0.711593 0.741505 0.549265
0.730464 0.735876 0.552528
0.766862 0.727523 0.563386
0.786820 0.727412 0.573347
0.843288 0.731857 0.608428
0.952801 0.745497 0.692773
1.052646 0.776827 0.782941
1.074575 0.782593 0.803299
0.900166 0.819393 0.676764
0.901351 0.819471 0.677455
0.901351 0.819471 0.677455
0.904886 0.818558 0.679006
0.910790 0.819066 0.682818
0.929641 0.820829 0.695456
0.972886 0.824793 0.726185
1.063129 0.840974 0.800298
1.074659 0.841280 0.810216
-0.019484 0.038345 0.131261
0.029913 0.019504 0.097540
0.235726 0.041428 0.115210
0.367282 0.113381 0.179485
0.510716 0.236945 0.270063
0.669126 0.379076 0.407850
0.809615 0.508727 0.543133
0.930320 0.627105 0.662771
1.037625 0.739558 0.770324
-0.001061 0.090990 0.179867
0.031927 0.070790 0.152747
0.216934 0.072754 0.152507
0.366285 0.137995 0.195471
0.510737 0.247642 0.271593
0.670430 0.381867 0.409079
0.809615 0.509261 0.543176
0.930320 0.627105 0.662771
1.037625 0.739558 0.770324
0.080869 0.266589 0.297708
0.090082 0.252900 0.285239
0.213950 0.245058 0.266535
0.370887 0.230859 0.227159
0.513424 0.272872 0.276011
0.670436 0.388187 0.409572
0.809615 0.510290 0.543135
0.930320 0.627624 0.662751
1.037626 0.740084 0.770366
0.119411 0.354539 0.325482
0.130064 0.351330 0.311419
0.211353 0.351420 0.274327
0.376570 0.343087 0.237289
0.525544 0.354570 0.294638
0.673055 0.407201 0.412798
0.810854 0.515220 0.544305
0.930321 0.629216 0.662817
1.037626 0.740592 0.770345
0.177639 0.450924 0.310797
0.194443 0.451961 0.306298
0.242721 0.452651 0.293608
0.373768 0.450155 0.279637
0.569386 0.434985 0.332990
0.692641 0.469625 0.433301
0.815805 0.531526 0.548926
0.932686 0.634818 0.665093
1.037627 0.742151 0.770408
0.321639 0.563867 0.365426
0.327541 0.563846 0.364400
0.347398 0.563813 0.361993
0.395894 0.563828 0.357895
0.574126 0.537607 0.375845
0.807159 0.550298 0.540393
0.930277 0.614047 0.657281
0.936228 0.651997 0.668540
1.039944 0.750179 0.772928
0.462084 0.678895 0.460540
0.463180 0.678888 0.460236
0.469967 0.678898 0.460018
0.491818 0.673805 0.455589
0.609800 0.647001 0.453850
0.818449 0.634678 0.563540
0.940929 0.668258 0.671704
1.039889 0.722477 0.766618
1.042264 0.766473 0.775266
0.615644 0.774936 0.556179
0.616771 0.773706 0.555207
0.621652 0.773739 0.555671
0.637370 0.770132 0.554348
0.766982 0.737305 0.568627
0.843288 0.731857 0.608428
0.952801 0.745497 0.692773
1.052646 0.776827 0.782941
1.074575 0.782593 0.803299
0.819126 0.843480 0.652482
0.821517 0.841216 0.651979
0.831097 0.836810 0.652866
0.877649 0.824781 0.666693
0.910790 0.819066 0.682818
0.929641 0.820829 0.695456
0.972886 0.824793 0.726185
1.063129 0.840974 0.800298
1.074659 0.841280 0.810216
0.002624 0.071283 0.187492
0.033390 0.043900 0.143935
0.196750 0.047339 0.135481
0.390546 0.102809 0.184963
0.499499 0.235841 0.316480
0.658837 0.377022 0.414134
0.803463 0.506555 0.542207
0.929148 0.627335 0.662947
1.037629 0.740207 0.770812
0.026959 0.114186 0.230040
0.038574 0.090678 0.197222
0.178725 0.087472 0.189602
0.369050 0.113713 0.206589
0.499623 0.247174 0.322942
0.658843 0.380131 0.414624
0.803464 0.507085 0.542248
0.929148 0.627335 0.662947
1.037629 0.740207 0.770812
0.100113 0.235029 0.325456
0.099757 0.221535 0.310272
0.178717 0.213025 0.306291
0.356404 0.210146 0.305909
0.502508 0.279494 0.336883
0.661464 0.388285 0.417888
0.804709 0.509384 0.543454
0.929149 0.627869 0.662989
1.037629 0.740207 0.770812
0.187614 0.393442 0.422274
0.180253 0.380748 0.410367
0.217201 0.375778 0.405526
0.353304 0.373344 0.392573
0.508415 0.364882 0.365288
0.664108 0.409416 0.423336
0.805947 0.514791 0.544648
0.930331 0.630651 0.664117
1.037629 0.740715 0.770791
0.230545 0.472465 0.446432
0.232978 0.471401 0.440603
0.255936 0.469840 0.429706
0.356101 0.468340 0.397048
0.503717 0.464364 0.372594
0.670727 0.477592 0.435311
0.810901 0.532988 0.549565
0.931515 0.636073 0.665331
1.037630 0.742257 0.770790
0.317244 0.578476 0.438514
0.323194 0.578418 0.437238
0.339501 0.578249 0.433428
0.384605 0.575409 0.425000
0.502193 0.576751 0.414037
0.694244 0.564266 0.456237
0.824525 0.599372 0.564393
0.935064 0.653725 0.668937
1.038791 0.749684 0.772183
0.449773 0.687397 0.493576
0.452977 0.687398 0.493386
0.458262 0.687383 0.492589
0.476879 0.688636 0.491695
0.528053 0.688694 0.488386
0.693888 0.672471 0.501678
0.940929 0.668258 0.671704
1.039889 0.722477 0.766618
1.042268 0.767215 0.775744
0.595261 0.793617 0.579714
0.596299 0.792392 0.578671
0.597461 0.792391 0.578507
0.606840 0.792415 0.578417
0.629196 0.788820 0.575650
0.722320 0.766496 0.570222
0.952801 0.745497 0.692773
1.052646 0.776827 0.782941
1.074575 0.782593 0.803299
0.745148 0.874279 0.661299
0.746360 0.874291 0.661467
0.746354 0.874287 0.661333
0.749924 0.873135 0.660677
0.764232 0.869710 0.659420
0.920249 0.822175 0.689961
0.972886 0.824793 0.726185
1.063129 0.840974 0.800298
1.074659 0.841280 0.810216
0.024725 0.067038 0.186624
0.070511 0.050541 0.158598
0.178244 0.053630 0.152652
0.359823 0.100009 0.193215
0.537276 0.207783 0.293521
0.646264 0.374078 0.448527
0.794849 0.504527 0.547345
0.925635 0.626438 0.663580
1.036483 0.741464 0.771086
0.035804 0.097469 0.222817
0.068289 0.079351 0.197335
0.166166 0.074777 0.184311
0.356103 0.102800 0.198552
0.537276 0.207783 0.293521
0.646288 0.377587 0.450036
0.794849 0.505030 0.547380
0.925635 0.626438 0.663580
1.036483 0.741464 0.771086
0.125473 0.234759 0.352665
0.124571 0.221190 0.338574
0.166853 0.213396 0.330211
0.323861 0.210550 0.329647
0.487914 0.218561 0.326414
0.647649 0.386424 0.454395
0.796098 0.507834 0.548751
0.925635 0.626967 0.663621
1.036483 0.741464 0.771086
0.204696 0.363728 0.442518
0.200268 0.355371 0.433310
0.218932 0.350864 0.431994
0.328727 0.348165 0.432441
0.487820 0.346423 0.430726
0.646535 0.411408 0.464915
0.797355 0.514899 0.550705
0.925636 0.629048 0.663658
1.037640 0.742658 0.772168
0.312851 0.519671 0.555750
0.304419 0.509423 0.546382
0.305504 0.499441 0.540761
0.362356 0.494759 0.533720
0.481240 0.487238 0.507179
0.649611 0.482557 0.488348
0.799868 0.532574 0.554474
0.926821 0.634457 0.664932
1.037642 0.744749 0.772335
0.364429 0.600201 0.580944
0.365947 0.599781 0.578619
0.372094 0.597635 0.572700
0.397384 0.595104 0.557020
0.485758 0.594634 0.524037
0.647541 0.589985 0.499208
0.806204 0.604918 0.567367
0.931560 0.654361 0.670127
1.037646 0.750130 0.772533
0.449378 0.701681 0.563504
0.451180 0.701687 0.563553
0.455292 0.702809 0.561846
0.469652 0.700129 0.556863
0.511892 0.699734 0.547354
0.643093 0.700127 0.539300
0.823617 0.693187 0.585965
0.945744 0.722990 0.686466
1.039969 0.768372 0.775128
0.578442 0.800531 0.610409
0.579535 0.800535 0.610467
0.580574 0.800527 0.610160
0.585878 0.800512 0.609361
0.608339 0.800519 0.607689
0.663698 0.801856 0.606020
0.821976 0.790498 0.625013
1.052645 0.776184 0.782878
1.074575 0.782593 0.803299
0.722626 0.886231 0.678741
0.722626 0.886231 0.678741
0.723807 0.886235 0.678700
0.727362 0.886251 0.678761
0.734343 0.885098 0.677865
0.762875 0.884113 0.678416
0.843739 0.870002 0.679388
1.063129 0.840974 0.800298
1.074659 0.841280 0.810216
0.110189 0.091462 0.215059
0.134984 0.088923 0.210236
0.212164 0.091356 0.207902
0.326621 0.110823 0.220206
0.500395 0.191920 0.288601
0.683462 0.337710 0.423604
0.782775 0.500747 0.575933
0.922191 0.627183 0.672370
1.034208 0.741441 0.773558
0.109668 0.091441 0.215044
0.134984 0.088923 0.210236
0.210148 0.091157 0.207763
0.326621 0.110823 0.220206
0.500395 0.191920 0.288601
0.683462 0.337710 0.423604
0.782776 0.501615 0.575981
0.922194 0.627775 0.672656
1.034208 0.741441 0.773558
0.108112 0.111217 0.240188
0.130425 0.108752 0.236072
0.202147 0.105058 0.226731
0.326621 0.110823 0.220206
0.500395 0.191920 0.288601
0.683462 0.337710 0.423604
0.781550 0.503797 0.576862
0.922194 0.628278 0.672691
1.034208 0.741441 0.773558
0.233904 0.360113 0.468970
0.235669 0.358020 0.466370
0.249706 0.356472 0.465167
0.307926 0.352312 0.463219
0.455847 0.348273 0.462259
0.629745 0.355823 0.464455
0.782865 0.511762 0.581834
0.922199 0.630392 0.673085
1.034208 0.741959 0.773599
0.329339 0.484877 0.573496
0.325606 0.479597 0.568208
0.331010 0.479641 0.568249
0.360448 0.479135 0.569723
0.462491 0.473860 0.566225
0.631442 0.471550 0.557864
0.785515 0.534451 0.592876
0.924566 0.637448 0.675607
1.036522 0.745882 0.775820
0.461477 0.657554 0.708153
0.450008 0.645776 0.696504
0.446899 0.636111 0.692281
0.455730 0.635344 0.692298
0.500364 0.626143 0.676470
0.625303 0.616538 0.646826
0.787253 0.610621 0.618696
0.925774 0.656284 0.678750
1.036529 0.752120 0.776369
0.509580 0.728478 0.726422
0.509264 0.728196 0.725246
0.510296 0.727709 0.722932
0.514688 0.726479 0.716132
0.533605 0.722586 0.700314
0.623590 0.720421 0.662127
0.784031 0.716421 0.630242
0.931799 0.729459 0.691743
1.037698 0.770089 0.778126
0.581483 0.815821 0.701435
0.582327 0.815824 0.701454
0.582892 0.815750 0.700544
0.589026 0.814370 0.696917
0.601880 0.814056 0.691549
0.651030 0.812011 0.675563
0.779348 0.814592 0.662518
0.946032 0.809825 0.707022
1.048160 0.834156 0.790835
0.709807 0.897047 0.725992
0.709807 0.897047 0.725992
0.709807 0.897047 0.725992
0.713024 0.897014 0.725074
0.720570 0.896955 0.723310
0.745426 0.896914 0.719600
0.801269 0.897009 0.713983
0.941899 0.887885 0.733834
1.074659 0.841280 0.810216
0.236892 0.134436 0.264791
0.249365 0.134820 0.264434
0.282511 0.137293 0.264715
0.353413 0.149881 0.272254
0.462626 0.187714 0.299033
0.648340 0.313009 0.406138
0.814543 0.462723 0.547337
0.914422 0.629481 0.711776
1.030889 0.743300 0.787573
0.236892 0.134436 0.264791
0.248301 0.134707 0.264361
0.282511 0.137293 0.264715
0.353413 0.149881 0.272254
0.462626 0.187714 0.299033
0.648340 0.313009 0.406138
0.814543 0.462723 0.547337
0.914423 0.629814 0.711792
1.030889 0.743300 0.787573
0.236892 0.134436 0.264791
0.248301 0.134707 0.264361
0.281372 0.137132 0.264611
0.352167 0.149576 0.272046
0.462626 0.187714 0.299033
0.648340 0.313009 0.406138
0.814543 0.462723 0.547337
0.914433 0.630802 0.712497
1.030890 0.743793 0.787607
0.234842 0.134029 0.264678
0.246172 0.134479 0.264215
0.280232 0.136972 0.264506
0.352167 0.149576 0.272046
0.461314 0.187071 0.298544
0.648336 0.312833 0.405807
0.814543 0.462723 0.547337
0.915643 0.633698 0.715144
1.030890 0.744286 0.787642
0.369546 0.491851 0.609302
0.371901 0.492722 0.610613
0.375810 0.492837 0.609384
0.395868 0.490417 0.608208
0.448734 0.489567 0.608827
0.593298 0.485296 0.605048
0.764537 0.493048 0.600509
0.914520 0.640703 0.718235
1.032049 0.746990 0.788945
0.468924 0.614276 0.715641
0.470604 0.615588 0.716938
0.474426 0.617048 0.719467
0.481907 0.615960 0.719476
0.508280 0.613941 0.719615
0.601589 0.609046 0.716014
0.770438 0.604856 0.703623
0.917073 0.665772 0.731837
1.033221 0.754960 0.791297
0.593346 0.783860 0.841091
0.583590 0.773788 0.831301
0.576328 0.764629 0.823828
0.580152 0.762383 0.826009
0.593639 0.764180 0.828504
0.635226 0.755414 0.813526
0.767758 0.746575 0.785652
0.919991 0.742685 0.760632
1.036717 0.775919 0.796667
0.636867 0.843599 0.855106
0.637161 0.843600 0.855109
0.638044 0.843605 0.855117
0.639600 0.844299 0.854112
0.645098 0.842995 0.848603
0.666761 0.838964 0.835429
0.763415 0.837255 0.799649
0.916789 0.831691 0.765339
1.037999 0.842171 0.805403
0.713466 0.911966 0.830633
0.713189 0.911862 0.829669
0.713189 0.911862 0.829669
0.713782 0.911763 0.828725
0.719558 0.912669 0.827187
0.738689 0.911934 0.818653
0.785183 0.911097 0.806065
0.913073 0.911074 0.787198
1.047248 0.905343 0.807154
0.370558 0.186289 0.318428
0.374346 0.187892 0.320008
0.384302 0.189894 0.321266
0.414512 0.195872 0.323849
0.485670 0.221826 0.342080
0.613120 0.294756 0.398182
0.780960 0.434035 0.522684
0.925554 0.571313 0.654864
1.024667 0.751223 0.839105
0.370558 0.186289 0.318428
0.374346 0.187892 0.320008
0.384302 0.189894 0.321266
0.414512 0.195872 0.323849
0.485670 0.221826 0.342080
0.613120 0.294756 0.398182
0.780960 0.434035 0.522684
0.925554 0.571313 0.654864
1.024667 0.751223 0.839105
0.370558 0.186289 0.318428
0.373104 0.187642 0.319851
0.384302 0.189894 0.321266
0.414512 0.195872 0.323849
0.485670 0.221826 0.342080
0.613120 0.294756 0.398182
0.780960 0.434035 0.522684
0.925554 0.571313 0.654864
1.024667 0.751223 0.839105
0.368074 0.185789 0.318114
0.373043 0.186789 0.318742
0.383057 0.189644 0.321109
0.414512 0.195872 0.323849
0.484361 0.221267 0.341688
0.613120 0.294756 0.398182
0.780960 0.434035 0.522684
0.925554 0.571313 0.654864
1.024668 0.752011 0.839144
0.366831 0.185540 0.317957
0.370558 0.186289 0.318428
0.380568 0.189143 0.320794
0.413237 0.195534 0.323631
0.484361 0.221267 0.341688
0.613120 0.294756 0.398182
0.780960 0.434035 0.522684
0.925554 0.571313 0.654864
1.024711 0.755455 0.841521
0.520009 0.632207 0.759454
0.520363 0.632212 0.759456
0.521040 0.630950 0.758201
0.526276 0.631224 0.759469
0.542897 0.631451 0.759615
0.589352 0.630563 0.760113
0.733840 0.630077 0.760825
0.898702 0.632637 0.747805
1.027104 0.764832 0.847955
0.605086 0.747580 0.851914
0.605339 0.747016 0.851892
0.604923 0.745772 0.850686
0.608159 0.745908 0.851866
0.615922 0.745415 0.851902
0.642292 0.744799 0.854399
0.742905 0.742325 0.852494
0.904401 0.737873 0.841920
1.027334 0.789152 0.860125
0.701453 0.889130 0.949550
0.693297 0.881478 0.941359
0.682753 0.870650 0.930753
0.685212 0.869256 0.932882
0.694083 0.873030 0.938660
0.703887 0.871456 0.936442
0.760845 0.868490 0.928117
0.900642 0.863718 0.907066
1.031431 0.860245 0.889344
0.749351 0.938981 0.959032
0.749351 0.938981 0.959032
0.749351 0.938981 0.959032
0.750121 0.938986 0.959040
0.753290 0.939921 0.959162
0.759294 0.937762 0.953793
0.791238 0.937265 0.943741
0.901806 0.938484 0.923415
1.028203 0.933222 0.889712
0.503581 0.254081 0.381875
0.504879 0.254543 0.382174
0.508771 0.255929 0.383073
0.523055 0.260659 0.385604
0.554419 0.274151 0.394195
0.635642 0.322373 0.430835
0.749390 0.410266 0.505001
0.900661 0.548618 0.634229
1.022523 0.667140 0.749994
0.503581 0.254081 0.381875
0.504879 0.254543 0.382174
0.508771 0.255929 0.383073
0.523055 0.260659 0.385604
0.554419 0.274151 0.394195
0.635642 0.322373 0.430835
0.749390 0.410266 0.505001
0.900661 0.548618 0.634229
1.022523 0.667140 0.749994
0.503581 0.254081 0.381875
0.504879 0.254543 0.382174
0.508771 0.255929 0.383073
0.523055 0.260659 0.385604
0.554419 0.274151 0.394195
0.635642 0.322373 0.430835
0.749390 0.410266 0.505001
0.900661 0.548618 0.634229
1.022523 0.667140 0.749994
0.503581 0.254081 0.381875
0.504879 0.254543 0.382174
0.508771 0.255929 0.383073
0.521745 0.260076 0.385208
0.554419 0.274151 0.394195
0.635642 0.322373 0.430835
0.749390 0.410266 0.505001
0.900661 0.548618 0.634229
1.020207 0.664866 0.747758
0.502284 0.253618 0.381575
0.503581 0.254081 0.381875
0.508771 0.255929 0.383073
0.521745 0.260076 0.385208
0.554419 0.274081 0.394193
0.635642 0.322373 0.430835
0.749390 0.410266 0.505001
0.900661 0.548618 0.634229
1.020207 0.664866 0.747758
0.499686 0.252693 0.380976
0.500986 0.253156 0.381276
0.506176 0.255005 0.382474
0.517829 0.258494 0.384168
0.551806 0.272891 0.393402
0.634330 0.321113 0.429527
0.748111 0.409193 0.504057
0.900661 0.548618 0.634229
1.020207 0.664866 0.747758
0.645152 0.756465 0.883619
0.645273 0.756467 0.883620
0.645539 0.756470 0.883622
0.648257 0.757366 0.884819
0.652029 0.755854 0.883652
0.670078 0.757134 0.886139
0.721707 0.756567 0.887866
0.870366 0.757020 0.888216
1.009572 0.755706 0.876876
0.712810 0.857641 0.957937
0.712869 0.857641 0.957937
0.713101 0.857643 0.957939
0.714891 0.858311 0.959094
0.717097 0.857237 0.959066
0.728714 0.858752 0.962551
0.759778 0.858126 0.963909
0.872756 0.856080 0.960436
1.018188 0.854441 0.954847
0.766605 0.964686 1.014354
0.766605 0.964686 1.014354
0.764860 0.957573 1.012823
0.770150 0.956829 1.018219
0.780060 0.961814 1.027230
0.787549 0.963889 1.030644
0.804152 0.966204 1.030909
0.884246 0.965123 1.023298
1.014477 0.962024 1.008706
