Assets/Lutify-Free-LUTs-Pack/Lutify Free LUTs Pack/Cine World Pro Warm - Amy/Lutify.me-Amy-DragonColor2RLF-to-Rec709.cube
# Created with: fylm.ai - Colour Grading and Collaboration Software in Cloud 
# Website: https://fylm.ai 
# META
# Option: Gamut compress
# Block 1: IDT | RED DragonColor2 REDLogFilm
# Block 2: colourMatch | Blending Mode: Normal | {"ColorSpace":0,"CrossCovarianceLimit":50,"ReshapingIterations":1,"PercentSaturationShift":100,"PercentShadingShift":100,"ExtraShading":true,"PercentTint":100,"PercentModified":100}
# Block 3: LUT | Filmic Curve Response: Standard Contrast 1 (100%)
# Block 4: LUT | Illuminant: D60 (100%)
# Block 5: hueSaturation | Blending Mode: Normal | {"hue":0,"saturation":-0.15}
# Block 6: logPrimaries | Blending Mode: Normal | {"wheels":{"shadows":{"Y":"0","R":"1","G":"1","B":"1"},"midtones":{"Y":"0","R":"1","G":"1","B":"1"},"highlights":{"Y":"0","R":"1","G":"1","B":"1"},"offset":{"Y":"0","R":"1","G":"1","B":"1"}},"sliders":{"shadows":{"Y":0,"R":-0.097,"G":0,"B":0.158},"midtones":{"Y":0,"R":0.024,"G":0.024,"B":-0.036},"highlights":{"Y":0,"R":0.154,"G":-0.084,"B":-0.024},"offset":{"Y":0.048,"R":0,"G":0,"B":0}}}
# Block 7: smartCurves | Blending Mode: Average | [[{"x":0,"y":0},{"x":0.11328125,"y":0.085540771484375},{"x":0.21484375,"y":0.218353271484375},{"x":0.37109375,"y":0.382415771484375},{"x":0.62109375,"y":0.589447021484375},{"x":0.8125,"y":0.765228271484375},{"x":1,"y":1}],[{"x":0,"y":0},{"x":1,"y":1}],[{"x":0,"y":0},{"x":1,"y":1}],[{"x":0,"y":0},{"x":1,"y":1}]]
# Block 8: LUT | Neutral Tint: Teal Tint 4 (100%)
# Block 9: contrast | Blending Mode: Normal | {"contrast":0.1}
# Block 10: ODT | Rec709
TITLE "Lutify.me-Amy-DragonColor2RLF-to-Rec709" 
LUT_3D_SIZE 9
0.000000 0.000000 0.000000
0.000000 0.000000 0.000000
0.088982 0.000000 0.000000
0.262611 0.000000 0.000000
0.504783 0.000000 0.000000
0.839674 0.000000 0.000000
1.000000 0.000000 0.000000
1.000000 0.444333 0.157867
1.000000 0.760333 0.403163
0.000000 0.000000 0.000000
0.000000 0.000000 0.000000
0.097849 0.000000 0.000000
0.258862 0.000000 0.000000
0.501200 0.000000 0.000000
0.843791 0.000000 0.000000
1.000000 0.000000 0.000000
1.000000 0.447656 0.157146
1.000000 0.760333 0.403163
0.000000 0.074101 0.000000
0.000000 0.069400 0.000000
0.101739 0.062133 0.000000
0.274132 0.000000 0.000000
0.524054 0.000000 0.000000
0.851785 0.000000 0.000000
1.000000 0.000000 0.000000
1.000000 0.457676 0.154900
1.000000 0.762245 0.403093
0.000000 0.199090 0.000000
0.000000 0.197024 0.000000
0.125113 0.187690 0.000000
0.333119 0.162188 0.000000
0.575039 0.088920 0.000000
0.866127 0.000000 0.000000
1.000000 0.000000 0.000000
1.000000 0.475688 0.153666
1.000000 0.767839 0.402909
0.000000 0.387963 0.000000
0.000000 0.387305 0.000000
0.057694 0.385419 0.000000
0.345598 0.368391 0.000000
0.645276 0.330592 0.000000
0.892038 0.314350 0.000000
1.000000 0.361028 0.000000
1.000000 0.531777 0.144945
1.000000 0.777818 0.406208
0.000000 0.654756 0.000000
0.074158 0.654032 0.000000
0.225653 0.649143 0.000000
0.388251 0.641915 0.000000
0.610662 0.628499 0.000000
0.901773 0.592348 0.000000
1.000000 0.616485 0.000000
1.000000 0.689316 0.111923
1.000000 0.805323 0.416058
0.573181 0.864551 0.241507
0.579955 0.864307 0.237883
0.599621 0.863567 0.230745
0.642386 0.861834 0.216559
0.736546 0.855437 0.188662
0.873261 0.845666 0.084253
1.000000 0.831250 0.000000
1.000000 0.847463 0.200178
1.000000 0.880990 0.477079
0.857135 0.950141 0.567520
0.859479 0.950008 0.567669
0.861507 0.950765 0.565342
0.870547 0.950263 0.562792
0.887333 0.949332 0.554719
0.924442 0.946326 0.539761
0.979478 0.942283 0.498067
1.000000 0.938086 0.422154
1.000000 0.946038 0.580016
0.960757 0.989229 0.819700
0.960757 0.989229 0.819700
0.960757 0.989229 0.819700
0.962651 0.989124 0.818217
0.965379 0.988965 0.816838
0.970784 0.988679 0.810759
0.985321 0.987848 0.801555
1.000000 0.985893 0.777030
1.000000 0.984583 0.741433
0.000000 0.000000 0.006594
0.000000 0.000000 0.000000
0.079921 0.000000 0.000000
0.240740 0.000000 0.000000
0.461790 0.000000 0.000000
0.796971 0.000000 0.000000
1.000000 0.000000 0.000000
1.000000 0.446699 0.154431
1.000000 0.760393 0.403161
0.000000 0.000000 0.017148
0.000000 0.000000 0.010475
0.090531 0.000000 0.000000
0.239025 0.000000 0.000000
0.461883 0.000000 0.000000
0.796935 0.000000 0.000000
1.000000 0.000000 0.000000
1.000000 0.450036 0.153679
1.000000 0.760393 0.403161
0.000000 0.074714 0.022839
0.000000 0.072891 0.000000
0.085512 0.065685 0.000000
0.252886 0.000000 0.000000
0.483577 0.000000 0.000000
0.809606 0.000000 0.000000
1.000000 0.000000 0.000000
1.000000 0.458026 0.154820
1.000000 0.762305 0.403092
0.000000 0.204144 0.000000
0.000000 0.203885 0.000000
0.056812 0.198741 0.000000
0.295825 0.180294 0.000000
0.529805 0.127608 0.000000
0.837996 0.000000 0.000000
1.000000 0.047299 0.000000
1.000000 0.479360 0.152763
1.000000 0.767925 0.402906
0.000000 0.397697 0.000000
0.000000 0.397266 0.000000
0.000000 0.395410 0.000000
0.298243 0.383240 0.000000
0.607647 0.348936 0.000000
0.863540 0.331311 0.000000
1.000000 0.368638 0.000000
1.000000 0.534377 0.140610
1.000000 0.777927 0.406207
0.000000 0.658654 0.000000
0.000000 0.658236 0.000000
0.190077 0.653246 0.000000
0.369900 0.646140 0.000000
0.595650 0.636890 0.000000
0.890399 0.593076 0.000000
1.000000 0.624079 0.000000
1.000000 0.691864 0.126410
1.000000 0.806996 0.419169
0.572794 0.864530 0.260092
0.579580 0.864286 0.256516
0.592705 0.863789 0.256764
0.641968 0.861808 0.243039
0.730641 0.857688 0.212306
0.870268 0.845828 0.128447
0.998235 0.833320 0.000000
1.000000 0.849217 0.215266
1.000000 0.880497 0.476700
0.856607 0.951010 0.571442
0.858950 0.950877 0.571589
0.861262 0.950745 0.571737
0.870307 0.950243 0.569161
0.887107 0.949312 0.561019
0.923917 0.947200 0.543612
0.978283 0.942332 0.503141
1.000000 0.938941 0.429162
1.000000 0.946752 0.584264
0.960665 0.989220 0.821365
0.960665 0.989220 0.821365
0.960665 0.989220 0.821365
0.961662 0.989172 0.819792
0.965379 0.988965 0.816838
0.970693 0.988671 0.812445
0.985234 0.987840 0.803238
1.000000 0.985886 0.778670
1.000000 0.984577 0.742737
0.000000 0.000000 0.061225
0.000000 0.000000 0.055997
0.055110 0.000000 0.049227
0.200727 0.000000 0.048055
0.413780 0.000000 0.038511
0.758552 0.000000 0.013538
1.000000 0.000000 0.021470
1.000000 0.449190 0.161582
1.000000 0.759660 0.405812
0.000000 0.000000 0.070979
0.000000 0.000000 0.064267
0.058388 0.000000 0.059822
0.199222 0.000000 0.054048
0.419919 0.000000 0.041197
0.758519 0.000000 0.011683
1.000000 0.000000 0.003557
1.000000 0.452538 0.160905
1.000000 0.761554 0.405779
0.000000 0.088968 0.139794
0.000000 0.082627 0.133083
0.032847 0.079819 0.106524
0.204535 0.060473 0.077245
0.432573 0.000000 0.045474
0.758361 0.000000 0.000000
1.000000 0.000000 0.000000
1.000000 0.460524 0.164614
1.000000 0.763439 0.405751
0.000000 0.221338 0.152472
0.000000 0.223165 0.137198
0.000000 0.225408 0.113848
0.225695 0.212311 0.076562
0.475976 0.174661 0.000000
0.791621 0.000000 0.000000
1.000000 0.100590 0.000000
1.000000 0.481825 0.164393
1.000000 0.768052 0.409274
0.000000 0.413946 0.077900
0.000000 0.413628 0.063635
0.000000 0.415902 0.015977
0.197671 0.412258 0.000000
0.530195 0.381056 0.000000
0.829079 0.360344 0.000000
1.000000 0.379975 0.000000
1.000000 0.534784 0.160385
1.000000 0.777947 0.415937
0.000000 0.670176 0.075023
0.000000 0.665879 0.064550
0.145928 0.660930 0.013198
0.341243 0.657926 0.000000
0.560537 0.649970 0.000000
0.866243 0.622109 0.000000
1.000000 0.627667 0.000000
1.000000 0.693881 0.162252
1.000000 0.806964 0.431748
0.570359 0.866463 0.304445
0.577099 0.866216 0.304548
0.590385 0.865724 0.301084
0.639836 0.863750 0.291039
0.729968 0.857639 0.260663
0.857131 0.848576 0.203935
0.995487 0.837401 0.000000
1.000000 0.849071 0.245423
1.000000 0.880226 0.486998
0.855967 0.950957 0.587546
0.855967 0.950957 0.587546
0.860756 0.950703 0.584597
0.869813 0.950201 0.581970
0.886639 0.949272 0.573695
0.923086 0.948036 0.556676
0.976670 0.942342 0.522429
1.000000 0.938900 0.445699
1.000000 0.946724 0.592884
0.960480 0.989203 0.824672
0.960480 0.989203 0.824672
0.960480 0.989203 0.824672
0.961478 0.989155 0.823111
0.964234 0.988995 0.821734
0.970332 0.989025 0.816216
0.985058 0.987824 0.806588
1.000000 0.985870 0.781928
1.000000 0.984925 0.745646
0.000000 0.000000 0.128367
0.000000 0.000000 0.117223
0.045184 0.000000 0.108621
0.186478 0.000000 0.108604
0.401637 0.000000 0.128669
0.729867 0.000000 0.116610
1.000000 0.000000 0.123547
1.000000 0.457883 0.209006
1.000000 0.760559 0.430058
0.000000 0.027731 0.148744
0.000000 0.023732 0.141562
0.040653 0.008267 0.136866
0.187098 0.000000 0.135851
0.402837 0.000000 0.144527
0.729669 0.000000 0.118256
1.000000 0.000000 0.123982
1.000000 0.461256 0.208535
1.000000 0.762460 0.430028
0.000000 0.098999 0.234074
0.000000 0.094090 0.234255
0.000000 0.092512 0.230614
0.186695 0.073992 0.220764
0.418573 0.000000 0.179036
0.741781 0.000000 0.125458
1.000000 0.000000 0.124097
1.000000 0.468007 0.209107
1.000000 0.765236 0.433590
0.000000 0.240191 0.332058
0.000000 0.236363 0.326972
0.000000 0.240050 0.313940
0.149182 0.235695 0.288882
0.431580 0.210354 0.222585
0.760252 0.123088 0.147343
1.000000 0.148348 0.127014
1.000000 0.492852 0.213016
1.000000 0.770804 0.435294
0.000000 0.443794 0.357927
0.000000 0.447003 0.351507
0.000000 0.446256 0.336480
0.000000 0.443713 0.302584
0.473973 0.433856 0.242286
0.800312 0.399345 0.150902
1.000000 0.400621 0.126231
1.000000 0.547468 0.216404
1.000000 0.778852 0.444219
0.000000 0.681851 0.316474
0.000000 0.681510 0.309887
0.000000 0.680480 0.303479
0.260941 0.677657 0.287715
0.509887 0.670728 0.238520
0.826543 0.652043 0.127519
1.000000 0.649958 0.112070
1.000000 0.705156 0.231995
1.000000 0.807943 0.459327
0.536310 0.871195 0.395455
0.550657 0.870708 0.395590
0.564766 0.870225 0.392120
0.616888 0.868265 0.385536
0.711424 0.862193 0.365518
0.842741 0.857071 0.318562
0.983992 0.843518 0.223383
1.000000 0.852261 0.310781
1.000000 0.881111 0.511766
0.852208 0.950977 0.620033
0.854591 0.950843 0.620154
0.857084 0.950722 0.616994
0.865898 0.951086 0.614853
0.882986 0.950152 0.606268
0.918131 0.948991 0.591231
0.974131 0.943195 0.557654
1.000000 0.940517 0.484290
1.000000 0.947324 0.610570
0.958103 0.989657 0.831381
0.958194 0.989665 0.829767
0.960035 0.989549 0.829929
0.960941 0.989492 0.830011
0.963696 0.989333 0.828652
0.969881 0.988984 0.824443
0.983864 0.988204 0.813512
1.000000 0.985825 0.791575
1.000000 0.984881 0.754251
0.000000 0.067043 0.276179
0.000000 0.066233 0.276200
0.000000 0.062050 0.274105
0.160789 0.029029 0.277493
0.421759 0.000000 0.275966
0.725620 0.000000 0.307387
1.000000 0.000000 0.290386
1.000000 0.466321 0.322946
1.000000 0.762393 0.486932
0.000000 0.082748 0.297969
0.000000 0.081172 0.295697
0.000000 0.076694 0.293473
0.160544 0.054374 0.297353
0.424853 0.000000 0.293994
0.729850 0.000000 0.314850
1.000000 0.000000 0.292634
1.000000 0.473217 0.322458
1.000000 0.764309 0.486904
0.000000 0.121241 0.347266
0.000000 0.118990 0.347329
0.000000 0.115258 0.347410
0.157204 0.100918 0.349754
0.431634 0.000000 0.347461
0.733865 0.000000 0.338197
1.000000 0.039143 0.296659
1.000000 0.480102 0.326724
1.000000 0.766216 0.486880
0.000000 0.264806 0.470887
0.000000 0.262521 0.474500
0.000000 0.259854 0.474617
0.000000 0.258797 0.467508
0.430818 0.235364 0.449662
0.748465 0.168304 0.395959
1.000000 0.206558 0.309296
1.000000 0.500841 0.332541
1.000000 0.768938 0.490502
0.000000 0.470407 0.581944
0.000000 0.470167 0.581960
0.000000 0.466088 0.574703
0.000000 0.467335 0.567138
0.365859 0.465760 0.544600
0.733734 0.437290 0.451890
1.000000 0.429158 0.341923
1.000000 0.556655 0.346348
1.000000 0.778926 0.496261
0.000000 0.707496 0.617527
0.000000 0.707093 0.613753
0.000000 0.706306 0.606205
0.000000 0.700276 0.587601
0.397472 0.702661 0.561039
0.770407 0.677891 0.489139
0.989806 0.672392 0.382233
1.000000 0.712308 0.381169
1.000000 0.809930 0.517201
0.486070 0.880954 0.594184
0.494056 0.880723 0.594209
0.509990 0.880269 0.590550
0.562038 0.878626 0.579635
0.660505 0.876649 0.558276
0.810931 0.865661 0.520411
0.968284 0.851357 0.438575
1.000000 0.861511 0.451834
1.000000 0.885034 0.561557
0.845087 0.953398 0.695267
0.845087 0.953398 0.695267
0.847511 0.953263 0.695346
0.855129 0.952031 0.692131
0.876583 0.951675 0.687372
0.911198 0.949769 0.667937
0.967017 0.947349 0.642332
1.000000 0.943602 0.578946
1.000000 0.947772 0.653031
0.956178 0.989626 0.848435
0.957119 0.989567 0.848498
0.957206 0.989575 0.846990
0.959051 0.989460 0.847120
0.961835 0.989299 0.845810
0.967827 0.989305 0.843594
0.981975 0.988516 0.832998
1.000000 0.986129 0.810820
1.000000 0.985123 0.777141
0.000000 0.184414 0.523530
0.000000 0.182592 0.523573
0.000000 0.183605 0.527137
0.000000 0.180537 0.526978
0.398804 0.132057 0.536549
0.757587 0.000000 0.523948
1.000000 0.000000 0.556710
1.000000 0.484530 0.537759
1.000000 0.766645 0.594787
0.000000 0.192444 0.534195
0.000000 0.192288 0.534192
0.000000 0.193404 0.537773
0.000000 0.190441 0.537619
0.400251 0.147361 0.543621
0.757358 0.000000 0.534594
1.000000 0.059297 0.560190
1.000000 0.488118 0.537620
1.000000 0.767434 0.595765
0.000000 0.222379 0.562608
0.000000 0.222271 0.562605
0.000000 0.223674 0.562527
0.000000 0.218922 0.566134
0.399880 0.184670 0.572355
0.756015 0.000000 0.555973
1.000000 0.144530 0.566985
1.000000 0.499760 0.540874
1.000000 0.769377 0.595731
0.000000 0.294290 0.627139
0.000000 0.294167 0.627135
0.000000 0.296193 0.627028
0.000000 0.293819 0.626902
0.401541 0.267346 0.626127
0.760353 0.196945 0.613257
1.000000 0.248115 0.591219
1.000000 0.522079 0.547020
1.000000 0.773216 0.598407
0.000000 0.507926 0.752786
0.000000 0.507758 0.752778
0.000000 0.507185 0.756026
0.000000 0.501461 0.752798
0.339380 0.492779 0.745620
0.741685 0.460988 0.713734
0.991281 0.458616 0.655754
1.000000 0.580796 0.565409
1.000000 0.785119 0.604754
0.000000 0.731307 0.830563
0.000000 0.731096 0.830547
0.000000 0.733788 0.825673
0.000000 0.728598 0.818730
0.324119 0.723498 0.806198
0.687405 0.709835 0.789896
0.947222 0.704598 0.707245
1.000000 0.727030 0.604176
1.000000 0.817455 0.625216
0.411422 0.891226 0.838905
0.421098 0.891006 0.838894
0.457720 0.890108 0.838848
0.516219 0.888507 0.832546
0.606297 0.885452 0.826038
0.752708 0.879053 0.805875
0.928390 0.867849 0.751056
1.000000 0.868529 0.659322
1.000000 0.887369 0.671269
0.819357 0.958433 0.835309
0.819487 0.958443 0.833404
0.822131 0.958303 0.833418
0.827447 0.958036 0.831529
0.851644 0.956750 0.827836
0.886591 0.955656 0.814459
0.947296 0.949921 0.786369
1.000000 0.946360 0.730949
1.000000 0.950554 0.741172
0.951841 0.990286 0.883871
0.951841 0.990286 0.883871
0.951841 0.990286 0.883871
0.952802 0.990226 0.883904
0.954771 0.990116 0.882775
0.963031 0.989635 0.879492
0.977453 0.989173 0.870548
1.000000 0.987822 0.855935
1.000000 0.986304 0.825308
0.000000 0.382419 0.804496
0.000000 0.382109 0.804465
0.000000 0.381602 0.807225
0.000000 0.376397 0.809937
0.309206 0.368477 0.803624
0.725557 0.317447 0.806723
1.000000 0.252647 0.791495
1.000000 0.507171 0.809443
1.000000 0.770847 0.785682
0.000000 0.388835 0.807021
0.000000 0.388463 0.806983
0.000000 0.384754 0.809856
0.000000 0.379530 0.809792
0.312707 0.371523 0.806278
0.724344 0.325426 0.806526
1.000000 0.263428 0.794143
1.000000 0.510811 0.811740
1.000000 0.770847 0.785682
0.000000 0.405201 0.811788
0.000000 0.405017 0.811769
0.000000 0.401160 0.814576
0.000000 0.395853 0.817197
0.313040 0.388015 0.813787
0.721130 0.341435 0.814148
1.000000 0.283853 0.802052
1.000000 0.518088 0.816235
1.000000 0.772841 0.785593
0.000000 0.442286 0.830737
0.000000 0.442099 0.830717
0.000000 0.441468 0.830649
0.000000 0.436183 0.833051
0.312927 0.428816 0.834729
0.720088 0.391997 0.827714
1.000000 0.351450 0.818769
1.000000 0.540291 0.820033
1.000000 0.777416 0.787994
0.000000 0.544692 0.869892
0.000000 0.544383 0.869859
0.000000 0.543959 0.869813
0.000000 0.538571 0.869827
0.314851 0.539456 0.868800
0.718622 0.504428 0.865423
0.991355 0.483842 0.851234
1.000000 0.596864 0.833474
1.000000 0.791332 0.792190
0.000000 0.763601 0.921825
0.000000 0.763363 0.921802
0.000000 0.759532 0.923210
0.000000 0.757827 0.921785
0.291973 0.756366 0.918584
0.677857 0.739997 0.911114
0.937149 0.723860 0.894533
1.000000 0.745705 0.862328
1.000000 0.821132 0.804354
0.422826 0.904084 0.946751
0.431216 0.905339 0.946628
0.440643 0.905120 0.945708
0.500651 0.903536 0.944664
0.586672 0.899305 0.941748
0.723594 0.892104 0.934551
0.899984 0.882496 0.922264
0.999174 0.882331 0.890245
1.000000 0.894619 0.834344
0.797839 0.964428 0.951394
0.797839 0.964428 0.951394
0.800977 0.963560 0.949892
0.814441 0.962873 0.949076
0.829575 0.962097 0.946672
0.867142 0.958613 0.941704
0.924362 0.956824 0.933597
0.985137 0.952077 0.911824
1.000000 0.953259 0.864465
0.941959 0.992325 0.947720
0.941959 0.992325 0.947720
0.942008 0.992329 0.946995
0.943013 0.992268 0.947000
0.946024 0.992091 0.946286
0.952713 0.991695 0.944856
0.968163 0.990459 0.939655
0.993677 0.989364 0.925507
1.000000 0.987972 0.898354
0.160905 0.634727 0.951304
0.180984 0.634534 0.951283
0.206449 0.637934 0.951028
0.284132 0.636698 0.950896
0.402027 0.633689 0.950582
0.657872 0.613911 0.947702
0.960430 0.582208 0.942630
1.000000 0.587572 0.933676
1.000000 0.788495 0.934854
0.170813 0.638325 0.951070
0.189696 0.638130 0.951049
0.221672 0.637734 0.951007
0.278811 0.640501 0.950684
0.406623 0.637267 0.950347
0.663496 0.613545 0.947668
0.960273 0.582283 0.944805
1.000000 0.591519 0.933505
1.000000 0.788495 0.934854
0.169264 0.645744 0.951669
0.188579 0.645550 0.951648
0.221130 0.645155 0.951606
0.267110 0.648164 0.952341
0.411066 0.640875 0.951158
0.665689 0.621105 0.949359
0.958139 0.590570 0.945511
1.000000 0.595463 0.933334
1.000000 0.788456 0.935862
0.186162 0.660385 0.952803
0.186162 0.660385 0.952803
0.219922 0.659992 0.952761
0.279049 0.662795 0.953452
0.428997 0.655241 0.952268
0.668453 0.640076 0.950360
0.953745 0.615164 0.948547
1.000000 0.614419 0.935908
1.000000 0.794742 0.936524
0.140976 0.701255 0.959062
0.166875 0.701065 0.959042
0.223794 0.700480 0.958981
0.302822 0.699247 0.958852
0.439737 0.695780 0.958498
0.683662 0.677348 0.957871
0.941828 0.655799 0.953515
1.000000 0.655639 0.943653
1.000000 0.806410 0.938796
0.199082 0.796076 0.971444
0.237120 0.795681 0.971405
0.263429 0.798055 0.971912
0.332801 0.794232 0.971263
0.475507 0.787945 0.970377
0.698191 0.773012 0.969889
0.919575 0.759624 0.965614
1.000000 0.762391 0.958990
1.000000 0.837498 0.942496
0.501110 0.916980 0.985657
0.501110 0.916980 0.985657
0.508654 0.916760 0.985157
0.545497 0.914346 0.985157
0.608771 0.912148 0.984478
0.732528 0.908160 0.982938
0.886721 0.898494 0.979760
0.994209 0.892521 0.973119
1.000000 0.901837 0.957787
0.800042 0.968892 0.991511
0.800042 0.968892 0.991511
0.805322 0.968624 0.991489
0.812980 0.968232 0.991113
0.827196 0.968158 0.991003
0.859193 0.965761 0.989860
0.913909 0.962630 0.987033
0.974427 0.958382 0.981967
1.000000 0.959662 0.969582
0.934246 0.994271 0.992735
0.934246 0.994271 0.992735
0.935278 0.994209 0.992731
0.936300 0.994147 0.992727
0.938337 0.994027 0.992430
0.944208 0.993673 0.992116
0.960710 0.992671 0.990861
0.985028 0.991824 0.986204
1.000000 0.990502 0.977915
0.650164 0.844211 0.998772
0.660968 0.843729 0.998728
0.660968 0.843729 0.998728
0.672687 0.841116 0.998827
0.697626 0.839933 0.998719
0.751648 0.835078 0.998613
0.881899 0.831756 0.997223
1.000000 0.819207 0.995884
1.000000 0.828997 0.992545
0.650164 0.844211 0.998772
0.660968 0.843729 0.998728
0.660968 0.843729 0.998728
0.671470 0.843249 0.998684
0.702400 0.839701 0.998697
0.750569 0.837269 0.998848
0.881899 0.831756 0.997223
1.000000 0.819207 0.995884
1.000000 0.828997 0.992545
0.659740 0.845839 0.998586
0.659740 0.845839 0.998586
0.665039 0.845600 0.998564
0.676610 0.843011 0.998662
0.701233 0.841838 0.998555
0.758486 0.836847 0.998809
0.883379 0.833748 0.997071
1.000000 0.821378 0.996141
1.000000 0.828917 0.992957
0.662700 0.849784 0.998659
0.662700 0.849784 0.998659
0.667939 0.849547 0.998638
0.679367 0.847004 0.998735
0.703749 0.845869 0.999002
0.760216 0.840935 0.998880
0.883886 0.837870 0.997542
1.000000 0.825627 0.996262
1.000000 0.832528 0.993136
0.668684 0.857449 0.999174
0.673799 0.857218 0.999153
0.673799 0.857218 0.999153
0.684927 0.854769 0.999247
0.704049 0.853862 0.999164
0.766340 0.850714 0.999236
0.884923 0.845833 0.998091
1.000000 0.837850 0.996241
1.000000 0.841297 0.993773
0.687439 0.876688 1.000000
0.687439 0.876688 1.000000
0.687439 0.876688 1.000000
0.696814 0.876256 1.000000
0.724177 0.873224 1.000000
0.780218 0.872083 1.000000
0.893097 0.865634 0.999411
1.000000 0.856617 0.997546
1.000000 0.859559 0.994866
0.724306 0.921324 1.000000
0.724306 0.921324 1.000000
0.728137 0.921144 1.000000
0.735096 0.921990 1.000000
0.756787 0.920941 1.000000
0.804530 0.919648 1.000000
0.894605 0.912235 1.000000
0.981396 0.907285 1.000000
1.000000 0.909399 0.997808
0.828665 0.973838 1.000000
0.828665 0.973838 1.000000
0.830836 0.973724 1.000000
0.837171 0.973388 1.000000
0.847348 0.972841 1.000000
0.870362 0.970964 1.000000
0.913279 0.969086 1.000000
0.969137 0.965141 1.000000
1.000000 0.964228 1.000000
0.933124 0.996603 1.000000
0.933124 0.996603 1.000000
0.934132 0.996543 1.000000
0.935132 0.996482 1.000000
0.937107 0.996363 1.000000
0.941901 0.996073 1.000000
0.958190 0.995077 1.000000
0.980245 0.993991 1.000000
1.000000 0.992402 1.000000
