Assets/Lutify-Free-LUTs-Pack/Lutify Free LUTs Pack/Cine World Pro Warm - Amy/Lutify.me-Amy-Cineon-to-Rec709.cube
# Created with: fylm.ai - Colour Grading and Collaboration Software in Cloud 
# Website: https://fylm.ai 
# META
# Option: Gamut compress
# Block 1: IDT | ADX10
# Block 2: colourMatch | Blending Mode: Normal | {"ColorSpace":0,"CrossCovarianceLimit":50,"ReshapingIterations":1,"PercentSaturationShift":100,"PercentShadingShift":100,"ExtraShading":true,"PercentTint":100,"PercentModified":100}
# Block 3: LUT | Filmic Curve Response: Standard Contrast 1 (100%)
# Block 4: LUT | Illuminant: D60 (100%)
# Block 5: hueSaturation | Blending Mode: Normal | {"hue":0,"saturation":-0.15}
# Block 6: logPrimaries | Blending Mode: Normal | {"wheels":{"shadows":{"Y":"0","R":"1","G":"1","B":"1"},"midtones":{"Y":"0","R":"1","G":"1","B":"1"},"highlights":{"Y":"0","R":"1","G":"1","B":"1"},"offset":{"Y":"0","R":"1","G":"1","B":"1"}},"sliders":{"shadows":{"Y":0,"R":-0.097,"G":0,"B":0.158},"midtones":{"Y":0,"R":0.024,"G":0.024,"B":-0.036},"highlights":{"Y":0,"R":0.154,"G":-0.084,"B":-0.024},"offset":{"Y":0.048,"R":0,"G":0,"B":0}}}
# Block 7: smartCurves | Blending Mode: Average | [[{"x":0,"y":0},{"x":0.11328125,"y":0.085540771484375},{"x":0.21484375,"y":0.218353271484375},{"x":0.37109375,"y":0.382415771484375},{"x":0.62109375,"y":0.589447021484375},{"x":0.8125,"y":0.765228271484375},{"x":1,"y":1}],[{"x":0,"y":0},{"x":1,"y":1}],[{"x":0,"y":0},{"x":1,"y":1}],[{"x":0,"y":0},{"x":1,"y":1}]]
# Block 8: LUT | Neutral Tint: Teal Tint 4 (100%)
# Block 9: contrast | Blending Mode: Normal | {"contrast":0.1}
# Block 10: ODT | Rec709
TITLE "Lutify.me-Amy-Cineon-to-Rec709" 
LUT_3D_SIZE 9
0.000000 0.000000 0.000000
0.000000 0.000000 0.000000
0.079308 0.000000 0.000000
0.184928 0.000000 0.000000
0.330782 0.000000 0.008327
0.531948 0.000000 0.027248
0.813499 0.000000 0.056745
1.000000 0.102858 0.148633
1.000000 0.473403 0.304355
0.000000 0.000000 0.000000
0.000000 0.000000 0.000000
0.105402 0.000000 0.000000
0.218810 0.000000 0.000000
0.376192 0.000000 0.021078
0.607750 0.000000 0.035911
0.896336 0.000000 0.078689
1.000000 0.270638 0.186200
1.000000 0.554781 0.372371
0.000000 0.077869 0.020823
0.000000 0.081803 0.000000
0.097653 0.085028 0.000000
0.260409 0.076038 0.000000
0.447205 0.000000 0.000000
0.694957 0.000000 0.041035
0.961932 0.000000 0.112587
1.000000 0.393119 0.233301
1.000000 0.638380 0.437422
0.000000 0.206034 0.045032
0.000000 0.212915 0.000000
0.000000 0.226970 0.000000
0.272961 0.232787 0.000000
0.523016 0.233365 0.000000
0.786143 0.242468 0.043630
1.000000 0.331324 0.153431
1.000000 0.507084 0.297622
1.000000 0.727211 0.507428
0.000000 0.396040 0.168611
0.000000 0.415139 0.138690
0.000000 0.441353 0.097064
0.000000 0.457877 0.048392
0.547465 0.461053 0.000000
0.851456 0.482774 0.110099
1.000000 0.551486 0.225431
1.000000 0.672316 0.390566
1.000000 0.803357 0.582776
0.000000 0.668866 0.379181
0.000000 0.687399 0.370394
0.000000 0.709296 0.354127
0.000000 0.731785 0.327512
0.405065 0.738304 0.293174
0.834981 0.740647 0.284904
0.998309 0.769829 0.357627
1.000000 0.825114 0.508461
1.000000 0.879872 0.691985
0.000000 0.890644 0.659786
0.000000 0.902759 0.671199
0.000000 0.911884 0.671728
0.000000 0.916630 0.657962
0.161934 0.918590 0.637618
0.767270 0.911838 0.605811
0.963113 0.909362 0.603572
1.000000 0.922120 0.676504
1.000000 0.941298 0.790559
0.000000 0.985293 0.875690
0.000000 0.987786 0.883066
0.000000 0.989473 0.887198
0.000000 0.990388 0.889806
0.487997 0.987883 0.884331
0.756079 0.982030 0.868769
0.930775 0.977681 0.855846
1.000000 0.976476 0.850834
1.000000 0.981278 0.879363
0.541891 1.000000 0.969223
0.591934 1.000000 0.971806
0.632940 1.000000 0.974747
0.686579 1.000000 0.976501
0.747399 1.000000 0.976785
0.839323 1.000000 0.974186
0.924703 1.000000 0.969583
0.988239 1.000000 0.962171
1.000000 1.000000 0.961090
0.000000 0.000000 0.000000
0.000000 0.000000 0.007923
0.064553 0.000000 0.014005
0.169941 0.000000 0.027771
0.317316 0.000000 0.038074
0.528326 0.000000 0.050939
0.817635 0.000000 0.083285
1.000000 0.148461 0.171462
1.000000 0.486009 0.326989
0.000000 0.000000 0.015087
0.000000 0.000000 0.023634
0.090195 0.000000 0.030529
0.198702 0.000000 0.039124
0.368219 0.000000 0.047210
0.607877 0.000000 0.061024
0.899756 0.000000 0.108192
1.000000 0.291156 0.209248
1.000000 0.559948 0.390182
0.000000 0.077201 0.047607
0.000000 0.081758 0.048466
0.076573 0.089915 0.048985
0.237647 0.088622 0.054226
0.430242 0.062607 0.058283
0.694674 0.000000 0.074655
0.961491 0.059881 0.139948
1.000000 0.402339 0.258907
1.000000 0.646516 0.452850
0.000000 0.207702 0.095214
0.000000 0.216115 0.085126
0.000000 0.233897 0.076034
0.247585 0.244829 0.072395
0.517538 0.239589 0.067462
0.789110 0.245617 0.105375
1.000000 0.340088 0.185320
1.000000 0.511405 0.326191
1.000000 0.736150 0.523288
0.000000 0.389709 0.197643
0.000000 0.414963 0.185350
0.000000 0.441291 0.159722
0.000000 0.457755 0.145298
0.540589 0.465109 0.140966
0.850187 0.482994 0.160252
1.000000 0.551641 0.254310
1.000000 0.676540 0.409618
1.000000 0.804207 0.598905
0.000000 0.665117 0.390194
0.000000 0.687365 0.388270
0.000000 0.701847 0.383548
0.000000 0.731627 0.345373
0.430387 0.734157 0.324962
0.834504 0.740612 0.312208
1.000000 0.767171 0.384818
1.000000 0.823238 0.521505
1.000000 0.880627 0.702568
0.000000 0.886891 0.659716
0.000000 0.897576 0.671030
0.000000 0.908671 0.675149
0.000000 0.913508 0.661357
0.238268 0.913867 0.640742
0.778571 0.909943 0.609331
0.965560 0.909204 0.607415
1.000000 0.921153 0.683336
1.000000 0.940658 0.794798
0.000000 0.983454 0.872556
0.000000 0.985919 0.880143
0.000000 0.988296 0.884427
0.000000 0.988681 0.888411
0.493285 0.986553 0.882866
0.762611 0.981183 0.865636
0.935160 0.976396 0.852472
1.000000 0.975905 0.849596
1.000000 0.980900 0.880595
0.532802 1.000000 0.968121
0.580262 1.000000 0.970232
0.628014 1.000000 0.973263
0.679492 1.000000 0.976055
0.742687 1.000000 0.975866
0.838670 1.000000 0.972694
0.928945 1.000000 0.968496
0.989338 1.000000 0.960975
1.000000 1.000000 0.959449
0.000000 0.000000 0.045444
0.000000 0.000000 0.050860
0.051014 0.000000 0.056545
0.155477 0.000000 0.067999
0.304663 0.000000 0.084382
0.525868 0.000000 0.102289
0.817684 0.000000 0.137122
1.000000 0.183053 0.211902
1.000000 0.494010 0.361833
0.000000 0.000000 0.057416
0.000000 0.000000 0.067057
0.068234 0.000000 0.079991
0.190782 0.000000 0.089802
0.361305 0.000000 0.101311
0.608741 0.000000 0.120173
0.899334 0.000000 0.161523
1.000000 0.305823 0.252678
1.000000 0.571123 0.415896
0.000000 0.089840 0.125188
0.000000 0.090465 0.137367
0.041487 0.098696 0.130874
0.220085 0.100380 0.128004
0.425199 0.083959 0.133351
0.694004 0.000000 0.148415
0.963026 0.128058 0.190310
1.000000 0.410838 0.298139
1.000000 0.656790 0.479418
0.000000 0.218248 0.206243
0.000000 0.223472 0.205781
0.000000 0.239373 0.187118
0.203966 0.252904 0.190772
0.499150 0.260901 0.175873
0.786314 0.261463 0.184639
1.000000 0.353181 0.237957
1.000000 0.515680 0.362656
1.000000 0.739884 0.542384
0.000000 0.398455 0.297645
0.000000 0.418052 0.298755
0.000000 0.444580 0.272919
0.000000 0.461384 0.258908
0.534768 0.476197 0.244245
0.846245 0.487499 0.247889
1.000000 0.551815 0.304014
1.000000 0.676929 0.440856
1.000000 0.806453 0.620204
0.000000 0.661272 0.437299
0.000000 0.679800 0.435911
0.000000 0.701742 0.430670
0.000000 0.731439 0.403239
0.438036 0.730343 0.386186
0.837505 0.736968 0.386474
1.000000 0.767207 0.435541
1.000000 0.821172 0.543781
1.000000 0.880772 0.716138
0.000000 0.883049 0.670756
0.000000 0.893964 0.685329
0.000000 0.903634 0.689136
0.000000 0.911886 0.679202
0.273620 0.910562 0.651440
0.785857 0.906811 0.630481
0.967763 0.907751 0.627781
1.000000 0.919034 0.700065
1.000000 0.940014 0.800795
0.000000 0.982195 0.872523
0.000000 0.984682 0.880115
0.000000 0.987170 0.885778
0.000000 0.988186 0.888395
0.491540 0.985364 0.882769
0.774912 0.979437 0.865442
0.939246 0.975076 0.852291
1.000000 0.974871 0.850949
1.000000 0.980120 0.885050
0.508429 1.000000 0.967027
0.566184 1.000000 0.969166
0.616351 1.000000 0.972263
0.673092 1.000000 0.974630
0.738661 1.000000 0.974440
0.840022 1.000000 0.971665
0.931072 1.000000 0.967413
0.991267 1.000000 0.959789
1.000000 1.000000 0.958297
0.000000 0.000000 0.086539
0.000000 0.000000 0.095491
0.034994 0.000000 0.102673
0.144597 0.000000 0.128411
0.313707 0.000000 0.167259
0.534581 0.000000 0.205000
0.819474 0.000000 0.242528
1.000000 0.212041 0.302629
1.000000 0.508329 0.425369
0.000000 0.000000 0.100329
0.000000 0.016916 0.111497
0.051195 0.027137 0.136652
0.182288 0.000000 0.170167
0.371192 0.000000 0.203984
0.604043 0.000000 0.227580
0.898898 0.000000 0.264817
1.000000 0.318818 0.338908
1.000000 0.584780 0.469006
0.000000 0.101649 0.195541
0.000000 0.102673 0.209782
0.000000 0.109383 0.231747
0.208376 0.116343 0.250809
0.440631 0.106579 0.259388
0.687364 0.090275 0.268151
0.958273 0.175986 0.300990
1.000000 0.421836 0.382079
1.000000 0.672971 0.521835
0.000000 0.235761 0.287289
0.000000 0.233313 0.306632
0.000000 0.252136 0.315864
0.172954 0.265212 0.325226
0.474950 0.271358 0.315666
0.777941 0.281320 0.319543
1.000000 0.365904 0.351853
1.000000 0.526687 0.428462
1.000000 0.745224 0.588192
0.000000 0.414382 0.405298
0.000000 0.427635 0.411365
0.000000 0.450990 0.413534
0.000000 0.475198 0.405525
0.466578 0.490534 0.411385
0.824605 0.501422 0.397706
1.000000 0.563737 0.412911
1.000000 0.680059 0.501341
1.000000 0.810876 0.660491
0.000000 0.657287 0.518637
0.000000 0.679487 0.535948
0.000000 0.701401 0.542135
0.000000 0.727664 0.533151
0.414934 0.737140 0.510344
0.832509 0.740015 0.505232
0.998231 0.767193 0.515154
1.000000 0.821184 0.596546
1.000000 0.880884 0.736790
0.000000 0.880973 0.706219
0.000000 0.891982 0.726120
0.000000 0.903510 0.729333
0.000000 0.910087 0.729476
0.277729 0.910155 0.700620
0.787007 0.905038 0.686577
0.968112 0.906146 0.687659
1.000000 0.918974 0.733367
1.000000 0.939255 0.815133
0.000000 0.980024 0.877108
0.000000 0.982728 0.885805
0.000000 0.986077 0.892473
0.000000 0.986195 0.896171
0.488269 0.983485 0.889333
0.783365 0.977771 0.872782
0.941519 0.973757 0.861535
1.000000 0.974279 0.861259
1.000000 0.979727 0.891694
0.484938 1.000000 0.966493
0.542247 1.000000 0.969221
0.604144 1.000000 0.972295
0.664540 1.000000 0.974653
0.734541 1.000000 0.974445
0.839803 1.000000 0.971654
0.935121 1.000000 0.967365
0.992295 0.999667 0.960274
1.000000 0.999822 0.959483
0.000000 0.035268 0.164265
0.000000 0.043798 0.184617
0.000000 0.051250 0.203319
0.108120 0.051454 0.243830
0.302545 0.000000 0.291098
0.554036 0.000000 0.333266
0.819721 0.000000 0.400540
1.000000 0.251477 0.459172
1.000000 0.533237 0.536501
0.000000 0.045685 0.183047
0.000000 0.052366 0.206447
0.000000 0.063784 0.233228
0.151718 0.062774 0.275233
0.357143 0.000000 0.324204
0.633990 0.000000 0.375778
0.895868 0.000000 0.429896
1.000000 0.360662 0.491082
1.000000 0.605850 0.574940
0.000000 0.114879 0.270644
0.000000 0.119207 0.290095
0.000000 0.131577 0.318259
0.160855 0.143383 0.365783
0.432265 0.138607 0.401116
0.700637 0.112933 0.432867
0.955842 0.216003 0.463112
1.000000 0.452951 0.523608
1.000000 0.684599 0.624339
0.000000 0.251269 0.374180
0.000000 0.250961 0.403010
0.000000 0.267093 0.436139
0.096129 0.287194 0.462952
0.475495 0.292443 0.486200
0.771728 0.315717 0.494794
0.991389 0.398121 0.515972
1.000000 0.557571 0.563499
1.000000 0.751991 0.669966
0.000000 0.440653 0.509435
0.000000 0.447301 0.534770
0.000000 0.464040 0.563605
0.000000 0.492491 0.577052
0.422410 0.512940 0.597783
0.799337 0.518142 0.570631
1.000000 0.578864 0.575810
1.000000 0.698176 0.625122
1.000000 0.814227 0.718313
0.000000 0.667953 0.646337
0.000000 0.690106 0.675369
0.000000 0.715524 0.692500
0.000000 0.730545 0.687912
0.339085 0.747722 0.671660
0.790978 0.754210 0.660326
0.979543 0.777719 0.671980
1.000000 0.824663 0.705256
1.000000 0.883098 0.778769
0.000000 0.882667 0.774551
0.000000 0.893590 0.795203
0.000000 0.903220 0.804474
0.000000 0.909835 0.810999
0.242689 0.913933 0.803325
0.779975 0.905915 0.789093
0.962703 0.907007 0.783603
1.000000 0.918718 0.797190
1.000000 0.939110 0.845038
0.000000 0.979334 0.894038
0.000000 0.981973 0.900364
0.000000 0.986181 0.906363
0.000000 0.986219 0.911979
0.477867 0.982905 0.909116
0.784557 0.976883 0.896698
0.940710 0.974102 0.889179
1.000000 0.974622 0.889806
1.000000 0.979672 0.909091
0.474123 1.000000 0.968255
0.533365 1.000000 0.970892
0.589057 1.000000 0.973878
0.652496 1.000000 0.976609
0.730322 1.000000 0.976820
0.839237 1.000000 0.974112
0.936970 1.000000 0.969949
0.992916 0.999398 0.964213
1.000000 0.999620 0.963244
0.000000 0.083777 0.291075
0.000000 0.098011 0.321694
0.000000 0.115279 0.361342
0.000000 0.131026 0.410115
0.239738 0.142272 0.459690
0.539256 0.111754 0.524479
0.834348 0.000000 0.580802
1.000000 0.299316 0.656412
1.000000 0.550439 0.714674
0.000000 0.093337 0.309493
0.000000 0.112225 0.342102
0.000000 0.129656 0.381478
0.000000 0.146480 0.436457
0.304713 0.165515 0.497380
0.613799 0.131680 0.549006
0.899576 0.155128 0.613024
1.000000 0.393807 0.685155
1.000000 0.618687 0.737918
0.000000 0.138722 0.372245
0.000000 0.158697 0.402832
0.000000 0.178263 0.445993
0.000000 0.202172 0.501196
0.385673 0.210438 0.553620
0.697430 0.211194 0.606133
0.948644 0.272275 0.655910
1.000000 0.480371 0.709500
1.000000 0.696346 0.764980
0.000000 0.266930 0.488434
0.000000 0.284502 0.520134
0.000000 0.302979 0.559749
0.000000 0.325341 0.603274
0.423475 0.339132 0.649935
0.771457 0.347573 0.677009
0.977606 0.430284 0.707388
1.000000 0.575419 0.747517
1.000000 0.763473 0.789983
0.000000 0.460549 0.619851
0.000000 0.474183 0.656890
0.000000 0.494824 0.693572
0.000000 0.520858 0.724750
0.407211 0.533866 0.746656
0.803214 0.544486 0.756814
0.991636 0.599552 0.766861
1.000000 0.708208 0.786261
1.000000 0.823163 0.817983
0.000000 0.689804 0.761874
0.000000 0.708209 0.784542
0.000000 0.732881 0.807196
0.000000 0.747359 0.825256
0.252202 0.763683 0.827517
0.763944 0.772274 0.829402
0.964014 0.789852 0.819567
1.000000 0.833523 0.832075
1.000000 0.888436 0.856165
0.000000 0.888118 0.856850
0.000000 0.902165 0.875695
0.000000 0.909586 0.886336
0.000000 0.912815 0.891639
0.182044 0.916392 0.888687
0.763499 0.911122 0.881300
0.945978 0.910815 0.878381
1.000000 0.922519 0.880481
1.000000 0.941832 0.894093
0.000000 0.980268 0.919639
0.000000 0.983621 0.929973
0.000000 0.986233 0.937378
0.000000 0.987794 0.943127
0.468756 0.984054 0.946466
0.781144 0.977832 0.939674
0.937520 0.974409 0.934243
1.000000 0.975408 0.931289
1.000000 0.979555 0.934764
0.445144 1.000000 0.973250
0.506889 1.000000 0.977067
0.579503 1.000000 0.979140
0.643601 1.000000 0.981499
0.726116 1.000000 0.982816
0.836648 1.000000 0.981983
0.937389 1.000000 0.978794
0.992848 0.999476 0.975629
1.000000 0.999728 0.973856
0.000000 0.178041 0.473780
0.000000 0.207023 0.526480
0.000000 0.234026 0.577033
0.000000 0.270585 0.624232
0.000000 0.302233 0.675328
0.449973 0.313424 0.728166
0.804146 0.322964 0.782834
1.000000 0.401362 0.824731
1.000000 0.590423 0.862143
0.000000 0.193754 0.498085
0.000000 0.223138 0.547877
0.000000 0.251835 0.602465
0.000000 0.290699 0.653510
0.062741 0.317649 0.708188
0.542214 0.334909 0.753945
0.875268 0.351031 0.804081
1.000000 0.455679 0.845809
1.000000 0.660589 0.874321
0.000000 0.234891 0.543812
0.000000 0.260903 0.590976
0.000000 0.289332 0.642354
0.000000 0.325450 0.693493
0.243178 0.350464 0.742090
0.621146 0.374792 0.789245
0.928151 0.406125 0.827344
1.000000 0.530214 0.857997
1.000000 0.725471 0.889754
0.000000 0.312603 0.622702
0.000000 0.333282 0.659485
0.000000 0.357936 0.703568
0.000000 0.392804 0.751444
0.315369 0.422441 0.789791
0.721453 0.450058 0.827978
0.970654 0.498139 0.857060
1.000000 0.621875 0.878836
1.000000 0.781314 0.902975
0.000000 0.494681 0.750220
0.000000 0.519429 0.780699
0.000000 0.537035 0.808290
0.000000 0.564460 0.838723
0.295072 0.591591 0.861923
0.755608 0.598675 0.876071
0.983670 0.644830 0.892422
1.000000 0.733887 0.902643
1.000000 0.836811 0.915398
0.000000 0.718947 0.851843
0.000000 0.743322 0.866418
0.000000 0.759533 0.888667
0.000000 0.782643 0.902311
0.000000 0.788366 0.914119
0.743081 0.792103 0.918748
0.959918 0.803829 0.921219
1.000000 0.842857 0.925864
1.000000 0.894218 0.932011
0.000000 0.900663 0.915695
0.000000 0.910405 0.926800
0.000000 0.917374 0.937931
0.000000 0.925845 0.947325
0.000000 0.924346 0.950259
0.731998 0.919527 0.950809
0.934171 0.917799 0.950311
1.000000 0.926046 0.948209
1.000000 0.945051 0.950137
0.000000 0.982828 0.957813
0.000000 0.985261 0.964469
0.000000 0.989124 0.971461
0.000000 0.989973 0.974333
0.440767 0.985681 0.976153
0.775932 0.979511 0.974330
0.932897 0.976455 0.971346
0.994273 0.976414 0.969677
1.000000 0.981743 0.969879
0.422892 1.000000 0.983853
0.493855 1.000000 0.986726
0.572714 1.000000 0.989285
0.635419 1.000000 0.991626
0.720963 1.000000 0.993360
0.831215 1.000000 0.993717
0.935607 1.000000 0.991817
0.991502 0.999416 0.989901
1.000000 1.000000 0.989393
0.000000 0.324448 0.701216
0.000000 0.363513 0.752967
0.000000 0.403901 0.800966
0.000000 0.453745 0.835184
0.000000 0.493194 0.870427
0.244283 0.530086 0.899127
0.678992 0.565852 0.917082
0.958093 0.602420 0.933729
1.000000 0.682373 0.947326
0.000000 0.340661 0.722602
0.000000 0.381690 0.774951
0.000000 0.427015 0.819058
0.000000 0.474100 0.852530
0.000000 0.520402 0.884439
0.360537 0.556394 0.908470
0.786103 0.576718 0.923365
0.994420 0.632989 0.939811
1.000000 0.723437 0.953587
0.000000 0.375806 0.755790
0.000000 0.414077 0.803369
0.000000 0.461165 0.839629
0.000000 0.509263 0.869884
0.000000 0.544268 0.898878
0.475024 0.585565 0.920487
0.853925 0.606593 0.932331
1.000000 0.671965 0.948006
1.000000 0.758301 0.960063
0.000000 0.424520 0.797203
0.000000 0.468765 0.834612
0.000000 0.521355 0.865333
0.000000 0.552052 0.890466
0.000000 0.590959 0.913288
0.595945 0.617331 0.929475
0.910868 0.653716 0.942852
1.000000 0.715427 0.956681
1.000000 0.807859 0.966928
0.000000 0.544354 0.853607
0.000000 0.580728 0.876317
0.000000 0.613332 0.899373
0.000000 0.636869 0.918438
0.123204 0.667925 0.932230
0.686647 0.695238 0.945930
0.942454 0.727281 0.955910
1.000000 0.783264 0.966895
1.000000 0.854025 0.973916
0.000000 0.756527 0.915528
0.000000 0.775419 0.928157
0.000000 0.798453 0.941245
0.000000 0.812140 0.953717
0.000000 0.825873 0.961979
0.704460 0.825534 0.966996
0.934319 0.834064 0.971989
1.000000 0.864266 0.977234
1.000000 0.906619 0.980874
0.000000 0.911992 0.958271
0.000000 0.922007 0.967175
0.000000 0.927674 0.971964
0.000000 0.933372 0.977717
0.000000 0.934617 0.981890
0.710351 0.929702 0.983430
0.923165 0.926992 0.985494
1.000000 0.933432 0.987680
1.000000 0.949768 0.988505
0.000000 0.986697 0.982394
0.000000 0.989544 0.987285
0.000000 0.992506 0.990328
0.000000 0.993194 0.993321
0.428723 0.990585 0.995191
0.764316 0.982715 0.995172
0.921298 0.977994 0.995633
0.991570 0.978510 0.995551
1.000000 0.982947 0.994987
0.403149 1.000000 0.995448
0.483458 1.000000 0.997533
0.558196 1.000000 0.999736
0.628044 1.000000 1.000000
0.717437 1.000000 1.000000
0.827330 1.000000 1.000000
0.933072 1.000000 1.000000
0.989831 1.000000 1.000000
1.000000 1.000000 1.000000
0.000000 0.536082 0.884406
0.000000 0.575973 0.909397
0.000000 0.619582 0.928931
0.000000 0.662842 0.944098
0.000000 0.701218 0.959678
0.237266 0.751598 0.974470
0.594444 0.778397 0.982557
0.846553 0.804247 0.987803
0.997048 0.825576 0.992359
0.000000 0.554188 0.897703
0.000000 0.597989 0.921077
0.000000 0.637713 0.937678
0.000000 0.680753 0.951466
0.000000 0.724985 0.967552
0.373221 0.770838 0.977039
0.667693 0.791595 0.985313
0.906340 0.816849 0.989834
1.000000 0.843475 0.993886
0.000000 0.583494 0.908997
0.000000 0.623553 0.928743
0.000000 0.663208 0.944140
0.000000 0.705949 0.959570
0.000000 0.753812 0.973967
0.478087 0.785448 0.981529
0.733794 0.803605 0.988902
0.945037 0.825701 0.992471
1.000000 0.859899 0.995326
0.000000 0.616832 0.924057
0.000000 0.660557 0.938756
0.000000 0.696507 0.953685
0.000000 0.736732 0.968654
0.147351 0.782769 0.978799
0.563362 0.806357 0.985034
0.800277 0.823252 0.991401
0.975582 0.840647 0.994453
1.000000 0.877718 0.997178
0.000000 0.676312 0.936759
0.000000 0.715752 0.952653
0.000000 0.748808 0.965795
0.000000 0.786384 0.976431
0.289282 0.815938 0.984381
0.628213 0.831815 0.989301
0.868128 0.846591 0.993941
0.992551 0.865322 0.997038
1.000000 0.895886 0.999606
0.000000 0.803481 0.961760
0.000000 0.820682 0.971230
0.000000 0.833381 0.978308
0.000000 0.852694 0.985436
0.363735 0.866736 0.991463
0.682620 0.874918 0.994737
0.900894 0.882680 0.997433
0.994563 0.901842 1.000000
1.000000 0.924332 1.000000
0.000000 0.922833 0.983474
0.000000 0.933085 0.989260
0.000000 0.940617 0.993712
0.000000 0.942569 0.996575
0.430437 0.944555 0.999493
0.707263 0.941602 1.000000
0.906901 0.940686 1.000000
0.993689 0.944998 1.000000
1.000000 0.957499 1.000000
0.000000 0.991264 0.997920
0.000000 0.993228 1.000000
0.000000 0.995419 1.000000
0.153677 0.993992 1.000000
0.543900 0.992111 1.000000
0.755762 0.986774 1.000000
0.919184 0.982846 1.000000
0.986484 0.982570 1.000000
1.000000 0.985396 1.000000
0.392965 1.000000 1.000000
0.474986 1.000000 1.000000
0.551373 1.000000 1.000000
0.626871 1.000000 1.000000
0.712064 1.000000 1.000000
0.821785 1.000000 1.000000
0.928185 1.000000 1.000000
0.987623 1.000000 1.000000
1.000000 1.000000 1.000000
