Assets/Lutify-Free-LUTs-Pack/Lutify Free LUTs Pack/Cine World Pro Warm - Amy/Lutify.me-Amy-SLog3CineVenice-to-Rec709.cube
# Created with: fylm.ai - Colour Grading and Collaboration Software in Cloud 
# Website: https://fylm.ai 
# META
# Option: Gamut compress
# Block 1: IDT | Sony Venice S-Log3 S-Gamut3.Cine
# Block 2: colourMatch | Blending Mode: Normal | {"ColorSpace":0,"CrossCovarianceLimit":50,"ReshapingIterations":1,"PercentSaturationShift":100,"PercentShadingShift":100,"ExtraShading":true,"PercentTint":100,"PercentModified":100}
# Block 3: LUT | Filmic Curve Response: Standard Contrast 1 (100%)
# Block 4: LUT | Illuminant: D60 (100%)
# Block 5: hueSaturation | Blending Mode: Normal | {"hue":0,"saturation":-0.15}
# Block 6: logPrimaries | Blending Mode: Normal | {"wheels":{"shadows":{"Y":"0","R":"1","G":"1","B":"1"},"midtones":{"Y":"0","R":"1","G":"1","B":"1"},"highlights":{"Y":"0","R":"1","G":"1","B":"1"},"offset":{"Y":"0","R":"1","G":"1","B":"1"}},"sliders":{"shadows":{"Y":0,"R":-0.097,"G":0,"B":0.158},"midtones":{"Y":0,"R":0.024,"G":0.024,"B":-0.036},"highlights":{"Y":0,"R":0.154,"G":-0.084,"B":-0.024},"offset":{"Y":0.048,"R":0,"G":0,"B":0}}}
# Block 7: smartCurves | Blending Mode: Average | [[{"x":0,"y":0},{"x":0.11328125,"y":0.085540771484375},{"x":0.21484375,"y":0.218353271484375},{"x":0.37109375,"y":0.382415771484375},{"x":0.62109375,"y":0.589447021484375},{"x":0.8125,"y":0.765228271484375},{"x":1,"y":1}],[{"x":0,"y":0},{"x":1,"y":1}],[{"x":0,"y":0},{"x":1,"y":1}],[{"x":0,"y":0},{"x":1,"y":1}]]
# Block 8: LUT | Neutral Tint: Teal Tint 4 (100%)
# Block 9: contrast | Blending Mode: Normal | {"contrast":0.1}
# Block 10: ODT | Rec709
TITLE "Lutify.me-Amy-SLog3CineVenice-to-Rec709" 
LUT_3D_SIZE 9
0.000000 0.000000 0.000000
0.000000 0.000000 0.000000
0.194362 0.000000 0.000000
0.461574 0.000000 0.000000
0.766979 0.000000 0.000000
1.000000 0.000000 0.050056
1.000000 0.382298 0.230296
1.000000 0.756954 0.546823
1.000000 0.914208 0.819314
0.000000 0.016290 0.000000
0.000000 0.000000 0.000000
0.170498 0.000000 0.000000
0.438310 0.000000 0.000000
0.762699 0.000000 0.000000
1.000000 0.000000 0.045637
1.000000 0.393558 0.233222
1.000000 0.760266 0.546754
1.000000 0.914208 0.819314
0.000000 0.133798 0.000000
0.000000 0.120231 0.000000
0.176387 0.089618 0.000000
0.452436 0.000000 0.000000
0.766950 0.000000 0.000000
1.000000 0.000000 0.040380
1.000000 0.406094 0.236286
1.000000 0.763552 0.548780
1.000000 0.914826 0.820473
0.000000 0.302479 0.000000
0.000000 0.297710 0.000000
0.000000 0.279364 0.000000
0.502099 0.219110 0.000000
0.808641 0.123428 0.000000
1.000000 0.000000 0.000000
1.000000 0.451951 0.238660
1.000000 0.772730 0.552301
1.000000 0.916077 0.820528
0.000000 0.569191 0.000000
0.000000 0.569028 0.000000
0.000000 0.572106 0.000000
0.164923 0.554964 0.000000
0.826545 0.488617 0.000000
1.000000 0.499198 0.000000
1.000000 0.567355 0.238522
1.000000 0.792493 0.562228
1.000000 0.919200 0.820681
0.000000 0.862270 0.236040
0.000000 0.861790 0.220844
0.000000 0.861176 0.205336
0.000000 0.859840 0.145243
0.584704 0.841642 0.000000
0.971490 0.798118 0.000000
1.000000 0.810611 0.258157
1.000000 0.843522 0.583322
1.000000 0.927848 0.825722
0.000000 0.973471 0.608261
0.000000 0.973173 0.604942
0.087778 0.972720 0.598308
0.349511 0.971339 0.585985
0.617691 0.963000 0.549746
0.888241 0.948781 0.477205
1.000000 0.936289 0.404815
1.000000 0.940003 0.658308
1.000000 0.949946 0.840917
0.765146 1.000000 0.864747
0.765146 1.000000 0.864747
0.770411 1.000000 0.864752
0.783374 1.000000 0.861983
0.818542 1.000000 0.854942
0.888327 0.997165 0.839980
0.978772 0.992034 0.802835
1.000000 0.988291 0.766296
1.000000 0.988673 0.873597
0.932814 1.000000 0.967297
0.932814 1.000000 0.967297
0.933741 1.000000 0.966798
0.935509 1.000000 0.966799
0.939076 1.000000 0.965284
0.949806 1.000000 0.962695
0.976415 1.000000 0.956356
1.000000 1.000000 0.938485
1.000000 1.000000 0.915284
0.000000 0.000000 0.017106
0.000000 0.000000 0.004888
0.162083 0.000000 0.000000
0.401335 0.000000 0.000000
0.715823 0.000000 0.000000
1.000000 0.000000 0.071063
1.000000 0.382253 0.241698
1.000000 0.758603 0.548876
1.000000 0.914201 0.820448
0.000000 0.000000 0.035771
0.000000 0.000000 0.020905
0.140545 0.000000 0.000000
0.368073 0.000000 0.000000
0.703136 0.000000 0.000000
1.000000 0.000000 0.070239
1.000000 0.391692 0.243824
1.000000 0.760256 0.548842
1.000000 0.914201 0.820448
0.000000 0.126299 0.047630
0.000000 0.118245 0.000000
0.113366 0.101113 0.000000
0.371312 0.000000 0.000000
0.720131 0.000000 0.000000
1.000000 0.000000 0.068665
1.000000 0.409209 0.244890
1.000000 0.763543 0.550880
1.000000 0.914826 0.820473
0.000000 0.307041 0.000000
0.000000 0.304680 0.000000
0.000000 0.303682 0.000000
0.391273 0.264278 0.000000
0.746466 0.182728 0.000000
1.000000 0.000000 0.043550
1.000000 0.455107 0.251003
1.000000 0.772712 0.556512
1.000000 0.916077 0.820528
0.000000 0.576533 0.000000
0.000000 0.580085 0.000000
0.000000 0.583275 0.000000
0.000000 0.574887 0.000000
0.745166 0.519433 0.000000
1.000000 0.498966 0.000000
1.000000 0.567330 0.253113
1.000000 0.792474 0.566516
1.000000 0.919194 0.821809
0.000000 0.862267 0.292426
0.000000 0.861804 0.281460
0.000000 0.863318 0.266890
0.000000 0.860231 0.214774
0.562432 0.844594 0.000000
0.967481 0.800635 0.000000
1.000000 0.810381 0.282412
1.000000 0.843505 0.587655
1.000000 0.927841 0.826842
0.000000 0.974506 0.625661
0.000000 0.974048 0.625704
0.000000 0.973603 0.619029
0.335666 0.971461 0.602550
0.611160 0.963974 0.566742
0.887289 0.949616 0.496081
1.000000 0.936267 0.417885
1.000000 0.939995 0.660301
1.000000 0.949946 0.840917
0.762372 1.000000 0.866123
0.765040 1.000000 0.866125
0.770411 1.000000 0.864752
0.781004 1.000000 0.865027
0.818510 1.000000 0.858124
0.888132 0.997149 0.843059
0.978435 0.992346 0.806599
1.000000 0.988274 0.769973
1.000000 0.988673 0.873597
0.932814 1.000000 0.967297
0.932814 1.000000 0.967297
0.933707 1.000000 0.967297
0.935509 1.000000 0.966799
0.939076 1.000000 0.965284
0.949806 1.000000 0.962695
0.976415 1.000000 0.956356
1.000000 1.000000 0.939714
1.000000 1.000000 0.915284
0.000000 0.000000 0.087188
0.000000 0.000000 0.047964
0.133007 0.000000 0.042355
0.373974 0.000000 0.037554
0.690713 0.000000 0.039537
1.000000 0.000000 0.099079
1.000000 0.377142 0.256287
1.000000 0.758574 0.555212
1.000000 0.914201 0.820448
0.000000 0.000000 0.093085
0.000000 0.000000 0.066945
0.107092 0.000000 0.056729
0.331509 0.000000 0.053845
0.682386 0.000000 0.049579
1.000000 0.000000 0.099752
1.000000 0.386643 0.258751
1.000000 0.760228 0.555178
1.000000 0.914201 0.820448
0.000000 0.139427 0.195275
0.000000 0.121608 0.179245
0.048131 0.101857 0.137606
0.323127 0.000000 0.085558
0.682372 0.000000 0.056909
1.000000 0.000000 0.102493
1.000000 0.407423 0.261424
1.000000 0.763514 0.557253
1.000000 0.914826 0.820473
0.000000 0.322075 0.260620
0.000000 0.315296 0.217320
0.000000 0.313055 0.154849
0.297938 0.294514 0.077541
0.704569 0.207497 0.012580
1.000000 0.000000 0.101370
1.000000 0.456808 0.264925
1.000000 0.771665 0.559281
1.000000 0.915451 0.820500
0.000000 0.591168 0.217496
0.000000 0.591102 0.184514
0.000000 0.594423 0.143364
0.000000 0.590338 0.000000
0.699375 0.538675 0.000000
1.000000 0.502845 0.000000
1.000000 0.567293 0.272334
1.000000 0.792446 0.573036
1.000000 0.919585 0.823789
0.000000 0.864395 0.363578
0.000000 0.864009 0.348880
0.000000 0.863271 0.334258
0.000000 0.862692 0.294078
0.547307 0.845023 0.197057
0.957746 0.810381 0.000000
1.000000 0.810150 0.308174
1.000000 0.843479 0.594241
1.000000 0.927835 0.827963
0.000000 0.974698 0.652569
0.000000 0.974124 0.645921
0.000000 0.973671 0.642593
0.319854 0.971554 0.625954
0.609471 0.964705 0.593719
0.884213 0.950547 0.517959
1.000000 0.937119 0.442237
1.000000 0.939888 0.665160
1.000000 0.949946 0.840917
0.762491 1.000000 0.870422
0.765250 1.000000 0.869088
0.767882 1.000000 0.869089
0.780798 1.000000 0.867756
0.818309 1.000000 0.860956
0.887938 0.997133 0.846101
0.977554 0.992376 0.809660
1.000000 0.988258 0.773137
1.000000 0.988665 0.875120
0.932781 1.000000 0.967792
0.932781 1.000000 0.967792
0.932781 1.000000 0.967792
0.935475 1.000000 0.967297
0.939041 1.000000 0.965793
0.949770 1.000000 0.963225
0.975850 1.000000 0.956910
1.000000 1.000000 0.940322
1.000000 1.000000 0.915796
0.000000 0.000000 0.164422
0.000000 0.000000 0.076422
0.101676 0.000000 0.059584
0.387800 0.000000 0.054023
0.692189 0.000000 0.090073
1.000000 0.000000 0.164423
1.000000 0.364769 0.305964
1.000000 0.757336 0.569034
1.000000 0.914188 0.822720
0.000000 0.000000 0.177376
0.000000 0.000000 0.120044
0.080528 0.000000 0.095633
0.334209 0.000000 0.085998
0.659499 0.000000 0.133975
1.000000 0.000000 0.174716
1.000000 0.379553 0.306036
1.000000 0.760666 0.571198
1.000000 0.914181 0.823858
0.000000 0.081041 0.269544
0.000000 0.069919 0.231337
0.000000 0.056124 0.216009
0.316239 0.000000 0.183209
0.652045 0.000000 0.181260
1.000000 0.000000 0.186762
1.000000 0.395655 0.309125
1.000000 0.763989 0.571132
1.000000 0.914806 0.823881
0.000000 0.352347 0.442750
0.000000 0.327781 0.419892
0.000000 0.314652 0.410495
0.205625 0.300709 0.366204
0.677852 0.211421 0.263583
1.000000 0.000000 0.201565
1.000000 0.453711 0.319898
1.000000 0.771594 0.574681
1.000000 0.915863 0.824746
0.000000 0.605230 0.518300
0.000000 0.605224 0.503520
0.000000 0.601405 0.470886
0.000000 0.605850 0.396017
0.634294 0.577311 0.300854
1.000000 0.518645 0.236654
1.000000 0.565134 0.339059
1.000000 0.791503 0.589557
1.000000 0.919173 0.825203
0.000000 0.866446 0.508808
0.000000 0.866090 0.501380
0.000000 0.865430 0.490271
0.000000 0.865056 0.457232
0.493119 0.852736 0.378841
0.941902 0.822245 0.265348
1.000000 0.813827 0.385838
1.000000 0.844298 0.608744
1.000000 0.927815 0.831330
0.000000 0.974785 0.700807
0.000000 0.974360 0.697728
0.000000 0.973612 0.694645
0.283044 0.972467 0.682581
0.582267 0.966863 0.654602
0.877540 0.951454 0.580804
1.000000 0.940531 0.507907
1.000000 0.940407 0.681890
1.000000 0.949567 0.842651
0.759113 1.000000 0.879402
0.761891 1.000000 0.878157
0.767183 1.000000 0.878157
0.775045 1.000000 0.876903
0.815399 1.000000 0.871819
0.884193 0.997584 0.855235
0.976713 0.992638 0.822737
1.000000 0.988208 0.783338
1.000000 0.988653 0.877399
0.931782 1.000000 0.969254
0.932681 1.000000 0.969254
0.932714 1.000000 0.968770
0.935375 1.000000 0.968770
0.938905 1.000000 0.967793
0.949664 1.000000 0.964792
0.975739 1.000000 0.958586
1.000000 1.000000 0.942133
1.000000 1.000000 0.917341
0.000000 0.000000 0.147575
0.000000 0.000000 0.096225
0.097136 0.000000 0.083032
0.348545 0.000000 0.083633
0.777007 0.000000 0.085822
1.000000 0.000000 0.297371
1.000000 0.328781 0.416369
1.000000 0.753026 0.618577
1.000000 0.914112 0.835287
0.000000 0.000000 0.203785
0.000000 0.000000 0.164479
0.064505 0.000000 0.144858
0.309149 0.000000 0.122137
0.777007 0.000000 0.085822
1.000000 0.000000 0.329021
1.000000 0.346190 0.422732
1.000000 0.753011 0.621085
1.000000 0.914737 0.835302
0.000000 0.055728 0.325005
0.000000 0.048431 0.289483
0.000000 0.042797 0.272260
0.268607 0.000000 0.259443
0.648357 0.000000 0.184393
1.000000 0.000000 0.363585
1.000000 0.369612 0.427596
1.000000 0.756434 0.620995
1.000000 0.915362 0.835318
0.000000 0.264244 0.528129
0.000000 0.247533 0.514221
0.000000 0.239371 0.507340
0.145650 0.211518 0.500654
0.667057 0.000000 0.450707
1.000000 0.000000 0.433772
1.000000 0.431128 0.449034
1.000000 0.766581 0.623275
1.000000 0.915988 0.835335
0.000000 0.622809 0.736625
0.000000 0.611641 0.730453
0.000000 0.615252 0.730260
0.000000 0.598448 0.706453
0.510943 0.578346 0.665502
0.976238 0.514452 0.529520
1.000000 0.552876 0.475431
1.000000 0.789526 0.640475
1.000000 0.919737 0.835453
0.000000 0.876042 0.803361
0.000000 0.875799 0.800925
0.000000 0.877342 0.795855
0.000000 0.871084 0.774818
0.366240 0.862257 0.703165
0.898454 0.832153 0.606067
1.000000 0.816015 0.536959
1.000000 0.841596 0.669724
1.000000 0.928374 0.840358
0.000000 0.976363 0.808544
0.000000 0.976096 0.806368
0.000000 0.975668 0.806352
0.080653 0.973694 0.799700
0.533800 0.968295 0.771801
0.862051 0.953955 0.711590
1.000000 0.941139 0.632908
1.000000 0.942200 0.734373
1.000000 0.950050 0.853267
0.751935 1.000000 0.901541
0.754669 1.000000 0.901537
0.757929 1.000000 0.900565
0.768570 1.000000 0.899444
0.807309 1.000000 0.896060
0.874431 0.998836 0.881098
0.973529 0.992907 0.851100
1.000000 0.989040 0.813750
1.000000 0.988866 0.885526
0.931592 1.000000 0.972073
0.931592 1.000000 0.972073
0.931592 1.000000 0.972073
0.933415 1.000000 0.971611
0.937822 1.000000 0.971146
0.948611 1.000000 0.969313
0.974378 1.000000 0.962430
1.000000 1.000000 0.947422
1.000000 1.000000 0.923427
0.067567 0.000000 0.141243
0.103637 0.000000 0.136293
0.163399 0.000000 0.131411
0.314710 0.000000 0.130290
0.705425 0.000000 0.132983
1.000000 0.000000 0.162018
1.000000 0.138459 0.613886
1.000000 0.732659 0.726201
1.000000 0.914132 0.860807
0.039539 0.000000 0.184730
0.085085 0.000000 0.178387
0.147434 0.000000 0.166210
0.309687 0.000000 0.138192
0.705425 0.000000 0.132983
1.000000 0.000000 0.162018
1.000000 0.192130 0.627374
1.000000 0.734458 0.726126
1.000000 0.914132 0.860807
0.000000 0.017730 0.343399
0.000000 0.000000 0.335446
0.058291 0.000000 0.319923
0.234509 0.000000 0.289834
0.626565 0.000000 0.210291
1.000000 0.000000 0.162018
1.000000 0.241180 0.640177
1.000000 0.738028 0.728527
1.000000 0.914764 0.860806
0.000000 0.193146 0.600629
0.000000 0.188009 0.597050
0.000000 0.182691 0.589731
0.000000 0.167397 0.589663
0.602323 0.000000 0.568352
0.996756 0.000000 0.457169
1.000000 0.333365 0.672879
1.000000 0.749875 0.733764
1.000000 0.915388 0.861918
0.000000 0.530237 0.821745
0.000000 0.526540 0.824437
0.000000 0.522776 0.824618
0.000000 0.518041 0.822202
0.467529 0.471458 0.814412
0.986679 0.320575 0.757196
1.000000 0.503702 0.729534
1.000000 0.781406 0.745554
1.000000 0.919796 0.863027
0.000000 0.880275 0.925592
0.000000 0.880135 0.924407
0.000000 0.879883 0.924384
0.000000 0.878619 0.923085
0.000000 0.860599 0.907776
0.836340 0.829486 0.879315
1.000000 0.805215 0.810978
1.000000 0.833560 0.765220
1.000000 0.929119 0.866394
0.000000 0.981264 0.947927
0.000000 0.980927 0.947079
0.000000 0.980335 0.946195
0.000000 0.978639 0.943497
0.421209 0.970415 0.933995
0.808944 0.958330 0.904923
0.984538 0.946406 0.856708
1.000000 0.942122 0.820187
1.000000 0.950268 0.878352
0.735470 1.000000 0.948947
0.738297 1.000000 0.948938
0.741101 1.000000 0.948930
0.752184 1.000000 0.947447
0.790660 1.000000 0.943653
0.860974 0.999998 0.931400
0.963696 0.993620 0.907287
1.000000 0.989703 0.873575
1.000000 0.989007 0.906839
0.929235 1.000000 0.981552
0.929235 1.000000 0.981552
0.930165 1.000000 0.981179
0.931066 1.000000 0.981177
0.935534 1.000000 0.980417
0.946439 1.000000 0.978476
0.972569 1.000000 0.972689
1.000000 1.000000 0.960215
1.000000 1.000000 0.938478
0.294849 0.000000 0.194306
0.315673 0.000000 0.193826
0.341955 0.000000 0.193229
0.427364 0.000000 0.188392
0.648936 0.000000 0.192130
1.000000 0.000000 0.218688
1.000000 0.000000 0.303228
1.000000 0.658679 0.863241
1.000000 0.905477 0.904078
0.297134 0.000000 0.194253
0.318025 0.000000 0.193772
0.344399 0.000000 0.193175
0.427364 0.000000 0.188392
0.648936 0.000000 0.192130
1.000000 0.000000 0.218688
1.000000 0.000000 0.303228
1.000000 0.662557 0.864763
1.000000 0.906133 0.904050
0.270393 0.000000 0.221492
0.298596 0.000000 0.215690
0.337942 0.000000 0.208042
0.430255 0.000000 0.188344
0.652996 0.000000 0.192143
1.000000 0.000000 0.218688
1.000000 0.000000 0.303228
1.000000 0.670232 0.867936
1.000000 0.906125 0.905014
0.000000 0.147862 0.691387
0.000000 0.143227 0.687595
0.000000 0.135739 0.679994
0.247295 0.098042 0.668195
0.529763 0.000000 0.628435
0.973141 0.000000 0.410380
1.000000 0.000000 0.303228
1.000000 0.687432 0.875395
1.000000 0.907439 0.904957
0.000000 0.440779 0.881674
0.000000 0.440453 0.881630
0.000000 0.436543 0.881733
0.000000 0.427403 0.881772
0.389147 0.396993 0.881139
0.947158 0.248691 0.864099
1.000000 0.000000 0.794245
1.000000 0.730344 0.891053
1.000000 0.913112 0.906874
0.000000 0.816043 0.965249
0.000000 0.815855 0.965228
0.000000 0.815611 0.966775
0.000000 0.816671 0.964845
0.000000 0.794704 0.962979
0.810267 0.751397 0.954881
1.000000 0.687818 0.931237
1.000000 0.812256 0.913058
1.000000 0.925023 0.913156
0.000000 0.985368 0.993441
0.000000 0.985818 0.992997
0.000000 0.985471 0.992964
0.000000 0.984644 0.992396
0.000000 0.977796 0.990532
0.748936 0.960613 0.984434
0.963887 0.945732 0.972514
1.000000 0.938435 0.947981
1.000000 0.947780 0.924888
0.692516 1.000000 0.995746
0.695509 1.000000 0.995736
0.705199 1.000000 0.995685
0.713782 1.000000 0.995395
0.751729 1.000000 0.994457
0.836309 1.000000 0.991853
0.948662 0.995566 0.982843
1.000000 0.991408 0.966850
1.000000 0.989538 0.949589
0.924927 1.000000 0.995987
0.924936 1.000000 0.995766
0.924936 1.000000 0.995766
0.926770 1.000000 0.995759
0.930393 1.000000 0.995291
0.939865 1.000000 0.994553
0.967936 1.000000 0.990871
1.000000 1.000000 0.982328
1.000000 1.000000 0.967729
0.622380 0.000000 0.274565
0.629719 0.000000 0.274566
0.644557 0.000000 0.274575
0.689986 0.000000 0.272466
0.807017 0.000000 0.270970
1.000000 0.000000 0.288839
1.000000 0.000000 0.358419
1.000000 0.555781 0.522538
1.000000 0.879722 0.968814
0.622380 0.000000 0.274565
0.629719 0.000000 0.274566
0.644557 0.000000 0.274575
0.689986 0.000000 0.272466
0.807017 0.000000 0.270970
1.000000 0.000000 0.288839
1.000000 0.000000 0.358419
1.000000 0.555781 0.522538
1.000000 0.879722 0.968814
0.622380 0.000000 0.274565
0.629719 0.000000 0.274566
0.644557 0.000000 0.274575
0.693891 0.000000 0.272477
0.807017 0.000000 0.270970
1.000000 0.000000 0.288839
1.000000 0.000000 0.358419
1.000000 0.555781 0.522538
1.000000 0.880382 0.969355
0.626043 0.000000 0.274565
0.633409 0.000000 0.274568
0.647871 0.000000 0.272385
0.693891 0.000000 0.272477
0.811172 0.000000 0.271008
1.000000 0.000000 0.289031
1.000000 0.000000 0.358419
1.000000 0.555781 0.522538
1.000000 0.881705 0.969848
0.298970 0.381126 0.934227
0.328211 0.376449 0.934231
0.347546 0.375474 0.934132
0.428024 0.363631 0.932585
0.607680 0.327645 0.927639
0.906405 0.153893 0.912904
1.000000 0.000000 0.786597
1.000000 0.555781 0.522538
1.000000 0.887747 0.971715
0.000000 0.731630 0.989494
0.000000 0.731231 0.989449
0.000000 0.730956 0.989419
0.000000 0.728972 0.989201
0.402734 0.719563 0.989379
0.762949 0.681478 0.987798
1.000000 0.622087 0.980976
1.000000 0.633909 0.952977
1.000000 0.904554 0.977979
0.000000 0.959082 1.000000
0.000000 0.958836 1.000000
0.000000 0.958463 1.000000
0.000000 0.956137 1.000000
0.296155 0.950098 1.000000
0.658919 0.937576 1.000000
0.958945 0.913119 1.000000
1.000000 0.891339 0.994229
1.000000 0.939804 0.986363
0.574999 1.000000 1.000000
0.578563 1.000000 1.000000
0.589111 1.000000 1.000000
0.606208 1.000000 1.000000
0.653840 1.000000 1.000000
0.772160 1.000000 1.000000
0.929222 0.995989 1.000000
1.000000 0.991073 1.000000
1.000000 0.988774 0.995904
0.905656 1.000000 1.000000
0.906641 1.000000 1.000000
0.906641 1.000000 1.000000
0.908598 1.000000 1.000000
0.913407 1.000000 1.000000
0.926383 1.000000 1.000000
0.956534 1.000000 1.000000
0.995962 1.000000 1.000000
1.000000 1.000000 1.000000
0.999600 0.000000 0.380314
0.999600 0.000000 0.380314
1.000000 0.000000 0.380584
1.000000 0.000000 0.381155
1.000000 0.000000 0.382944
1.000000 0.000000 0.397777
1.000000 0.000000 0.433741
1.000000 0.504761 0.562501
1.000000 0.815286 0.779799
0.999600 0.000000 0.380314
0.999600 0.000000 0.380314
1.000000 0.000000 0.380584
1.000000 0.000000 0.381155
1.000000 0.000000 0.382944
1.000000 0.000000 0.397777
1.000000 0.000000 0.433741
1.000000 0.504761 0.562501
1.000000 0.815286 0.779799
0.999600 0.000000 0.380314
0.999600 0.000000 0.380314
1.000000 0.000000 0.380584
1.000000 0.000000 0.381155
1.000000 0.000000 0.383124
1.000000 0.000000 0.397777
1.000000 0.000000 0.433741
1.000000 0.504761 0.562501
1.000000 0.815286 0.779799
0.999600 0.000000 0.380314
1.000000 0.000000 0.380449
1.000000 0.000000 0.380584
1.000000 0.000000 0.381155
1.000000 0.000000 0.383124
1.000000 0.000000 0.397777
1.000000 0.000000 0.433741
1.000000 0.504761 0.562501
1.000000 0.815286 0.779799
1.000000 0.000000 0.380449
1.000000 0.000000 0.380584
1.000000 0.000000 0.380723
1.000000 0.000000 0.381456
1.000000 0.000000 0.383124
1.000000 0.000000 0.398084
1.000000 0.000000 0.433741
1.000000 0.504761 0.562501
1.000000 0.815286 0.779799
0.706954 0.662037 1.000000
0.712027 0.661713 1.000000
0.717045 0.661390 1.000000
0.736576 0.660109 1.000000
0.792870 0.648519 1.000000
0.920501 0.619553 1.000000
1.000000 0.566716 1.000000
1.000000 0.475211 0.966670
1.000000 0.815286 0.779799
0.605985 0.913396 1.000000
0.611559 0.913188 1.000000
0.617050 0.912981 1.000000
0.638907 0.910855 1.000000
0.687374 0.907526 1.000000
0.800324 0.901940 1.000000
0.937167 0.884652 1.000000
1.000000 0.863355 1.000000
1.000000 0.871545 1.000000
0.707394 0.999317 1.000000
0.707394 0.999317 1.000000
0.710353 0.999194 1.000000
0.715770 0.998591 1.000000
0.743962 0.997370 1.000000
0.802646 0.994612 1.000000
0.904216 0.987978 1.000000
1.000000 0.978560 1.000000
1.000000 0.969898 1.000000
0.858395 1.000000 1.000000
0.858395 1.000000 1.000000
0.859525 1.000000 1.000000
0.861778 1.000000 1.000000
0.870141 1.000000 1.000000
0.887772 1.000000 1.000000
0.929844 1.000000 1.000000
0.989393 1.000000 1.000000
1.000000 1.000000 1.000000
