Assets/Lutify-Free-LUTs-Pack/Lutify Free LUTs Pack/Cine World Pro Warm - Amy/Lutify.me-Amy-SLog1-to-Rec709.cube
# Created with: fylm.ai - Colour Grading and Collaboration Software in Cloud 
# Website: https://fylm.ai 
# META
# Option: Gamut compress
# Block 1: IDT | Sony S-Log S-Gamut 10-bit
# Block 2: colourMatch | Blending Mode: Normal | {"ColorSpace":0,"CrossCovarianceLimit":50,"ReshapingIterations":1,"PercentSaturationShift":100,"PercentShadingShift":100,"ExtraShading":true,"PercentTint":100,"PercentModified":100}
# Block 3: LUT | Filmic Curve Response: Standard Contrast 1 (100%)
# Block 4: LUT | Illuminant: D60 (100%)
# Block 5: hueSaturation | Blending Mode: Normal | {"hue":0,"saturation":-0.15}
# Block 6: logPrimaries | Blending Mode: Normal | {"wheels":{"shadows":{"Y":"0","R":"1","G":"1","B":"1"},"midtones":{"Y":"0","R":"1","G":"1","B":"1"},"highlights":{"Y":"0","R":"1","G":"1","B":"1"},"offset":{"Y":"0","R":"1","G":"1","B":"1"}},"sliders":{"shadows":{"Y":0,"R":-0.097,"G":0,"B":0.158},"midtones":{"Y":0,"R":0.024,"G":0.024,"B":-0.036},"highlights":{"Y":0,"R":0.154,"G":-0.084,"B":-0.024},"offset":{"Y":0.048,"R":0,"G":0,"B":0}}}
# Block 7: smartCurves | Blending Mode: Average | [[{"x":0,"y":0},{"x":0.11328125,"y":0.085540771484375},{"x":0.21484375,"y":0.218353271484375},{"x":0.37109375,"y":0.382415771484375},{"x":0.62109375,"y":0.589447021484375},{"x":0.8125,"y":0.765228271484375},{"x":1,"y":1}],[{"x":0,"y":0},{"x":1,"y":1}],[{"x":0,"y":0},{"x":1,"y":1}],[{"x":0,"y":0},{"x":1,"y":1}]]
# Block 8: LUT | Neutral Tint: Teal Tint 4 (100%)
# Block 9: contrast | Blending Mode: Normal | {"contrast":0.1}
# Block 10: ODT | Rec709
TITLE "Lutify.me-Amy-SLog1-to-Rec709" 
LUT_3D_SIZE 9
0.000000 0.000000 0.000000
0.062593 0.000000 0.000000
0.328399 0.000000 0.000000
0.550544 0.000000 0.000000
0.754195 0.000000 0.000000
0.996738 0.000000 0.047803
1.000000 0.112563 0.174452
1.000000 0.509634 0.358156
1.000000 0.755428 0.577852
0.000000 0.038779 0.000000
0.000000 0.022103 0.000000
0.290010 0.000000 0.000000
0.523584 0.000000 0.000000
0.754186 0.000000 0.000000
1.000000 0.000000 0.048477
1.000000 0.179163 0.176062
1.000000 0.518755 0.359920
1.000000 0.757289 0.577808
0.000000 0.189764 0.000000
0.000000 0.163311 0.000000
0.298950 0.118793 0.000000
0.549431 0.000000 0.000000
0.762537 0.000000 0.000000
0.993353 0.000000 0.040321
1.000000 0.244143 0.177538
1.000000 0.532371 0.367259
1.000000 0.762830 0.577689
0.000000 0.342117 0.000000
0.000000 0.329115 0.000000
0.095782 0.314460 0.000000
0.563542 0.264627 0.000000
0.767712 0.254034 0.000000
0.992305 0.213021 0.000000
1.000000 0.348799 0.181032
1.000000 0.563346 0.370044
1.000000 0.772750 0.583719
0.000000 0.540178 0.000000
0.000000 0.540150 0.000000
0.000000 0.539679 0.000000
0.275601 0.524279 0.000000
0.755534 0.483899 0.000000
0.972114 0.490193 0.000000
1.000000 0.521174 0.182035
1.000000 0.628000 0.379037
1.000000 0.787428 0.592311
0.000000 0.755607 0.250427
0.000000 0.762156 0.203637
0.000000 0.768257 0.123846
0.000000 0.768844 0.000000
0.543660 0.743941 0.000000
0.927410 0.712105 0.000000
1.000000 0.731330 0.166798
1.000000 0.756021 0.411872
1.000000 0.821282 0.606469
0.000000 0.912539 0.496881
0.000000 0.913940 0.478799
0.000000 0.911712 0.453073
0.000000 0.909698 0.420800
0.000000 0.906719 0.348199
0.801566 0.884228 0.286700
0.994389 0.870163 0.253485
1.000000 0.878068 0.462612
1.000000 0.888871 0.646218
0.000000 0.981377 0.738634
0.000000 0.980973 0.729999
0.000000 0.979870 0.715178
0.000000 0.979175 0.697568
0.000000 0.975276 0.666303
0.674188 0.962149 0.610877
0.931821 0.949159 0.559745
1.000000 0.943713 0.548775
1.000000 0.944955 0.700860
0.000000 1.000000 0.880817
0.000000 1.000000 0.879454
0.000000 1.000000 0.876696
0.249638 1.000000 0.871124
0.473212 1.000000 0.857490
0.671710 0.998638 0.837732
0.864009 0.989918 0.806490
0.980060 0.983659 0.779467
1.000000 0.980368 0.772264
0.000000 0.000000 0.031042
0.000000 0.000000 0.012830
0.268572 0.000000 0.000000
0.475877 0.000000 0.000000
0.720312 0.000000 0.032248
0.994067 0.000000 0.083375
1.000000 0.108451 0.196160
1.000000 0.509579 0.370052
1.000000 0.755404 0.582854
0.000000 0.026757 0.054796
0.000000 0.003119 0.042625
0.216092 0.000000 0.023690
0.438703 0.000000 0.026625
0.720302 0.000000 0.037464
0.990244 0.000000 0.084930
1.000000 0.181035 0.194510
1.000000 0.518702 0.371903
1.000000 0.757265 0.582810
0.000000 0.188160 0.099123
0.000000 0.170240 0.043704
0.185577 0.157363 0.000000
0.451790 0.088464 0.000000
0.720116 0.000000 0.029705
0.987965 0.000000 0.086688
1.000000 0.246046 0.195486
1.000000 0.530949 0.376016
1.000000 0.762806 0.582690
0.000000 0.357817 0.158905
0.000000 0.341940 0.029419
0.000000 0.345834 0.000000
0.440402 0.313895 0.000000
0.730790 0.279689 0.000000
0.984506 0.214653 0.077632
1.000000 0.352801 0.204159
1.000000 0.563287 0.384905
1.000000 0.772727 0.588738
0.000000 0.550921 0.256877
0.000000 0.554643 0.142227
0.000000 0.550689 0.000000
0.137877 0.544409 0.000000
0.706260 0.511387 0.000000
0.963439 0.498635 0.000000
1.000000 0.524499 0.210792
1.000000 0.627951 0.394406
1.000000 0.786628 0.598775
0.000000 0.762060 0.355842
0.000000 0.765310 0.308441
0.000000 0.771408 0.255241
0.000000 0.775275 0.179386
0.513439 0.757827 0.000000
0.914635 0.722893 0.000000
1.000000 0.731179 0.216554
1.000000 0.755571 0.424855
1.000000 0.821249 0.614160
0.000000 0.914055 0.534119
0.000000 0.915452 0.515910
0.000000 0.913251 0.493708
0.000000 0.911329 0.457513
0.000000 0.906800 0.391135
0.796648 0.886016 0.322097
0.992274 0.871793 0.292148
1.000000 0.878039 0.476471
1.000000 0.888637 0.652994
0.000000 0.981389 0.752561
0.000000 0.980966 0.741467
0.000000 0.980582 0.733204
0.000000 0.979120 0.709878
0.000000 0.975342 0.685599
0.673030 0.962901 0.628106
0.930888 0.949949 0.575819
1.000000 0.943688 0.561018
1.000000 0.944946 0.703086
0.000000 1.000000 0.885998
0.000000 1.000000 0.883415
0.000000 1.000000 0.879535
0.218392 1.000000 0.873963
0.474731 1.000000 0.862284
0.671268 0.998611 0.842796
0.863663 0.989890 0.812056
0.979204 0.983699 0.781169
1.000000 0.980354 0.775452
0.000000 0.000000 0.146354
0.000000 0.000000 0.051600
0.235560 0.000000 0.050738
0.449723 0.000000 0.056391
0.695874 0.000000 0.083295
0.980760 0.000000 0.129574
1.000000 0.133165 0.226267
1.000000 0.504959 0.388975
1.000000 0.755352 0.592987
0.000000 0.005389 0.156527
0.000000 0.000000 0.096272
0.189354 0.000000 0.088420
0.403046 0.000000 0.097813
0.691829 0.000000 0.100941
0.985076 0.000000 0.138889
1.000000 0.184867 0.228741
1.000000 0.514111 0.390964
1.000000 0.757215 0.592943
0.000000 0.222739 0.287999
0.000000 0.194394 0.265213
0.095295 0.168488 0.216695
0.405848 0.115452 0.161209
0.695002 0.000000 0.121513
0.979969 0.000000 0.146908
1.000000 0.244455 0.229638
1.000000 0.529487 0.395145
1.000000 0.760904 0.595418
0.000000 0.401409 0.373003
0.000000 0.370424 0.341265
0.000000 0.367624 0.261220
0.347620 0.349821 0.191099
0.701894 0.295693 0.143539
0.978844 0.215867 0.162986
1.000000 0.350065 0.237456
1.000000 0.561962 0.404485
1.000000 0.771793 0.600370
0.000000 0.579775 0.432576
0.000000 0.565275 0.367501
0.000000 0.565189 0.292170
0.000000 0.571177 0.208914
0.656937 0.534339 0.133248
0.952591 0.515276 0.161663
1.000000 0.523062 0.256914
1.000000 0.626884 0.414695
1.000000 0.786604 0.603923
0.000000 0.765005 0.488862
0.000000 0.768285 0.440157
0.000000 0.777579 0.387893
0.000000 0.781575 0.322252
0.460627 0.768679 0.233945
0.899713 0.736771 0.147380
1.000000 0.739984 0.278634
1.000000 0.755104 0.446779
1.000000 0.821191 0.627177
0.000000 0.915449 0.601227
0.000000 0.915270 0.586380
0.000000 0.917827 0.557203
0.000000 0.912936 0.509080
0.000000 0.908515 0.459781
0.788009 0.886280 0.391237
0.987971 0.871829 0.348013
1.000000 0.879315 0.498886
1.000000 0.888606 0.660762
0.000000 0.981386 0.776020
0.000000 0.980864 0.770981
0.000000 0.980634 0.760819
0.000000 0.979169 0.739205
0.000000 0.975406 0.704279
0.666236 0.964565 0.658969
0.928028 0.950790 0.601092
1.000000 0.944439 0.582944
1.000000 0.945633 0.716806
0.000000 1.000000 0.892266
0.000000 1.000000 0.889853
0.000000 1.000000 0.887308
0.215945 1.000000 0.880756
0.467147 1.000000 0.871079
0.666927 0.998719 0.849372
0.863009 0.990263 0.821470
0.977965 0.983704 0.790217
1.000000 0.980331 0.779832
0.000000 0.000000 0.202200
0.000000 0.000000 0.088603
0.199666 0.000000 0.077430
0.463156 0.000000 0.075438
0.680553 0.000000 0.154718
0.970378 0.000000 0.221423
1.000000 0.098111 0.293605
1.000000 0.501810 0.423719
1.000000 0.752352 0.610150
0.000000 0.026149 0.250483
0.000000 0.016467 0.168661
0.157809 0.000000 0.155497
0.401177 0.000000 0.143382
0.678177 0.000000 0.212200
0.969114 0.000000 0.237094
1.000000 0.162820 0.299791
1.000000 0.511076 0.423244
1.000000 0.756104 0.612698
0.000000 0.195496 0.404937
0.000000 0.170387 0.342934
0.000000 0.143805 0.333104
0.401112 0.023311 0.303479
0.688036 0.000000 0.272097
0.969141 0.000000 0.261573
1.000000 0.235953 0.308035
1.000000 0.526593 0.430581
1.000000 0.759828 0.615261
0.000000 0.433734 0.531744
0.000000 0.387991 0.490423
0.000000 0.372384 0.466421
0.259240 0.358155 0.439174
0.659488 0.305465 0.352685
0.958933 0.219602 0.295048
1.000000 0.344637 0.326259
1.000000 0.559339 0.440703
1.000000 0.771687 0.621393
0.000000 0.623459 0.611020
0.000000 0.590220 0.582761
0.000000 0.579100 0.557228
0.000000 0.579202 0.472731
0.602226 0.560110 0.400037
0.926600 0.521013 0.343000
1.000000 0.522026 0.351052
1.000000 0.621487 0.457902
1.000000 0.785715 0.629247
0.000000 0.789427 0.658319
0.000000 0.786422 0.635689
0.000000 0.783258 0.594038
0.000000 0.790571 0.529423
0.393333 0.778844 0.441278
0.862768 0.754246 0.383232
1.000000 0.745311 0.396189
1.000000 0.754182 0.486775
1.000000 0.820537 0.647517
0.000000 0.916596 0.723002
0.000000 0.917968 0.709965
0.000000 0.918976 0.686215
0.000000 0.918804 0.639371
0.000000 0.910012 0.573247
0.750967 0.893961 0.500834
0.979416 0.876634 0.451736
1.000000 0.879052 0.547855
1.000000 0.888309 0.683141
0.000000 0.982107 0.817102
0.000000 0.981672 0.810675
0.000000 0.981570 0.799766
0.000000 0.979988 0.783759
0.000000 0.976231 0.753501
0.653687 0.964756 0.702873
0.922710 0.951645 0.645548
1.000000 0.944333 0.623097
1.000000 0.946972 0.734405
0.000000 1.000000 0.904265
0.000000 1.000000 0.903089
0.000000 1.000000 0.900712
0.201791 1.000000 0.895912
0.461130 1.000000 0.884645
0.662351 0.999164 0.865053
0.860027 0.990275 0.838730
0.975924 0.984518 0.807052
1.000000 0.980679 0.794382
0.000000 0.000000 0.235728
0.000000 0.000000 0.164529
0.139949 0.000000 0.147912
0.403289 0.000000 0.135204
0.722551 0.000000 0.127547
0.953019 0.000000 0.341342
1.000000 0.000000 0.422349
1.000000 0.503181 0.501485
1.000000 0.748109 0.651896
0.000000 0.050347 0.337939
0.000000 0.044187 0.270237
0.081997 0.020404 0.261732
0.381982 0.000000 0.251471
0.663699 0.000000 0.226439
0.955347 0.000000 0.372455
1.000000 0.126580 0.430767
1.000000 0.512593 0.507149
1.000000 0.751962 0.651782
0.000000 0.154805 0.456976
0.000000 0.134306 0.400212
0.000000 0.120527 0.394123
0.360355 0.000000 0.389565
0.675581 0.000000 0.373045
0.955942 0.000000 0.418994
1.000000 0.217260 0.442582
1.000000 0.528425 0.512575
1.000000 0.756747 0.655361
0.000000 0.409543 0.637334
0.000000 0.374797 0.590127
0.000000 0.353843 0.583633
0.205052 0.329141 0.573019
0.663709 0.264094 0.532300
0.949660 0.172528 0.477161
1.000000 0.333222 0.463125
1.000000 0.558475 0.521090
1.000000 0.769724 0.660648
0.000000 0.663708 0.769588
0.000000 0.622859 0.729808
0.000000 0.600534 0.717131
0.000000 0.586618 0.692413
0.500125 0.567732 0.658562
0.895353 0.526241 0.567099
1.000000 0.518881 0.509928
1.000000 0.621483 0.534332
1.000000 0.784738 0.669584
0.000000 0.817173 0.809255
0.000000 0.803343 0.802714
0.000000 0.800320 0.795168
0.000000 0.798961 0.767243
0.255595 0.788420 0.698733
0.822520 0.761575 0.626752
1.000000 0.750547 0.569813
1.000000 0.757830 0.573266
1.000000 0.819260 0.681098
0.000000 0.922112 0.847291
0.000000 0.920502 0.839294
0.000000 0.920090 0.826617
0.000000 0.921485 0.806235
0.000000 0.917693 0.762533
0.722603 0.898657 0.684803
0.959688 0.882838 0.630429
1.000000 0.879954 0.630886
1.000000 0.886762 0.722766
0.000000 0.983542 0.877321
0.000000 0.983985 0.872683
0.000000 0.983152 0.864542
0.000000 0.980812 0.848674
0.000000 0.976878 0.827388
0.626819 0.965901 0.786402
0.910339 0.951776 0.734025
1.000000 0.945730 0.698452
1.000000 0.947507 0.767530
0.000000 1.000000 0.925659
0.000000 1.000000 0.923659
0.000000 1.000000 0.921584
0.136195 1.000000 0.916324
0.445124 1.000000 0.905100
0.652987 0.999685 0.890568
0.854440 0.991172 0.864218
0.974249 0.984797 0.834448
1.000000 0.980974 0.818707
0.000000 0.043127 0.359707
0.000000 0.040847 0.338012
0.082267 0.000000 0.327301
0.317912 0.000000 0.314749
0.646055 0.000000 0.285883
0.969192 0.000000 0.259830
1.000000 0.000000 0.566993
1.000000 0.478167 0.642219
1.000000 0.743607 0.714499
0.000000 0.096299 0.447953
0.000000 0.092064 0.431027
0.000000 0.079458 0.424333
0.291573 0.000000 0.419600
0.653476 0.000000 0.404460
0.935763 0.000000 0.378044
1.000000 0.000000 0.587808
1.000000 0.492235 0.648863
1.000000 0.743607 0.714499
0.000000 0.173516 0.538386
0.000000 0.167480 0.527649
0.000000 0.156106 0.524281
0.251252 0.127210 0.523513
0.649631 0.000000 0.517390
0.940246 0.000000 0.496661
1.000000 0.106137 0.601291
1.000000 0.506760 0.658117
1.000000 0.751444 0.716898
0.000000 0.322599 0.667424
0.000000 0.309694 0.652881
0.000000 0.299260 0.653283
0.000000 0.286943 0.653270
0.628607 0.202514 0.643990
0.947965 0.000000 0.617808
1.000000 0.284610 0.642432
1.000000 0.541268 0.670096
1.000000 0.761938 0.725127
0.000000 0.626161 0.830882
0.000000 0.600156 0.812770
0.000000 0.592609 0.815760
0.000000 0.583734 0.810904
0.464229 0.549285 0.797233
0.896229 0.494811 0.752149
1.000000 0.482073 0.705376
1.000000 0.607894 0.687708
1.000000 0.778504 0.732419
0.000000 0.859944 0.905732
0.000000 0.832296 0.890271
0.000000 0.814100 0.883378
0.000000 0.804904 0.882181
0.000000 0.795595 0.857568
0.763944 0.772274 0.829402
0.985431 0.752242 0.774769
1.000000 0.747349 0.729434
1.000000 0.815575 0.747160
0.000000 0.931646 0.923135
0.000000 0.931551 0.919635
0.000000 0.929872 0.918512
0.000000 0.928619 0.914788
0.000000 0.922496 0.897540
0.673437 0.904989 0.862283
0.931656 0.891554 0.822337
1.000000 0.883154 0.783116
1.000000 0.887067 0.779617
0.000000 0.986688 0.941783
0.000000 0.987067 0.939899
0.000000 0.986416 0.936106
0.000000 0.984863 0.929984
0.000000 0.981170 0.916761
0.577896 0.968177 0.892810
0.885630 0.956125 0.854020
0.993754 0.948562 0.824214
1.000000 0.947136 0.820434
0.000000 1.000000 0.954889
0.000000 1.000000 0.954145
0.000000 1.000000 0.952636
0.000000 1.000000 0.950280
0.418579 1.000000 0.941435
0.640068 1.000000 0.928722
0.843803 0.992166 0.904723
0.966298 0.985677 0.880507
1.000000 0.982408 0.859697
0.000000 0.146017 0.594409
0.000000 0.139651 0.594499
0.000000 0.136970 0.590626
0.236945 0.103660 0.589865
0.576873 0.000000 0.576043
0.921033 0.000000 0.546127
1.000000 0.000000 0.509129
1.000000 0.410507 0.779064
1.000000 0.734217 0.822794
0.000000 0.183608 0.634572
0.000000 0.176441 0.634728
0.000000 0.178206 0.630785
0.207392 0.151187 0.634046
0.575357 0.000000 0.627665
0.929798 0.000000 0.604216
1.000000 0.000000 0.581497
1.000000 0.426681 0.784087
1.000000 0.738267 0.824576
0.000000 0.250353 0.703945
0.000000 0.243708 0.704144
0.000000 0.244866 0.704009
0.000000 0.226056 0.700160
0.553825 0.134069 0.697907
0.929455 0.000000 0.673861
1.000000 0.000000 0.655734
1.000000 0.454614 0.793736
1.000000 0.742291 0.826346
0.000000 0.348908 0.779564
0.000000 0.343048 0.776656
0.000000 0.345396 0.776492
0.000000 0.330735 0.779771
0.502864 0.284718 0.778219
0.917164 0.101479 0.766388
1.000000 0.000000 0.745602
1.000000 0.505648 0.809678
1.000000 0.756183 0.829546
0.000000 0.526576 0.858975
0.000000 0.530134 0.860911
0.000000 0.519024 0.859323
0.000000 0.517441 0.861277
0.357563 0.490767 0.858640
0.880787 0.412962 0.848097
1.000000 0.383627 0.820822
1.000000 0.584310 0.835884
1.000000 0.773650 0.837765
0.000000 0.816882 0.929031
0.000000 0.808683 0.929599
0.000000 0.805709 0.928588
0.000000 0.801973 0.929873
0.000000 0.783993 0.928841
0.731386 0.761945 0.913220
0.990592 0.728162 0.897075
1.000000 0.726898 0.862548
1.000000 0.814263 0.848858
0.000000 0.954885 0.969001
0.000000 0.946763 0.964080
0.000000 0.940483 0.963810
0.000000 0.935960 0.964031
0.000000 0.928528 0.960046
0.604632 0.909745 0.945499
0.906390 0.892108 0.929213
1.000000 0.883700 0.903506
1.000000 0.884157 0.875975
0.000000 0.992217 0.980456
0.000000 0.992644 0.980874
0.000000 0.992109 0.979304
0.000000 0.989630 0.978142
0.000000 0.985367 0.973899
0.503062 0.973460 0.963754
0.863203 0.958051 0.945895
0.978505 0.950818 0.925422
1.000000 0.949325 0.903560
0.000000 1.000000 0.986695
0.000000 1.000000 0.986667
0.000000 1.000000 0.985395
0.000000 1.000000 0.984453
0.345819 1.000000 0.981215
0.602184 1.000000 0.975053
0.823567 0.993827 0.962556
0.956634 0.986440 0.944551
1.000000 0.983674 0.925963
0.000000 0.308335 0.826772
0.000000 0.307627 0.826690
0.000000 0.300860 0.829299
0.145924 0.286741 0.828946
0.490204 0.246458 0.822221
0.870100 0.000000 0.813775
1.000000 0.000000 0.794934
1.000000 0.000000 0.759854
1.000000 0.695714 0.902248
0.000000 0.332788 0.838350
0.000000 0.329398 0.838392
0.000000 0.322525 0.840864
0.083072 0.308622 0.840578
0.483989 0.270485 0.834307
0.866130 0.117627 0.830967
1.000000 0.000000 0.808212
1.000000 0.072010 0.785192
1.000000 0.700142 0.903313
0.000000 0.374442 0.857487
0.000000 0.370808 0.857557
0.000000 0.363535 0.859906
0.000000 0.349688 0.857535
0.454243 0.319194 0.856347
0.856102 0.214244 0.850901
1.000000 0.000000 0.834537
1.000000 0.222832 0.815509
1.000000 0.706740 0.906800
0.000000 0.441059 0.885595
0.000000 0.444108 0.885374
0.000000 0.436283 0.887490
0.000000 0.425834 0.883535
0.390670 0.403814 0.886611
0.830550 0.328825 0.878108
1.000000 0.246040 0.869326
1.000000 0.345922 0.851407
1.000000 0.723135 0.910992
0.000000 0.563007 0.922049
0.000000 0.566436 0.921809
0.000000 0.565811 0.921724
0.000000 0.556185 0.921838
0.241913 0.533873 0.921754
0.775163 0.490970 0.919457
1.000000 0.433494 0.908370
1.000000 0.478943 0.893814
1.000000 0.748596 0.916671
0.000000 0.740407 0.954685
0.000000 0.736797 0.953912
0.000000 0.732888 0.953096
0.000000 0.734846 0.954652
0.000000 0.722675 0.952559
0.678919 0.688515 0.950491
0.995347 0.652964 0.944125
1.000000 0.650673 0.928635
1.000000 0.793934 0.927617
0.000000 0.935260 0.984112
0.000000 0.932523 0.983244
0.000000 0.933490 0.983639
0.000000 0.929819 0.985298
0.000000 0.924100 0.983939
0.481890 0.908211 0.979682
0.890402 0.882891 0.973423
1.000000 0.870691 0.962158
1.000000 0.871192 0.946726
0.000000 0.999269 0.995785
0.000000 0.997962 0.994558
0.000000 0.997066 0.995923
0.000000 0.994319 0.996020
0.000000 0.990355 0.994978
0.338979 0.979543 0.992037
0.838537 0.962038 0.985315
0.969704 0.950802 0.977412
1.000000 0.949462 0.964226
0.000000 1.000000 1.000000
0.000000 1.000000 1.000000
0.000000 1.000000 1.000000
0.000000 1.000000 1.000000
0.082019 1.000000 0.999947
0.549608 1.000000 0.997704
0.793680 0.996166 0.993970
0.945762 0.988221 0.985462
1.000000 0.984378 0.976076
0.000000 0.493065 0.946526
0.000000 0.492318 0.946434
0.000000 0.494948 0.946140
0.217064 0.491455 0.945736
0.476400 0.474535 0.946239
0.775341 0.424167 0.942475
1.000000 0.352881 0.940766
1.000000 0.369427 0.927766
1.000000 0.518965 0.907948
0.000000 0.511390 0.949155
0.000000 0.510691 0.949068
0.000000 0.509618 0.948938
0.192331 0.506298 0.949694
0.462841 0.490031 0.949094
0.766140 0.445148 0.944186
1.000000 0.371711 0.942630
1.000000 0.383118 0.931162
1.000000 0.528437 0.912839
0.000000 0.537422 0.954601
0.000000 0.533005 0.954696
0.000000 0.532008 0.954575
0.083470 0.529123 0.955309
0.435200 0.517374 0.955679
0.749386 0.474745 0.950067
1.000000 0.408750 0.948444
1.000000 0.414602 0.937523
1.000000 0.548328 0.919645
0.000000 0.585966 0.961402
0.000000 0.581554 0.962497
0.000000 0.576960 0.962590
0.000000 0.570634 0.962479
0.394842 0.567338 0.962476
0.712787 0.533229 0.960433
1.000000 0.471177 0.958933
1.000000 0.465793 0.949271
1.000000 0.580063 0.930283
0.000000 0.661572 0.973346
0.000000 0.657177 0.973486
0.000000 0.656324 0.974177
0.000000 0.646408 0.974328
0.302086 0.644741 0.975851
0.674588 0.609958 0.972159
0.988917 0.561190 0.969091
1.000000 0.560008 0.964748
1.000000 0.650726 0.949103
0.000000 0.774771 0.984954
0.000000 0.771266 0.985738
0.000000 0.770376 0.985636
0.000000 0.762358 0.986477
0.000000 0.760680 0.983878
0.601868 0.735427 0.984707
0.933396 0.705414 0.982011
1.000000 0.685949 0.976416
1.000000 0.731779 0.965865
0.000000 0.894007 0.995404
0.000000 0.893627 0.995365
0.000000 0.894588 0.995564
0.000000 0.889386 0.996079
0.000000 0.879723 0.995248
0.465366 0.870200 0.995167
0.863062 0.846796 0.991866
1.000000 0.827265 0.987987
1.000000 0.834159 0.982002
0.000000 0.992966 1.000000
0.000000 0.992669 1.000000
0.000000 0.992000 1.000000
0.000000 0.989014 1.000000
0.000000 0.986132 1.000000
0.373349 0.974731 1.000000
0.787233 0.960318 1.000000
0.959036 0.948352 0.998062
1.000000 0.941810 0.993734
0.000000 1.000000 1.000000
0.000000 1.000000 1.000000
0.000000 1.000000 1.000000
0.000000 1.000000 1.000000
0.000000 1.000000 1.000000
0.411948 1.000000 1.000000
0.736680 0.999480 1.000000
0.932463 0.989278 1.000000
0.997543 0.985006 0.999000
