Assets/Lutify-Free-LUTs-Pack/Lutify Free LUTs Pack/Cine World Pro Warm - Amy/Lutify.me-Amy-LogC3-to-Rec709.cube
# Created with: fylm.ai - Colour Grading and Collaboration Software in Cloud 
# Website: https://fylm.ai 
# META
# Option: Gamut compress
# Block 1: IDT | Arri Alexa - LogC3
# Block 2: colourMatch | Blending Mode: Normal | {"ColorSpace":0,"CrossCovarianceLimit":50,"ReshapingIterations":1,"PercentSaturationShift":100,"PercentShadingShift":100,"ExtraShading":true,"PercentTint":100,"PercentModified":100}
# Block 3: LUT | Filmic Curve Response: Standard Contrast 1 (100%)
# Block 4: LUT | Illuminant: D60 (100%)
# Block 5: hueSaturation | Blending Mode: Normal | {"hue":0,"saturation":-0.15}
# Block 6: logPrimaries | Blending Mode: Normal | {"wheels":{"shadows":{"Y":"0","R":"1","G":"1","B":"1"},"midtones":{"Y":"0","R":"1","G":"1","B":"1"},"highlights":{"Y":"0","R":"1","G":"1","B":"1"},"offset":{"Y":"0","R":"1","G":"1","B":"1"}},"sliders":{"shadows":{"Y":0,"R":-0.097,"G":0,"B":0.158},"midtones":{"Y":0,"R":0.024,"G":0.024,"B":-0.036},"highlights":{"Y":0,"R":0.154,"G":-0.084,"B":-0.024},"offset":{"Y":0.048,"R":0,"G":0,"B":0}}}
# Block 7: smartCurves | Blending Mode: Average | [[{"x":0,"y":0},{"x":0.11328125,"y":0.085540771484375},{"x":0.21484375,"y":0.218353271484375},{"x":0.37109375,"y":0.382415771484375},{"x":0.62109375,"y":0.589447021484375},{"x":0.8125,"y":0.765228271484375},{"x":1,"y":1}],[{"x":0,"y":0},{"x":1,"y":1}],[{"x":0,"y":0},{"x":1,"y":1}],[{"x":0,"y":0},{"x":1,"y":1}]]
# Block 8: LUT | Neutral Tint: Teal Tint 4 (100%)
# Block 9: contrast | Blending Mode: Normal | {"contrast":0.1}
# Block 10: ODT | Rec709
TITLE "Lutify.me-Amy-LogC3-to-Rec709" 
LUT_3D_SIZE 9
0.000000 0.000000 0.000000
0.000000 0.000000 0.000000
0.220866 0.000000 0.000000
0.461651 0.000000 0.000000
0.788431 0.000000 0.000000
1.000000 0.122244 0.140245
1.000000 0.623559 0.417914
1.000000 0.874916 0.743908
1.000000 0.962955 0.913245
0.000000 0.018250 0.000000
0.000000 0.017471 0.000000
0.203777 0.000000 0.000000
0.465384 0.000000 0.000000
0.788207 0.000000 0.000000
1.000000 0.170738 0.140556
1.000000 0.629845 0.420168
1.000000 0.876380 0.744811
1.000000 0.962955 0.913245
0.000000 0.138274 0.000000
0.000000 0.122972 0.000000
0.243201 0.098225 0.000000
0.510828 0.000000 0.000000
0.800492 0.000000 0.000000
1.000000 0.231372 0.137491
1.000000 0.640251 0.420506
1.000000 0.877424 0.744860
1.000000 0.962955 0.913245
0.000000 0.304740 0.000000
0.000000 0.299329 0.000000
0.233813 0.286544 0.000000
0.597518 0.244473 0.000000
0.835441 0.280457 0.000000
1.000000 0.388947 0.125834
1.000000 0.670736 0.421350
1.000000 0.879483 0.746973
1.000000 0.963392 0.913263
0.000000 0.583042 0.000000
0.000000 0.578529 0.000000
0.000000 0.580074 0.000000
0.505499 0.559259 0.000000
0.892746 0.541827 0.000000
1.000000 0.633190 0.000000
1.000000 0.749106 0.440571
1.000000 0.889971 0.752363
1.000000 0.965391 0.914678
0.000000 0.876919 0.000000
0.000000 0.874154 0.000000
0.000000 0.872917 0.000000
0.293414 0.867969 0.000000
0.774835 0.849600 0.000000
0.998372 0.841385 0.000000
1.000000 0.879229 0.465670
1.000000 0.921212 0.768387
1.000000 0.969640 0.916703
0.638595 0.974916 0.460443
0.648374 0.973837 0.459264
0.662756 0.973291 0.456729
0.702212 0.970968 0.453479
0.814565 0.966410 0.443160
0.957071 0.958163 0.444279
1.000000 0.957200 0.511197
1.000000 0.968710 0.795033
1.000000 0.982007 0.924518
0.898684 1.000000 0.795105
0.898684 1.000000 0.795105
0.900108 1.000000 0.795162
0.905759 1.000000 0.793813
0.921400 1.000000 0.791466
0.957338 0.998742 0.787764
1.000000 0.995756 0.788816
1.000000 0.995359 0.824016
1.000000 0.998402 0.934261
0.981205 1.000000 0.935622
0.981205 1.000000 0.935622
0.981205 1.000000 0.935622
0.982175 1.000000 0.935033
0.983981 1.000000 0.935134
0.988671 1.000000 0.934176
1.000000 1.000000 0.931448
1.000000 1.000000 0.930825
1.000000 1.000000 0.940444
0.000000 0.000000 0.022811
0.000000 0.000000 0.011566
0.166185 0.000000 0.003352
0.392904 0.000000 0.017621
0.758662 0.000000 0.046152
1.000000 0.129493 0.160722
1.000000 0.620382 0.426060
1.000000 0.874905 0.745940
1.000000 0.962955 0.913245
0.000000 0.000000 0.035054
0.000000 0.000000 0.028766
0.147919 0.000000 0.014832
0.381669 0.000000 0.027004
0.758449 0.000000 0.043543
1.000000 0.175922 0.163175
1.000000 0.629825 0.425488
1.000000 0.875965 0.745984
1.000000 0.962955 0.913245
0.000000 0.131612 0.037517
0.000000 0.128427 0.000000
0.143334 0.121731 0.000000
0.413104 0.078168 0.000000
0.779164 0.000000 0.024790
1.000000 0.236053 0.163128
1.000000 0.636095 0.425109
1.000000 0.877414 0.746874
1.000000 0.962955 0.913245
0.000000 0.316696 0.000000
0.000000 0.318923 0.000000
0.000000 0.319003 0.000000
0.452229 0.295892 0.000000
0.803192 0.302385 0.000000
1.000000 0.388192 0.157834
1.000000 0.667700 0.432284
1.000000 0.879472 0.748978
1.000000 0.963387 0.914041
0.000000 0.605620 0.000000
0.000000 0.612574 0.000000
0.000000 0.611295 0.000000
0.342073 0.602606 0.000000
0.832149 0.573960 0.000000
1.000000 0.640542 0.085186
1.000000 0.749076 0.451714
1.000000 0.889961 0.754322
1.000000 0.965391 0.914678
0.000000 0.879254 0.000000
0.000000 0.880260 0.000000
0.000000 0.878939 0.000000
0.271041 0.872125 0.000000
0.750354 0.856886 0.000000
0.993389 0.845345 0.000000
1.000000 0.880564 0.476665
1.000000 0.920335 0.771868
1.000000 0.969636 0.917451
0.627468 0.975232 0.482993
0.642556 0.974674 0.483220
0.657019 0.974122 0.483460
0.693006 0.972708 0.475607
0.811150 0.966515 0.461966
0.955531 0.958215 0.455829
1.000000 0.957167 0.522991
1.000000 0.968703 0.796467
1.000000 0.982007 0.924518
0.897156 1.000000 0.796637
0.898592 1.000000 0.796693
0.900016 1.000000 0.796749
0.905577 1.000000 0.796983
0.919914 1.000000 0.796121
0.957096 0.998720 0.792340
1.000000 0.995743 0.791477
1.000000 0.995350 0.825795
1.000000 0.998399 0.934820
0.981164 1.000000 0.936257
0.981164 1.000000 0.936257
0.981164 1.000000 0.936257
0.981672 1.000000 0.935646
0.983940 1.000000 0.935770
0.988630 1.000000 0.934811
1.000000 1.000000 0.932072
1.000000 1.000000 0.931371
1.000000 1.000000 0.940444
0.000000 0.000000 0.140401
0.000000 0.000000 0.052490
0.141316 0.000000 0.046594
0.374228 0.000000 0.055830
0.750782 0.000000 0.094738
1.000000 0.145602 0.194402
1.000000 0.620315 0.442257
1.000000 0.874884 0.749987
1.000000 0.962949 0.914024
0.000000 0.000000 0.109645
0.000000 0.000000 0.075173
0.116335 0.000000 0.070837
0.356150 0.000000 0.085586
0.746090 0.000000 0.098447
1.000000 0.187500 0.194098
1.000000 0.626613 0.441892
1.000000 0.875943 0.750027
1.000000 0.962949 0.914024
0.000000 0.144561 0.211217
0.000000 0.129504 0.194275
0.055733 0.122141 0.162392
0.363300 0.093665 0.117138
0.757795 0.000000 0.104344
1.000000 0.239595 0.195053
1.000000 0.636022 0.444090
1.000000 0.876996 0.750070
1.000000 0.962949 0.914024
0.000000 0.335148 0.252741
0.000000 0.338474 0.197191
0.000000 0.340478 0.143212
0.354740 0.329531 0.091618
0.776712 0.311180 0.082524
1.000000 0.396152 0.201282
1.000000 0.667633 0.451519
1.000000 0.879451 0.752971
1.000000 0.963387 0.914041
0.000000 0.616851 0.091452
0.000000 0.623923 0.043249
0.000000 0.626713 0.000000
0.235290 0.619561 0.000000
0.782283 0.601290 0.000000
1.000000 0.644085 0.172852
1.000000 0.748550 0.462170
1.000000 0.889940 0.758221
1.000000 0.965391 0.914678
0.000000 0.883323 0.204017
0.000000 0.884329 0.200665
0.000000 0.883074 0.184561
0.123742 0.877029 0.159682
0.723885 0.863971 0.036401
0.986754 0.849288 0.127798
1.000000 0.880427 0.494685
1.000000 0.920335 0.771868
1.000000 0.969636 0.917451
0.610424 0.976413 0.513115
0.626171 0.975853 0.513307
0.646294 0.975122 0.510640
0.687396 0.973509 0.508407
0.807103 0.967326 0.490969
0.950621 0.959136 0.483225
1.000000 0.957122 0.538536
1.000000 0.968690 0.799336
1.000000 0.982003 0.925204
0.896693 1.000000 0.804545
0.898223 1.000000 0.803021
0.899648 1.000000 0.803074
0.903935 1.000000 0.801663
0.919680 1.000000 0.799970
0.956771 0.998691 0.798427
1.000000 0.996003 0.797265
1.000000 0.995335 0.828952
1.000000 0.998395 0.935377
0.981082 1.000000 0.937519
0.981082 1.000000 0.937519
0.981082 1.000000 0.937519
0.981590 1.000000 0.936913
0.983900 1.000000 0.936403
0.988589 1.000000 0.935444
0.999865 1.000000 0.933264
1.000000 1.000000 0.932460
1.000000 1.000000 0.941059
0.000000 0.000000 0.320266
0.000000 0.000000 0.088601
0.093299 0.000000 0.065247
0.382323 0.000000 0.074590
0.723919 0.000000 0.212388
1.000000 0.102478 0.291777
1.000000 0.617934 0.483012
1.000000 0.873762 0.759961
1.000000 0.962945 0.914802
0.000000 0.000000 0.220045
0.000000 0.000000 0.133635
0.074975 0.000000 0.113829
0.340615 0.000000 0.129775
0.720165 0.000000 0.235804
1.000000 0.158752 0.295911
1.000000 0.625349 0.483401
1.000000 0.874829 0.759990
1.000000 0.962945 0.914802
0.000000 0.079207 0.293438
0.000000 0.072831 0.251698
0.000000 0.067408 0.244085
0.343382 0.000000 0.256142
0.727896 0.000000 0.267569
1.000000 0.221957 0.299166
1.000000 0.634813 0.485817
1.000000 0.875889 0.760021
1.000000 0.962945 0.914802
0.000000 0.366760 0.463022
0.000000 0.338326 0.450345
0.000000 0.338087 0.436647
0.236071 0.333351 0.413111
0.733279 0.311512 0.326552
1.000000 0.377239 0.315237
1.000000 0.666602 0.490826
1.000000 0.877977 0.762063
1.000000 0.963382 0.914817
0.000000 0.638592 0.505045
0.000000 0.642188 0.486378
0.000000 0.637861 0.464840
0.000000 0.647951 0.399754
0.713106 0.632833 0.336782
1.000000 0.647050 0.328327
1.000000 0.745380 0.502469
1.000000 0.889561 0.767134
1.000000 0.965110 0.915660
0.000000 0.887688 0.439990
0.000000 0.886844 0.432791
0.000000 0.885766 0.421978
0.000000 0.885109 0.401364
0.698677 0.868522 0.355264
0.972532 0.858815 0.326705
1.000000 0.880124 0.541183
1.000000 0.920103 0.780116
1.000000 0.969513 0.918682
0.594380 0.977200 0.602628
0.605355 0.976826 0.602712
0.621234 0.976268 0.602843
0.674101 0.974974 0.601118
0.779118 0.969013 0.579743
0.938996 0.961605 0.565390
1.000000 0.958343 0.590468
1.000000 0.969155 0.808233
1.000000 0.981995 0.926569
0.894228 1.000000 0.822140
0.895676 1.000000 0.822181
0.897113 1.000000 0.822223
0.901440 1.000000 0.820835
0.917382 1.000000 0.818395
0.953010 0.999041 0.815341
1.000000 0.996248 0.810768
1.000000 0.995536 0.835571
1.000000 0.998537 0.936251
0.980325 1.000000 0.941368
0.980325 1.000000 0.941368
0.980796 1.000000 0.941388
0.981262 1.000000 0.941408
0.983619 1.000000 0.940734
0.988389 1.000000 0.938564
0.999710 1.000000 0.935722
1.000000 1.000000 0.934196
1.000000 1.000000 0.942633
0.000000 0.000000 0.298743
0.000000 0.000000 0.122033
0.077899 0.000000 0.092561
0.332620 0.000000 0.097259
0.748219 0.000000 0.149949
1.000000 0.000000 0.499915
1.000000 0.607589 0.600859
1.000000 0.871670 0.785702
1.000000 0.962916 0.919424
0.000000 0.000000 0.283152
0.000000 0.000000 0.183357
0.045226 0.000000 0.162917
0.294822 0.000000 0.176267
0.690102 0.000000 0.247532
1.000000 0.000000 0.509801
1.000000 0.611866 0.601164
1.000000 0.871670 0.785702
1.000000 0.962916 0.919424
0.000000 0.053274 0.379890
0.000000 0.051204 0.320050
0.000000 0.049638 0.307886
0.258226 0.000000 0.325614
0.705679 0.000000 0.370066
1.000000 0.117148 0.522996
1.000000 0.624878 0.600587
1.000000 0.874260 0.786286
1.000000 0.962916 0.919424
0.000000 0.259614 0.550264
0.000000 0.245155 0.536116
0.000000 0.244985 0.536152
0.137774 0.237954 0.550552
0.716419 0.159069 0.551656
1.000000 0.310187 0.556038
1.000000 0.654597 0.609587
1.000000 0.876380 0.788150
1.000000 0.963353 0.919436
0.000000 0.648706 0.773512
0.000000 0.644929 0.770707
0.000000 0.644706 0.770715
0.000000 0.641521 0.755025
0.581795 0.630719 0.717283
0.987514 0.637939 0.627808
1.000000 0.737638 0.627006
1.000000 0.888090 0.790693
1.000000 0.964651 0.920234
0.000000 0.898532 0.802179
0.000000 0.897978 0.797319
0.000000 0.895388 0.794880
0.000000 0.891664 0.771088
0.582017 0.882265 0.710109
0.935791 0.866374 0.654101
1.000000 0.880582 0.670406
1.000000 0.919776 0.806978
1.000000 0.969482 0.923864
0.526250 0.979545 0.768209
0.545546 0.978986 0.768220
0.564158 0.978440 0.765783
0.610227 0.977682 0.756151
0.746115 0.972976 0.744225
0.923468 0.963744 0.709262
1.000000 0.959323 0.706360
1.000000 0.968965 0.831388
1.000000 0.981972 0.930617
0.885606 1.000000 0.866574
0.887101 1.000000 0.866594
0.887101 1.000000 0.866594
0.894481 1.000000 0.865418
0.909595 1.000000 0.862774
0.945874 0.999389 0.855159
0.997194 0.997233 0.846926
1.000000 0.996111 0.857504
1.000000 0.998515 0.940116
0.979308 1.000000 0.949625
0.979308 1.000000 0.949625
0.979784 1.000000 0.949640
0.980255 1.000000 0.949655
0.982584 1.000000 0.949160
0.987393 1.000000 0.947053
0.998098 1.000000 0.944027
1.000000 1.000000 0.940672
1.000000 1.000000 0.946130
0.000000 0.000000 0.199112
0.021020 0.000000 0.162966
0.103710 0.000000 0.153212
0.296353 0.000000 0.144419
0.709744 0.000000 0.145963
1.000000 0.000000 0.392945
1.000000 0.551521 0.804172
1.000000 0.867227 0.851573
1.000000 0.962839 0.931281
0.000000 0.000000 0.192718
0.033321 0.000000 0.162937
0.108918 0.000000 0.151890
0.283727 0.000000 0.162470
0.637375 0.000000 0.233763
1.000000 0.000000 0.489551
1.000000 0.558094 0.806322
1.000000 0.868370 0.851531
1.000000 0.962839 0.931281
0.000000 0.000000 0.343475
0.000000 0.000000 0.322826
0.000000 0.000000 0.320188
0.203513 0.000000 0.341964
0.615533 0.000000 0.427566
1.000000 0.000000 0.577076
1.000000 0.571295 0.810519
1.000000 0.869494 0.853058
1.000000 0.962834 0.931997
0.000000 0.199162 0.645399
0.000000 0.197564 0.634183
0.000000 0.193878 0.630527
0.000000 0.193390 0.641451
0.603631 0.050422 0.667858
1.000000 0.000000 0.707232
1.000000 0.604601 0.818233
1.000000 0.873951 0.854457
1.000000 0.962834 0.931997
0.000000 0.526564 0.847976
0.000000 0.526496 0.850208
0.000000 0.522726 0.848146
0.000000 0.528693 0.852076
0.489174 0.510275 0.852531
1.000000 0.496375 0.844335
1.000000 0.702045 0.839389
1.000000 0.884958 0.858946
1.000000 0.964571 0.932711
0.000000 0.903587 0.943987
0.000000 0.901645 0.945049
0.000000 0.901227 0.945956
0.000000 0.898644 0.943805
0.357652 0.888218 0.931412
0.885989 0.865526 0.909163
1.000000 0.874636 0.878569
1.000000 0.916892 0.870444
1.000000 0.968784 0.933458
0.360668 0.984902 0.950628
0.381065 0.984559 0.949826
0.426765 0.983682 0.948974
0.496050 0.982078 0.947266
0.674593 0.976999 0.935685
0.878102 0.967987 0.915201
0.995292 0.963284 0.891819
1.000000 0.968960 0.891246
1.000000 0.981842 0.942644
0.865772 1.000000 0.934319
0.865831 1.000000 0.933500
0.867432 1.000000 0.933499
0.873783 1.000000 0.932672
0.890363 1.000000 0.930260
0.934227 1.000000 0.923631
0.990706 0.997309 0.908865
1.000000 0.996548 0.903129
1.000000 0.998444 0.951734
0.976560 1.000000 0.968127
0.976623 1.000000 0.967189
0.976623 1.000000 0.967189
0.977595 1.000000 0.967203
0.979051 1.000000 0.966752
0.984902 1.000000 0.964940
0.995409 1.000000 0.963388
1.000000 1.000000 0.957941
1.000000 1.000000 0.956892
0.134621 0.000000 0.227385
0.177038 0.000000 0.224970
0.232137 0.000000 0.222225
0.364004 0.000000 0.212627
0.630584 0.000000 0.210283
1.000000 0.000000 0.240231
1.000000 0.000000 0.780407
1.000000 0.842217 0.945848
1.000000 0.961552 0.963791
0.140191 0.000000 0.227305
0.180600 0.000000 0.223163
0.236186 0.000000 0.222148
0.366643 0.000000 0.212575
0.630584 0.000000 0.210283
1.000000 0.000000 0.247135
1.000000 0.000000 0.804205
1.000000 0.842211 0.946687
1.000000 0.961552 0.963791
0.148793 0.000000 0.227178
0.185658 0.000000 0.223077
0.240467 0.000000 0.220320
0.371945 0.000000 0.212470
0.634538 0.000000 0.210292
0.989987 0.000000 0.453552
1.000000 0.177079 0.825449
1.000000 0.844857 0.946524
1.000000 0.961998 0.963770
0.000000 0.100599 0.662502
0.000000 0.101936 0.662416
0.000000 0.100366 0.666043
0.142797 0.090916 0.668994
0.488984 0.000000 0.710859
0.983869 0.000000 0.791997
1.000000 0.326060 0.869759
1.000000 0.848771 0.947935
1.000000 0.962442 0.963750
0.000000 0.455485 0.906485
0.000000 0.455305 0.904785
0.000000 0.455002 0.906411
0.000000 0.453206 0.909442
0.327721 0.448810 0.910986
0.948066 0.385758 0.916679
1.000000 0.523628 0.921926
1.000000 0.864261 0.950219
1.000000 0.963464 0.964315
0.000000 0.821474 0.974654
0.000000 0.818658 0.974811
0.000000 0.818263 0.974767
0.000000 0.824305 0.974752
0.000000 0.815460 0.974276
0.835543 0.789620 0.971859
1.000000 0.803953 0.966350
1.000000 0.902820 0.960896
1.000000 0.968144 0.965173
0.000000 0.993161 0.998222
0.000000 0.992652 0.998175
0.000000 0.992113 0.998125
0.000000 0.988987 0.997773
0.454976 0.983362 0.996276
0.826277 0.970810 0.991496
0.977504 0.961508 0.984650
1.000000 0.967119 0.972431
1.000000 0.981176 0.969880
0.829490 1.000000 0.996916
0.831245 1.000000 0.996677
0.833003 1.000000 0.996670
0.841647 1.000000 0.996635
0.856738 1.000000 0.995600
0.909788 1.000000 0.993055
0.975482 0.999042 0.987026
1.000000 0.997676 0.978798
1.000000 0.998767 0.977680
0.969719 1.000000 0.992081
0.970250 1.000000 0.992081
0.970250 1.000000 0.992081
0.970778 1.000000 0.992080
0.973867 1.000000 0.991817
0.979507 1.000000 0.991301
0.991301 1.000000 0.988596
1.000000 1.000000 0.984366
1.000000 1.000000 0.979782
0.439771 0.000000 0.305528
0.457318 0.000000 0.302864
0.489903 0.000000 0.302671
0.564016 0.000000 0.297618
0.721510 0.000000 0.300087
1.000000 0.000000 0.316307
1.000000 0.000000 0.398084
1.000000 0.653158 0.955584
1.000000 0.952150 0.997326
0.439771 0.000000 0.305528
0.460862 0.000000 0.302815
0.489903 0.000000 0.302671
0.564016 0.000000 0.297618
0.721510 0.000000 0.300087
1.000000 0.000000 0.316307
1.000000 0.000000 0.398084
1.000000 0.657627 0.957921
1.000000 0.952150 0.997326
0.443257 0.000000 0.305479
0.464428 0.000000 0.302772
0.493536 0.000000 0.302658
0.571010 0.000000 0.297604
0.721510 0.000000 0.300087
1.000000 0.000000 0.316307
1.000000 0.000000 0.398084
1.000000 0.669147 0.960676
1.000000 0.952142 0.997574
0.453788 0.000000 0.302913
0.478981 0.000000 0.302713
0.504135 0.000000 0.300189
0.578006 0.000000 0.297591
0.732849 0.000000 0.297728
1.000000 0.000000 0.316480
1.000000 0.000000 0.835454
1.000000 0.692575 0.968594
1.000000 0.953141 0.997504
0.000000 0.327391 0.933672
0.000000 0.326327 0.934894
0.000000 0.325047 0.934751
0.235942 0.326857 0.936758
0.515068 0.315514 0.934613
0.877514 0.284035 0.947191
1.000000 0.394040 0.969339
1.000000 0.742711 0.980410
1.000000 0.954620 0.997644
0.000000 0.762072 0.998987
0.000000 0.761808 0.999429
0.000000 0.761468 0.999390
0.000000 0.759718 0.999194
0.200607 0.756705 0.997851
0.740147 0.736051 0.999055
1.000000 0.738221 0.998189
1.000000 0.826474 0.994825
1.000000 0.960505 0.998639
0.000000 0.962400 1.000000
0.000000 0.962149 1.000000
0.000000 0.961630 1.000000
0.000000 0.959299 1.000000
0.370107 0.954950 1.000000
0.696810 0.945167 1.000000
0.964868 0.932805 1.000000
1.000000 0.939864 1.000000
1.000000 0.975468 0.999878
0.715777 1.000000 1.000000
0.720581 1.000000 1.000000
0.720581 1.000000 1.000000
0.734750 1.000000 1.000000
0.768211 1.000000 1.000000
0.846078 1.000000 1.000000
0.956557 0.999610 1.000000
1.000000 0.997455 1.000000
1.000000 0.998567 1.000000
0.955490 1.000000 1.000000
0.955490 1.000000 1.000000
0.956119 1.000000 1.000000
0.956119 1.000000 1.000000
0.959190 1.000000 1.000000
0.967068 1.000000 1.000000
0.983844 1.000000 1.000000
1.000000 1.000000 1.000000
1.000000 1.000000 1.000000
0.841446 0.000000 0.407987
0.852424 0.000000 0.408075
0.863268 0.000000 0.408175
0.887730 0.000000 0.405228
0.953164 0.000000 0.409723
1.000000 0.000000 0.422932
1.000000 0.000000 0.465199
1.000000 0.551569 0.600485
1.000000 0.877285 1.000000
0.841446 0.000000 0.407987
0.852412 0.000000 0.408076
0.863268 0.000000 0.408175
0.891208 0.000000 0.405275
0.953164 0.000000 0.409723
1.000000 0.000000 0.422932
1.000000 0.000000 0.465199
1.000000 0.551569 0.600485
1.000000 0.877843 1.000000
0.845118 0.000000 0.408015
0.856045 0.000000 0.408108
0.866857 0.000000 0.408211
0.891208 0.000000 0.405275
0.953164 0.000000 0.409723
1.000000 0.000000 0.422932
1.000000 0.000000 0.465733
1.000000 0.551569 0.600485
1.000000 0.878321 1.000000
0.852424 0.000000 0.408075
0.859663 0.000000 0.408141
0.870430 0.000000 0.408248
0.894667 0.000000 0.405324
0.953164 0.000000 0.409723
1.000000 0.000000 0.423137
1.000000 0.000000 0.465733
1.000000 0.551569 0.600485
1.000000 0.882712 1.000000
0.863268 0.000000 0.408175
0.870430 0.000000 0.408248
0.880718 0.000000 0.405138
0.904925 0.000000 0.405481
0.959096 0.000000 0.409892
1.000000 0.000000 0.423345
1.000000 0.000000 0.465733
1.000000 0.528635 0.983552
1.000000 0.892271 1.000000
0.515627 0.624200 1.000000
0.522116 0.624029 1.000000
0.540956 0.623133 1.000000
0.575613 0.625064 1.000000
0.678907 0.619304 1.000000
0.860800 0.617604 1.000000
1.000000 0.649486 1.000000
1.000000 0.761002 1.000000
1.000000 0.908607 1.000000
0.460689 0.934969 1.000000
0.468493 0.934774 1.000000
0.483630 0.934382 1.000000
0.519545 0.932261 1.000000
0.594246 0.928737 1.000000
0.762232 0.920417 1.000000
0.929495 0.912416 1.000000
1.000000 0.914020 1.000000
1.000000 0.944894 1.000000
0.732998 1.000000 1.000000
0.732998 1.000000 1.000000
0.735208 1.000000 1.000000
0.745656 1.000000 1.000000
0.768066 0.999205 1.000000
0.825477 0.995703 1.000000
0.920730 0.990780 1.000000
1.000000 0.987612 1.000000
1.000000 0.989706 1.000000
0.911161 1.000000 1.000000
0.911161 1.000000 1.000000
0.911161 1.000000 1.000000
0.912860 1.000000 1.000000
0.917018 1.000000 1.000000
0.929064 1.000000 1.000000
0.961683 1.000000 1.000000
0.997464 1.000000 1.000000
1.000000 1.000000 1.000000
