Assets/Lutify-Free-LUTs-Pack/Lutify Free LUTs Pack/Cine World Pro Warm - Amy/Lutify.me-Amy-LLog-to-Rec709.cube
# Created with: fylm.ai - Colour Grading and Collaboration Software in Cloud 
# Website: https://fylm.ai 
# META
# Option: Gamut compress
# Block 1: IDT | Leica BT2020 L-Log
# Block 2: colourMatch | Blending Mode: Normal | {"ColorSpace":0,"CrossCovarianceLimit":50,"ReshapingIterations":1,"PercentSaturationShift":100,"PercentShadingShift":100,"ExtraShading":true,"PercentTint":100,"PercentModified":100}
# Block 3: LUT | Filmic Curve Response: Standard Contrast 1 (100%)
# Block 4: LUT | Illuminant: D60 (100%)
# Block 5: hueSaturation | Blending Mode: Normal | {"hue":0,"saturation":-0.15}
# Block 6: logPrimaries | Blending Mode: Normal | {"wheels":{"shadows":{"Y":"0","R":"1","G":"1","B":"1"},"midtones":{"Y":"0","R":"1","G":"1","B":"1"},"highlights":{"Y":"0","R":"1","G":"1","B":"1"},"offset":{"Y":"0","R":"1","G":"1","B":"1"}},"sliders":{"shadows":{"Y":0,"R":-0.097,"G":0,"B":0.158},"midtones":{"Y":0,"R":0.024,"G":0.024,"B":-0.036},"highlights":{"Y":0,"R":0.154,"G":-0.084,"B":-0.024},"offset":{"Y":0.048,"R":0,"G":0,"B":0}}}
# Block 7: smartCurves | Blending Mode: Average | [[{"x":0,"y":0},{"x":0.11328125,"y":0.085540771484375},{"x":0.21484375,"y":0.218353271484375},{"x":0.37109375,"y":0.382415771484375},{"x":0.62109375,"y":0.589447021484375},{"x":0.8125,"y":0.765228271484375},{"x":1,"y":1}],[{"x":0,"y":0},{"x":1,"y":1}],[{"x":0,"y":0},{"x":1,"y":1}],[{"x":0,"y":0},{"x":1,"y":1}]]
# Block 8: LUT | Neutral Tint: Teal Tint 4 (100%)
# Block 9: contrast | Blending Mode: Normal | {"contrast":0.1}
# Block 10: ODT | Rec709
TITLE "Lutify.me-Amy-LLog-to-Rec709" 
LUT_3D_SIZE 33
0.000000 0.000000 0.000000
0.000000 0.000000 0.000000
0.000000 0.000000 0.000000
0.000000 0.000000 0.000000
0.000000 0.000000 0.000000
0.000000 0.000000 0.000000
0.070393 0.000000 0.000000
0.119019 0.000000 0.000000
0.159084 0.000000 0.000000
0.207126 0.000000 0.000000
0.264535 0.000000 0.000000
0.312811 0.000000 0.000000
0.370557 0.000000 0.000000
0.428712 0.000000 0.000000
0.493765 0.000000 0.000000
0.566649 0.000000 0.000000
0.627637 0.000000 0.000000
0.703139 0.000000 0.000000
0.805685 0.000000 0.000000
0.902629 0.000000 0.031639
0.973841 0.000000 0.058435
1.000000 0.000000 0.096554
1.000000 0.000000 0.134715
1.000000 0.194501 0.181130
1.000000 0.334543 0.232766
1.000000 0.442368 0.295773
1.000000 0.530544 0.373537
1.000000 0.619122 0.440263
1.000000 0.706791 0.518796
1.000000 0.771031 0.597058
1.000000 0.817165 0.672374
1.000000 0.857665 0.741971
1.000000 0.889159 0.791158
0.000000 0.000000 0.000000
0.000000 0.000000 0.000000
0.000000 0.000000 0.000000
0.000000 0.000000 0.000000
0.000000 0.000000 0.000000
0.000000 0.000000 0.000000
0.069713 0.000000 0.000000
0.117902 0.000000 0.000000
0.155100 0.000000 0.000000
0.202737 0.000000 0.000000
0.260710 0.000000 0.000000
0.310653 0.000000 0.000000
0.367935 0.000000 0.000000
0.425575 0.000000 0.000000
0.490147 0.000000 0.000000
0.566682 0.000000 0.000000
0.627670 0.000000 0.000000
0.707384 0.000000 0.000000
0.809948 0.000000 0.000000
0.906223 0.000000 0.031457
0.973734 0.000000 0.058878
1.000000 0.000000 0.095704
1.000000 0.000000 0.134137
1.000000 0.192904 0.182067
1.000000 0.335868 0.235162
1.000000 0.445801 0.295511
1.000000 0.533711 0.373335
1.000000 0.619122 0.440263
1.000000 0.709173 0.518698
1.000000 0.771031 0.597058
1.000000 0.817165 0.672374
1.000000 0.857665 0.741971
1.000000 0.889159 0.791158
0.000000 0.000000 0.000000
0.000000 0.000000 0.000000
0.000000 0.000000 0.000000
0.000000 0.000000 0.000000
0.000000 0.000000 0.000000
0.000000 0.000000 0.000000
0.069731 0.000000 0.000000
0.116286 0.000000 0.000000
0.150272 0.000000 0.000000
0.195674 0.000000 0.000000
0.255094 0.000000 0.000000
0.306408 0.000000 0.000000
0.365343 0.000000 0.000000
0.419386 0.000000 0.000000
0.486555 0.000000 0.000000
0.566709 0.000000 0.000000
0.623590 0.000000 0.000000
0.707385 0.000000 0.000000
0.809922 0.000000 0.000000
0.906133 0.000000 0.031201
0.973624 0.000000 0.059318
1.000000 0.000000 0.096264
1.000000 0.000000 0.136401
1.000000 0.198804 0.181749
1.000000 0.339739 0.234860
1.000000 0.445801 0.295511
1.000000 0.533711 0.373335
1.000000 0.622049 0.440092
1.000000 0.709173 0.518698
1.000000 0.771031 0.597058
1.000000 0.817165 0.672374
1.000000 0.858798 0.741987
1.000000 0.889159 0.791158
0.000000 0.000000 0.000000
0.000000 0.000000 0.000000
0.000000 0.000000 0.000000
0.000000 0.000000 0.000000
0.000000 0.000000 0.000000
0.000000 0.000000 0.000000
0.069458 0.000000 0.000000
0.115246 0.000000 0.000000
0.147407 0.000000 0.000000
0.191586 0.000000 0.000000
0.249588 0.000000 0.000000
0.302240 0.000000 0.000000
0.360165 0.000000 0.000000
0.413279 0.000000 0.000000
0.479390 0.000000 0.000000
0.566745 0.000000 0.000000
0.627727 0.000000 0.000000
0.707396 0.000000 0.000000
0.809895 0.000000 0.000000
0.902361 0.000000 0.030853
0.973510 0.000000 0.059752
1.000000 0.000000 0.095961
1.000000 0.000000 0.136105
1.000000 0.204566 0.181424
1.000000 0.343598 0.234555
1.000000 0.449227 0.297372
1.000000 0.533711 0.373335
1.000000 0.622049 0.440092
1.000000 0.709173 0.518698
1.000000 0.771031 0.597058
1.000000 0.817165 0.672374
1.000000 0.858798 0.741987
1.000000 0.889159 0.791158
0.000000 0.000000 0.000000
0.000000 0.000000 0.000000
0.000000 0.000000 0.000000
0.000000 0.000000 0.000000
0.000000 0.000000 0.000000
0.000000 0.000000 0.004814
0.065591 0.000000 0.000000
0.109800 0.000000 0.000000
0.144334 0.000000 0.000000
0.190191 0.000000 0.000000
0.244228 0.000000 0.000000
0.298138 0.000000 0.000000
0.355066 0.000000 0.000000
0.410280 0.000000 0.000000
0.479436 0.000000 0.000000
0.562823 0.000000 0.000000
0.627752 0.000000 0.000000
0.707401 0.000000 0.000000
0.805584 0.000000 0.000000
0.902254 0.000000 0.028501
0.970447 0.000000 0.059552
1.000000 0.000000 0.096509
1.000000 0.000000 0.135802
1.000000 0.210204 0.181092
1.000000 0.347437 0.236009
1.000000 0.449227 0.297372
1.000000 0.536874 0.375648
1.000000 0.622049 0.440092
1.000000 0.709173 0.518698
1.000000 0.771031 0.597058
1.000000 0.817165 0.672374
1.000000 0.858798 0.741987
1.000000 0.889159 0.791158
0.000000 0.000000 0.000000
0.000000 0.000000 0.000000
0.000000 0.000000 0.000000
0.000000 0.000000 0.000000
0.000000 0.000000 0.000000
0.000000 0.000000 0.018376
0.063457 0.000000 0.000000
0.107295 0.000000 0.000000
0.139455 0.000000 0.000000
0.182414 0.000000 0.000000
0.240774 0.000000 0.000000
0.300176 0.000000 0.000000
0.355040 0.000000 0.000000
0.407319 0.000000 0.000000
0.479490 0.000000 0.000000
0.562867 0.000000 0.000000
0.631903 0.000000 0.000000
0.707406 0.000000 0.000000
0.805542 0.000000 0.000000
0.902172 0.000000 0.028404
0.970324 0.000000 0.059956
1.000000 0.000000 0.096189
1.000000 0.000000 0.135177
1.000000 0.210196 0.182591
1.000000 0.347437 0.236009
1.000000 0.449227 0.297372
1.000000 0.536874 0.375648
1.000000 0.624970 0.442477
1.000000 0.711547 0.518602
1.000000 0.773688 0.598117
1.000000 0.817165 0.672374
1.000000 0.858798 0.741987
1.000000 0.890031 0.792615
0.000000 0.039939 0.000000
0.000000 0.038333 0.000000
0.000000 0.037838 0.000000
0.000000 0.035565 0.000000
0.000000 0.034290 0.000000
0.000000 0.031650 0.000000
0.050466 0.027100 0.000000
0.099586 0.005157 0.000000
0.137850 0.000000 0.000000
0.180300 0.000000 0.000000
0.240524 0.000000 0.000000
0.293883 0.000000 0.000000
0.355051 0.000000 0.000000
0.410372 0.000000 0.000000
0.483171 0.000000 0.000000
0.558966 0.000000 0.000000
0.631936 0.000000 0.000000
0.707412 0.000000 0.000000
0.805492 0.000000 0.000000
0.902024 0.000000 0.026702
0.970066 0.000000 0.059478
1.000000 0.000000 0.095527
1.000000 0.000000 0.136174
1.000000 0.221143 0.183429
1.000000 0.347437 0.236009
1.000000 0.449227 0.297372
1.000000 0.540058 0.375445
1.000000 0.624970 0.442477
1.000000 0.713678 0.520742
1.000000 0.773688 0.598117
1.000000 0.817165 0.672374
1.000000 0.858798 0.741987
1.000000 0.890031 0.792615
0.000000 0.062395 0.000000
0.000000 0.060893 0.000000
0.000000 0.060443 0.000000
0.000000 0.060553 0.000000
0.000000 0.058399 0.000000
0.000000 0.055589 0.000000
0.039703 0.053470 0.000000
0.087817 0.048523 0.000000
0.132955 0.035885 0.000000
0.181354 0.000000 0.000000
0.238550 0.000000 0.000000
0.297923 0.000000 0.000000
0.352623 0.000000 0.000000
0.410498 0.000000 0.000000
0.479688 0.000000 0.000000
0.563035 0.000000 0.000000
0.631999 0.000000 0.000000
0.715891 0.000000 0.000000
0.801154 0.000000 0.000000
0.898136 0.000000 0.028140
0.969861 0.000000 0.060643
1.000000 0.000000 0.095688
1.000000 0.000000 0.136849
1.000000 0.226480 0.183085
1.000000 0.355100 0.235384
1.000000 0.452663 0.297107
1.000000 0.540058 0.375445
1.000000 0.624970 0.442477
1.000000 0.713666 0.523341
1.000000 0.773688 0.598117
1.000000 0.817165 0.672374
1.000000 0.858798 0.741987
1.000000 0.890904 0.792635
0.000000 0.088697 0.000000
0.000000 0.085829 0.000000
0.000000 0.085204 0.000000
0.000000 0.083154 0.000000
0.000000 0.081129 0.000000
0.000000 0.077926 0.000000
0.000000 0.073449 0.000000
0.080398 0.069810 0.000000
0.127761 0.062982 0.000000
0.183659 0.049850 0.000000
0.241920 0.000000 0.000000
0.302134 0.000000 0.000000
0.357935 0.000000 0.000000
0.416886 0.000000 0.000000
0.483553 0.000000 0.000000
0.567196 0.000000 0.000000
0.636212 0.000000 0.000000
0.715901 0.000000 0.000000
0.801044 0.000000 0.000000
0.897927 0.000000 0.027046
0.966656 0.000000 0.062376
1.000000 0.000000 0.096143
1.000000 0.000000 0.137172
1.000000 0.236866 0.183911
1.000000 0.358908 0.236851
1.000000 0.457303 0.297612
1.000000 0.543238 0.377770
1.000000 0.627903 0.442307
1.000000 0.713666 0.523341
1.000000 0.773688 0.598117
1.000000 0.818647 0.672380
1.000000 0.858798 0.741987
1.000000 0.890904 0.792635
0.000000 0.118246 0.000000
0.000000 0.116308 0.000000
0.000000 0.115351 0.000000
0.000000 0.110695 0.000000
0.000000 0.108003 0.000000
0.000000 0.107170 0.000000
0.000000 0.102464 0.000000
0.057572 0.098667 0.000000
0.120928 0.094403 0.000000
0.180389 0.083271 0.000000
0.249241 0.070586 0.000000
0.304603 0.029217 0.000000
0.361157 0.000000 0.000000
0.417620 0.000000 0.000000
0.491454 0.000000 0.000000
0.567647 0.000000 0.000000
0.636424 0.000000 0.000000
0.715915 0.000000 0.000000
0.805159 0.000000 0.000000
0.897612 0.000000 0.019303
0.966103 0.000000 0.061441
1.000000 0.000000 0.094990
1.000000 0.020560 0.138018
1.000000 0.240725 0.186129
1.000000 0.370297 0.237687
1.000000 0.460720 0.299491
1.000000 0.547652 0.378450
1.000000 0.630820 0.444708
1.000000 0.715998 0.523250
1.000000 0.775489 0.598093
1.000000 0.818647 0.672380
1.000000 0.859926 0.742004
1.000000 0.890904 0.792635
0.000000 0.155331 0.000000
0.000000 0.152770 0.000000
0.000000 0.149008 0.000000
0.000000 0.146553 0.000000
0.000000 0.146553 0.000000
0.000000 0.142983 0.000000
0.000000 0.139213 0.000000
0.000000 0.135113 0.000000
0.097738 0.130887 0.000000
0.167573 0.127666 0.000000
0.252082 0.114103 0.000000
0.309850 0.103803 0.000000
0.367878 0.079539 0.000000
0.425545 0.051191 0.000000
0.489422 0.000000 0.000000
0.568718 0.000000 0.000000
0.632852 0.000000 0.000000
0.715965 0.000000 0.000000
0.809199 0.000000 0.000000
0.897113 0.000000 0.008529
0.968480 0.000000 0.060960
1.000000 0.000000 0.096691
1.000000 0.095787 0.139676
1.000000 0.261488 0.185196
1.000000 0.381617 0.238518
1.000000 0.464139 0.301390
1.000000 0.550839 0.378245
1.000000 0.633743 0.444539
1.000000 0.718323 0.523161
1.000000 0.777278 0.598072
1.000000 0.819336 0.673420
1.000000 0.859926 0.742004
1.000000 0.890904 0.792635
0.000000 0.194528 0.000000
0.000000 0.194528 0.000000
0.000000 0.189765 0.000000
0.000000 0.186645 0.000000
0.000000 0.182046 0.000000
0.000000 0.182067 0.000000
0.000000 0.178904 0.000000
0.000000 0.175481 0.000000
0.000000 0.171477 0.000000
0.150298 0.165359 0.000000
0.241998 0.154102 0.000000
0.309438 0.146142 0.000000
0.372385 0.130193 0.000000
0.427785 0.121339 0.000000
0.495257 0.102529 0.000000
0.570281 0.045826 0.000000
0.642044 0.000000 0.000000
0.720347 0.000000 0.000000
0.813107 0.000000 0.000000
0.900065 0.000000 0.000000
0.967468 0.000000 0.058569
1.000000 0.000000 0.097703
1.000000 0.145258 0.140067
1.000000 0.284715 0.186446
1.000000 0.390233 0.238502
1.000000 0.474425 0.302765
1.000000 0.554021 0.380578
1.000000 0.636660 0.444371
1.000000 0.720639 0.523074
1.000000 0.777278 0.598072
1.000000 0.820804 0.673428
1.000000 0.861049 0.742024
1.000000 0.891778 0.792655
0.000000 0.232028 0.000000
0.000000 0.228550 0.000000
0.000000 0.226821 0.000000
0.000000 0.226801 0.000000
0.000000 0.223372 0.000000
0.000000 0.223312 0.000000
0.000000 0.223131 0.000000
0.000000 0.222725 0.000000
0.000000 0.221774 0.000000
0.081033 0.215988 0.000000
0.204531 0.207046 0.000000
0.293278 0.192965 0.000000
0.372850 0.186937 0.000000
0.433799 0.175307 0.000000
0.502163 0.165460 0.000000
0.576788 0.150474 0.000000
0.647577 0.133941 0.000000
0.724975 0.091501 0.000000
0.816760 0.000000 0.000000
0.902239 0.000000 0.000000
0.968700 0.000000 0.051653
1.000000 0.060181 0.098423
1.000000 0.188352 0.142264
1.000000 0.306987 0.189319
1.000000 0.405143 0.240831
1.000000 0.484724 0.306383
1.000000 0.560422 0.380165
1.000000 0.640772 0.447776
1.000000 0.725236 0.525515
1.000000 0.779057 0.598053
1.000000 0.822268 0.673438
1.000000 0.861038 0.744049
1.000000 0.891768 0.794218
0.000000 0.271923 0.000000
0.000000 0.269871 0.000000
0.000000 0.265805 0.000000
0.000000 0.265795 0.000000
0.000000 0.265774 0.000000
0.000000 0.265718 0.000000
0.000000 0.263609 0.000000
0.000000 0.265391 0.000000
0.000000 0.264882 0.000000
0.000000 0.259384 0.000000
0.146728 0.256084 0.000000
0.251039 0.250685 0.000000
0.347413 0.239707 0.000000
0.434283 0.225827 0.000000
0.509277 0.220345 0.000000
0.583918 0.213377 0.000000
0.653793 0.205141 0.000000
0.730036 0.195967 0.000000
0.824397 0.172172 0.000000
0.903626 0.154810 0.000000
0.971629 0.139573 0.041466
1.000000 0.165103 0.101476
1.000000 0.234428 0.142863
1.000000 0.337770 0.191905
1.000000 0.423745 0.244765
1.000000 0.491597 0.310354
1.000000 0.570051 0.382093
1.000000 0.649412 0.449879
1.000000 0.727527 0.525434
1.000000 0.780813 0.600647
1.000000 0.823715 0.675928
1.000000 0.862154 0.744068
1.000000 0.891768 0.794218
0.000000 0.324110 0.000000
0.000000 0.319155 0.000000
0.000000 0.319151 0.000000
0.000000 0.319139 0.000000
0.000000 0.319114 0.000000
0.000000 0.321548 0.000000
0.000000 0.319013 0.000000
0.000000 0.318896 0.000000
0.000000 0.321065 0.000000
0.000000 0.317840 0.000000
0.000000 0.315961 0.000000
0.181121 0.312579 0.000000
0.292203 0.307314 0.000000
0.402443 0.293063 0.000000
0.509069 0.280886 0.000000
0.586446 0.275648 0.000000
0.652487 0.277166 0.000000
0.727280 0.273364 0.000000
0.831347 0.261844 0.000000
0.910605 0.255546 0.000000
0.972394 0.251838 0.000000
1.000000 0.260813 0.098276
1.000000 0.294574 0.142716
1.000000 0.370790 0.193443
1.000000 0.438577 0.249194
1.000000 0.509860 0.314349
1.000000 0.579726 0.384031
1.000000 0.655138 0.452164
1.000000 0.734332 0.527826
1.000000 0.784336 0.600620
1.000000 0.826623 0.675956
1.000000 0.863266 0.744090
1.000000 0.892640 0.794239
0.000000 0.381296 0.000000
0.000000 0.378338 0.000000
0.000000 0.381287 0.000000
0.000000 0.381277 0.000000
0.000000 0.381259 0.000000
0.000000 0.381231 0.000000
0.000000 0.381190 0.000000
0.000000 0.381116 0.000000
0.000000 0.380961 0.000000
0.000000 0.380504 0.000000
0.000000 0.382429 0.000000
0.000000 0.377279 0.000000
0.211600 0.373977 0.000000
0.341202 0.368628 0.000000
0.461857 0.360378 0.000000
0.579511 0.342151 0.000000
0.652226 0.346962 0.000000
0.727686 0.344179 0.000000
0.818180 0.342421 0.000000
0.909588 0.336830 0.000000
0.965939 0.342708 0.000000
1.000000 0.348535 0.087804
1.000000 0.366062 0.144855
1.000000 0.410475 0.193260
1.000000 0.467353 0.249518
1.000000 0.526188 0.316866
1.000000 0.593744 0.386642
1.000000 0.666505 0.456793
1.000000 0.738815 0.530317
1.000000 0.787834 0.603219
1.000000 0.829499 0.678462
1.000000 0.865474 0.744138
1.000000 0.894373 0.795842
0.000000 0.441806 0.000000
0.000000 0.438414 0.000000
0.000000 0.441794 0.000000
0.000000 0.441783 0.000000
0.000000 0.441770 0.000000
0.000000 0.441751 0.000000
0.000000 0.445121 0.000000
0.000000 0.448486 0.000000
0.000000 0.448387 0.000000
0.000000 0.448160 0.000000
0.000000 0.447612 0.000000
0.000000 0.446499 0.000000
0.000000 0.451102 0.000000
0.262677 0.440747 0.000000
0.411143 0.431118 0.000000
0.538193 0.418812 0.000000
0.645745 0.412433 0.000000
0.729331 0.410874 0.000000
0.816114 0.408521 0.000000
0.898497 0.407118 0.000000
0.964635 0.409552 0.000000
1.000000 0.420553 0.080924
1.000000 0.441309 0.146798
1.000000 0.462431 0.202284
1.000000 0.502975 0.252574
1.000000 0.549717 0.318891
1.000000 0.612273 0.389689
1.000000 0.681492 0.464988
1.000000 0.747652 0.535361
1.000000 0.791315 0.605834
1.000000 0.830924 0.680950
1.000000 0.867649 0.746204
1.000000 0.896108 0.795889
0.000000 0.518537 0.000000
0.000000 0.514957 0.000000
0.000000 0.511380 0.000000
0.000000 0.511367 0.000000
0.000000 0.507794 0.000000
0.000000 0.511333 0.000000
0.000000 0.511309 0.000000
0.000000 0.514823 0.000000
0.000000 0.514740 0.000000
0.000000 0.518113 0.000000
0.000000 0.521289 0.000000
0.000000 0.520482 0.000000
0.000000 0.515359 0.000000
0.051465 0.512816 0.000000
0.344678 0.504343 0.000000
0.483626 0.497931 0.000000
0.610142 0.489280 0.000000
0.722094 0.475704 0.000000
0.812123 0.474559 0.000000
0.892562 0.478971 0.000000
0.956112 0.482864 0.000000
1.000000 0.490083 0.081351
1.000000 0.513652 0.147337
1.000000 0.529922 0.206503
1.000000 0.548833 0.264537
1.000000 0.584845 0.325918
1.000000 0.638512 0.398609
1.000000 0.700602 0.469426
1.000000 0.754151 0.540538
1.000000 0.798901 0.609536
1.000000 0.835181 0.685940
1.000000 0.869211 0.747103
1.000000 0.897825 0.797494
0.000000 0.594955 0.097028
0.000000 0.594944 0.083596
0.000000 0.591241 0.081758
0.000000 0.591229 0.065052
0.000000 0.587529 0.047176
0.000000 0.591190 0.023661
0.000000 0.591158 0.000000
0.000000 0.591104 0.000000
0.000000 0.594690 0.000000
0.000000 0.598219 0.000000
0.000000 0.597943 0.000000
0.000000 0.601002 0.000000
0.000000 0.599759 0.000000
0.000000 0.597803 0.000000
0.214258 0.590606 0.000000
0.405734 0.589512 0.000000
0.548703 0.579278 0.000000
0.686468 0.566425 0.000000
0.804060 0.560717 0.000000
0.886478 0.558104 0.000000
0.944942 0.562882 0.000000
0.992544 0.570189 0.064922
1.000000 0.588841 0.144789
1.000000 0.599376 0.211698
1.000000 0.619621 0.273923
1.000000 0.637804 0.337261
1.000000 0.669691 0.406695
1.000000 0.717300 0.475100
1.000000 0.764748 0.543013
1.000000 0.803991 0.614834
1.000000 0.841882 0.690430
1.000000 0.873446 0.749222
1.000000 0.899545 0.797548
0.000000 0.669103 0.171293
0.000000 0.672815 0.160003
0.000000 0.672798 0.153118
0.000000 0.672777 0.149625
0.000000 0.672756 0.146076
0.000000 0.672729 0.138759
0.000000 0.668957 0.132914
0.000000 0.668880 0.121069
0.000000 0.668767 0.112672
0.000000 0.672320 0.096085
0.000000 0.672085 0.064139
0.000000 0.667857 0.001353
0.000000 0.670599 0.000000
0.000000 0.672870 0.000000
0.000000 0.669942 0.000000
0.333809 0.658139 0.000000
0.498260 0.656539 0.000000
0.628633 0.646340 0.000000
0.771785 0.636841 0.000000
0.870560 0.629603 0.000000
0.931979 0.637914 0.000000
0.978111 0.644946 0.033484
1.000000 0.654727 0.151565
1.000000 0.667189 0.218581
1.000000 0.680371 0.282705
1.000000 0.695588 0.354061
1.000000 0.714892 0.412623
1.000000 0.740098 0.485225
1.000000 0.779564 0.551967
1.000000 0.816256 0.623968
1.000000 0.847316 0.695392
1.000000 0.878601 0.751398
1.000000 0.902451 0.801407
0.000000 0.741807 0.249671
0.000000 0.741779 0.246307
0.000000 0.741752 0.239543
0.000000 0.741716 0.236175
0.000000 0.745121 0.232113
0.000000 0.745085 0.228717
0.000000 0.745028 0.225331
0.000000 0.744940 0.221977
0.000000 0.744810 0.218645
0.000000 0.744641 0.208385
0.000000 0.744382 0.201569
0.000000 0.743964 0.191192
0.000000 0.743269 0.177028
0.000000 0.741990 0.146358
0.000000 0.739483 0.110423
0.182742 0.735809 0.073701
0.413597 0.735040 0.000000
0.573098 0.725943 0.000000
0.722494 0.714635 0.000000
0.835277 0.707266 0.000000
0.914434 0.695239 0.000000
0.965049 0.704061 0.050797
1.000000 0.711705 0.158626
1.000000 0.721041 0.234596
1.000000 0.732076 0.296396
1.000000 0.746628 0.367390
1.000000 0.758980 0.438525
1.000000 0.776787 0.497610
1.000000 0.799282 0.558458
1.000000 0.827583 0.629549
1.000000 0.857026 0.699032
1.000000 0.883012 0.756312
1.000000 0.905819 0.803066
0.000000 0.801611 0.327081
0.000000 0.801567 0.323412
0.000000 0.801524 0.323440
0.000000 0.801471 0.319785
0.000000 0.801440 0.316128
0.000000 0.804249 0.312257
0.000000 0.804197 0.308622
0.000000 0.804109 0.305017
0.000000 0.803979 0.297817
0.000000 0.806602 0.294052
0.000000 0.806311 0.286963
0.000000 0.805948 0.279917
0.000000 0.808104 0.272707
0.000000 0.809821 0.254750
0.000000 0.807704 0.233620
0.000000 0.798943 0.209603
0.331706 0.795140 0.192012
0.518782 0.792919 0.173814
0.684200 0.780166 0.145219
0.802878 0.770479 0.114679
0.881784 0.768361 0.092117
0.945101 0.767684 0.090437
0.989579 0.772351 0.188910
1.000000 0.778608 0.254205
1.000000 0.783306 0.314243
1.000000 0.791819 0.388524
1.000000 0.800683 0.451302
1.000000 0.815640 0.512547
1.000000 0.825590 0.573668
1.000000 0.845001 0.639259
1.000000 0.867063 0.706601
1.000000 0.889954 0.760514
1.000000 0.909146 0.806256
0.000000 0.860778 0.403924
0.000000 0.860715 0.400235
0.000000 0.860686 0.396533
0.000000 0.860628 0.396556
0.000000 0.860587 0.396572
0.000000 0.860523 0.396598
0.000000 0.860456 0.396623
0.000000 0.860369 0.392943
0.000000 0.860174 0.385609
0.000000 0.862174 0.382040
0.000000 0.861837 0.378458
0.000000 0.861385 0.374907
0.000000 0.860830 0.371379
0.000000 0.859888 0.353143
0.000000 0.858229 0.335035
0.000000 0.857773 0.320956
0.195709 0.854332 0.295919
0.463386 0.847532 0.278999
0.642516 0.841119 0.267070
0.758981 0.835380 0.249040
0.850319 0.830065 0.230323
0.919473 0.825771 0.229932
0.973909 0.823131 0.218893
1.000000 0.822822 0.288307
1.000000 0.827902 0.348056
1.000000 0.833854 0.411748
1.000000 0.844251 0.473679
1.000000 0.851660 0.536133
1.000000 0.858182 0.587120
1.000000 0.866931 0.655146
1.000000 0.880554 0.716189
1.000000 0.897056 0.767344
1.000000 0.914365 0.808656
0.000000 0.899420 0.480941
0.000000 0.897587 0.480766
0.000000 0.897535 0.477081
0.000000 0.897504 0.477089
0.000000 0.897439 0.477104
0.000000 0.897382 0.473423
0.000000 0.897276 0.473448
0.000000 0.898909 0.469986
0.000000 0.898706 0.470033
0.000000 0.898495 0.466394
0.000000 0.898149 0.466468
0.000000 0.899406 0.459423
0.000000 0.898736 0.455878
0.000000 0.897691 0.441405
0.000000 0.898147 0.430929
0.000000 0.896358 0.420347
0.000000 0.893402 0.402815
0.409081 0.890847 0.382553
0.607226 0.884884 0.370101
0.727273 0.876184 0.350577
0.822420 0.872848 0.341300
0.893870 0.868588 0.330755
0.951258 0.865175 0.322032
0.991465 0.861717 0.326298
1.000000 0.865006 0.383113
1.000000 0.867247 0.440060
1.000000 0.873348 0.498160
1.000000 0.878863 0.556528
1.000000 0.884464 0.609573
1.000000 0.890474 0.672347
1.000000 0.896035 0.726694
1.000000 0.908306 0.773692
1.000000 0.921506 0.812091
0.000000 0.929046 0.559755
0.000000 0.928996 0.559762
0.000000 0.928944 0.559769
0.000000 0.928892 0.559776
0.000000 0.928839 0.559783
0.000000 0.928730 0.559797
0.000000 0.928686 0.556145
0.000000 0.928401 0.552526
0.000000 0.928145 0.552558
0.000000 0.929288 0.549235
0.000000 0.929022 0.541978
0.000000 0.928400 0.538414
0.000000 0.927701 0.534863
0.000000 0.926827 0.527709
0.000000 0.925722 0.520605
0.000000 0.925663 0.513922
0.000000 0.923294 0.503471
0.374918 0.919536 0.482662
0.572733 0.915678 0.466543
0.701906 0.910578 0.450820
0.794747 0.904670 0.439281
0.871845 0.901665 0.427560
0.931251 0.898085 0.415640
0.975222 0.895526 0.414355
1.000000 0.893098 0.417588
1.000000 0.895580 0.474118
1.000000 0.897326 0.528288
1.000000 0.901221 0.578752
1.000000 0.905668 0.637954
1.000000 0.910273 0.689885
1.000000 0.916260 0.743439
1.000000 0.921702 0.784499
1.000000 0.930762 0.820746
0.000000 0.955930 0.650766
0.000000 0.955853 0.650770
0.000000 0.955694 0.650780
0.000000 0.955628 0.647232
0.000000 0.955545 0.647237
