Assets/Lutify-Free-LUTs-Pack/Lutify Free LUTs Pack/Cine World Pro Warm - Amy/Lutify.me-Amy-DJIDlog-to-Rec709.cube
# Created with: fylm.ai - Colour Grading and Collaboration Software in Cloud 
# Website: https://fylm.ai 
# META
# Option: Gamut compress
# Block 1: IDT | DJI D-Gamut D-Log
# Block 2: colourMatch | Blending Mode: Normal | {"ColorSpace":0,"CrossCovarianceLimit":50,"ReshapingIterations":1,"PercentSaturationShift":100,"PercentShadingShift":100,"ExtraShading":true,"PercentTint":100,"PercentModified":100}
# Block 3: LUT | Filmic Curve Response: Standard Contrast 1 (100%)
# Block 4: LUT | Illuminant: D60 (100%)
# Block 5: hueSaturation | Blending Mode: Normal | {"hue":0,"saturation":-0.15}
# Block 6: logPrimaries | Blending Mode: Normal | {"wheels":{"shadows":{"Y":"0","R":"1","G":"1","B":"1"},"midtones":{"Y":"0","R":"1","G":"1","B":"1"},"highlights":{"Y":"0","R":"1","G":"1","B":"1"},"offset":{"Y":"0","R":"1","G":"1","B":"1"}},"sliders":{"shadows":{"Y":0,"R":-0.097,"G":0,"B":0.158},"midtones":{"Y":0,"R":0.024,"G":0.024,"B":-0.036},"highlights":{"Y":0,"R":0.154,"G":-0.084,"B":-0.024},"offset":{"Y":0.048,"R":0,"G":0,"B":0}}}
# Block 7: smartCurves | Blending Mode: Average | [[{"x":0,"y":0},{"x":0.11328125,"y":0.085540771484375},{"x":0.21484375,"y":0.218353271484375},{"x":0.37109375,"y":0.382415771484375},{"x":0.62109375,"y":0.589447021484375},{"x":0.8125,"y":0.765228271484375},{"x":1,"y":1}],[{"x":0,"y":0},{"x":1,"y":1}],[{"x":0,"y":0},{"x":1,"y":1}],[{"x":0,"y":0},{"x":1,"y":1}]]
# Block 8: LUT | Neutral Tint: Teal Tint 4 (100%)
# Block 9: contrast | Blending Mode: Normal | {"contrast":0.1}
# Block 10: ODT | Rec709
TITLE "Lutify.me-Amy-DJIDlog-to-Rec709" 
LUT_3D_SIZE 5
0.000000 0.000000 0.000000
0.253269 0.000000 0.000000
0.762744 0.000000 0.000000
1.000000 0.539836 0.313650
1.000000 0.944569 0.867796
0.000000 0.154043 0.000000
0.276013 0.105882 0.000000
0.800679 0.000000 0.000000
1.000000 0.557174 0.315404
1.000000 0.944569 0.867796
0.000000 0.546935 0.000000
0.000000 0.535702 0.000000
0.939842 0.463330 0.000000
1.000000 0.691459 0.316962
1.000000 0.947485 0.869476
0.389337 0.963117 0.320246
0.470091 0.962268 0.316739
0.749363 0.953274 0.272597
1.000000 0.933896 0.303134
1.000000 0.970989 0.879769
0.956556 1.000000 0.892993
0.957311 1.000000 0.893026
0.961098 1.000000 0.891475
0.994472 1.000000 0.884644
1.000000 1.000000 0.891559
0.000000 0.000000 0.129279
0.167769 0.000000 0.050986
0.708381 0.000000 0.088720
1.000000 0.538493 0.359139
1.000000 0.944563 0.868806
0.000000 0.172319 0.242155
0.076204 0.143578 0.188225
0.724071 0.000000 0.099085
1.000000 0.554783 0.358017
1.000000 0.945110 0.868839
0.000000 0.594852 0.151908
0.000000 0.601117 0.000000
0.752502 0.565024 0.000000
1.000000 0.689498 0.367454
1.000000 0.947474 0.871457
0.353100 0.967864 0.422257
0.432339 0.966379 0.413610
0.723550 0.955973 0.381586
1.000000 0.939045 0.366011
1.000000 0.970980 0.881476
0.955577 1.000000 0.896402
0.956340 1.000000 0.896433
0.960884 1.000000 0.894915
0.993849 1.000000 0.888610
1.000000 1.000000 0.893548
0.000000 0.000000 0.250521
0.084026 0.000000 0.128787
0.705696 0.000000 0.157442
1.000000 0.525075 0.525231
1.000000 0.944504 0.878694
0.000000 0.097490 0.420841
0.000000 0.084177 0.364860
0.680759 0.000000 0.376088
1.000000 0.542929 0.531355
1.000000 0.945051 0.878716
0.000000 0.633926 0.749266
0.000000 0.618797 0.743565
0.552942 0.602226 0.693945
1.000000 0.682808 0.549055
1.000000 0.947221 0.879771
0.000000 0.972295 0.738942
0.270432 0.971464 0.730727
0.654016 0.963978 0.699424
1.000000 0.945973 0.613444
1.000000 0.970505 0.891580
0.952696 1.000000 0.917441
0.953523 1.000000 0.916663
0.958142 1.000000 0.915184
0.991455 1.000000 0.905544
1.000000 1.000000 0.903467
0.000000 0.025548 0.518802
0.000000 0.000000 0.529280
0.502653 0.000000 0.562168
1.000000 0.000000 0.761062
1.000000 0.941757 0.937552
0.000000 0.163807 0.717525
0.000000 0.166681 0.717265
0.460713 0.072609 0.732333
1.000000 0.119713 0.814987
1.000000 0.942769 0.937773
0.000000 0.497786 0.906014
0.000000 0.500894 0.907390
0.258861 0.482906 0.911220
1.000000 0.485132 0.904073
1.000000 0.945519 0.939139
0.000000 0.986056 0.994082
0.000000 0.985229 0.994003
0.000000 0.977006 0.991579
0.966424 0.950247 0.975433
1.000000 0.967798 0.946243
0.937751 1.000000 0.986068
0.938619 1.000000 0.985737
0.942808 1.000000 0.985060
0.979773 1.000000 0.979338
1.000000 1.000000 0.961008
0.540419 0.493118 0.997281
0.568668 0.491284 0.997715
0.707653 0.479494 0.996621
1.000000 0.481526 0.999004
1.000000 0.859455 0.999721
0.521760 0.524440 1.000000
0.551003 0.522665 1.000000
0.693470 0.512058 0.999637
1.000000 0.520010 1.000000
1.000000 0.863077 1.000000
0.420901 0.690297 1.000000
0.461880 0.685378 1.000000
0.602509 0.675750 1.000000
1.000000 0.659535 1.000000
1.000000 0.874122 1.000000
0.370775 0.942184 1.000000
0.390869 0.941806 1.000000
0.533030 0.938313 1.000000
0.908142 0.917985 1.000000
1.000000 0.933980 1.000000
0.856896 1.000000 1.000000
0.859169 1.000000 1.000000
0.871515 1.000000 1.000000
0.932365 1.000000 1.000000
1.000000 1.000000 1.000000
