Assets/Lutify-Free-LUTs-Pack/Lutify Free LUTs Pack/Cine World Pro Warm - Amy/Lutify.me-Amy-BolexLog-to-Rec709.cube
# Created with: fylm.ai - Colour Grading and Collaboration Software in Cloud 
# Website: https://fylm.ai 
# META
# Option: Gamut compress
# Block 1: IDT | Bolex Wide Gamut RGB Bolex Log
# Block 2: colourMatch | Blending Mode: Normal | {"ColorSpace":0,"CrossCovarianceLimit":50,"ReshapingIterations":1,"PercentSaturationShift":100,"PercentShadingShift":100,"ExtraShading":true,"PercentTint":100,"PercentModified":100}
# Block 3: LUT | Filmic Curve Response: Standard Contrast 1 (100%)
# Block 4: LUT | Illuminant: D60 (100%)
# Block 5: hueSaturation | Blending Mode: Normal | {"hue":0,"saturation":-0.15}
# Block 6: logPrimaries | Blending Mode: Normal | {"wheels":{"shadows":{"Y":"0","R":"1","G":"1","B":"1"},"midtones":{"Y":"0","R":"1","G":"1","B":"1"},"highlights":{"Y":"0","R":"1","G":"1","B":"1"},"offset":{"Y":"0","R":"1","G":"1","B":"1"}},"sliders":{"shadows":{"Y":0,"R":-0.097,"G":0,"B":0.158},"midtones":{"Y":0,"R":0.024,"G":0.024,"B":-0.036},"highlights":{"Y":0,"R":0.154,"G":-0.084,"B":-0.024},"offset":{"Y":0.048,"R":0,"G":0,"B":0}}}
# Block 7: smartCurves | Blending Mode: Average | [[{"x":0,"y":0},{"x":0.11328125,"y":0.085540771484375},{"x":0.21484375,"y":0.218353271484375},{"x":0.37109375,"y":0.382415771484375},{"x":0.62109375,"y":0.589447021484375},{"x":0.8125,"y":0.765228271484375},{"x":1,"y":1}],[{"x":0,"y":0},{"x":1,"y":1}],[{"x":0,"y":0},{"x":1,"y":1}],[{"x":0,"y":0},{"x":1,"y":1}]]
# Block 8: LUT | Neutral Tint: Teal Tint 4 (100%)
# Block 9: contrast | Blending Mode: Normal | {"contrast":0.1}
# Block 10: ODT | Rec709
TITLE "Lutify.me-Amy-BolexLog-to-Rec709" 
LUT_3D_SIZE 33
0.000000 0.000000 0.000000
0.000000 0.000000 0.000000
0.000000 0.000000 0.000000
0.000000 0.000000 0.000000
0.013597 0.000000 0.000000
0.073174 0.000000 0.000000
0.115697 0.000000 0.000000
0.149184 0.000000 0.000000
0.190339 0.000000 0.000000
0.240753 0.000000 0.000000
0.290041 0.000000 0.000000
0.340173 0.000000 0.000000
0.395484 0.000000 0.000000
0.448169 0.000000 0.000000
0.512191 0.000000 0.000000
0.578666 0.000000 0.000000
0.644227 0.000000 0.000000
0.720151 0.000000 0.000000
0.827145 0.000000 0.018807
0.910047 0.000000 0.038477
0.985170 0.000000 0.069117
1.000000 0.000000 0.103117
1.000000 0.000000 0.144992
1.000000 0.171213 0.191767
1.000000 0.316286 0.238341
1.000000 0.425213 0.301272
1.000000 0.514779 0.377020
1.000000 0.603192 0.442671
1.000000 0.688716 0.518478
1.000000 0.760832 0.596161
1.000000 0.805143 0.670326
1.000000 0.848916 0.737158
1.000000 0.879690 0.788853
0.000000 0.000000 0.000000
0.000000 0.000000 0.000000
0.000000 0.000000 0.000000
0.000000 0.000000 0.000000
0.024451 0.000000 0.000000
0.076333 0.000000 0.000000
0.116151 0.000000 0.000000
0.146620 0.000000 0.000000
0.183891 0.000000 0.000000
0.235563 0.000000 0.000000
0.286093 0.000000 0.000000
0.333065 0.000000 0.000000
0.387000 0.000000 0.000000
0.444880 0.000000 0.000000
0.512254 0.000000 0.000000
0.578718 0.000000 0.000000
0.644277 0.000000 0.000000
0.724406 0.000000 0.000000
0.827110 0.000000 0.018508
0.917092 0.000000 0.040189
0.985013 0.000000 0.071503
1.000000 0.000000 0.103759
1.000000 0.000000 0.144748
1.000000 0.177716 0.191492
1.000000 0.320224 0.239815
1.000000 0.428634 0.301030
1.000000 0.514767 0.379534
1.000000 0.606097 0.442506
1.000000 0.691147 0.520993
1.000000 0.760832 0.596161
1.000000 0.805143 0.670326
1.000000 0.848916 0.737158
1.000000 0.880601 0.788864
0.000000 0.000000 0.000000
0.000000 0.000000 0.000000
0.000000 0.000000 0.000000
0.000000 0.000000 0.000000
0.031163 0.000000 0.000000
0.079045 0.000000 0.000000
0.116024 0.000000 0.000000
0.143794 0.000000 0.000000
0.180104 0.000000 0.000000
0.228835 0.000000 0.000000
0.274338 0.000000 0.000000
0.326182 0.000000 0.000000
0.378719 0.000000 0.000000
0.438374 0.000000 0.000000
0.508598 0.000000 0.000000
0.578780 0.000000 0.000000
0.644307 0.000000 0.000000
0.724413 0.000000 0.000000
0.835530 0.000000 0.015345
0.916921 0.000000 0.040412
0.982057 0.000000 0.071241
1.000000 0.000000 0.106214
1.000000 0.000000 0.145538
1.000000 0.190110 0.190927
1.000000 0.324154 0.239537
1.000000 0.432051 0.302927
1.000000 0.517907 0.379344
1.000000 0.606084 0.445075
1.000000 0.691147 0.520993
1.000000 0.760832 0.596161
1.000000 0.806672 0.670319
1.000000 0.848916 0.737158
1.000000 0.880601 0.788864
0.000000 0.000000 0.000000
0.000000 0.000000 0.000000
0.000000 0.000000 0.000000
0.000000 0.000000 0.006950
0.021461 0.000000 0.000000
0.077834 0.000000 0.000000
0.111838 0.000000 0.000000
0.137062 0.000000 0.000000
0.171604 0.000000 0.000000
0.227217 0.000000 0.000000
0.274428 0.000000 0.000000
0.323917 0.000000 0.000000
0.373307 0.000000 0.000000
0.428822 0.000000 0.000000
0.504966 0.000000 0.000000
0.574835 0.000000 0.000000
0.648496 0.000000 0.000000
0.724410 0.000000 0.000000
0.835487 0.000000 0.019609
0.916725 0.000000 0.039037
0.981879 0.000000 0.071456
1.000000 0.000000 0.105437
1.000000 0.000000 0.146059
1.000000 0.196051 0.190635
1.000000 0.328060 0.241025
1.000000 0.433363 0.303685
1.000000 0.521052 0.379154
1.000000 0.606084 0.445075
1.000000 0.691147 0.520993
1.000000 0.762722 0.596120
1.000000 0.806672 0.670319
1.000000 0.848916 0.737158
1.000000 0.880601 0.788864
0.000000 0.039966 0.000000
0.000000 0.038410 0.000000
0.000000 0.035007 0.000000
0.000000 0.031956 0.000000
0.016501 0.029826 0.000000
0.069108 0.023604 0.000000
0.105505 0.000000 0.000000
0.137128 0.000000 0.000000
0.171797 0.000000 0.000000
0.226948 0.000000 0.000000
0.270354 0.000000 0.000000
0.323837 0.000000 0.000000
0.376027 0.000000 0.000000
0.428887 0.000000 0.000000
0.508743 0.000000 0.000000
0.574898 0.000000 0.000000
0.656857 0.000000 0.000000
0.724410 0.000000 0.000000
0.826932 0.000000 0.017373
0.916572 0.000000 0.039618
0.981626 0.000000 0.071328
1.000000 0.000000 0.107260
1.000000 0.000000 0.145515
1.000000 0.201848 0.190336
1.000000 0.335844 0.240456
1.000000 0.436776 0.303440
1.000000 0.521052 0.379154
1.000000 0.608997 0.444910
1.000000 0.693586 0.520885
1.000000 0.762722 0.596120
1.000000 0.806672 0.670319
1.000000 0.850102 0.737165
1.000000 0.880601 0.788864
0.000000 0.059377 0.000000
0.000000 0.058959 0.000000
0.000000 0.058136 0.000000
0.000000 0.054613 0.000000
0.010068 0.051438 0.000000
0.062883 0.049024 0.000000
0.099796 0.042380 0.000000
0.134760 0.030618 0.000000
0.176391 0.000000 0.000000
0.224960 0.000000 0.000000
0.272329 0.000000 0.000000
0.323852 0.000000 0.000000
0.373412 0.000000 0.000000
0.432166 0.000000 0.000000
0.512531 0.000000 0.000000
0.578970 0.000000 0.000000
0.656896 0.000000 0.000000
0.720153 0.000000 0.000000
0.826861 0.000000 0.017163
0.916408 0.000000 0.041481
0.981357 0.000000 0.071133
1.000000 0.000000 0.107581
1.000000 0.000000 0.146274
1.000000 0.213058 0.191252
1.000000 0.337186 0.242888
1.000000 0.440181 0.305355
1.000000 0.524192 0.381491
1.000000 0.608997 0.444910
1.000000 0.693586 0.520885
1.000000 0.762722 0.596120
1.000000 0.806672 0.670319
1.000000 0.850090 0.739248
1.000000 0.880601 0.788864
0.000000 0.080313 0.000000
0.000000 0.077765 0.000000
0.000000 0.075339 0.000000
0.000000 0.071103 0.000000
0.000000 0.067752 0.000000
0.060192 0.065136 0.000000
0.096942 0.062097 0.000000
0.135672 0.053763 0.000000
0.178655 0.041757 0.000000
0.229635 0.000000 0.000000
0.279892 0.000000 0.000000
0.326220 0.000000 0.000000
0.379012 0.000000 0.000000
0.442034 0.000000 0.000000
0.508961 0.000000 0.000000
0.583090 0.000000 0.000000
0.656946 0.000000 0.000000
0.724399 0.000000 0.000000
0.826763 0.000000 0.010525
0.916189 0.000000 0.041354
0.981144 0.000000 0.072400
1.000000 0.000000 0.108258
1.000000 0.000000 0.148377
1.000000 0.218507 0.190938
1.000000 0.341037 0.242603
1.000000 0.443597 0.305108
1.000000 0.524192 0.381491
1.000000 0.608997 0.444910
1.000000 0.696019 0.520779
1.000000 0.764589 0.598715
1.000000 0.806672 0.670319
1.000000 0.850090 0.739248
1.000000 0.880601 0.788864
0.000000 0.101974 0.000000
0.000000 0.101140 0.000000
0.000000 0.096316 0.000000
0.000000 0.094033 0.000000
0.000000 0.090608 0.000000
0.045040 0.088184 0.000000
0.092915 0.083887 0.000000
0.132116 0.077815 0.000000
0.177688 0.069149 0.000000
0.234583 0.052903 0.000000
0.285824 0.000000 0.000000
0.331125 0.000000 0.000000
0.384927 0.000000 0.000000
0.449065 0.000000 0.000000
0.516720 0.000000 0.000000
0.587280 0.000000 0.000000
0.657011 0.000000 0.000000
0.728637 0.000000 0.000000
0.822365 0.000000 0.004836
0.908755 0.000000 0.040319
0.978083 0.000000 0.071873
1.000000 0.000000 0.108584
1.000000 0.000000 0.147782
1.000000 0.229113 0.191842
1.000000 0.348704 0.242018
1.000000 0.447006 0.307041
1.000000 0.527348 0.381299
1.000000 0.611916 0.444743
1.000000 0.696019 0.520779
1.000000 0.764589 0.598715
1.000000 0.808198 0.670314
1.000000 0.850090 0.739248
1.000000 0.881511 0.788876
0.000000 0.132703 0.000000
0.000000 0.129467 0.000000
0.000000 0.127353 0.000000
0.000000 0.123265 0.000000
0.000000 0.119905 0.000000
0.000000 0.117314 0.000000
0.078963 0.113043 0.000000
0.126662 0.111495 0.000000
0.180342 0.103068 0.000000
0.239477 0.092910 0.000000
0.294429 0.080117 0.000000
0.336678 0.050341 0.000000
0.394401 0.000000 0.000000
0.450115 0.000000 0.000000
0.517589 0.000000 0.000000
0.583765 0.000000 0.000000
0.657194 0.000000 0.000000
0.732854 0.000000 0.000000
0.826412 0.000000 0.000000
0.908445 0.000000 0.040521
0.977506 0.000000 0.072674
1.000000 0.000000 0.109482
1.000000 0.000000 0.147891
1.000000 0.244356 0.192413
1.000000 0.356321 0.243231
1.000000 0.450416 0.308993
1.000000 0.530511 0.381105
1.000000 0.613255 0.448292
1.000000 0.698445 0.520674
1.000000 0.766461 0.598679
1.000000 0.808198 0.670314
1.000000 0.851273 0.739256
1.000000 0.881511 0.788876
0.000000 0.166026 0.000000
0.000000 0.161928 0.000000
0.000000 0.159255 0.000000
0.000000 0.155318 0.000000
0.000000 0.151206 0.000000
0.000000 0.149547 0.000000
0.036004 0.146157 0.000000
0.113943 0.143079 0.000000
0.176387 0.139176 0.000000
0.240294 0.132026 0.000000
0.296678 0.120825 0.000000
0.350431 0.105977 0.000000
0.399004 0.088392 0.000000
0.451919 0.065448 0.000000
0.522802 0.000000 0.000000
0.588791 0.000000 0.000000
0.661749 0.000000 0.000000
0.732818 0.000000 0.000000
0.834562 0.000000 0.000000
0.915057 0.000000 0.039824
0.979606 0.000000 0.072238
1.000000 0.000000 0.108963
1.000000 0.087920 0.150292
1.000000 0.254135 0.194908
1.000000 0.367674 0.245994
1.000000 0.453829 0.310964
1.000000 0.536841 0.383260
1.000000 0.619087 0.447960
1.000000 0.701994 0.521612
1.000000 0.766461 0.598679
1.000000 0.809721 0.670310
1.000000 0.851273 0.739256
1.000000 0.881511 0.788876
0.000000 0.199390 0.000000
0.000000 0.199390 0.000000
0.000000 0.196156 0.000000
0.000000 0.194461 0.000000
0.000000 0.189489 0.000000
0.000000 0.189176 0.000000
0.000000 0.187031 0.000000
0.080771 0.182604 0.000000
0.167217 0.176464 0.000000
0.238312 0.168169 0.000000
0.296516 0.159923 0.000000
0.356744 0.150449 0.000000
0.407037 0.138317 0.000000
0.457812 0.131432 0.000000
0.528707 0.100218 0.000000
0.594386 0.082706 0.000000
0.670676 0.000000 0.000000
0.745467 0.000000 0.000000
0.838246 0.000000 0.000000
0.917731 0.000000 0.034496
0.981351 0.000000 0.073089
1.000000 0.000000 0.110153
1.000000 0.141394 0.152816
1.000000 0.277584 0.198032
1.000000 0.378966 0.246928
1.000000 0.460669 0.312706
1.000000 0.544437 0.386289
1.000000 0.622002 0.450383
1.000000 0.706767 0.524040
1.000000 0.768322 0.598644
1.000000 0.811967 0.671335
1.000000 0.851273 0.739256
1.000000 0.882421 0.788888
0.000000 0.235531 0.000000
0.000000 0.231972 0.000000
0.000000 0.233648 0.000000
0.000000 0.231722 0.000000
0.000000 0.231469 0.000000
0.000000 0.232906 0.000000
0.000000 0.230529 0.000000
0.000000 0.227390 0.000000
0.126160 0.223275 0.000000
0.208051 0.219077 0.000000
0.283992 0.208679 0.000000
0.354247 0.201692 0.000000
0.415087 0.191758 0.000000
0.464370 0.184067 0.000000
0.535599 0.166438 0.000000
0.608310 0.157333 0.000000
0.675924 0.131205 0.000000
0.753983 0.074238 0.000000
0.845389 0.000000 0.000000
0.919698 0.000000 0.000000
0.984978 0.000000 0.072489
1.000000 0.052438 0.110036
1.000000 0.183983 0.154500
1.000000 0.304413 0.199149
1.000000 0.393932 0.249444
1.000000 0.472099 0.317252
1.000000 0.547608 0.388660
1.000000 0.627857 0.452653
1.000000 0.709149 0.523943
1.000000 0.770175 0.598613
1.000000 0.813471 0.671335
1.000000 0.851878 0.740141
1.000000 0.883330 0.788902
0.000000 0.276039 0.000000
0.000000 0.275990 0.000000
0.000000 0.273823 0.000000
0.000000 0.273710 0.000000
0.000000 0.275630 0.000000
0.000000 0.275376 0.000000
0.000000 0.272913 0.000000
0.000000 0.269907 0.000000
0.000000 0.266093 0.000000
0.166651 0.265546 0.000000
0.248529 0.261337 0.000000
0.322421 0.251007 0.000000
0.405903 0.239104 0.000000
0.472942 0.231357 0.000000
0.550410 0.225683 0.000000
0.614971 0.217789 0.000000
0.685691 0.205992 0.000000
0.758590 0.197653 0.000000
0.852005 0.174246 0.000000
0.923958 0.143823 0.000000
0.985247 0.115579 0.070762
1.000000 0.156478 0.113245
1.000000 0.231327 0.156064
1.000000 0.331874 0.202997
1.000000 0.413583 0.254286
1.000000 0.485787 0.318540
1.000000 0.557176 0.390648
1.000000 0.633697 0.454939
1.000000 0.713879 0.526393
1.000000 0.770175 0.598613
1.000000 0.814958 0.673850
1.000000 0.853047 0.740150
1.000000 0.883330 0.788902
0.000000 0.329073 0.000000
0.000000 0.331577 0.000000
0.000000 0.328966 0.000000
0.000000 0.326350 0.000000
0.000000 0.328742 0.000000
0.000000 0.331121 0.000000
0.000000 0.330842 0.000000
0.000000 0.327685 0.000000
0.000000 0.326632 0.000000
0.060734 0.324714 0.000000
0.205526 0.319233 0.000000
0.291663 0.315029 0.000000
0.384590 0.302678 0.000000
0.468381 0.294138 0.000000
0.551466 0.286645 0.000000
0.617559 0.286007 0.000000
0.687775 0.280754 0.000000
0.759170 0.274024 0.000000
0.857893 0.259588 0.000000
0.926767 0.251833 0.000000
0.982966 0.245273 0.059791
1.000000 0.245468 0.116656
1.000000 0.291767 0.156880
1.000000 0.369666 0.206907
1.000000 0.435796 0.256231
1.000000 0.501646 0.323723
1.000000 0.566792 0.392645
1.000000 0.642423 0.457082
1.000000 0.720920 0.528775
1.000000 0.774648 0.602258
1.000000 0.816455 0.673853
1.000000 0.855360 0.742232
1.000000 0.885147 0.788933
0.000000 0.387200 0.000000
0.000000 0.390194 0.000000
0.000000 0.390141 0.000000
0.000000 0.390066 0.000000
0.000000 0.389967 0.000000
0.000000 0.389854 0.000000
0.000000 0.389579 0.000000
0.000000 0.389083 0.000000
0.000000 0.388366 0.000000
0.000000 0.387245 0.000000
0.057314 0.385423 0.000000
0.226358 0.382582 0.000000
0.328973 0.375515 0.000000
0.433884 0.365810 0.000000
0.536259 0.353464 0.000000
0.615429 0.351455 0.000000
0.687957 0.349499 0.000000
0.759124 0.347254 0.000000
0.855196 0.340802 0.000000
0.927799 0.338540 0.000000
0.981393 0.337114 0.035814
1.000000 0.344361 0.111547
1.000000 0.354430 0.163173
1.000000 0.408968 0.209295
1.000000 0.457049 0.265983
1.000000 0.522171 0.329366
1.000000 0.580785 0.395299
1.000000 0.652229 0.462848
1.000000 0.727492 0.533330
1.000000 0.776440 0.604875
1.000000 0.817935 0.676366
1.000000 0.856517 0.742245
1.000000 0.886054 0.788950
0.000000 0.451917 0.000000
0.000000 0.455306 0.000000
0.000000 0.455257 0.000000
0.000000 0.458632 0.000000
0.000000 0.455101 0.000000
0.000000 0.454989 0.000000
0.000000 0.451370 0.000000
0.000000 0.451099 0.000000
0.000000 0.454095 0.000000
0.000000 0.453336 0.000000
0.000000 0.455444 0.000000
0.110802 0.453607 0.000000
0.273004 0.447263 0.000000
0.402500 0.438512 0.000000
0.512305 0.427944 0.000000
0.605201 0.420044 0.000000
0.687626 0.415426 0.000000
0.765260 0.414386 0.000000
0.852093 0.408282 0.000000
0.922620 0.404722 0.000000
0.974757 0.404902 0.016027
1.000000 0.420868 0.111171
1.000000 0.430399 0.169913
1.000000 0.452273 0.213739
1.000000 0.490299 0.269289
1.000000 0.540970 0.336192
1.000000 0.600188 0.399335
1.000000 0.666450 0.470111
1.000000 0.736539 0.538347
1.000000 0.781781 0.607468
1.000000 0.820897 0.678884
1.000000 0.857669 0.742259
1.000000 0.886951 0.790600
0.000000 0.518349 0.000000
0.000000 0.521877 0.000000
0.000000 0.521805 0.000000
0.000000 0.521712 0.000000
0.000000 0.525187 0.000000
0.000000 0.525061 0.000000
0.000000 0.524887 0.000000
0.000000 0.528251 0.000000
0.000000 0.527857 0.000000
0.000000 0.523541 0.000000
0.000000 0.518964 0.000000
0.000000 0.517671 0.000000
0.185003 0.515309 0.000000
0.357046 0.511045 0.000000
0.478341 0.498232 0.000000
0.584327 0.494960 0.000000
0.675476 0.487546 0.000000
0.768258 0.478860 0.000000
0.854326 0.478360 0.000000
0.912474 0.481430 0.000000
0.970160 0.482365 0.000000
1.000000 0.490372 0.116477
1.000000 0.507237 0.168995
1.000000 0.519233 0.225060
1.000000 0.534655 0.273811
1.000000 0.571529 0.340755
1.000000 0.623013 0.408628
1.000000 0.689724 0.472630
1.000000 0.747618 0.543383
1.000000 0.787084 0.607430
1.000000 0.826782 0.681424
1.000000 0.861082 0.744358
1.000000 0.888707 0.793633
0.000000 0.598280 0.000000
0.000000 0.598216 0.000000
0.000000 0.598130 0.000000
0.000000 0.601751 0.000000
0.000000 0.601652 0.000000
0.000000 0.601537 0.000000
0.000000 0.601386 0.000000
0.000000 0.601107 0.000000
0.000000 0.600723 0.000000
0.000000 0.603852 0.000000
0.000000 0.602960 0.000000
0.000000 0.601793 0.000000
0.000000 0.595948 0.000000
0.284148 0.592990 0.000000
0.418278 0.589047 0.000000
0.537614 0.579884 0.000000
0.646067 0.569371 0.000000
0.758048 0.560708 0.000000
0.845117 0.557319 0.000000
0.911449 0.556552 0.000000
0.957813 0.566482 0.000000
1.000000 0.570547 0.113851
1.000000 0.578333 0.175642
1.000000 0.592445 0.231389
1.000000 0.605357 0.288925
1.000000 0.620790 0.350379
1.000000 0.658570 0.414632
1.000000 0.709403 0.483595
1.000000 0.758390 0.551240
1.000000 0.796475 0.616428
1.000000 0.831723 0.687403
1.000000 0.866042 0.749346
1.000000 0.890482 0.795259
0.000000 0.672193 0.096301
0.000000 0.672114 0.091016
0.000000 0.672027 0.085374
0.000000 0.671911 0.079320
0.000000 0.668052 0.076608
0.000000 0.667905 0.069753
0.000000 0.671501 0.056457
0.000000 0.671189 0.028706
0.000000 0.670854 0.000000
0.000000 0.673991 0.000000
0.000000 0.673354 0.000000
0.000000 0.672043 0.000000
0.000000 0.670326 0.000000
0.218000 0.663919 0.000000
0.372940 0.657129 0.000000
0.504364 0.656277 0.000000
0.611890 0.647283 0.000000
0.734175 0.639542 0.000000
0.832964 0.632296 0.000000
0.899335 0.627790 0.000000
0.950365 0.633482 0.000000
0.991281 0.641306 0.111321
1.000000 0.648239 0.181708
1.000000 0.661043 0.241050
1.000000 0.671198 0.302156
1.000000 0.683743 0.367732
1.000000 0.698471 0.423569
1.000000 0.735796 0.491842
1.000000 0.773581 0.554721
1.000000 0.805015 0.624493
1.000000 0.837414 0.692413
1.000000 0.868225 0.751401
1.000000 0.894017 0.798507
0.000000 0.740742 0.202562
0.000000 0.740664 0.202612
0.000000 0.740527 0.199196
0.000000 0.736949 0.196646
0.000000 0.736854 0.193182
0.000000 0.736754 0.189696
0.000000 0.740071 0.185227
0.000000 0.739700 0.181813
0.000000 0.739364 0.178336
0.000000 0.738925 0.167347
0.000000 0.738039 0.152123
0.000000 0.736897 0.131388
0.000000 0.738490 0.111026
0.041423 0.736460 0.094977
0.332256 0.733633 0.075831
0.461170 0.730222 0.028346
0.583446 0.718582 0.000000
0.708608 0.711965 0.000000
0.804626 0.709331 0.000000
0.882338 0.697078 0.000000
0.936656 0.697793 0.000000
0.981222 0.700596 0.127982
1.000000 0.705638 0.199338
1.000000 0.715667 0.259111
1.000000 0.723791 0.319268
1.000000 0.732904 0.388979
1.000000 0.743904 0.445444
1.000000 0.759239 0.501506
1.000000 0.791151 0.562860
1.000000 0.818952 0.631036
1.000000 0.846296 0.695949
1.000000 0.875700 0.753612
1.000000 0.898408 0.800199
0.000000 0.802787 0.276753
0.000000 0.802660 0.276809
0.000000 0.805352 0.276578
0.000000 0.805259 0.276617
0.000000 0.805116 0.273073
0.000000 0.804966 0.269531
0.000000 0.804861 0.265971
0.000000 0.804694 0.262434
0.000000 0.804122 0.259050
0.000000 0.803686 0.251991
0.000000 0.805632 0.244699
0.000000 0.801692 0.234524
0.000000 0.797374 0.224451
0.000000 0.792589 0.210826
0.296191 0.790151 0.200489
0.434278 0.789982 0.189668
0.556828 0.785925 0.175766
0.687262 0.774234 0.155869
0.780771 0.765972 0.125242
0.860120 0.763902 0.108092
0.918896 0.763244 0.105544
0.965227 0.764169 0.153836
1.000000 0.769852 0.223577
1.000000 0.771288 0.276069
1.000000 0.779069 0.338598
1.000000 0.785322 0.401551
1.000000 0.790347 0.464234
1.000000 0.803799 0.517847
1.000000 0.815311 0.577019
1.000000 0.833845 0.643198
1.000000 0.857829 0.707678
1.000000 0.882234 0.758588
1.000000 0.902224 0.804089
0.000000 0.858117 0.364062
0.000000 0.857988 0.360397
0.000000 0.857853 0.356732
0.000000 0.857706 0.356773
0.000000 0.857638 0.353087
0.000000 0.857483 0.353129
0.000000 0.857328 0.349465
0.000000 0.859169 0.345925
0.000000 0.858714 0.342336
0.000000 0.858229 0.335035
0.000000 0.857478 0.331519
0.000000 0.856396 0.328092
0.000000 0.855190 0.317244
0.000000 0.853678 0.306481
0.283346 0.851234 0.296126
0.421189 0.848623 0.285954
0.547198 0.842716 0.279927
0.667918 0.835600 0.263863
0.756862 0.831091 0.252380
0.836282 0.826495 0.235900
0.899316 0.818055 0.232517
0.950841 0.817394 0.229879
0.988893 0.820608 0.260353
1.000000 0.823004 0.320338
1.000000 0.824116 0.371718
1.000000 0.828280 0.433879
1.000000 0.833573 0.485660
1.000000 0.841965 0.542469
1.000000 0.848892 0.591815
1.000000 0.856208 0.655159
1.000000 0.871836 0.718534
1.000000 0.890562 0.767396
1.000000 0.908824 0.807137
0.000000 0.893701 0.433703
0.000000 0.893601 0.433722
0.000000 0.893407 0.430097
0.000000 0.893198 0.430137
0.000000 0.893092 0.430157
0.000000 0.892875 0.430198
0.000000 0.894662 0.426775
0.000000 0.894439 0.426818
0.000000 0.894103 0.423230
0.000000 0.893620 0.423325
0.000000 0.892990 0.419802
0.000000 0.892186 0.412676
0.000000 0.891013 0.405646
0.000000 0.891324 0.398980
0.303905 0.889349 0.388614
0.437956 0.888471 0.382410
0.570612 0.882808 0.368925
0.663071 0.877403 0.359305
0.751221 0.871424 0.347115
0.817573 0.869605 0.340159
0.883714 0.863868 0.334974
0.934266 0.860806 0.326037
0.975289 0.858706 0.324469
1.000000 0.858043 0.351984
1.000000 0.860049 0.405430
1.000000 0.864262 0.463070
1.000000 0.867656 0.514139
1.000000 0.872181 0.568078
1.000000 0.876826 0.613668
1.000000 0.882003 0.678110
1.000000 0.888486 0.725903
1.000000 0.901506 0.772475
1.000000 0.915415 0.810500
0.000000 0.922427 0.512753
0.000000 0.922298 0.512771
0.000000 0.923523 0.513133
0.000000 0.923391 0.513152
0.000000 0.923268 0.509552
0.000000 0.923268 0.509552
0.000000 0.922997 0.509591
0.000000 0.922858 0.509611
0.000000 0.922729 0.506016
0.000000 0.922164 0.502490
0.000000 0.921562 0.502581
0.000000 0.920942 0.499072
0.030294 0.919785 0.495659
0.263646 0.918562 0.485112
0.387865 0.916639 0.478327
0.487262 0.914323 0.468132
0.594462 0.910922 0.461896
0.674422 0.907769 0.452392
0.744515 0.903177 0.442970
0.809626 0.901160 0.435498
0.868699 0.897794 0.425609
0.920187 0.894694 0.415036
0.961982 0.892185 0.414278
0.991903 0.889376 0.414783
1.000000 0.890305 0.442914
1.000000 0.890394 0.491671
1.000000 0.892475 0.543978
1.000000 0.896742 0.591341
1.000000 0.900151 0.642649
1.000000 0.903935 0.695958
1.000000 0.908323 0.743688
1.000000 0.913463 0.782417
1.000000 0.924332 0.819103
0.000000 0.947623 0.604185
0.000000 0.947468 0.604200
0.000000 0.947312 0.604215
0.000000 0.947154 0.604230
0.000000 0.947167 0.600677
0.000000 0.946847 0.600709
0.000000 0.946684 0.600725
0.000000 0.946520 0.600742
0.000000 0.946354 0.600759
0.000000 0.946199 0.597227
0.157168 0.945700 0.593736
0.248440 0.945005 0.590273
0.334601 0.943906 0.586866
0.401248 0.941638 0.579529
0.482807 0.938653 0.572307
0.563532 0.936303 0.565670
0.625232 0.934177 0.555621
0.687848 0.931686 0.545880
0.747267 0.930144 0.537089
0.803467 0.927313 0.531882
0.860896 0.924154 0.524488
0.910019 0.918964 0.517663
0.949648 0.916589 0.507526
0.980341 0.915977 0.507041
1.000000 0.916235 0.507316
1.000000 0.915876 0.532146
1.000000 0.913815 0.572974
1.000000 0.916912 0.618301
1.000000 0.919336 0.670492
1.000000 0.923182 0.718790
1.000000 0.928195 0.759391
1.000000 0.931423 0.797428
1.000000 0.935735 0.828370
0.330456 0.962503 0.674688
0.342450 0.962317 0.674701
0.342450 0.962317 0.674701
0.354506 0.962144 0.671413
