Assets/Lutify-Free-LUTs-Pack/Lutify Free LUTs Pack/Cine World Pro Warm - Amy/Lutify.me-Amy-ACEScct-to-ACEScct.cube
# Created with: fylm.ai - Colour Grading and Collaboration Software in Cloud 
# Website: https://fylm.ai 
# META
# Option: Gamut compress
# Block 1: LUT | Filmic Curve Response: Standard Contrast 1 (100%)
# Block 2: LUT | Illuminant: D60 (100%)
# Block 3: hueSaturation | Blending Mode: Normal | {"hue":0,"saturation":-0.15}
# Block 4: logPrimaries | Blending Mode: Normal | {"wheels":{"shadows":{"Y":"0","R":"1","G":"1","B":"1"},"midtones":{"Y":"0","R":"1","G":"1","B":"1"},"highlights":{"Y":"0","R":"1","G":"1","B":"1"},"offset":{"Y":"0","R":"1","G":"1","B":"1"}},"sliders":{"shadows":{"Y":0,"R":-0.097,"G":0,"B":0.158},"midtones":{"Y":0,"R":0.024,"G":0.024,"B":-0.036},"highlights":{"Y":0,"R":0.154,"G":-0.084,"B":-0.024},"offset":{"Y":0.048,"R":0,"G":0,"B":0}}}
# Block 5: smartCurves | Blending Mode: Average | [[{"x":0,"y":0},{"x":0.11328125,"y":0.085540771484375},{"x":0.21484375,"y":0.218353271484375},{"x":0.37109375,"y":0.382415771484375},{"x":0.62109375,"y":0.589447021484375},{"x":0.8125,"y":0.765228271484375},{"x":1,"y":1}],[{"x":0,"y":0},{"x":1,"y":1}],[{"x":0,"y":0},{"x":1,"y":1}],[{"x":0,"y":0},{"x":1,"y":1}]]
# Block 6: LUT | Neutral Tint: Teal Tint 4 (100%)
# Block 7: contrast | Blending Mode: Normal | {"contrast":0.1}
TITLE "Lutify.me-Amy-ACEScct-to-ACEScct" 
LUT_3D_SIZE 9
0.017993 0.040516 0.075814
0.048637 0.049542 0.090385
0.238584 0.054967 0.084908
0.393071 0.076723 0.094036
0.508893 0.225822 0.156932
0.653391 0.392035 0.312885
0.787805 0.512032 0.450328
0.910528 0.632792 0.568450
1.000000 0.754490 0.711437
0.024293 0.070364 0.084908
0.042321 0.069458 0.093123
0.224841 0.071271 0.085821
0.389964 0.100438 0.095861
0.508893 0.239574 0.158804
0.653391 0.395143 0.313901
0.787805 0.513078 0.450328
0.910528 0.632792 0.568450
1.000000 0.754490 0.711437
0.028797 0.197723 0.091297
0.051350 0.191028 0.087646
0.221914 0.182438 0.092210
0.389964 0.184337 0.100438
0.507847 0.264450 0.162571
0.654416 0.399289 0.316952
0.788777 0.513078 0.451373
0.910528 0.632792 0.569493
1.000000 0.754490 0.711437
0.040516 0.344560 0.117891
0.068551 0.340463 0.108687
0.197723 0.340463 0.105937
0.396178 0.336366 0.109604
0.512032 0.351750 0.178641
0.655440 0.415928 0.322037
0.788777 0.516217 0.451373
0.909615 0.632792 0.569493
1.000000 0.754490 0.712446
0.135463 0.462871 0.290580
0.170112 0.462871 0.281503
0.214139 0.462871 0.271444
0.357934 0.463916 0.237595
0.515170 0.461825 0.199651
0.656464 0.477506 0.342512
0.789747 0.529813 0.455554
0.910528 0.636914 0.570536
1.000000 0.755479 0.712446
0.331245 0.584072 0.441981
0.338415 0.584072 0.440938
0.347633 0.584072 0.438852
0.388928 0.585112 0.431550
0.493199 0.588232 0.406568
0.655440 0.585112 0.372361
0.790710 0.598631 0.472277
0.909615 0.652367 0.575751
1.000000 0.758447 0.713454
0.480645 0.711437 0.567407
0.481691 0.711437 0.566363
0.482737 0.710428 0.565320
0.491107 0.709420 0.563234
0.522494 0.709420 0.555933
0.630730 0.712446 0.529813
0.790710 0.709420 0.500523
0.913266 0.721523 0.597592
1.000000 0.775159 0.720514
0.613143 0.820409 0.716480
0.613143 0.820409 0.716480
0.615215 0.820409 0.716480
0.616251 0.820409 0.715471
0.624537 0.820409 0.712446
0.658513 0.820409 0.703369
0.769276 0.821359 0.672852
0.914179 0.822308 0.628669
1.000000 0.832716 0.739546
0.752511 0.912354 0.847750
0.752511 0.912354 0.847750
0.753500 0.912354 0.847750
0.753500 0.912354 0.847750
0.755479 0.912354 0.846814
0.761416 0.912354 0.845878
0.796494 0.914179 0.839314
0.898645 0.916911 0.814710
1.000000 0.916911 0.775159
0.023393 0.050446 0.102271
0.051350 0.049542 0.098605
0.218999 0.056775 0.093123
0.381678 0.079451 0.104104
0.506800 0.226802 0.173896
0.653391 0.393071 0.318986
0.787805 0.513078 0.451373
0.910528 0.632792 0.569493
1.000000 0.754490 0.712446
0.024293 0.073995 0.118812
0.047734 0.070364 0.109604
0.205434 0.073995 0.096774
0.374427 0.105021 0.106854
0.506800 0.240563 0.175794
0.653391 0.395143 0.320003
0.787805 0.513078 0.451373
0.910528 0.632792 0.569493
1.000000 0.754490 0.712446
0.029698 0.196766 0.156932
0.045930 0.192940 0.128052
0.192940 0.188159 0.109604
0.374427 0.194853 0.117891
0.505754 0.265449 0.182438
0.653391 0.399289 0.321020
0.787805 0.513078 0.451373
0.910528 0.632792 0.569493
1.000000 0.754490 0.712446
0.042321 0.345584 0.206398
0.064018 0.344560 0.173896
0.176743 0.344560 0.146632
0.377535 0.343536 0.131754
0.509939 0.355873 0.199651
0.655440 0.415928 0.328172
0.788777 0.516217 0.452419
0.910528 0.632792 0.569493
1.000000 0.754490 0.712446
0.133605 0.464961 0.324075
0.166342 0.463916 0.316952
0.212195 0.463916 0.305766
0.354842 0.468096 0.270445
0.510985 0.464961 0.226802
0.655440 0.477506 0.348659
0.789747 0.529813 0.456599
0.910528 0.636914 0.570536
1.000000 0.755479 0.712446
0.330220 0.585112 0.446154
0.338415 0.584072 0.444067
0.346609 0.585112 0.443024
0.387892 0.585112 0.436766
0.493199 0.589272 0.410728
0.655440 0.586152 0.377535
0.790710 0.598631 0.473322
0.909615 0.652367 0.575751
1.000000 0.758447 0.713454
0.480645 0.711437 0.568450
0.481691 0.711437 0.568450
0.482737 0.711437 0.567407
0.491107 0.710428 0.564277
0.521448 0.709420 0.556976
0.630730 0.712446 0.530858
0.790710 0.709420 0.500523
0.913266 0.721523 0.597592
1.000000 0.775159 0.720514
0.613143 0.820409 0.716480
0.613143 0.820409 0.716480
0.615215 0.820409 0.716480
0.616251 0.820409 0.716480
0.624537 0.820409 0.713454
0.658513 0.820409 0.703369
0.769276 0.821359 0.672852
0.914179 0.822308 0.628669
1.000000 0.832716 0.739546
0.752511 0.912354 0.847750
0.752511 0.912354 0.847750
0.753500 0.912354 0.847750
0.753500 0.912354 0.847750
0.755479 0.912354 0.847750
0.761416 0.912354 0.845878
0.796494 0.914179 0.840256
0.898645 0.916911 0.814710
1.000000 0.916911 0.775159
0.024293 0.060392 0.173896
0.045027 0.056775 0.147567
0.197723 0.059488 0.147567
0.369270 0.083089 0.153186
0.504708 0.232685 0.202543
0.652367 0.393071 0.327148
0.787805 0.513078 0.452419
0.910528 0.632792 0.569493
1.000000 0.754490 0.712446
0.026996 0.088559 0.204470
0.042321 0.082180 0.190072
0.184337 0.080361 0.181489
0.364117 0.113287 0.168227
0.504708 0.247489 0.207362
0.652367 0.395143 0.328172
0.787805 0.513078 0.452419
0.910528 0.632792 0.569493
1.000000 0.754490 0.712446
0.033302 0.225822 0.274443
0.045930 0.213167 0.268447
0.169169 0.202543 0.241553
0.363086 0.200615 0.196766
0.501569 0.271444 0.211223
0.653391 0.400329 0.329196
0.787805 0.513078 0.452419
0.910528 0.632792 0.569493
1.000000 0.754490 0.712446
0.045930 0.356903 0.335342
0.065831 0.353812 0.318986
0.160686 0.351750 0.283520
0.362056 0.352781 0.232685
0.508893 0.356903 0.235626
0.654416 0.416968 0.335342
0.788777 0.516217 0.453464
0.910528 0.632792 0.569493
1.000000 0.754490 0.712446
0.131754 0.467051 0.363086
0.163514 0.466006 0.356903
0.206398 0.467051 0.343536
0.352781 0.470187 0.313901
0.508893 0.467051 0.264450
0.655440 0.478552 0.358964
0.789747 0.529813 0.457645
0.910528 0.636914 0.571579
1.000000 0.755479 0.712446
0.330220 0.585112 0.453464
0.337390 0.585112 0.452419
0.345584 0.585112 0.450328
0.387892 0.585112 0.444067
0.492153 0.589272 0.419048
0.654416 0.586152 0.386857
0.790710 0.598631 0.475414
0.909615 0.652367 0.576792
1.000000 0.758447 0.713454
0.480645 0.711437 0.570536
0.481691 0.711437 0.569493
0.482737 0.711437 0.569493
0.491107 0.710428 0.567407
0.521448 0.709420 0.558019
0.630730 0.712446 0.532949
0.790710 0.709420 0.502616
0.913266 0.721523 0.598631
1.000000 0.775159 0.720514
0.613143 0.820409 0.717488
0.613143 0.820409 0.717488
0.615215 0.820409 0.717488
0.616251 0.820409 0.716480
0.624537 0.820409 0.713454
0.658513 0.821359 0.703369
0.769276 0.821359 0.672852
0.914179 0.822308 0.629700
1.000000 0.832716 0.741545
0.752511 0.912354 0.847750
0.752511 0.912354 0.847750
0.753500 0.912354 0.847750
0.753500 0.912354 0.847750
0.755479 0.912354 0.847750
0.761416 0.912354 0.845878
0.796494 0.914179 0.840256
0.898645 0.916911 0.814710
1.000000 0.916911 0.775159
0.033302 0.101355 0.290580
0.055871 0.095861 0.270445
0.170112 0.089472 0.262452
0.361025 0.093123 0.264450
0.498431 0.240563 0.310851
0.650311 0.395143 0.361025
0.787805 0.513078 0.459735
0.910528 0.632792 0.571579
1.000000 0.754490 0.712446
0.036005 0.147567 0.313901
0.055871 0.135463 0.301698
0.159744 0.127126 0.296631
0.357934 0.128052 0.295623
0.499477 0.256457 0.316952
0.650311 0.397214 0.361025
0.787805 0.513078 0.459735
0.910528 0.632792 0.571579
1.000000 0.754490 0.712446
0.041418 0.249468 0.358964
0.056775 0.236607 0.348659
0.146632 0.228763 0.347633
0.354842 0.219971 0.338415
0.500523 0.279486 0.324075
0.651341 0.402409 0.363086
0.787805 0.513078 0.460780
0.910528 0.632792 0.571579
1.000000 0.754490 0.712446
0.048637 0.378570 0.415928
0.061299 0.374427 0.409688
0.143840 0.367208 0.406568
0.343536 0.367208 0.394107
0.502616 0.368239 0.353812
0.652367 0.419048 0.369270
0.787805 0.517263 0.460780
0.910528 0.632792 0.571579
1.000000 0.754490 0.712446
0.124350 0.472277 0.452419
0.152250 0.473322 0.449283
0.196766 0.474368 0.444067
0.339439 0.475414 0.422168
0.499477 0.476460 0.385821
0.652367 0.480645 0.389964
0.788777 0.529813 0.464961
0.910528 0.636914 0.571579
1.000000 0.755479 0.712446
0.327148 0.589272 0.484830
0.336366 0.589272 0.482737
0.343536 0.590312 0.481691
0.384785 0.587192 0.472277
0.491107 0.591352 0.449283
0.651341 0.588232 0.416968
0.789747 0.598631 0.482737
0.909615 0.652367 0.577832
1.000000 0.758447 0.714463
0.479598 0.711437 0.579912
0.481691 0.711437 0.579912
0.481691 0.712446 0.579912
0.491107 0.712446 0.576792
0.521448 0.710428 0.566363
0.630730 0.712446 0.540265
0.790710 0.710428 0.509939
0.913266 0.721523 0.600711
1.000000 0.775159 0.720514
0.613143 0.820409 0.719506
0.613143 0.820409 0.719506
0.615215 0.820409 0.719506
0.616251 0.820409 0.718497
0.624537 0.820409 0.715471
0.658513 0.821359 0.705386
0.768296 0.821359 0.673877
0.914179 0.823257 0.631761
1.000000 0.832716 0.741545
0.752511 0.912354 0.847750
0.752511 0.912354 0.847750
0.752511 0.912354 0.847750
0.753500 0.912354 0.847750
0.755479 0.912354 0.847750
0.761416 0.912354 0.846814
0.796494 0.914179 0.840256
0.898645 0.916911 0.815663
1.000000 0.916911 0.775159
0.110525 0.280494 0.420088
0.136394 0.277469 0.421128
0.182438 0.274443 0.420088
0.339439 0.266448 0.422168
0.491107 0.261453 0.420088
0.641036 0.404488 0.446154
0.784889 0.513078 0.484830
0.910528 0.632792 0.578872
1.000000 0.754490 0.714463
0.111446 0.292597 0.426335
0.136394 0.289571 0.427378
0.182438 0.286546 0.425292
0.338415 0.281503 0.428421
0.492153 0.275452 0.425292
0.641036 0.405528 0.447197
0.784889 0.514124 0.484830
0.910528 0.632792 0.578872
1.000000 0.754490 0.714463
0.112367 0.312885 0.435723
0.138255 0.311868 0.436766
0.180540 0.308817 0.435723
0.336366 0.302715 0.438852
0.492153 0.296631 0.432593
0.641036 0.408648 0.448240
0.784889 0.515170 0.485876
0.910528 0.632792 0.578872
1.000000 0.754490 0.714463
0.110525 0.387892 0.473322
0.133605 0.388928 0.473322
0.177692 0.386857 0.472277
0.327148 0.384785 0.474368
0.491107 0.378570 0.464961
0.642066 0.426335 0.452419
0.785861 0.518309 0.486922
0.910528 0.633822 0.578872
1.000000 0.755479 0.714463
0.110525 0.491107 0.532949
0.133605 0.489015 0.531904
0.175794 0.489015 0.531904
0.322037 0.489015 0.528768
0.479598 0.486922 0.512032
0.644127 0.487968 0.474368
0.786833 0.531904 0.491107
0.909615 0.637944 0.579912
1.000000 0.755479 0.714463
0.313901 0.596552 0.575751
0.322037 0.596552 0.574708
0.334318 0.595512 0.572622
0.374427 0.596552 0.567407
0.481691 0.598631 0.541310
0.637944 0.596552 0.504708
0.787805 0.599671 0.509939
0.909615 0.653391 0.585112
1.000000 0.759437 0.716480
0.478552 0.713454 0.614179
0.479598 0.713454 0.614179
0.481691 0.713454 0.613143
0.487968 0.714463 0.610036
0.519355 0.715471 0.601750
0.627639 0.714463 0.570536
0.786833 0.715471 0.538175
0.913266 0.722531 0.606929
1.000000 0.775159 0.723540
0.612108 0.820409 0.726558
0.613143 0.820409 0.726558
0.613143 0.820409 0.726558
0.616251 0.820409 0.726558
0.623501 0.820409 0.723540
0.657488 0.821359 0.714463
0.768296 0.822308 0.684065
0.913266 0.823257 0.640005
1.000000 0.832716 0.743543
0.752511 0.912354 0.850560
0.752511 0.912354 0.850560
0.752511 0.912354 0.850560
0.753500 0.912354 0.850560
0.755479 0.912354 0.848687
0.761416 0.913266 0.847750
0.796494 0.914179 0.842132
0.898645 0.917820 0.817562
1.000000 0.916911 0.776139
0.301698 0.424249 0.548626
0.307800 0.423208 0.548626
0.321020 0.423208 0.549672
0.363086 0.421128 0.551760
0.478552 0.419048 0.552803
0.631761 0.415928 0.544446
0.781001 0.521448 0.567407
0.907790 0.633822 0.606929
1.000000 0.755479 0.722531
0.301698 0.426335 0.550717
0.307800 0.426335 0.550717
0.321020 0.425292 0.551760
0.363086 0.423208 0.552803
0.478552 0.421128 0.553846
0.631761 0.418008 0.544446
0.781001 0.522494 0.567407
0.907790 0.633822 0.606929
1.000000 0.755479 0.722531
0.301698 0.430507 0.553846
0.307800 0.430507 0.553846
0.320003 0.429464 0.554889
0.363086 0.427378 0.555933
0.478552 0.425292 0.555933
0.632792 0.421128 0.546536
0.781001 0.523540 0.567407
0.907790 0.634853 0.606929
1.000000 0.755479 0.722531
0.298649 0.445111 0.564277
0.305766 0.445111 0.564277
0.317969 0.445111 0.564277
0.363086 0.443024 0.565320
0.477506 0.440938 0.564277
0.632792 0.434680 0.554889
0.781001 0.526678 0.568450
0.907790 0.634853 0.606929
1.000000 0.755479 0.722531
0.295623 0.504708 0.606929
0.303732 0.504708 0.606929
0.315935 0.505754 0.607965
0.358964 0.505754 0.607965
0.473322 0.502616 0.603822
0.632792 0.500523 0.589272
0.780029 0.540265 0.573665
0.907790 0.638975 0.609000
1.000000 0.756468 0.723540
0.293606 0.614179 0.678980
0.301698 0.614179 0.677963
0.313901 0.613143 0.677963
0.357934 0.613143 0.675925
0.471232 0.612108 0.668755
0.621430 0.611072 0.643097
0.781001 0.607965 0.599671
0.907790 0.654416 0.615215
1.000000 0.759437 0.723540
0.471232 0.721523 0.719506
0.472277 0.721523 0.719506
0.473322 0.721523 0.718497
0.481691 0.720514 0.716480
0.512032 0.720514 0.709420
0.617287 0.723540 0.684065
0.776139 0.723540 0.638975
0.911441 0.724548 0.640005
1.000000 0.776139 0.729555
0.610036 0.821359 0.759437
0.610036 0.821359 0.758447
0.611072 0.821359 0.758447
0.612108 0.821359 0.758447
0.621430 0.821359 0.756468
0.655440 0.822308 0.748539
0.766335 0.826105 0.718497
0.910528 0.826105 0.673877
1.000000 0.833658 0.752511
0.751521 0.912354 0.856160
0.751521 0.912354 0.856160
0.751521 0.912354 0.856160
0.752511 0.912354 0.856160
0.754490 0.912354 0.855230
0.763393 0.913266 0.854299
0.795530 0.914179 0.847750
0.896812 0.918730 0.824206
1.000000 0.916911 0.783917
0.457645 0.543401 0.702360
0.458690 0.543401 0.702360
0.461825 0.543401 0.702360
0.470187 0.543401 0.703369
0.501569 0.540265 0.702360
0.611072 0.537129 0.700336
0.771237 0.535039 0.689149
0.905052 0.643097 0.710428
1.000000 0.757458 0.753500
0.457645 0.543401 0.702360
0.458690 0.543401 0.702360
0.461825 0.543401 0.703369
0.470187 0.543401 0.703369
0.501569 0.540265 0.703369
0.611072 0.538175 0.700336
0.771237 0.535039 0.689149
0.905052 0.643097 0.710428
1.000000 0.757458 0.753500
0.457645 0.544446 0.703369
0.458690 0.544446 0.703369
0.461825 0.544446 0.703369
0.470187 0.543401 0.703369
0.501569 0.541310 0.703369
0.611072 0.538175 0.702360
0.771237 0.536084 0.690166
0.905052 0.643097 0.710428
1.000000 0.757458 0.753500
0.456599 0.547581 0.705386
0.458690 0.547581 0.705386
0.461825 0.547581 0.705386
0.470187 0.547581 0.705386
0.501569 0.544446 0.704377
0.610036 0.541310 0.703369
0.771237 0.539220 0.692200
0.905052 0.644127 0.711437
1.000000 0.758447 0.753500
0.455554 0.559062 0.715471
0.457645 0.559062 0.715471
0.460780 0.560105 0.715471
0.469142 0.560105 0.716480
0.501569 0.558019 0.715471
0.610036 0.556976 0.711437
0.772217 0.553846 0.702360
0.905964 0.647219 0.712446
1.000000 0.758447 0.754490
0.457645 0.627639 0.757458
0.458690 0.627639 0.757458
0.461825 0.627639 0.757458
0.468096 0.626608 0.757458
0.500523 0.627639 0.756468
0.607965 0.625573 0.753500
0.770256 0.622465 0.735550
0.906877 0.662610 0.718497
1.000000 0.763393 0.755479
0.458690 0.736549 0.817562
0.460780 0.736549 0.817562
0.462871 0.736549 0.817562
0.470187 0.736549 0.815663
0.500523 0.735550 0.814710
0.603822 0.733552 0.805147
0.761416 0.735550 0.782945
0.907790 0.734551 0.746540
1.000000 0.778086 0.760426
0.600711 0.828946 0.844941
0.601750 0.828946 0.844941
0.601750 0.828946 0.844941
0.603822 0.828946 0.844941
0.612108 0.828946 0.844005
0.646188 0.830831 0.840256
0.758447 0.831773 0.821359
0.904139 0.834601 0.784889
1.000000 0.835544 0.783917
0.746540 0.913266 0.883029
0.747540 0.913266 0.883029
0.747540 0.913266 0.883029
0.747540 0.913266 0.883029
0.750532 0.914179 0.883029
0.757458 0.914179 0.882109
0.794566 0.916911 0.875650
0.895896 0.919639 0.852433
1.000000 0.918730 0.815663
0.590312 0.665682 0.835544
0.590312 0.665682 0.835544
0.591352 0.665682 0.835544
0.593432 0.665682 0.835544
0.600711 0.665682 0.835544
0.636914 0.663634 0.834601
0.752511 0.659537 0.835544
0.900478 0.656464 0.826105
1.000000 0.764374 0.843068
0.590312 0.665682 0.835544
0.590312 0.665682 0.835544
0.591352 0.665682 0.835544
0.593432 0.666707 0.835544
0.600711 0.665682 0.835544
0.636914 0.663634 0.834601
0.752511 0.659537 0.835544
0.900478 0.656464 0.826105
1.000000 0.764374 0.843068
0.590312 0.666707 0.835544
0.590312 0.666707 0.835544
0.591352 0.666707 0.835544
0.593432 0.666707 0.835544
0.600711 0.666707 0.835544
0.636914 0.663634 0.835544
0.752511 0.659537 0.835544
0.900478 0.656464 0.826105
1.000000 0.764374 0.843068
0.590312 0.667731 0.836486
0.590312 0.667731 0.836486
0.591352 0.667731 0.836486
0.593432 0.667731 0.836486
0.600711 0.666707 0.835544
0.636914 0.664658 0.835544
0.752511 0.660561 0.836486
0.900478 0.657488 0.827054
1.000000 0.764374 0.843068
0.590312 0.669779 0.837429
0.590312 0.670804 0.837429
0.591352 0.670804 0.837429
0.592392 0.670804 0.837429
0.600711 0.669779 0.837429
0.636914 0.668755 0.836486
0.753500 0.664658 0.837429
0.900478 0.660561 0.828003
1.000000 0.764374 0.844005
0.591352 0.685082 0.844941
0.592392 0.685082 0.844941
0.592392 0.685082 0.844941
0.594472 0.685082 0.844941
0.600711 0.685082 0.844941
0.634853 0.683048 0.844941
0.754490 0.679997 0.844941
0.899562 0.675925 0.833658
1.000000 0.768296 0.844941
0.590312 0.749538 0.878425
0.590312 0.749538 0.878425
0.590312 0.749538 0.878425
0.592392 0.749538 0.878425
0.599671 0.749538 0.879346
0.632792 0.750532 0.879346
0.747540 0.748539 0.875650
0.899562 0.746540 0.861745
1.000000 0.785861 0.850560
0.587192 0.840256 0.920549
0.587192 0.840256 0.920549
0.588232 0.840256 0.920549
0.590312 0.839314 0.920549
0.599671 0.840256 0.919639
0.631761 0.841196 0.919639
0.744542 0.842132 0.915092
0.890396 0.844005 0.898645
1.000000 0.843068 0.871023
0.737548 0.919639 0.945033
0.737548 0.919639 0.945033
0.737548 0.919639 0.945033
0.737548 0.919639 0.945033
0.739546 0.919639 0.945033
0.749538 0.919639 0.944129
0.784889 0.921458 0.941416
0.888554 0.922367 0.926915
1.000000 0.924186 0.899562
0.726558 0.785861 0.942320
0.726558 0.785861 0.942320
0.726558 0.785861 0.942320
0.727557 0.785861 0.942320
0.729555 0.784889 0.942320
0.739546 0.784889 0.941416
0.775159 0.783917 0.941416
0.881188 0.781973 0.941416
1.000000 0.775159 0.933262
0.726558 0.785861 0.942320
0.726558 0.785861 0.942320
0.726558 0.785861 0.942320
0.727557 0.785861 0.942320
0.729555 0.784889 0.942320
0.739546 0.784889 0.941416
0.775159 0.783917 0.941416
0.881188 0.781973 0.941416
1.000000 0.775159 0.933262
0.726558 0.785861 0.942320
0.726558 0.785861 0.942320
0.726558 0.785861 0.942320
0.727557 0.785861 0.942320
0.729555 0.785861 0.942320
0.739546 0.784889 0.941416
0.775159 0.783917 0.941416
0.881188 0.781973 0.941416
1.000000 0.775159 0.933262
0.726558 0.785861 0.942320
0.726558 0.785861 0.942320
0.726558 0.785861 0.942320
0.727557 0.785861 0.942320
0.729555 0.785861 0.942320
0.739546 0.784889 0.941416
0.775159 0.784889 0.941416
0.881188 0.781973 0.941416
1.000000 0.776139 0.933262
0.726558 0.786833 0.942320
0.726558 0.786833 0.942320
0.726558 0.786833 0.942320
0.726558 0.786833 0.942320
0.728556 0.786833 0.942320
0.738547 0.785861 0.942320
0.775159 0.784889 0.941416
0.881188 0.782945 0.941416
1.000000 0.776139 0.933262
0.726558 0.790710 0.944129
0.726558 0.790710 0.945033
0.726558 0.790710 0.945033
0.726558 0.789747 0.945033
0.728556 0.789747 0.945033
0.738547 0.789747 0.944129
0.775159 0.788777 0.944129
0.881188 0.786833 0.942320
1.000000 0.781001 0.935075
0.727557 0.804191 0.950458
0.727557 0.804191 0.950458
0.727557 0.804191 0.950458
0.728556 0.804191 0.950458
0.729555 0.804191 0.950458
0.738547 0.803234 0.950458
0.773198 0.802277 0.951363
0.881188 0.802277 0.947746
1.000000 0.796494 0.940512
0.725557 0.853368 0.976607
0.725557 0.853368 0.976607
0.725557 0.853368 0.976607
0.725557 0.853368 0.976607
0.727557 0.853368 0.974806
0.737548 0.854299 0.974806
0.770256 0.853368 0.974806
0.879346 0.853368 0.972104
1.000000 0.853368 0.960386
0.719506 0.927822 0.987407
0.719506 0.927822 0.987407
0.719506 0.927822 0.987407
0.719506 0.927822 0.987407
0.722531 0.927822 0.987407
0.730554 0.927822 0.989206
0.766335 0.928729 0.991005
0.875650 0.932355 0.996402
0.999101 0.934169 0.991905
