Assets/Lutify-Free-LUTs-Pack/Lutify Free LUTs Pack/Cine World Pro Warm - Amy/Lutify.me-Amy-LogC4-to-Rec709.cube
# Created with: fylm.ai - Colour Grading and Collaboration Software in Cloud 
# Website: https://fylm.ai 
# META
# Option: Gamut compress
# Block 1: IDT | Arri Alexa 35 - LogC4
# Block 2: colourMatch | Blending Mode: Normal | {"ColorSpace":0,"CrossCovarianceLimit":50,"ReshapingIterations":1,"PercentSaturationShift":100,"PercentShadingShift":100,"ExtraShading":true,"PercentTint":100,"PercentModified":100}
# Block 3: LUT | Filmic Curve Response: Standard Contrast 1 (100%)
# Block 4: LUT | Illuminant: D60 (100%)
# Block 5: hueSaturation | Blending Mode: Normal | {"hue":0,"saturation":-0.15}
# Block 6: logPrimaries | Blending Mode: Normal | {"wheels":{"shadows":{"Y":"0","R":"1","G":"1","B":"1"},"midtones":{"Y":"0","R":"1","G":"1","B":"1"},"highlights":{"Y":"0","R":"1","G":"1","B":"1"},"offset":{"Y":"0","R":"1","G":"1","B":"1"}},"sliders":{"shadows":{"Y":0,"R":-0.097,"G":0,"B":0.158},"midtones":{"Y":0,"R":0.024,"G":0.024,"B":-0.036},"highlights":{"Y":0,"R":0.154,"G":-0.084,"B":-0.024},"offset":{"Y":0.048,"R":0,"G":0,"B":0}}}
# Block 7: smartCurves | Blending Mode: Average | [[{"x":0,"y":0},{"x":0.11328125,"y":0.085540771484375},{"x":0.21484375,"y":0.218353271484375},{"x":0.37109375,"y":0.382415771484375},{"x":0.62109375,"y":0.589447021484375},{"x":0.8125,"y":0.765228271484375},{"x":1,"y":1}],[{"x":0,"y":0},{"x":1,"y":1}],[{"x":0,"y":0},{"x":1,"y":1}],[{"x":0,"y":0},{"x":1,"y":1}]]
# Block 8: LUT | Neutral Tint: Teal Tint 4 (100%)
# Block 9: contrast | Blending Mode: Normal | {"contrast":0.1}
# Block 10: ODT | Rec709
TITLE "Lutify.me-Amy-LogC4-to-Rec709" 
LUT_3D_SIZE 9
0.000000 0.000000 0.000000
0.091716 0.000000 0.000000
0.486360 0.000000 0.000000
0.868656 0.000000 0.000000
1.000000 0.070291 0.202056
1.000000 0.693797 0.540697
1.000000 0.914361 0.856407
1.000000 0.982624 0.966408
1.000000 1.000000 1.000000
0.000000 0.052324 0.000000
0.053800 0.031291 0.000000
0.441653 0.000000 0.000000
0.864359 0.000000 0.000000
1.000000 0.165386 0.202799
1.000000 0.698219 0.543044
1.000000 0.915015 0.856408
1.000000 0.982624 0.966408
1.000000 1.000000 1.000000
0.000000 0.291187 0.000000
0.000000 0.271793 0.000000
0.479736 0.206235 0.000000
0.868725 0.000000 0.000000
1.000000 0.306916 0.208228
1.000000 0.713611 0.547524
1.000000 0.916314 0.857565
1.000000 0.982624 0.966408
1.000000 1.000000 1.000000
0.000000 0.628358 0.000000
0.000000 0.635705 0.000000
0.000000 0.632618 0.000000
0.845766 0.576778 0.000000
1.000000 0.600620 0.221010
1.000000 0.763637 0.569031
1.000000 0.920131 0.858862
1.000000 0.983334 0.966817
1.000000 1.000000 1.000000
0.000000 0.924366 0.488291
0.000000 0.921049 0.469529
0.000000 0.920559 0.437769
0.555290 0.908568 0.347685
1.000000 0.877858 0.290368
1.000000 0.886607 0.626670
1.000000 0.935428 0.865963
1.000000 0.985194 0.968040
1.000000 1.000000 1.000000
0.000000 1.000000 0.840869
0.000000 1.000000 0.839093
0.232248 1.000000 0.833929
0.576648 0.996854 0.808577
0.905169 0.983948 0.761441
1.000000 0.975571 0.742508
1.000000 0.977555 0.893760
1.000000 0.990142 0.971857
1.000000 1.000000 1.000000
0.800413 1.000000 0.973636
0.802117 1.000000 0.973163
0.811023 1.000000 0.972695
0.839225 1.000000 0.970186
0.898567 1.000000 0.961649
0.990486 1.000000 0.944377
1.000000 1.000000 0.929837
1.000000 1.000000 0.982024
1.000000 1.000000 1.000000
0.952121 1.000000 1.000000
0.952693 1.000000 1.000000
0.953273 1.000000 1.000000
0.955520 1.000000 1.000000
0.963521 1.000000 1.000000
0.983307 1.000000 1.000000
1.000000 1.000000 0.997535
1.000000 1.000000 0.991944
1.000000 1.000000 1.000000
0.995738 1.000000 1.000000
0.995738 1.000000 1.000000
0.995738 1.000000 1.000000
0.996383 1.000000 1.000000
0.997424 1.000000 1.000000
1.000000 1.000000 1.000000
1.000000 1.000000 1.000000
1.000000 1.000000 1.000000
1.000000 1.000000 1.000000
0.000000 0.000000 0.042666
0.037903 0.000000 0.019951
0.407408 0.000000 0.006053
0.848482 0.000000 0.047647
1.000000 0.079087 0.219084
1.000000 0.692386 0.547250
1.000000 0.914354 0.857561
1.000000 0.982624 0.966408
1.000000 1.000000 1.000000
0.000000 0.049056 0.071721
0.000000 0.029740 0.052604
0.360387 0.000000 0.031800
0.844082 0.000000 0.056117
1.000000 0.162515 0.222092
1.000000 0.696846 0.549637
1.000000 0.915008 0.857561
1.000000 0.982624 0.966408
1.000000 1.000000 1.000000
0.000000 0.301759 0.149940
0.000000 0.288746 0.036398
0.351821 0.259222 0.000000
0.856518 0.088183 0.036162
1.000000 0.305586 0.227887
1.000000 0.713558 0.557867
1.000000 0.916307 0.858713
1.000000 0.982624 0.966408
1.000000 1.000000 1.000000
0.000000 0.635681 0.243280
0.000000 0.646818 0.171730
0.000000 0.647938 0.000000
0.819093 0.598393 0.000000
1.000000 0.599748 0.253611
1.000000 0.763613 0.574307
1.000000 0.920131 0.858862
1.000000 0.983334 0.966817
1.000000 1.000000 1.000000
0.000000 0.924275 0.528593
0.000000 0.923932 0.510343
0.000000 0.920579 0.473960
0.539745 0.908956 0.386034
0.997728 0.879374 0.330451
1.000000 0.886577 0.634715
1.000000 0.935428 0.865963
1.000000 0.985194 0.968040
1.000000 1.000000 1.000000
0.000000 1.000000 0.847716
0.000000 1.000000 0.845993
0.231009 1.000000 0.837472
0.570807 0.996987 0.814395
0.903376 0.984020 0.765719
1.000000 0.975555 0.746172
1.000000 0.977550 0.894636
1.000000 0.990142 0.971857
1.000000 1.000000 1.000000
0.800390 1.000000 0.974099
0.802071 1.000000 0.974093
0.810997 1.000000 0.973165
0.839195 1.000000 0.970678
0.898529 1.000000 0.962209
0.990444 1.000000 0.945023
1.000000 1.000000 0.930427
1.000000 1.000000 0.982024
1.000000 1.000000 1.000000
0.952121 1.000000 1.000000
0.952693 1.000000 1.000000
0.953273 1.000000 1.000000
0.955520 1.000000 1.000000
0.963514 1.000000 1.000000
0.983307 1.000000 1.000000
1.000000 1.000000 0.997535
1.000000 1.000000 0.991944
1.000000 1.000000 1.000000
0.995738 1.000000 1.000000
0.995738 1.000000 1.000000
0.995738 1.000000 1.000000
0.996383 1.000000 1.000000
0.997424 1.000000 1.000000
1.000000 1.000000 1.000000
1.000000 1.000000 1.000000
1.000000 1.000000 1.000000
1.000000 1.000000 1.000000
0.000000 0.000000 0.208495
0.000000 0.000000 0.077703
0.382220 0.000000 0.065027
0.812986 0.000000 0.151657
1.000000 0.063588 0.284911
1.000000 0.690871 0.572524
1.000000 0.914338 0.859859
1.000000 0.982621 0.966820
1.000000 1.000000 1.000000
0.000000 0.040564 0.240951
0.000000 0.027778 0.161659
0.327316 0.000000 0.133336
0.808964 0.000000 0.182130
1.000000 0.160431 0.288435
1.000000 0.694461 0.576096
1.000000 0.914170 0.858840
1.000000 0.982621 0.966820
1.000000 1.000000 1.000000
0.000000 0.366808 0.455999
0.000000 0.327829 0.413143
0.206430 0.295829 0.360421
0.810271 0.132704 0.252043
1.000000 0.297181 0.305036
1.000000 0.712212 0.583500
1.000000 0.915499 0.858840
1.000000 0.982859 0.966819
1.000000 1.000000 1.000000
0.000000 0.668342 0.574253
0.000000 0.664711 0.533106
0.000000 0.666903 0.433721
0.751040 0.634071 0.317306
1.000000 0.598429 0.352795
1.000000 0.762678 0.597611
1.000000 0.920833 0.863276
1.000000 0.983331 0.967227
1.000000 1.000000 1.000000
0.000000 0.926788 0.665474
0.000000 0.927879 0.647415
0.000000 0.924728 0.603130
0.501290 0.912378 0.510725
0.992015 0.880797 0.435273
1.000000 0.886108 0.663011
1.000000 0.935408 0.869256
1.000000 0.985192 0.968443
1.000000 1.000000 1.000000
0.000000 1.000000 0.869981
0.000000 1.000000 0.868477
0.205392 1.000000 0.859175
0.564164 0.997472 0.836779
0.900242 0.984467 0.790831
1.000000 0.975469 0.765634
1.000000 0.977536 0.897253
1.000000 0.990142 0.971857
1.000000 1.000000 1.000000
0.801014 1.000000 0.976365
0.801014 1.000000 0.976365
0.810903 1.000000 0.975002
0.837567 1.000000 0.972606
0.898343 1.000000 0.964934
0.990210 1.000000 0.947676
1.000000 1.000000 0.931791
1.000000 1.000000 0.982607
1.000000 1.000000 1.000000
0.952116 1.000000 1.000000
0.952688 1.000000 1.000000
0.953263 1.000000 1.000000
0.955680 1.000000 1.000000
0.963514 1.000000 1.000000
0.983297 1.000000 1.000000
1.000000 1.000000 0.997700
1.000000 1.000000 0.992139
1.000000 1.000000 1.000000
0.995738 1.000000 1.000000
0.995738 1.000000 1.000000
0.995738 1.000000 1.000000
0.996383 1.000000 1.000000
0.997424 1.000000 1.000000
1.000000 1.000000 1.000000
1.000000 1.000000 1.000000
1.000000 1.000000 1.000000
1.000000 1.000000 1.000000
0.000000 0.030849 0.338077
0.000000 0.026646 0.266305
0.262780 0.000000 0.230721
0.846801 0.000000 0.161494
1.000000 0.000000 0.484906
1.000000 0.683989 0.643590
1.000000 0.912770 0.869141
1.000000 0.982495 0.967918
1.000000 1.000000 1.000000
0.000000 0.096763 0.437697
0.000000 0.082331 0.370677
0.224306 0.000000 0.349789
0.782779 0.000000 0.284106
1.000000 0.034497 0.500766
1.000000 0.686290 0.646449
1.000000 0.913435 0.869133
1.000000 0.982492 0.968327
1.000000 1.000000 1.000000
0.000000 0.315233 0.626329
0.000000 0.279278 0.571704
0.000000 0.251619 0.561419
0.792686 0.000000 0.512955
1.000000 0.271241 0.532049
1.000000 0.703616 0.655422
1.000000 0.915423 0.870228
1.000000 0.982847 0.968451
1.000000 1.000000 1.000000
0.000000 0.753786 0.836587
0.000000 0.715566 0.808337
0.000000 0.692741 0.793849
0.612597 0.655335 0.742702
1.000000 0.597279 0.616551
1.000000 0.759779 0.678539
1.000000 0.920035 0.873495
1.000000 0.983319 0.968851
1.000000 1.000000 1.000000
0.000000 0.932861 0.882061
0.000000 0.932620 0.877280
0.000000 0.931193 0.865367
0.345700 0.923076 0.805519
0.960879 0.890762 0.715668
1.000000 0.885261 0.737661
1.000000 0.935835 0.880621
1.000000 0.985180 0.970038
1.000000 1.000000 1.000000
0.000000 1.000000 0.919278
0.000000 1.000000 0.917125
0.000000 1.000000 0.913758
0.536284 1.000000 0.896132
0.889821 0.984988 0.853578
1.000000 0.977113 0.816212
1.000000 0.977493 0.905013
1.000000 0.990132 0.973352
1.000000 1.000000 1.000000
0.797490 1.000000 0.980894
0.799171 1.000000 0.980888
0.807436 1.000000 0.980467
0.834718 1.000000 0.977968
0.895697 1.000000 0.971547
0.988879 1.000000 0.955526
1.000000 1.000000 0.938895
1.000000 1.000000 0.983469
1.000000 1.000000 1.000000
0.952303 1.000000 1.000000
0.952303 1.000000 1.000000
0.952874 1.000000 1.000000
0.955658 1.000000 1.000000
0.963541 1.000000 1.000000
0.983268 1.000000 1.000000
1.000000 1.000000 0.998191
1.000000 1.000000 0.992908
1.000000 1.000000 1.000000
0.995738 1.000000 1.000000
0.995738 1.000000 1.000000
0.995738 1.000000 1.000000
0.996168 1.000000 1.000000
0.997417 1.000000 1.000000
1.000000 1.000000 1.000000
1.000000 1.000000 1.000000
1.000000 1.000000 1.000000
1.000000 1.000000 1.000000
0.000000 0.220432 0.682362
0.000000 0.214539 0.678768
0.000000 0.199564 0.671297
0.698688 0.000000 0.648948
1.000000 0.000000 0.507103
1.000000 0.662625 0.822383
1.000000 0.911045 0.895916
1.000000 0.982222 0.972320
1.000000 1.000000 1.000000
0.000000 0.258888 0.714795
0.000000 0.252189 0.715012
0.000000 0.240825 0.711385
0.688270 0.000000 0.693310
1.000000 0.000000 0.592879
1.000000 0.667492 0.824217
1.000000 0.911045 0.895916
1.000000 0.982462 0.972315
1.000000 1.000000 1.000000
0.000000 0.363647 0.788161
0.000000 0.351667 0.788660
0.000000 0.344202 0.791750
0.657965 0.247434 0.783320
1.000000 0.000000 0.726676
1.000000 0.685665 0.833663
1.000000 0.912394 0.896867
1.000000 0.982462 0.972315
1.000000 1.000000 1.000000
0.000000 0.667249 0.901263
0.000000 0.667198 0.902824
0.000000 0.644180 0.904119
0.476970 0.607923 0.897040
1.000000 0.499617 0.857071
1.000000 0.749685 0.849813
1.000000 0.918815 0.899877
1.000000 0.983178 0.972689
1.000000 1.000000 1.000000
0.000000 0.960342 0.969887
0.000000 0.952543 0.968500
0.000000 0.944920 0.966938
0.000000 0.933376 0.961779
0.916682 0.899471 0.936715
1.000000 0.885383 0.893641
1.000000 0.934534 0.908300
1.000000 0.985153 0.973898
1.000000 1.000000 1.000000
0.000000 1.000000 0.986983
0.000000 1.000000 0.986946
0.000000 1.000000 0.984790
0.435623 1.000000 0.979518
0.855412 0.988514 0.961262
1.000000 0.979300 0.931988
1.000000 0.977998 0.931401
1.000000 0.990105 0.977284
1.000000 1.000000 1.000000
0.790718 1.000000 0.993638
0.792394 1.000000 0.993631
0.798986 1.000000 0.993076
0.824704 1.000000 0.991590
0.888913 1.000000 0.986724
0.985838 1.000000 0.974919
1.000000 1.000000 0.958874
1.000000 1.000000 0.986815
1.000000 1.000000 1.000000
0.950547 1.000000 1.000000
0.951122 1.000000 1.000000
0.951693 1.000000 1.000000
0.954596 1.000000 1.000000
0.962469 1.000000 1.000000
0.982821 1.000000 1.000000
1.000000 1.000000 1.000000
1.000000 1.000000 0.995458
1.000000 1.000000 1.000000
0.995502 1.000000 1.000000
0.995502 1.000000 1.000000
0.995502 1.000000 1.000000
0.996112 1.000000 1.000000
0.997183 1.000000 1.000000
1.000000 1.000000 1.000000
1.000000 1.000000 1.000000
1.000000 1.000000 1.000000
1.000000 1.000000 1.000000
0.000000 0.551694 0.948906
0.000000 0.547688 0.950186
0.000000 0.537741 0.947951
0.451312 0.512631 0.946937
1.000000 0.375807 0.938923
1.000000 0.442458 0.880590
1.000000 0.902660 0.965471
1.000000 0.981517 0.983902
1.000000 1.000000 1.000000
0.000000 0.566518 0.951497
0.000000 0.562528 0.953838
0.000000 0.552555 0.950591
0.444553 0.524123 0.949818
1.000000 0.398851 0.940679
1.000000 0.458041 0.891491
1.000000 0.902660 0.965471
1.000000 0.981517 0.983902
1.000000 1.000000 1.000000
0.000000 0.611213 0.959554
0.000000 0.607195 0.960716
0.000000 0.597460 0.959840
0.389586 0.574764 0.958137
1.000000 0.470327 0.951808
1.000000 0.509511 0.910144
1.000000 0.904790 0.965932
1.000000 0.981758 0.984207
1.000000 1.000000 1.000000
0.000000 0.723068 0.976222
0.000000 0.726223 0.975198
0.000000 0.717650 0.976214
0.221202 0.701157 0.975617
0.986595 0.622503 0.971007
1.000000 0.648340 0.947919
1.000000 0.911467 0.967797
1.000000 0.982484 0.984488
1.000000 1.000000 1.000000
0.000000 0.934788 0.996482
0.000000 0.933242 0.996180
0.000000 0.929352 0.996258
0.000000 0.918343 0.995886
0.868841 0.881384 0.992671
1.000000 0.843983 0.979713
1.000000 0.931873 0.974115
1.000000 0.984496 0.985380
1.000000 1.000000 1.000000
0.000000 1.000000 1.000000
0.000000 1.000000 1.000000
0.000000 1.000000 1.000000
0.000000 1.000000 1.000000
0.794211 0.993792 1.000000
0.993957 0.981337 0.996842
1.000000 0.977279 0.986770
1.000000 0.989747 0.988193
1.000000 1.000000 1.000000
0.760277 1.000000 1.000000
0.763584 1.000000 1.000000
0.768406 1.000000 1.000000
0.797083 1.000000 1.000000
0.866488 1.000000 1.000000
0.976686 1.000000 1.000000
1.000000 1.000000 0.996565
1.000000 1.000000 0.995021
1.000000 1.000000 1.000000
0.946533 1.000000 1.000000
0.946533 1.000000 1.000000
0.947126 1.000000 1.000000
0.950039 1.000000 1.000000
0.958842 1.000000 1.000000
0.981130 1.000000 1.000000
1.000000 1.000000 1.000000
1.000000 1.000000 1.000000
1.000000 1.000000 1.000000
0.994760 1.000000 1.000000
0.994976 1.000000 1.000000
0.994976 1.000000 1.000000
0.995198 1.000000 1.000000
0.996715 1.000000 1.000000
0.999636 1.000000 1.000000
1.000000 1.000000 1.000000
1.000000 1.000000 1.000000
1.000000 1.000000 1.000000
0.000000 0.863933 1.000000
0.000000 0.863229 1.000000
0.272989 0.859720 1.000000
0.544791 0.847332 1.000000
0.850502 0.828426 1.000000
1.000000 0.782458 1.000000
1.000000 0.833205 0.989006
1.000000 0.979122 1.000000
1.000000 1.000000 1.000000
0.000000 0.865919 1.000000
0.000000 0.865217 1.000000
0.270161 0.861760 1.000000
0.543536 0.849455 1.000000
0.850513 0.828471 1.000000
1.000000 0.784631 1.000000
1.000000 0.835358 0.989296
1.000000 0.979122 1.000000
1.000000 1.000000 1.000000
0.000000 0.870076 1.000000
0.000000 0.869560 1.000000
0.260912 0.867725 1.000000
0.538150 0.857672 1.000000
0.847649 0.835044 1.000000
1.000000 0.793830 1.000000
1.000000 0.840711 0.991029
1.000000 0.979122 1.000000
1.000000 1.000000 1.000000
0.000000 0.891949 1.000000
0.000000 0.891636 1.000000
0.207958 0.889879 1.000000
0.518516 0.878834 1.000000
0.834818 0.857548 1.000000
1.000000 0.823615 1.000000
1.000000 0.855748 0.996013
1.000000 0.979882 1.000000
1.000000 1.000000 1.000000
0.000000 0.941510 1.000000
0.000000 0.939942 1.000000
0.000000 0.938372 1.000000
0.446737 0.934904 1.000000
0.808341 0.915211 1.000000
1.000000 0.891950 1.000000
1.000000 0.897521 1.000000
1.000000 0.982604 1.000000
1.000000 1.000000 1.000000
0.000000 1.000000 1.000000
0.000000 1.000000 1.000000
0.268645 1.000000 1.000000
0.487401 1.000000 1.000000
0.759219 0.990034 1.000000
0.980261 0.974575 1.000000
1.000000 0.963614 1.000000
1.000000 0.988928 1.000000
1.000000 1.000000 1.000000
0.615616 1.000000 1.000000
0.619890 1.000000 1.000000
0.631536 1.000000 1.000000
0.682262 1.000000 1.000000
0.795395 1.000000 1.000000
0.956574 1.000000 1.000000
1.000000 1.000000 1.000000
1.000000 1.000000 1.000000
1.000000 1.000000 1.000000
0.929817 1.000000 1.000000
0.930436 1.000000 1.000000
0.931669 1.000000 1.000000
0.935337 1.000000 1.000000
0.945460 1.000000 1.000000
0.972849 1.000000 1.000000
1.000000 1.000000 1.000000
1.000000 1.000000 1.000000
1.000000 1.000000 1.000000
0.992994 1.000000 1.000000
0.992994 1.000000 1.000000
0.992994 1.000000 1.000000
0.993430 1.000000 1.000000
0.994302 1.000000 1.000000
0.998104 1.000000 1.000000
1.000000 1.000000 1.000000
1.000000 1.000000 1.000000
1.000000 1.000000 1.000000
0.801793 0.969452 1.000000
0.801793 0.969452 1.000000
0.809233 0.969084 1.000000
0.829574 0.968024 1.000000
0.888248 0.962807 1.000000
0.976464 0.955587 1.000000
1.000000 0.943620 1.000000
1.000000 0.948523 1.000000
1.000000 1.000000 1.000000
0.801946 0.969456 1.000000
0.801946 0.969456 1.000000
0.809233 0.969084 1.000000
0.829574 0.968024 1.000000
0.887953 0.963492 1.000000
0.976464 0.955587 1.000000
1.000000 0.943639 1.000000
1.000000 0.948970 1.000000
1.000000 1.000000 1.000000
0.799462 0.969581 1.000000
0.801946 0.969456 1.000000
0.809233 0.969084 1.000000
0.829685 0.968030 1.000000
0.887762 0.964189 1.000000
0.976133 0.956317 1.000000
1.000000 0.945047 1.000000
1.000000 0.949781 1.000000
1.000000 1.000000 1.000000
0.801653 0.972057 1.000000
0.801653 0.972057 1.000000
0.806485 0.971811 1.000000
0.828989 0.970644 1.000000
0.886963 0.966194 1.000000
0.974865 0.959075 1.000000
1.000000 0.947831 1.000000
1.000000 0.951984 1.000000
1.000000 1.000000 1.000000
0.801101 0.979187 1.000000
0.801101 0.979187 1.000000
0.808072 0.978836 1.000000
0.825502 0.977939 1.000000
0.879175 0.974463 1.000000
0.970552 0.966821 1.000000
1.000000 0.956895 1.000000
1.000000 0.961026 1.000000
1.000000 1.000000 1.000000
0.793576 0.995183 1.000000
0.795749 0.995077 1.000000
0.797902 0.994971 1.000000
0.820517 0.993848 1.000000
0.872300 0.991457 1.000000
0.960043 0.985177 1.000000
1.000000 0.977551 1.000000
1.000000 0.976874 1.000000
1.000000 1.000000 1.000000
0.810628 1.000000 1.000000
0.810628 1.000000 1.000000
0.815741 1.000000 1.000000
0.828519 1.000000 1.000000
0.869542 1.000000 1.000000
0.947309 1.000000 1.000000
1.000000 1.000000 1.000000
1.000000 0.998968 1.000000
1.000000 1.000000 1.000000
0.861630 1.000000 1.000000
0.861930 1.000000 1.000000
0.864305 1.000000 1.000000
0.869212 1.000000 1.000000
0.891345 1.000000 1.000000
0.942069 1.000000 1.000000
0.998496 1.000000 1.000000
1.000000 1.000000 1.000000
1.000000 1.000000 1.000000
0.985410 1.000000 1.000000
0.985410 1.000000 1.000000
0.985649 1.000000 1.000000
0.985885 1.000000 1.000000
0.987228 1.000000 1.000000
0.991758 1.000000 1.000000
1.000000 1.000000 1.000000
1.000000 1.000000 1.000000
1.000000 1.000000 1.000000
0.962930 0.998838 1.000000
0.962930 0.998838 1.000000
0.963595 0.998796 1.000000
0.964897 0.998716 1.000000
0.971012 0.998335 1.000000
0.987602 0.997083 1.000000
1.000000 0.994940 1.000000
1.000000 0.991751 1.000000
1.000000 0.983105 1.000000
0.962930 0.998838 1.000000
0.962930 0.998838 1.000000
0.963595 0.998796 1.000000
0.964897 0.998716 1.000000
0.971012 0.998335 1.000000
0.987602 0.997083 1.000000
1.000000 0.994940 1.000000
1.000000 0.991751 1.000000
1.000000 0.983284 1.000000
0.962930 0.998838 1.000000
0.962930 0.998838 1.000000
0.963595 0.998796 1.000000
0.964897 0.998716 1.000000
0.970927 0.998556 1.000000
0.987601 0.997086 1.000000
1.000000 0.995173 1.000000
1.000000 0.991751 1.000000
1.000000 0.983284 1.000000
0.962854 0.999059 1.000000
0.962854 0.999059 1.000000
0.962854 0.999059 1.000000
0.964818 0.998937 1.000000
0.970927 0.998556 1.000000
0.987503 0.997310 1.000000
1.000000 0.995401 1.000000
1.000000 0.992208 1.000000
1.000000 0.983677 1.000000
0.962610 0.999915 1.000000
0.962610 0.999915 1.000000
0.962610 0.999915 1.000000
0.964561 0.999794 1.000000
0.970631 0.999415 1.000000
0.986794 0.997993 1.000000
1.000000 0.995877 1.000000
1.000000 0.992850 1.000000
1.000000 0.985033 1.000000
0.961963 1.000000 1.000000
0.961963 1.000000 1.000000
0.961963 1.000000 1.000000
0.963873 1.000000 1.000000
0.969259 1.000000 1.000000
0.984885 1.000000 1.000000
1.000000 0.998691 1.000000
1.000000 0.995304 1.000000
1.000000 0.990436 1.000000
0.957495 1.000000 1.000000
0.957495 1.000000 1.000000
0.958131 1.000000 1.000000
0.959385 1.000000 1.000000
0.965295 1.000000 1.000000
0.981970 1.000000 1.000000
1.000000 1.000000 1.000000
1.000000 1.000000 1.000000
1.000000 0.999134 1.000000
0.949033 1.000000 1.000000
0.949033 1.000000 1.000000
0.949575 1.000000 1.000000
0.952239 1.000000 1.000000
0.957339 1.000000 1.000000
0.973553 1.000000 1.000000
0.997808 1.000000 1.000000
1.000000 1.000000 1.000000
1.000000 1.000000 1.000000
0.924832 1.000000 1.000000
0.924832 1.000000 1.000000
0.925630 1.000000 1.000000
0.928050 1.000000 1.000000
0.936411 1.000000 1.000000
0.960237 1.000000 1.000000
0.990623 1.000000 1.000000
1.000000 1.000000 1.000000
1.000000 1.000000 1.000000
