Assets/Lutify-Free-LUTs-Pack/Lutify Free LUTs Pack/Cine World Pro Warm - Amy/Lutify.me-Amy-FLog2-to-Rec709.cube
# Created with: fylm.ai - Colour Grading and Collaboration Software in Cloud 
# Website: https://fylm.ai 
# META
# Option: Gamut compress
# Block 1: IDT | Fujifilm F-Gamut F-Log2
# Block 2: colourMatch | Blending Mode: Normal | {"ColorSpace":0,"CrossCovarianceLimit":50,"ReshapingIterations":1,"PercentSaturationShift":100,"PercentShadingShift":100,"ExtraShading":true,"PercentTint":100,"PercentModified":100}
# Block 3: LUT | Filmic Curve Response: Standard Contrast 1 (100%)
# Block 4: LUT | Illuminant: D60 (100%)
# Block 5: hueSaturation | Blending Mode: Normal | {"hue":0,"saturation":-0.15}
# Block 6: logPrimaries | Blending Mode: Normal | {"wheels":{"shadows":{"Y":"0","R":"1","G":"1","B":"1"},"midtones":{"Y":"0","R":"1","G":"1","B":"1"},"highlights":{"Y":"0","R":"1","G":"1","B":"1"},"offset":{"Y":"0","R":"1","G":"1","B":"1"}},"sliders":{"shadows":{"Y":0,"R":-0.097,"G":0,"B":0.158},"midtones":{"Y":0,"R":0.024,"G":0.024,"B":-0.036},"highlights":{"Y":0,"R":0.154,"G":-0.084,"B":-0.024},"offset":{"Y":0.048,"R":0,"G":0,"B":0}}}
# Block 7: smartCurves | Blending Mode: Average | [[{"x":0,"y":0},{"x":0.11328125,"y":0.085540771484375},{"x":0.21484375,"y":0.218353271484375},{"x":0.37109375,"y":0.382415771484375},{"x":0.62109375,"y":0.589447021484375},{"x":0.8125,"y":0.765228271484375},{"x":1,"y":1}],[{"x":0,"y":0},{"x":1,"y":1}],[{"x":0,"y":0},{"x":1,"y":1}],[{"x":0,"y":0},{"x":1,"y":1}]]
# Block 8: LUT | Neutral Tint: Teal Tint 4 (100%)
# Block 9: contrast | Blending Mode: Normal | {"contrast":0.1}
# Block 10: ODT | Rec709
TITLE "Lutify.me-Amy-FLog2-to-Rec709" 
LUT_3D_SIZE 5
0.000000 0.000000 0.000000
0.194337 0.000000 0.000000
0.788544 0.000000 0.000000
1.000000 0.585209 0.419037
1.000000 0.957804 0.911757
0.000000 0.108894 0.000000
0.163273 0.079825 0.000000
0.788161 0.000000 0.000000
1.000000 0.597294 0.423469
1.000000 0.958247 0.911767
0.000000 0.576569 0.083789
0.000000 0.579854 0.000000
0.787433 0.542730 0.000000
1.000000 0.694365 0.448246
1.000000 0.959564 0.912566
0.000000 0.981005 0.764996
0.000000 0.981008 0.760096
0.547125 0.972163 0.716411
1.000000 0.950344 0.648064
1.000000 0.974590 0.925311
0.919637 1.000000 0.992680
0.919637 1.000000 0.992680
0.927067 1.000000 0.992136
0.974445 1.000000 0.985927
1.000000 1.000000 0.970853
0.000000 0.000000 0.079670
0.135728 0.000000 0.053140
0.759123 0.000000 0.083430
1.000000 0.586877 0.430921
1.000000 0.957804 0.911757
0.000000 0.145031 0.201297
0.050954 0.116311 0.154508
0.758345 0.000000 0.095018
1.000000 0.595998 0.433029
1.000000 0.958247 0.911767
0.000000 0.594734 0.325308
0.000000 0.594511 0.265001
0.750364 0.568996 0.104260
1.000000 0.697903 0.468391
1.000000 0.959559 0.913330
0.000000 0.981776 0.780064
0.000000 0.980931 0.775210
0.545189 0.972072 0.736337
1.000000 0.950287 0.663996
1.000000 0.974590 0.925311
0.919624 1.000000 0.992936
0.919763 1.000000 0.992941
0.927067 1.000000 0.992136
0.974424 1.000000 0.986245
1.000000 1.000000 0.971228
0.000000 0.130251 0.416827
0.000000 0.118471 0.417059
0.748584 0.000000 0.414237
1.000000 0.599500 0.582314
1.000000 0.958212 0.917104
0.000000 0.200712 0.494295
0.000000 0.193296 0.490979
0.756183 0.000000 0.485033
1.000000 0.612063 0.584945
1.000000 0.958212 0.917104
0.000000 0.667335 0.781292
0.000000 0.667130 0.778369
0.588978 0.637847 0.723761
1.000000 0.710505 0.617283
1.000000 0.959525 0.918632
0.000000 0.983612 0.891054
0.000000 0.982784 0.889659
0.505715 0.975084 0.860732
1.000000 0.952837 0.782397
1.000000 0.974560 0.930164
0.919693 1.000000 0.994415
0.919693 1.000000 0.994415
0.926976 1.000000 0.993906
0.974251 1.000000 0.988405
1.000000 1.000000 0.974105
0.000000 0.650713 0.952219
0.000000 0.645785 0.952306
0.557576 0.631121 0.950778
1.000000 0.623167 0.933559
1.000000 0.959914 0.960508
0.000000 0.662002 0.952593
0.000000 0.660861 0.952464
0.548815 0.646673 0.952010
1.000000 0.636559 0.935180
1.000000 0.960353 0.960488
0.000000 0.777685 0.969492
0.000000 0.773745 0.968828
0.482422 0.761500 0.967586
1.000000 0.733669 0.951337
1.000000 0.961649 0.961537
0.000000 0.997236 0.999503
0.000000 0.996447 0.999164
0.449099 0.987808 0.997669
0.978992 0.964553 0.985620
1.000000 0.976726 0.967826
0.915342 1.000000 1.000000
0.915339 1.000000 1.000000
0.922627 1.000000 1.000000
0.968621 1.000000 1.000000
1.000000 1.000000 0.993439
0.871253 0.968727 1.000000
0.873021 0.968628 1.000000
0.888284 0.967760 1.000000
0.973746 0.961457 1.000000
1.000000 0.964396 1.000000
0.870998 0.969362 1.000000
0.872765 0.969263 1.000000
0.888284 0.967760 1.000000
0.973746 0.961457 1.000000
1.000000 0.964396 1.000000
0.870357 0.971239 1.000000
0.872117 0.971140 1.000000
0.887317 0.970278 1.000000
0.972555 0.964033 1.000000
1.000000 0.965635 1.000000
0.870974 0.988300 1.000000
0.872509 0.988620 1.000000
0.886548 0.987832 1.000000
0.963390 0.982451 1.000000
1.000000 0.979341 1.000000
0.911119 1.000000 1.000000
0.911119 1.000000 1.000000
0.916789 1.000000 1.000000
0.961235 1.000000 1.000000
1.000000 1.000000 1.000000
