Assets/Lutify-Free-LUTs-Pack/Lutify Free LUTs Pack/Cine World Pro Warm - Amy/Lutify.me-Amy-LLog-to-Rec709.cube
# Created with: fylm.ai - Colour Grading and Collaboration Software in Cloud 
# Website: https://fylm.ai 
# META
# Option: Gamut compress
# Block 1: IDT | Leica BT2020 L-Log
# Block 2: colourMatch | Blending Mode: Normal | {"ColorSpace":0,"CrossCovarianceLimit":50,"ReshapingIterations":1,"PercentSaturationShift":100,"PercentShadingShift":100,"ExtraShading":true,"PercentTint":100,"PercentModified":100}
# Block 3: LUT | Filmic Curve Response: Standard Contrast 1 (100%)
# Block 4: LUT | Illuminant: D60 (100%)
# Block 5: hueSaturation | Blending Mode: Normal | {"hue":0,"saturation":-0.15}
# Block 6: logPrimaries | Blending Mode: Normal | {"wheels":{"shadows":{"Y":"0","R":"1","G":"1","B":"1"},"midtones":{"Y":"0","R":"1","G":"1","B":"1"},"highlights":{"Y":"0","R":"1","G":"1","B":"1"},"offset":{"Y":"0","R":"1","G":"1","B":"1"}},"sliders":{"shadows":{"Y":0,"R":-0.097,"G":0,"B":0.158},"midtones":{"Y":0,"R":0.024,"G":0.024,"B":-0.036},"highlights":{"Y":0,"R":0.154,"G":-0.084,"B":-0.024},"offset":{"Y":0.048,"R":0,"G":0,"B":0}}}
# Block 7: smartCurves | Blending Mode: Average | [[{"x":0,"y":0},{"x":0.11328125,"y":0.085540771484375},{"x":0.21484375,"y":0.218353271484375},{"x":0.37109375,"y":0.382415771484375},{"x":0.62109375,"y":0.589447021484375},{"x":0.8125,"y":0.765228271484375},{"x":1,"y":1}],[{"x":0,"y":0},{"x":1,"y":1}],[{"x":0,"y":0},{"x":1,"y":1}],[{"x":0,"y":0},{"x":1,"y":1}]]
# Block 8: LUT | Neutral Tint: Teal Tint 4 (100%)
# Block 9: contrast | Blending Mode: Normal | {"contrast":0.1}
# Block 10: ODT | Rec709
TITLE "Lutify.me-Amy-LLog-to-Rec709" 
LUT_3D_SIZE 5
0.000000 0.000000 0.000000
0.159084 0.000000 0.000000
0.627637 0.000000 0.000000
1.000000 0.334543 0.232766
1.000000 0.889159 0.791158
0.000000 0.088697 0.000000
0.127761 0.062982 0.000000
0.636212 0.000000 0.000000
1.000000 0.358908 0.236851
1.000000 0.890904 0.792635
0.000000 0.441806 0.000000
0.000000 0.448387 0.000000
0.645745 0.412433 0.000000
1.000000 0.502975 0.252574
1.000000 0.896108 0.795889
0.000000 0.929046 0.559755
0.000000 0.928145 0.552558
0.000000 0.923294 0.503471
1.000000 0.893098 0.417588
1.000000 0.930762 0.820746
0.783382 1.000000 0.954620
0.789852 1.000000 0.953946
0.812163 1.000000 0.951891
0.922664 1.000000 0.936148
1.000000 0.998054 0.909832
0.000000 0.000000 0.067524
0.107249 0.000000 0.047036
0.583575 0.000000 0.056366
1.000000 0.333117 0.255754
1.000000 0.889150 0.792749
0.000000 0.114845 0.161914
0.036554 0.089530 0.120654
0.587716 0.000000 0.069046
1.000000 0.361429 0.258306
1.000000 0.890036 0.792767
0.000000 0.462145 0.265610
0.000000 0.465549 0.187327
0.599239 0.442344 0.000000
1.000000 0.502220 0.286029
1.000000 0.896090 0.798998
0.000000 0.930322 0.604042
0.000000 0.930703 0.600716
0.000000 0.926130 0.543790
1.000000 0.894368 0.450845
1.000000 0.930746 0.823618
0.783297 1.000000 0.955916
0.789765 1.000000 0.955251
0.812117 1.000000 0.952560
0.922559 1.000000 0.937692
1.000000 0.998049 0.911225
0.000000 0.071867 0.298167
0.000000 0.065732 0.293659
0.576839 0.000000 0.290613
1.000000 0.340256 0.422779
1.000000 0.889951 0.806963
0.000000 0.142230 0.378078
0.000000 0.134504 0.375365
0.596174 0.000000 0.370052
1.000000 0.372852 0.431268
1.000000 0.890827 0.808539
0.000000 0.542155 0.653386
0.000000 0.531173 0.650226
0.423860 0.520183 0.597420
1.000000 0.510197 0.463449
1.000000 0.896094 0.811724
0.000000 0.936147 0.801413
0.000000 0.936689 0.794274
0.000000 0.930900 0.745879
0.985558 0.900703 0.626017
1.000000 0.931413 0.835031
0.783452 1.000000 0.962724
0.787757 1.000000 0.962121
0.810088 1.000000 0.960251
0.920870 1.000000 0.946513
1.000000 0.998189 0.920365
0.000000 0.464093 0.861865
0.000000 0.463227 0.863899
0.391101 0.446232 0.862683
1.000000 0.395462 0.845968
1.000000 0.895136 0.892527
0.000000 0.492492 0.868885
0.000000 0.488079 0.871019
0.376345 0.468293 0.872083
1.000000 0.411569 0.849801
1.000000 0.896020 0.892489
0.000000 0.628537 0.909499
0.000000 0.624186 0.911126
0.242820 0.611003 0.910316
1.000000 0.560733 0.884842
1.000000 0.901265 0.894513
0.000000 0.958920 0.977485
0.000000 0.958168 0.976839
0.000000 0.950721 0.973969
0.938271 0.920883 0.952432
1.000000 0.933662 0.911565
0.780113 1.000000 0.992361
0.782183 1.000000 0.992353
0.803913 1.000000 0.991392
0.912918 1.000000 0.984379
1.000000 0.999217 0.962995
0.669526 0.909158 1.000000
0.674237 0.908956 1.000000
0.717604 0.907010 1.000000
0.925583 0.893005 1.000000
1.000000 0.902516 1.000000
0.668843 0.910474 1.000000
0.673556 0.910273 1.000000
0.716929 0.908332 1.000000
0.924973 0.894368 1.000000
1.000000 0.904309 1.000000
0.665422 0.918176 1.000000
0.670121 0.917979 1.000000
0.713363 0.916074 1.000000
0.921384 0.902353 1.000000
1.000000 0.908261 1.000000
0.658129 0.960065 1.000000
0.662458 0.959894 1.000000
0.710225 0.957099 1.000000
0.904978 0.945359 1.000000
1.000000 0.941333 1.000000
0.781188 1.000000 1.000000
0.784639 1.000000 1.000000
0.801363 1.000000 1.000000
0.898483 1.000000 1.000000
1.000000 1.000000 1.000000
