Assets/Lutify-Free-LUTs-Pack/Lutify Free LUTs Pack/Cine World Pro Warm - Amy/Lutify.me-Amy-ZLog2-to-Rec709.cube
# Created with: fylm.ai - Colour Grading and Collaboration Software in Cloud 
# Website: https://fylm.ai 
# META
# Option: Gamut compress
# Block 1: IDT | Z-Cam Z-Log2 - BETA
# Block 2: colourMatch | Blending Mode: Normal | {"ColorSpace":0,"CrossCovarianceLimit":50,"ReshapingIterations":1,"PercentSaturationShift":100,"PercentShadingShift":100,"ExtraShading":true,"PercentTint":100,"PercentModified":100}
# Block 3: LUT | Filmic Curve Response: Standard Contrast 1 (100%)
# Block 4: LUT | Illuminant: D60 (100%)
# Block 5: hueSaturation | Blending Mode: Normal | {"hue":0,"saturation":-0.15}
# Block 6: logPrimaries | Blending Mode: Normal | {"wheels":{"shadows":{"Y":"0","R":"1","G":"1","B":"1"},"midtones":{"Y":"0","R":"1","G":"1","B":"1"},"highlights":{"Y":"0","R":"1","G":"1","B":"1"},"offset":{"Y":"0","R":"1","G":"1","B":"1"}},"sliders":{"shadows":{"Y":0,"R":-0.097,"G":0,"B":0.158},"midtones":{"Y":0,"R":0.024,"G":0.024,"B":-0.036},"highlights":{"Y":0,"R":0.154,"G":-0.084,"B":-0.024},"offset":{"Y":0.048,"R":0,"G":0,"B":0}}}
# Block 7: smartCurves | Blending Mode: Average | [[{"x":0,"y":0},{"x":0.11328125,"y":0.085540771484375},{"x":0.21484375,"y":0.218353271484375},{"x":0.37109375,"y":0.382415771484375},{"x":0.62109375,"y":0.589447021484375},{"x":0.8125,"y":0.765228271484375},{"x":1,"y":1}],[{"x":0,"y":0},{"x":1,"y":1}],[{"x":0,"y":0},{"x":1,"y":1}],[{"x":0,"y":0},{"x":1,"y":1}]]
# Block 8: LUT | Neutral Tint: Teal Tint 4 (100%)
# Block 9: contrast | Blending Mode: Normal | {"contrast":0.1}
# Block 10: ODT | Rec709
TITLE "Lutify.me-Amy-ZLog2-to-Rec709" 
LUT_3D_SIZE 33
0.000000 0.000000 0.000000
0.000000 0.000000 0.000000
0.000000 0.000000 0.000000
0.000000 0.000000 0.000000
0.000000 0.000000 0.000000
0.000000 0.000000 0.000000
0.023261 0.000000 0.000000
0.057779 0.000000 0.000000
0.082388 0.000000 0.000000
0.104326 0.000000 0.000000
0.121805 0.000000 0.000000
0.138529 0.000000 0.000000
0.155736 0.000000 0.000000
0.181242 0.000000 0.000000
0.210032 0.000000 0.000000
0.233904 0.000000 0.000000
0.257051 0.000000 0.000000
0.284266 0.000000 0.010256
0.313018 0.000000 0.014092
0.340487 0.000000 0.021398
0.368287 0.000000 0.026123
0.401719 0.000000 0.029414
0.445315 0.000000 0.031373
0.490726 0.000000 0.036970
0.528077 0.000000 0.042049
0.567390 0.000000 0.047592
0.615926 0.000000 0.051827
0.669975 0.000000 0.061351
0.720782 0.000000 0.071526
0.784904 0.000000 0.083080
0.844561 0.000000 0.095716
0.895954 0.000000 0.111404
0.934933 0.000000 0.129190
0.000000 0.000000 0.000000
0.000000 0.000000 0.000000
0.000000 0.000000 0.000000
0.000000 0.000000 0.000000
0.000000 0.000000 0.000000
0.000000 0.000000 0.001025
0.025485 0.000000 0.000000
0.058157 0.000000 0.000000
0.082707 0.000000 0.000000
0.105363 0.000000 0.000000
0.122630 0.000000 0.000000
0.137629 0.000000 0.000000
0.154720 0.000000 0.000000
0.179986 0.000000 0.000000
0.207024 0.000000 0.000000
0.232193 0.000000 0.000000
0.255208 0.000000 0.000000
0.284268 0.000000 0.010461
0.313015 0.000000 0.014131
0.340477 0.000000 0.021356
0.368273 0.000000 0.026048
0.401698 0.000000 0.029255
0.445309 0.000000 0.031244
0.490724 0.000000 0.036884
0.528089 0.000000 0.042496
0.567387 0.000000 0.047489
0.615945 0.000000 0.052990
0.669978 0.000000 0.061937
0.720768 0.000000 0.071436
0.784887 0.000000 0.083009
0.844522 0.000000 0.095594
0.895905 0.000000 0.112312
0.938223 0.000000 0.129208
0.000000 0.000000 0.000000
0.000000 0.000000 0.000000
0.000000 0.000000 0.000000
0.000000 0.000000 0.000000
0.000000 0.000000 0.007834
0.000000 0.000000 0.006295
0.029932 0.000000 0.000000
0.060840 0.000000 0.000000
0.085015 0.000000 0.000000
0.105411 0.000000 0.000000
0.121202 0.000000 0.000000
0.136647 0.000000 0.000000
0.153625 0.000000 0.000000
0.177500 0.000000 0.000000
0.205517 0.000000 0.000000
0.232196 0.000000 0.000000
0.255216 0.000000 0.001416
0.284271 0.000000 0.010705
0.310853 0.000000 0.014307
0.340471 0.000000 0.022273
0.368243 0.000000 0.025869
0.398763 0.000000 0.029265
0.445305 0.000000 0.031113
0.490722 0.000000 0.036745
0.528089 0.000000 0.042387
0.571376 0.000000 0.047814
0.620033 0.000000 0.052756
0.669964 0.000000 0.061796
0.720739 0.000000 0.070587
0.784853 0.000000 0.082859
0.844495 0.000000 0.095509
0.895862 0.000000 0.112218
0.938160 0.000000 0.129101
0.000000 0.000000 0.000000
0.000000 0.000000 0.000000
0.000000 0.000000 0.000000
0.000000 0.000000 0.000000
0.000000 0.000000 0.010440
0.000000 0.000000 0.012622
0.022847 0.000000 0.000000
0.063125 0.000000 0.000000
0.085357 0.000000 0.000000
0.104744 0.000000 0.000000
0.118591 0.000000 0.000000
0.134730 0.000000 0.000000
0.153437 0.000000 0.000000
0.177450 0.000000 0.000000
0.204049 0.000000 0.000000
0.230538 0.000000 0.000000
0.255229 0.000000 0.003273
0.280411 0.000000 0.011231
0.310838 0.000000 0.014219
0.335659 0.000000 0.021388
0.368211 0.000000 0.025647
0.398743 0.000000 0.029064
0.442029 0.000000 0.031729
0.490743 0.000000 0.037714
0.528101 0.000000 0.042785
0.571372 0.000000 0.047676
0.620037 0.000000 0.053241
0.674145 0.000000 0.061588
0.720714 0.000000 0.070411
0.784827 0.000000 0.082740
0.848617 0.000000 0.096382
0.895795 0.000000 0.112069
0.938114 0.000000 0.131328
0.000000 0.000000 0.000000
0.000000 0.000000 0.000000
0.000000 0.000000 0.000000
0.000000 0.000000 0.000000
0.000000 0.000000 0.014337
0.000000 0.000000 0.022052
0.016143 0.000000 0.003982
0.063262 0.000000 0.000000
0.082965 0.000000 0.000000
0.102981 0.000000 0.000000
0.117205 0.000000 0.000000
0.133441 0.000000 0.000000
0.152276 0.000000 0.000000
0.177432 0.000000 0.000000
0.204050 0.000000 0.000000
0.230547 0.000000 0.000000
0.257105 0.000000 0.003453
0.280391 0.000000 0.011186
0.308653 0.000000 0.014025
0.335600 0.000000 0.020968
0.368180 0.000000 0.025374
0.398728 0.000000 0.028828
0.442027 0.000000 0.031529
0.487117 0.000000 0.037705
0.528102 0.000000 0.042616
0.575370 0.000000 0.047955
0.624131 0.000000 0.052915
0.674129 0.000000 0.061420
0.724935 0.000000 0.070156
0.789079 0.000000 0.082590
0.848572 0.000000 0.096242
0.895761 0.000000 0.113018
0.937976 0.000000 0.131099
0.000000 0.022716 0.000000
0.000000 0.022952 0.000000
0.000000 0.021467 0.000000
0.000000 0.020097 0.000000
0.000000 0.020421 0.000000
0.000000 0.019352 0.011145
0.020063 0.016693 0.003378
0.059480 0.000000 0.000000
0.082558 0.000000 0.000000
0.101417 0.000000 0.000000
0.117612 0.000000 0.000000
0.133458 0.000000 0.000000
0.151878 0.000000 0.000000
0.172431 0.000000 0.000000
0.202499 0.000000 0.000000
0.230505 0.000000 0.000000
0.258930 0.000000 0.000000
0.284147 0.000000 0.009634
0.308580 0.000000 0.013231
0.335550 0.000000 0.020500
0.368158 0.000000 0.025812
0.401651 0.000000 0.029103
0.445321 0.000000 0.031689
0.487126 0.000000 0.038012
0.528103 0.000000 0.042348
0.579366 0.000000 0.047550
0.624121 0.000000 0.052668
0.678308 0.000000 0.061104
0.724912 0.000000 0.069983
0.789040 0.000000 0.082405
0.848526 0.000000 0.096094
0.895688 0.000000 0.112856
0.941215 0.000000 0.131099
0.000000 0.041340 0.000000
0.000000 0.041515 0.000000
0.000000 0.041750 0.000000
0.000000 0.039882 0.000000
0.000000 0.037879 0.000000
0.000000 0.036053 0.000000
0.022690 0.034163 0.000000
0.055843 0.030926 0.000000
0.078239 0.026624 0.000000
0.096995 0.018580 0.000000
0.113970 0.000000 0.000000
0.132906 0.000000 0.000000
0.153510 0.000000 0.000000
0.178971 0.000000 0.000000
0.204995 0.000000 0.000000
0.230207 0.000000 0.000000
0.256907 0.000000 0.000000
0.287937 0.000000 0.009743
0.310642 0.000000 0.011584
0.335517 0.000000 0.021091
0.370798 0.000000 0.025265
0.407567 0.000000 0.028407
0.445323 0.000000 0.031339
0.487126 0.000000 0.037680
0.528117 0.000000 0.042573
0.579362 0.000000 0.047261
0.628224 0.000000 0.052266
0.678282 0.000000 0.060753
0.729127 0.000000 0.069635
0.788989 0.000000 0.082153
0.852562 0.000000 0.096805
0.895623 0.000000 0.113748
0.941061 0.000000 0.130839
0.000000 0.055379 0.000000
0.000000 0.054607 0.000000
0.000000 0.054300 0.000000
0.000000 0.052470 0.000000
0.000000 0.052345 0.000000
0.000000 0.051521 0.000000
0.025865 0.049466 0.000000
0.051191 0.047974 0.000000
0.070534 0.046111 0.000000
0.092798 0.041234 0.000000
0.113840 0.034662 0.000000
0.135422 0.025833 0.000000
0.157223 0.000000 0.000000
0.180577 0.000000 0.000000
0.210623 0.000000 0.000000
0.235096 0.000000 0.000000
0.258657 0.000000 0.000000
0.285824 0.000000 0.009424
0.317130 0.000000 0.010877
0.340273 0.000000 0.019949
0.370789 0.000000 0.024751
0.407575 0.000000 0.028559
0.448646 0.000000 0.030581
0.487130 0.000000 0.037231
0.528125 0.000000 0.042086
0.579361 0.000000 0.046921
0.628216 0.000000 0.051985
0.678254 0.000000 0.059780
0.729088 0.000000 0.069307
0.793225 0.000000 0.082716
0.852472 0.000000 0.096508
0.899219 0.000000 0.113513
0.940981 0.000000 0.130702
0.000000 0.068182 0.000000
0.000000 0.067087 0.000000
0.000000 0.065450 0.000000
0.000000 0.064389 0.000000
0.000000 0.063922 0.000000
0.000000 0.062830 0.000000
0.016809 0.061142 0.000000
0.050418 0.059251 0.000000
0.071375 0.056893 0.000000
0.093504 0.053939 0.000000
0.114915 0.049186 0.000000
0.138968 0.043063 0.000000
0.161247 0.036015 0.000000
0.186387 0.000000 0.000000
0.211774 0.000000 0.000000
0.238409 0.000000 0.000000
0.264373 0.000000 0.000000
0.289691 0.000000 0.000000
0.317092 0.000000 0.010993
0.345134 0.000000 0.017645
0.370785 0.000000 0.022726
0.407584 0.000000 0.027709
0.448664 0.000000 0.029767
0.490758 0.000000 0.035809
0.528138 0.000000 0.041636
0.579364 0.000000 0.046467
0.624096 0.000000 0.051613
0.678230 0.000000 0.059372
0.729039 0.000000 0.068869
0.797445 0.000000 0.082387
0.856462 0.000000 0.097175
0.899101 0.000000 0.113240
0.944095 0.000000 0.131743
0.000000 0.082476 0.000000
0.000000 0.081132 0.000000
0.000000 0.078516 0.000000
0.000000 0.077888 0.000000
0.000000 0.076038 0.000000
0.000000 0.074578 0.000000
0.000000 0.072826 0.000000
0.047751 0.070910 0.000000
0.071978 0.069147 0.000000
0.094150 0.067367 0.000000
0.117384 0.064580 0.000000
0.141287 0.059775 0.000000
0.165904 0.052075 0.000000
0.191039 0.044765 0.000000
0.219386 0.024918 0.000000
0.243659 0.000000 0.000000
0.270267 0.000000 0.000000
0.297826 0.000000 0.000000
0.323849 0.000000 0.000000
0.352658 0.000000 0.011650
0.376227 0.000000 0.019242
0.410622 0.000000 0.025949
0.448705 0.000000 0.028412
0.498063 0.000000 0.033322
0.528157 0.000000 0.040367
0.575374 0.000000 0.045991
0.624092 0.000000 0.051158
0.678214 0.000000 0.059633
0.728995 0.000000 0.068437
0.793060 0.000000 0.081841
0.856342 0.000000 0.097718
0.902571 0.000000 0.112775
0.943821 0.000000 0.131267
0.000000 0.094758 0.000000
0.000000 0.093223 0.000000
0.000000 0.092464 0.000000
0.000000 0.093263 0.000000
0.000000 0.091738 0.000000
0.000000 0.090027 0.000000
0.000000 0.088162 0.000000
0.040153 0.086139 0.000000
0.070002 0.083760 0.000000
0.094873 0.081556 0.000000
0.117553 0.078768 0.000000
0.141755 0.074131 0.000000
0.170579 0.068934 0.000000
0.199256 0.062630 0.000000
0.229238 0.051403 0.000000
0.256742 0.030131 0.000000
0.279783 0.000000 0.000000
0.304219 0.000000 0.000000
0.326272 0.000000 0.000000
0.360496 0.000000 0.000000
0.384661 0.000000 0.010989
0.416861 0.000000 0.020309
0.452151 0.000000 0.025814
0.498142 0.000000 0.031493
0.532076 0.000000 0.039027
0.579397 0.000000 0.044905
0.624090 0.000000 0.050375
0.678181 0.000000 0.058918
0.728933 0.000000 0.068483
0.792958 0.000000 0.081254
0.852127 0.000000 0.097200
0.898704 0.000000 0.113357
0.943580 0.000000 0.132053
0.000000 0.110695 0.000000
0.000000 0.109791 0.000000
0.000000 0.109815 0.000000
0.000000 0.108936 0.000000
0.000000 0.107057 0.000000
0.000000 0.105962 0.000000
0.000000 0.103924 0.000000
0.018594 0.102582 0.000000
0.067470 0.100018 0.000000
0.095499 0.097906 0.000000
0.121925 0.095173 0.000000
0.145752 0.090146 0.000000
0.174014 0.085287 0.000000
0.206320 0.080101 0.000000
0.237959 0.074176 0.000000
0.264604 0.060300 0.000000
0.289889 0.041123 0.000000
0.313116 0.000000 0.000000
0.333618 0.000000 0.000000
0.368721 0.000000 0.000000
0.393467 0.000000 0.000000
0.426469 0.000000 0.011980
0.462634 0.000000 0.018851
0.505629 0.000000 0.027168
0.543816 0.000000 0.035982
0.587463 0.000000 0.043338
0.628209 0.000000 0.049882
0.678156 0.000000 0.058810
0.728855 0.000000 0.067561
0.792830 0.000000 0.080464
0.851888 0.000000 0.096328
0.898432 0.000000 0.112678
0.943310 0.000000 0.131570
0.000000 0.132703 0.000000
0.000000 0.131635 0.000000
0.000000 0.129508 0.000000
0.000000 0.128385 0.000000
0.000000 0.126144 0.000000
0.000000 0.124929 0.000000
0.000000 0.122625 0.000000
0.000000 0.121135 0.000000
0.061273 0.119411 0.000000
0.093574 0.117364 0.000000
0.120162 0.116984 0.000000
0.147623 0.113913 0.000000
0.182446 0.109212 0.000000
0.218630 0.101676 0.000000
0.252917 0.097408 0.000000
0.274082 0.092844 0.000000
0.302891 0.079853 0.000000
0.324994 0.067571 0.000000
0.348967 0.053611 0.000000
0.374888 0.000000 0.000000
0.402931 0.000000 0.000000
0.433529 0.000000 0.000000
0.470167 0.000000 0.000000
0.513431 0.000000 0.015472
0.551838 0.000000 0.030876
0.591570 0.000000 0.040180
0.636464 0.000000 0.046956
0.682311 0.000000 0.057099
0.728760 0.000000 0.065439
0.792650 0.000000 0.079250
0.851686 0.000000 0.096539
0.898138 0.000000 0.113021
0.943024 0.000000 0.132286
0.000000 0.149036 0.000000
0.000000 0.147805 0.000000
0.000000 0.146537 0.000000
0.000000 0.146443 0.000000
0.000000 0.145104 0.000000
0.000000 0.143733 0.000000
0.000000 0.142247 0.000000
0.000000 0.140638 0.000000
0.050612 0.138875 0.000000
0.093454 0.136703 0.000000
0.124298 0.136548 0.000000
0.155386 0.133395 0.000000
0.190385 0.129074 0.000000
0.229759 0.121744 0.000000
0.259480 0.119084 0.000000
0.288186 0.114039 0.000000
0.314381 0.107118 0.000000
0.335325 0.100595 0.000000
0.365385 0.087009 0.000000
0.384290 0.082088 0.000000
0.413067 0.059959 0.000000
0.450962 0.000000 0.000000
0.485516 0.000000 0.000000
0.525707 0.000000 0.000000
0.564166 0.000000 0.015769
0.603931 0.000000 0.033419
0.640663 0.000000 0.042402
0.686473 0.000000 0.053917
0.741371 0.000000 0.063866
0.796710 0.000000 0.076717
0.851348 0.000000 0.094140
0.894083 0.000000 0.112053
0.939380 0.000000 0.131454
0.000000 0.170243 0.000000
0.000000 0.168781 0.000000
0.000000 0.167321 0.000000
0.000000 0.165846 0.000000
0.000000 0.164345 0.000000
0.000000 0.162782 0.000000
0.000000 0.161152 0.000000
0.000000 0.159397 0.000000
0.042769 0.158798 0.000000
0.096604 0.156467 0.000000
0.130892 0.152503 0.000000
0.167848 0.147658 0.000000
0.204042 0.143248 0.000000
0.245263 0.137984 0.000000
0.270293 0.135056 0.000000
0.303148 0.129994 0.000000
0.326266 0.124670 0.000000
0.355880 0.114914 0.000000
0.376973 0.108052 0.000000
0.402399 0.102509 0.000000
0.426795 0.101136 0.000000
0.458965 0.080861 0.000000
0.497423 0.054122 0.000000
0.530636 0.000000 0.000000
0.572866 0.000000 0.000000
0.608473 0.000000 0.012529
0.649106 0.000000 0.035048
0.690657 0.000000 0.046677
0.745474 0.000000 0.060011
0.796459 0.000000 0.073517
0.855101 0.000000 0.090686
0.897430 0.000000 0.109934
0.938970 0.000000 0.131941
0.000000 0.188128 0.000000
0.000000 0.186530 0.000000
0.000000 0.184920 0.000000
0.000000 0.184838 0.000000
0.000000 0.183162 0.000000
0.000000 0.182947 0.000000
0.000000 0.182630 0.000000
0.000000 0.180675 0.000000
0.051546 0.178485 0.000000
0.101170 0.176103 0.000000
0.137629 0.173349 0.000000
0.178156 0.171210 0.000000
0.217561 0.166047 0.000000
0.253836 0.158450 0.000000
0.285743 0.153575 0.000000
0.318896 0.147647 0.000000
0.343731 0.144302 0.000000
0.372670 0.137598 0.000000
0.397747 0.128867 0.000000
0.421771 0.125554 0.000000
0.444076 0.124635 0.000000
0.470822 0.116798 0.000000
0.509740 0.100952 0.000000
0.547207 0.084159 0.000000
0.581744 0.029860 0.000000
0.621231 0.000000 0.000000
0.661836 0.000000 0.000000
0.699087 0.000000 0.038843
0.753816 0.000000 0.054783
0.800450 0.000000 0.070558
0.858702 0.000000 0.086374
0.900642 0.000000 0.107425
0.941693 0.000000 0.129723
0.000000 0.204193 0.000000
0.000000 0.204140 0.000000
0.000000 0.202394 0.000000
0.000000 0.202287 0.000000
0.000000 0.200443 0.000000
0.000000 0.200218 0.000000
0.000000 0.198250 0.000000
0.000000 0.197779 0.000000
0.051561 0.197164 0.000000
0.104585 0.196260 0.000000
0.145997 0.192934 0.000000
0.193317 0.188212 0.000000
0.237775 0.184056 0.000000
0.267138 0.179002 0.000000
0.301842 0.174248 0.000000
0.327464 0.170227 0.000000
0.362216 0.164009 0.000000
0.387441 0.160797 0.000000
0.417164 0.156060 0.000000
0.448826 0.147787 0.000000
0.468991 0.144078 0.000000
0.497106 0.142198 0.000000
0.526075 0.129122 0.000000
0.563981 0.124945 0.000000
0.590862 0.111194 0.000000
0.626302 0.091477 0.000000
0.670567 0.000000 0.000000
0.707674 0.000000 0.000000
0.757844 0.000000 0.045620
0.808614 0.000000 0.063387
0.862208 0.000000 0.082454
0.903613 0.000000 0.104110
0.944130 0.000000 0.125604
0.000000 0.224501 0.000000
0.000000 0.224387 0.000000
0.000000 0.224187 0.000000
0.000000 0.222294 0.000000
0.000000 0.222023 0.000000
0.000000 0.221612 0.000000
0.000000 0.219390 0.000000
0.000000 0.216891 0.000000
0.076955 0.216061 0.000000
0.125821 0.213062 0.000000
0.165822 0.211234 0.000000
0.209557 0.206661 0.000000
0.250098 0.203123 0.000000
0.284976 0.195776 0.000000
0.313548 0.195829 0.000000
0.341300 0.191932 0.000000
0.375735 0.188427 0.000000
0.415002 0.179201 0.000000
0.446960 0.172368 0.000000
0.470786 0.171185 0.000000
0.502390 0.165373 0.000000
0.528136 0.163333 0.000000
0.554335 0.160843 0.000000
0.576971 0.153357 0.000000
0.612101 0.152768 0.000000
0.639562 0.141421 0.000000
0.675586 0.127278 0.000000
0.720527 0.095788 0.000000
0.766196 0.034386 0.000000
0.816624 0.000000 0.052277
0.869325 0.000000 0.077595
0.902846 0.000000 0.101341
0.946510 0.000000 0.122627
0.000000 0.241806 0.000000
0.000000 0.239836 0.000000
0.000000 0.239638 0.000000
0.000000 0.239341 0.000000
0.000000 0.238970 0.000000
0.000000 0.236657 0.000000
0.000000 0.236010 0.000000
0.069788 0.235181 0.000000
0.115219 0.232447 0.000000
0.158515 0.230887 0.000000
0.198442 0.226956 0.000000
0.233532 0.224520 0.000000
0.269148 0.221469 0.000000
0.300646 0.216330 0.000000
0.329480 0.212934 0.000000
0.371380 0.207235 0.000000
0.402444 0.202382 0.000000
0.434717 0.196710 0.000000
0.468323 0.187732 0.000000
0.503547 0.182146 0.000000
0.529501 0.183453 0.000000
0.559457 0.181058 0.000000
0.582716 0.185790 0.000000
0.609921 0.186901 0.000000
0.625325 0.182407 0.000000
0.652891 0.180058 0.000000
0.688871 0.174452 0.000000
0.721144 0.161778 0.000000
0.778806 0.142431 0.000000
0.824473 0.104261 0.019211
0.872107 0.000000 0.063868
0.912295 0.000000 0.095520
0.948358 0.000000 0.119690
0.000000 0.260427 0.000000
0.000000 0.260165 0.000000
0.000000 0.259888 0.000000
0.000000 0.257509 0.000000
0.000000 0.257056 0.000000
0.000000 0.254434 0.000000
0.077502 0.253755 0.000000
0.129381 0.250715 0.000000
0.165606 0.249446 0.000000
0.207500 0.247398 0.000000
0.233670 0.245776 0.000000
0.271790 0.242915 0.000000
0.304834 0.239940 0.000000
0.333247 0.234889 0.000000
0.368115 0.230740 0.000000
0.400795 0.226329 0.000000
0.431321 0.217199 0.000000
0.465842 0.211213 0.000000
0.501754 0.211757 0.000000
0.534653 0.205258 0.000000
0.575871 0.198624 0.000000
0.591333 0.200416 0.000000
0.614794 0.203161 0.000000
0.634547 0.207055 0.000000
0.662188 0.205958 0.000000
0.674211 0.212334 0.000000
0.702041 0.207992 0.000000
0.742455 0.213777 0.000000
0.778962 0.198497 0.000000
0.836071 0.181129 0.000000
0.874683 0.158373 0.027410
0.914157 0.121549 0.081958
0.952757 0.073719 0.115593
0.000000 0.284941 0.000000
0.000000 0.284715 0.000000
0.000000 0.284457 0.000000
0.000000 0.284006 0.000000
0.000000 0.281309 0.000000
0.000000 0.280734 0.000000
0.110017 0.277658 0.000000
0.151982 0.276609 0.000000
0.192393 0.272958 0.000000
0.224608 0.271380 0.000000
0.263822 0.266776 0.000000
0.299874 0.261816 0.000000
0.335897 0.258537 0.000000
0.370149 0.252651 0.000000
0.412049 0.245186 0.000000
0.440655 0.238817 0.000000
0.473128 0.233738 0.000000
0.509845 0.227779 0.000000
0.539659 0.227650 0.000000
0.573491 0.223815 0.000000
0.607905 0.219308 0.000000
0.638988 0.215000 0.000000
0.666892 0.220527 0.000000
0.679147 0.230310 0.000000
0.687396 0.241382 0.000000
0.703181 0.237777 0.000000
0.719222 0.247598 0.000000
0.747119 0.244608 0.000000
0.795566 0.243604 0.000000
0.839404 0.231743 0.000000
0.884468 0.213753 0.000000
0.919063 0.197337 0.057573
0.953459 0.179597 0.104426
0.000000 0.314459 0.000000
0.000000 0.311756 0.000000
0.000000 0.311485 0.000000
0.000000 0.311055 0.000000
0.000000 0.310562 0.000000
0.093108 0.307261 0.000000
0.137216 0.304103 0.000000
0.179494 0.302920 0.000000
0.213000 0.301648 0.000000
0.249952 0.297452 0.000000
0.281151 0.295603 0.000000
0.313901 0.290867 0.000000
0.354151 0.285045 0.000000
0.387068 0.281846 0.000000
0.421419 0.275537 0.000000
0.460085 0.268201 0.000000
0.502471 0.262637 0.000000
0.540564 0.254273 0.000000
0.578574 0.250748 0.000000
0.612986 0.244447 0.000000
0.640169 0.242024 0.000000
0.683265 0.232549 0.000000
0.711208 0.229068 0.000000
0.723575 0.243109 0.000000
0.735874 0.257601 0.000000
0.736036 0.271504 0.000000
0.751953 0.275363 0.000000
0.763814 0.280187 0.000000
0.799708 0.284071 0.000000
0.853787 0.280679 0.000000
0.889611 0.273121 0.000000
0.922791 0.266100 0.000000
0.955884 0.254892 0.082874
0.000000 0.339153 0.000000
0.000000 0.338905 0.000000
0.000000 0.338422 0.000000
0.000000 0.335345 0.000000
0.102150 0.331951 0.000000
0.144940 0.331220 0.000000
0.176946 0.327833 0.000000
0.212785 0.324061 0.000000
0.243642 0.322766 0.000000
0.273725 0.321255 0.000000
0.298596 0.322452 0.000000
0.336865 0.319901 0.000000
0.365192 0.315025 0.000000
0.405730 0.308705 0.000000
0.443118 0.302365 0.000000
0.484225 0.295136 0.000000
0.520230 0.290767 0.000000
0.559702 0.282536 0.000000
0.598492 0.273710 0.000000
0.633303 0.267885 0.000000
0.680155 0.259137 0.000000
0.727660 0.245593 0.000000
0.763915 0.240357 0.000000
0.792326 0.240487 0.000000
0.792375 0.266764 0.000000
0.792358 0.281698 0.000000
0.788262 0.301171 0.000000
0.792004 0.319396 0.000000
0.819296 0.318678 0.000000
0.856391 0.320414 0.000000
0.894309 0.322488 0.000000
0.929243 0.317191 0.000000
0.954962 0.313729 0.037964
0.000000 0.365746 0.000000
0.000000 0.362321 0.000000
0.054746 0.362048 0.000000
0.118819 0.358639 0.000000
0.151168 0.358087 0.000000
0.191317 0.354310 0.000000
0.221295 0.350565 0.000000
0.250858 0.349419 0.000000
0.267344 0.348688 0.000000
0.302321 0.349756 0.000000
0.326927 0.348332 0.000000
0.355949 0.346531 0.000000
0.389918 0.344270 0.000000
0.429925 0.338196 0.000000
0.460171 0.335552 0.000000
0.503396 0.328262 0.000000
0.537165 0.321460 0.000000
0.578166 0.313325 0.000000
0.618161 0.304724 0.000000
0.657472 0.298859 0.000000
0.700606 0.285043 0.000000
0.748217 0.276069 0.000000
0.796422 0.265857 0.000000
0.843831 0.254682 0.000000
0.869832 0.256502 0.000000
0.861730 0.286944 0.000000
0.846386 0.309948 0.000000
0.842249 0.322643 0.000000
0.844908 0.350103 0.000000
0.869204 0.358621 0.000000
0.892708 0.355467 0.000000
0.932074 0.362889 0.000000
0.954006 0.360701 0.000000
0.119220 0.384892 0.000000
0.135058 0.384671 0.000000
0.161987 0.384202 0.000000
0.185324 0.383695 0.000000
0.211659 0.383003 0.000000
0.229558 0.379412 0.000000
0.248379 0.378798 0.000000
0.284721 0.377486 0.000000
0.306949 0.376549 0.000000
0.327244 0.378760 0.000000
0.358577 0.377132 0.000000
0.385744 0.375534 0.000000
0.419122 0.370101 0.000000
0.447471 0.364759 0.000000
0.487671 0.361381 0.000000
0.523478 0.354744 0.000000
0.566286 0.350269 0.000000
0.599863 0.346446 0.000000
0.637042 0.338474 0.000000
0.681163 0.332595 0.000000
0.720822 0.326901 0.000000
0.760475 0.317085 0.000000
0.804310 0.305794 0.000000
0.857835 0.295799 0.000000
0.896680 0.288279 0.000000
0.932136 0.281465 0.000000
0.918292 0.309951 0.000000
0.894233 0.338805 0.000000
0.893056 0.359335 0.000000
0.888205 0.384101 0.000000
0.909106 0.397848 0.000000
0.932102 0.399667 0.000000
0.960691 0.401539 0.000000
0.188352 0.415755 0.000000
0.194572 0.415633 0.000000
0.206626 0.415379 0.000000
0.229353 0.414840 0.000000
0.256003 0.414101 0.000000
