Assets/Lutify-Free-LUTs-Pack/Lutify Free LUTs Pack/Cine World Pro Warm - Amy/Lutify.me-Amy-NLog-to-Rec709.cube
# Created with: fylm.ai - Colour Grading and Collaboration Software in Cloud 
# Website: https://fylm.ai 
# META
# Option: Gamut compress
# Block 1: IDT | Nikon BT2020 N-Log
# Block 2: colourMatch | Blending Mode: Normal | {"ColorSpace":0,"CrossCovarianceLimit":50,"ReshapingIterations":1,"PercentSaturationShift":100,"PercentShadingShift":100,"ExtraShading":true,"PercentTint":100,"PercentModified":100}
# Block 3: LUT | Filmic Curve Response: Standard Contrast 1 (100%)
# Block 4: LUT | Illuminant: D60 (100%)
# Block 5: hueSaturation | Blending Mode: Normal | {"hue":0,"saturation":-0.15}
# Block 6: logPrimaries | Blending Mode: Normal | {"wheels":{"shadows":{"Y":"0","R":"1","G":"1","B":"1"},"midtones":{"Y":"0","R":"1","G":"1","B":"1"},"highlights":{"Y":"0","R":"1","G":"1","B":"1"},"offset":{"Y":"0","R":"1","G":"1","B":"1"}},"sliders":{"shadows":{"Y":0,"R":-0.097,"G":0,"B":0.158},"midtones":{"Y":0,"R":0.024,"G":0.024,"B":-0.036},"highlights":{"Y":0,"R":0.154,"G":-0.084,"B":-0.024},"offset":{"Y":0.048,"R":0,"G":0,"B":0}}}
# Block 7: smartCurves | Blending Mode: Average | [[{"x":0,"y":0},{"x":0.11328125,"y":0.085540771484375},{"x":0.21484375,"y":0.218353271484375},{"x":0.37109375,"y":0.382415771484375},{"x":0.62109375,"y":0.589447021484375},{"x":0.8125,"y":0.765228271484375},{"x":1,"y":1}],[{"x":0,"y":0},{"x":1,"y":1}],[{"x":0,"y":0},{"x":1,"y":1}],[{"x":0,"y":0},{"x":1,"y":1}]]
# Block 8: LUT | Neutral Tint: Teal Tint 4 (100%)
# Block 9: contrast | Blending Mode: Normal | {"contrast":0.1}
# Block 10: ODT | Rec709
TITLE "Lutify.me-Amy-NLog-to-Rec709" 
LUT_3D_SIZE 5
0.000000 0.000000 0.000000
0.239009 0.000000 0.000000
0.758581 0.000000 0.000000
1.000000 0.327988 0.230052
1.000000 0.831754 0.696165
0.000000 0.146554 0.000000
0.223084 0.112782 0.000000
0.758234 0.000000 0.000000
1.000000 0.367996 0.234573
1.000000 0.834464 0.698537
0.000000 0.558274 0.084292
0.000000 0.564969 0.000000
0.764804 0.529245 0.000000
1.000000 0.588511 0.265532
1.000000 0.848310 0.706693
0.000000 0.927843 0.559450
0.000000 0.926497 0.537685
0.494417 0.915464 0.468601
1.000000 0.890448 0.409355
1.000000 0.916433 0.754285
0.666937 1.000000 0.915997
0.677162 1.000000 0.915975
0.740591 1.000000 0.906410
0.924581 0.994051 0.878113
1.000000 0.989457 0.858123
0.000000 0.000000 0.092300
0.177021 0.000000 0.067265
0.729708 0.000000 0.101351
1.000000 0.327970 0.265103
1.000000 0.831716 0.703209
0.000000 0.185296 0.255340
0.085340 0.155457 0.201959
0.732665 0.000000 0.119276
1.000000 0.368360 0.273337
1.000000 0.834439 0.703225
0.000000 0.579912 0.366281
0.000000 0.583235 0.296055
0.715342 0.560238 0.158852
1.000000 0.587943 0.316264
1.000000 0.848274 0.713600
0.000000 0.930332 0.626094
0.000000 0.927686 0.603924
0.481350 0.916865 0.529658
1.000000 0.891726 0.460499
1.000000 0.916404 0.760318
0.663308 1.000000 0.918024
0.673693 1.000000 0.916995
0.740169 1.000000 0.911724
0.924271 0.994024 0.882970
1.000000 0.989440 0.861545
0.000000 0.124971 0.400474
0.000000 0.113186 0.407158
0.720740 0.000000 0.401190
1.000000 0.349795 0.506586
1.000000 0.831544 0.743132
0.000000 0.218557 0.497281
0.000000 0.211939 0.504652
0.735862 0.000000 0.488370
1.000000 0.390559 0.515706
1.000000 0.834303 0.743100
0.000000 0.644994 0.767643
0.000000 0.637223 0.761881
0.573035 0.616140 0.707553
1.000000 0.613159 0.579272
1.000000 0.848281 0.752601
0.000000 0.935967 0.863355
0.000000 0.935917 0.854103
0.375501 0.928810 0.803239
0.976486 0.900605 0.712819
1.000000 0.916813 0.797383
0.658029 1.000000 0.940593
0.668477 1.000000 0.939760
0.736071 1.000000 0.933771
0.921189 0.994615 0.909008
1.000000 0.989651 0.880513
0.000000 0.460622 0.857706
0.000000 0.459142 0.859710
0.601271 0.424107 0.859647
1.000000 0.385909 0.841817
1.000000 0.837685 0.881043
0.000000 0.496107 0.870763
0.000000 0.491141 0.872813
0.589446 0.458634 0.870777
1.000000 0.418653 0.847423
1.000000 0.840476 0.880893
0.000000 0.710644 0.926194
0.000000 0.709849 0.926102
0.465267 0.687099 0.922442
1.000000 0.652884 0.899636
1.000000 0.855672 0.887852
0.000000 0.956881 0.976511
0.000000 0.956825 0.975141
0.239763 0.943194 0.970576
0.934117 0.917797 0.951100
1.000000 0.921420 0.911866
0.644413 1.000000 0.989758
0.657813 1.000000 0.989382
0.723555 1.000000 0.987777
0.906004 0.996991 0.978476
1.000000 0.991947 0.956844
0.467293 0.860852 0.999765
0.493530 0.858139 0.999839
0.658670 0.847975 0.999194
0.956052 0.825494 0.997992
1.000000 0.847006 0.991950
0.465799 0.862855 0.999990
0.490505 0.862152 0.999925
0.661658 0.851876 0.999262
0.955896 0.829711 0.998079
1.000000 0.849795 0.992172
0.450169 0.883398 1.000000
0.475839 0.882717 1.000000
0.644619 0.873380 1.000000
0.948341 0.851758 0.998791
1.000000 0.864052 0.993566
0.440311 0.958960 1.000000
0.480305 0.958008 1.000000
0.621673 0.952733 1.000000
0.905348 0.937157 1.000000
1.000000 0.929778 0.998919
0.656232 1.000000 1.000000
0.663172 1.000000 1.000000
0.725200 1.000000 1.000000
0.889475 1.000000 1.000000
1.000000 0.994185 1.000000
