Assets/Lutify-Free-LUTs-Pack/Lutify Free LUTs Pack/Cine World Pro Warm - Amy/Lutify.me-Amy-DWG-to-DWG.cube
# Created with: fylm.ai - Colour Grading and Collaboration Software in Cloud 
# Website: https://fylm.ai 
# META
# Option: Gamut compress
# Block 2: colourMatch | Blending Mode: Normal | {"ColorSpace":0,"CrossCovarianceLimit":50,"ReshapingIterations":1,"PercentSaturationShift":100,"PercentShadingShift":100,"ExtraShading":true,"PercentTint":100,"PercentModified":100}
# Block 3: LUT | Filmic Curve Response: Standard Contrast 1 (100%)
# Block 4: LUT | Illuminant: D60 (100%)
# Block 5: hueSaturation | Blending Mode: Normal | {"hue":0,"saturation":-0.15}
# Block 6: logPrimaries | Blending Mode: Normal | {"wheels":{"shadows":{"Y":"0","R":"1","G":"1","B":"1"},"midtones":{"Y":"0","R":"1","G":"1","B":"1"},"highlights":{"Y":"0","R":"1","G":"1","B":"1"},"offset":{"Y":"0","R":"1","G":"1","B":"1"}},"sliders":{"shadows":{"Y":0,"R":-0.097,"G":0,"B":0.158},"midtones":{"Y":0,"R":0.024,"G":0.024,"B":-0.036},"highlights":{"Y":0,"R":0.154,"G":-0.084,"B":-0.024},"offset":{"Y":0.048,"R":0,"G":0,"B":0}}}
# Block 7: smartCurves | Blending Mode: Average | [[{"x":0,"y":0},{"x":0.11328125,"y":0.085540771484375},{"x":0.21484375,"y":0.218353271484375},{"x":0.37109375,"y":0.382415771484375},{"x":0.62109375,"y":0.589447021484375},{"x":0.8125,"y":0.765228271484375},{"x":1,"y":1}],[{"x":0,"y":0},{"x":1,"y":1}],[{"x":0,"y":0},{"x":1,"y":1}],[{"x":0,"y":0},{"x":1,"y":1}]]
# Block 8: LUT | Neutral Tint: Teal Tint 4 (100%)
# Block 9: contrast | Blending Mode: Normal | {"contrast":0.1}
TITLE "Lutify.me-Amy-ACEScct-to-ACEScct" 
LUT_3D_SIZE 33
-0.038888 -0.016275 0.006784
-0.028991 -0.014203 0.009187
-0.005033 -0.011859 0.014835
0.051581 -0.010210 0.011054
0.099179 -0.004999 0.019191
0.141822 0.000926 0.028320
0.186967 0.009922 0.041425
0.234402 0.022156 0.058966
0.269211 0.037096 0.075479
0.305209 0.053911 0.094424
0.337007 0.074856 0.114309
0.374513 0.100368 0.139872
0.405918 0.124407 0.163148
0.434911 0.149917 0.186624
0.473341 0.181671 0.218922
0.506567 0.212522 0.248365
0.537148 0.246607 0.276805
0.571650 0.279451 0.308866
0.611321 0.316630 0.346420
0.645525 0.349976 0.379401
0.676902 0.380066 0.409915
0.709352 0.411643 0.441869
0.745360 0.444440 0.477190
0.778378 0.475163 0.509911
0.810837 0.506782 0.542372
0.841573 0.536910 0.573165
0.875500 0.568400 0.606891
0.905421 0.598645 0.636966
0.930315 0.625894 0.662194
0.958541 0.656146 0.690645
0.985412 0.683441 0.717706
1.014462 0.712943 0.746545
1.037624 0.739505 0.770133
-0.038548 -0.003985 0.009622
-0.028088 -0.004497 0.009555
-0.013331 -0.001146 0.020411
0.046715 -0.003237 0.012094
0.093087 0.000911 0.018962
0.136410 0.005378 0.027801
0.184812 0.014420 0.041222
0.228608 0.026200 0.057296
0.266793 0.041232 0.074774
0.302714 0.057864 0.093472
0.337015 0.078932 0.114903
0.374518 0.103964 0.140149
0.405922 0.127497 0.163389
0.436238 0.152377 0.187788
0.473342 0.182647 0.218997
0.507896 0.215362 0.249676
0.538475 0.248273 0.278028
0.572974 0.280661 0.310043
0.612640 0.317879 0.347653
0.645526 0.350490 0.379444
0.676902 0.380066 0.409915
0.709352 0.411643 0.441869
0.745360 0.444975 0.477233
0.778378 0.475163 0.509911
0.810837 0.506782 0.542372
0.841572 0.536896 0.573121
0.875500 0.568400 0.606891
0.905421 0.598645 0.636966
0.930316 0.626431 0.662237
0.958541 0.656146 0.690645
0.985412 0.683441 0.717706
1.014462 0.712943 0.746545
1.037624 0.739505 0.770133
-0.038044 0.018256 0.013547
-0.028562 0.015968 0.011732
-0.013686 0.018241 0.023870
0.037615 0.016259 0.020200
0.087434 0.017103 0.021446
0.132034 0.019973 0.029256
0.179458 0.025713 0.041543
0.228643 0.034522 0.058669
0.266808 0.047890 0.075313
0.301485 0.065723 0.094178
0.335744 0.084634 0.114628
0.374525 0.107668 0.140651
0.407245 0.131727 0.164824
0.437564 0.155199 0.188977
0.473344 0.184745 0.219161
0.507899 0.217632 0.249863
0.538476 0.249216 0.278044
0.572976 0.282150 0.310165
0.612641 0.318888 0.347692
0.645525 0.350469 0.379366
0.676903 0.380589 0.409958
0.709352 0.412162 0.441872
0.745360 0.444975 0.477233
0.778378 0.475163 0.509911
0.810837 0.507318 0.542415
0.841572 0.536896 0.573121
0.875500 0.568400 0.606891
0.905421 0.598645 0.636966
0.930316 0.626431 0.662237
0.958541 0.656146 0.690645
0.985412 0.683441 0.717706
1.014462 0.712943 0.746545
1.037624 0.739505 0.770133
-0.035629 0.050603 0.019797
-0.027769 0.048636 0.017857
-0.006014 0.046131 0.017548
0.038211 0.045485 0.025055
0.089853 0.046324 0.026550
0.130533 0.048648 0.034386
0.179616 0.053326 0.045888
0.227584 0.059169 0.061929
0.266855 0.065231 0.077416
0.304012 0.076907 0.096738
0.335759 0.092291 0.115549
0.374535 0.114690 0.141245
0.408567 0.137012 0.166208
0.440217 0.159900 0.191299
0.474674 0.188356 0.220487
0.509228 0.221024 0.251126
0.539804 0.252322 0.279386
0.572976 0.283128 0.310201
0.612641 0.319399 0.347734
0.646837 0.351728 0.380606
0.676903 0.381112 0.410001
0.709352 0.412162 0.441872
0.745360 0.445498 0.477236
0.778378 0.475151 0.509869
0.810837 0.507318 0.542415
0.841572 0.536896 0.573121
0.875500 0.568400 0.606891
0.905421 0.598645 0.636966
0.930316 0.626431 0.662237
0.958541 0.656146 0.690645
0.985412 0.683441 0.717706
1.014462 0.712943 0.746545
1.037624 0.739505 0.770133
-0.032376 0.082271 0.025661
-0.025979 0.081593 0.025263
-0.005888 0.078078 0.024600
0.038589 0.077728 0.026975
0.089580 0.075902 0.032273
0.134420 0.077714 0.040521
0.181971 0.081309 0.051469
0.227695 0.084343 0.065833
0.269373 0.090648 0.082754
0.304060 0.095439 0.099234
0.339626 0.105476 0.119236
0.375852 0.123060 0.143032
0.411209 0.143217 0.168779
0.442872 0.166635 0.193803
0.477337 0.193938 0.223020
0.510558 0.224900 0.252518
0.542458 0.255654 0.281833
0.574301 0.284848 0.311464
0.612642 0.320926 0.347815
0.646838 0.352754 0.380652
0.676904 0.382138 0.410008
0.709352 0.412681 0.441875
0.745360 0.445498 0.477236
0.778379 0.475687 0.509913
0.810837 0.507304 0.542372
0.841572 0.536896 0.573121
0.875501 0.568938 0.606935
0.905421 0.598645 0.636966
0.930316 0.626431 0.662237
0.958541 0.656146 0.690645
0.985413 0.683974 0.717749
1.014462 0.712943 0.746545
1.037624 0.739505 0.770133
-0.027798 0.115976 0.034964
-0.022429 0.113326 0.032860
-0.004705 0.111008 0.032802
0.037378 0.109164 0.035191
0.088212 0.105520 0.038917
0.136546 0.105980 0.046360
0.184340 0.106846 0.057100
0.234786 0.111438 0.072843
0.274302 0.114816 0.088194
0.307883 0.120858 0.104655
0.344807 0.127345 0.124948
0.379782 0.136064 0.146986
0.412537 0.152538 0.170547
0.445528 0.174033 0.196355
0.478672 0.200229 0.224587
0.513215 0.230389 0.255117
0.543786 0.258749 0.283094
0.575626 0.287543 0.312719
0.612643 0.321929 0.347809
0.646839 0.353800 0.380738
0.676905 0.383188 0.410094
0.709352 0.413188 0.441837
0.745361 0.446033 0.477279
0.778379 0.476211 0.509914
0.812074 0.508561 0.543565
0.841573 0.537434 0.573164
0.875501 0.568938 0.606935
0.905420 0.598631 0.636922
0.930316 0.626431 0.662237
0.958541 0.656146 0.690645
0.985413 0.683974 0.717749
1.014462 0.712943 0.746545
1.037624 0.739505 0.770133
-0.023496 0.153491 0.046400
-0.017243 0.151533 0.045067
-0.002766 0.149736 0.044874
0.037337 0.146252 0.045199
0.087251 0.143248 0.048436
0.136264 0.141833 0.055719
0.185771 0.142071 0.065294
0.238476 0.144800 0.080716
0.278080 0.147063 0.095465
0.314249 0.149725 0.111994
0.350004 0.153762 0.131563
0.386343 0.161044 0.154215
0.416514 0.170328 0.175397
0.448192 0.185259 0.199497
0.482667 0.209724 0.228406
0.515879 0.236264 0.257708
0.549093 0.264452 0.287820
0.578275 0.291986 0.315242
0.613963 0.324712 0.349125
0.648152 0.356094 0.381987
0.679512 0.385725 0.412541
0.709352 0.413708 0.441840
0.745361 0.446556 0.477281
0.778379 0.476747 0.509958
0.812073 0.508548 0.543521
0.841573 0.537434 0.573164
0.875500 0.568925 0.606891
0.905420 0.598631 0.636922
0.930316 0.626431 0.662237
0.958541 0.656146 0.690645
0.985413 0.683974 0.717749
1.014462 0.712943 0.746545
1.037624 0.739505 0.770133
-0.018123 0.185479 0.057825
-0.009329 0.184445 0.057409
0.003482 0.182399 0.056864
0.038609 0.180533 0.057639
0.086632 0.177952 0.060272
0.134340 0.174755 0.065475
0.189412 0.173417 0.074792
0.243327 0.174256 0.089012
0.283173 0.175541 0.103639
0.320687 0.178837 0.120526
0.356511 0.184340 0.139868
0.390317 0.189595 0.160778
0.423140 0.198189 0.183164
0.453520 0.207386 0.205917
0.486665 0.220892 0.232668
0.519876 0.244972 0.261581
0.551751 0.271453 0.290502
0.583574 0.299240 0.320266
0.615283 0.327505 0.350399
0.648153 0.357635 0.382016
0.679513 0.386758 0.412571
0.710645 0.415496 0.443064
0.746643 0.448355 0.478512
0.778380 0.477283 0.510002
0.812073 0.508548 0.543521
0.841573 0.537434 0.573164
0.875501 0.569463 0.606934
0.905420 0.598631 0.636922
0.930316 0.626431 0.662237
0.958542 0.656681 0.690688
0.985413 0.683974 0.717749
1.014462 0.712943 0.746545
1.037624 0.740031 0.770175
-0.009761 0.215455 0.070551
0.000037 0.216635 0.071119
0.015997 0.213312 0.070391
0.042547 0.213458 0.071352
0.086843 0.208195 0.072100
0.133613 0.208882 0.077828
0.188926 0.206815 0.085725
0.246034 0.205807 0.099044
0.292078 0.204605 0.114153
0.329745 0.206196 0.130605
0.361786 0.208435 0.147301
0.398222 0.216299 0.169702
0.432395 0.222092 0.192712
0.462825 0.230804 0.215640
0.494661 0.241148 0.240866
0.523876 0.255557 0.265732
0.555742 0.279951 0.294565
0.584903 0.305373 0.321868
0.617922 0.331855 0.352913
0.648156 0.361146 0.382254
0.680818 0.389611 0.413900
0.710646 0.417064 0.443109
0.746643 0.449417 0.478570
0.778380 0.478325 0.509963
0.812074 0.509609 0.543565
0.841573 0.537972 0.573208
0.875501 0.569988 0.606934
0.905421 0.599169 0.636966
0.930316 0.626953 0.662236
0.958541 0.656663 0.690624
0.985412 0.683956 0.717685
1.014462 0.712943 0.746545
1.037624 0.740031 0.770175
0.001469 0.242216 0.083572
0.011071 0.242239 0.083570
0.029679 0.241135 0.083819
0.051456 0.238850 0.083327
0.087566 0.239117 0.086024
0.133081 0.238423 0.090065
0.187482 0.235859 0.096677
0.244028 0.232944 0.108032
0.292335 0.234250 0.122966
0.334994 0.232170 0.139580
0.374875 0.236517 0.160344
0.410112 0.240792 0.181309
0.443025 0.247269 0.204089
0.470807 0.254708 0.224721
0.503983 0.265289 0.250938
0.535850 0.275630 0.277467
0.561065 0.290328 0.299875
0.590202 0.313468 0.326938
0.621883 0.339366 0.356887
0.650782 0.365577 0.384810
0.680819 0.391912 0.413971
0.711940 0.419391 0.444386
0.746643 0.449926 0.478527
0.779638 0.479593 0.511174
0.812074 0.510136 0.543566
0.841574 0.538496 0.573207
0.875501 0.569988 0.606934
0.905421 0.599692 0.636965
0.931498 0.627645 0.663338
0.958541 0.656663 0.690624
0.985412 0.683956 0.717685
1.014463 0.713472 0.746587
1.037624 0.740031 0.770175
0.019667 0.273596 0.100848
0.033236 0.272415 0.100738
0.047857 0.272471 0.101351
0.068473 0.272564 0.102357
0.094284 0.270255 0.102659
0.131414 0.270546 0.105650
0.187437 0.267616 0.111346
0.244606 0.265316 0.121094
0.293913 0.263703 0.134111
0.336460 0.259344 0.148124
0.381484 0.261112 0.169688
0.424635 0.262798 0.195114
0.458952 0.271787 0.219017
0.486767 0.278092 0.239750
0.521268 0.287836 0.267220
0.551786 0.299892 0.293038
0.575648 0.311349 0.314112
0.600781 0.327239 0.337110
0.629787 0.350756 0.364492
0.654722 0.372570 0.388734
0.682125 0.395750 0.415311
0.711940 0.420951 0.444378
0.747925 0.452240 0.479739
0.779639 0.481186 0.511232
0.812075 0.511201 0.543611
0.842792 0.539732 0.574341
0.875501 0.570512 0.606933
0.905422 0.600230 0.637008
0.931498 0.628181 0.663382
0.958542 0.657198 0.690667
0.985413 0.684489 0.717728
1.014463 0.713472 0.746587
1.037624 0.740031 0.770175
0.046629 0.300947 0.118497
0.055458 0.299734 0.118112
0.069707 0.298545 0.117998
0.086669 0.297365 0.117829
0.107327 0.297473 0.119077
0.137592 0.298921 0.122379
0.184480 0.295685 0.125616
0.245275 0.293040 0.134210
0.295504 0.289638 0.144784
0.337991 0.287992 0.158551
0.385542 0.287943 0.179531
0.435226 0.285768 0.206670
0.477525 0.293842 0.236005
0.509352 0.300058 0.259948
0.542533 0.312038 0.287144
0.569051 0.322195 0.309697
0.592872 0.335204 0.330986
0.613979 0.345766 0.350014
0.642909 0.364756 0.377053
0.662573 0.380844 0.396068
0.684736 0.402184 0.418033
0.714529 0.426038 0.446949
0.749207 0.455085 0.480941
0.780897 0.483506 0.512454
0.813312 0.512975 0.544763
0.842792 0.540794 0.574384
0.875501 0.571023 0.606889
0.905422 0.600753 0.637007
0.931498 0.628181 0.663382
0.958542 0.657719 0.690664
0.985413 0.684489 0.717728
1.014462 0.713457 0.746535
1.037625 0.740556 0.770217
0.074637 0.322538 0.133572
0.084293 0.322565 0.133779
0.095794 0.323874 0.135150
0.105608 0.322651 0.134871
0.123857 0.321473 0.135169
0.147798 0.321625 0.137186
0.186765 0.319414 0.139395
0.243812 0.318927 0.147468
0.295993 0.316368 0.157776
0.340836 0.313128 0.170118
0.388295 0.309867 0.188355
0.436656 0.309815 0.213684
0.478924 0.315648 0.241556
0.513376 0.320980 0.266499
0.557147 0.331114 0.301383
0.598168 0.344830 0.336515
0.621897 0.355655 0.357692
0.638978 0.367944 0.373629
0.656035 0.380149 0.389798
0.670391 0.390422 0.403555
0.688648 0.407940 0.421732
0.717118 0.431198 0.449514
0.750489 0.458459 0.482159
0.780899 0.486157 0.512527
0.813312 0.514557 0.544767
0.842792 0.541306 0.574341
0.876703 0.572789 0.608052
0.905423 0.601829 0.637094
0.931498 0.628704 0.663380
0.958542 0.658239 0.690663
0.985413 0.685003 0.717707
1.014462 0.713457 0.746535
1.037625 0.740556 0.770217
0.104901 0.349468 0.153170
0.109862 0.348195 0.152515
0.119533 0.346945 0.152153
0.130462 0.346989 0.152766
0.147038 0.347072 0.153860
0.169694 0.347204 0.155602
0.202810 0.347456 0.158866
0.245863 0.344100 0.162708
0.296556 0.339997 0.170357
0.341188 0.337553 0.181270
0.389801 0.333723 0.197915
0.438115 0.333836 0.221814
0.479007 0.336157 0.246586
0.514770 0.342768 0.272016
0.559844 0.351216 0.306737
0.600831 0.362050 0.340924
0.637676 0.374896 0.373260
0.676901 0.392201 0.409074
0.684726 0.401249 0.416853
0.691249 0.410353 0.423595
0.700304 0.419464 0.432759
0.719707 0.437005 0.452073
0.753054 0.464103 0.484652
0.782158 0.490073 0.513768
0.814550 0.517391 0.545942
0.844010 0.543590 0.575434
0.876704 0.573852 0.608095
0.907799 0.604819 0.639394
0.931499 0.629226 0.663379
0.958542 0.658760 0.690661
0.986576 0.685682 0.718777
1.014463 0.713986 0.746578
1.037625 0.741082 0.770260
0.136567 0.378032 0.175639
0.142397 0.376761 0.175010
0.150755 0.376792 0.175470
0.161168 0.375545 0.175200
0.176134 0.375617 0.176220
0.196886 0.374449 0.177028
0.224451 0.373366 0.178951
0.252871 0.371080 0.181097
0.294986 0.369110 0.186828
0.339195 0.366227 0.195271
0.391433 0.363119 0.211406
0.442229 0.358752 0.232308
0.480440 0.359848 0.253971
0.521481 0.366190 0.281927
0.562549 0.372409 0.312570
0.603502 0.382301 0.345924
0.645569 0.395035 0.382350
0.680827 0.408512 0.414112
0.718396 0.426948 0.449076
0.731249 0.436590 0.461468
0.722288 0.438738 0.453740
0.731269 0.451179 0.463312
0.756870 0.471215 0.488454
0.784674 0.494423 0.516048
0.815786 0.520199 0.547014
0.844012 0.546769 0.575482
0.876705 0.575972 0.608138
0.907799 0.605343 0.639393
0.931499 0.630285 0.663421
0.958542 0.658746 0.690616
0.986576 0.686197 0.718757
1.014463 0.714501 0.746576
1.037626 0.741608 0.770302
0.171208 0.399046 0.193371
0.178137 0.399076 0.193814
0.185243 0.399110 0.194316
0.195506 0.399157 0.195024
0.210218 0.400541 0.197144
0.229691 0.400660 0.198897
0.248980 0.399511 0.200142
0.272600 0.397133 0.201409
0.303052 0.392339 0.203072
0.341020 0.389174 0.209191
0.389158 0.384178 0.220745
0.447679 0.380926 0.243688
0.481918 0.384713 0.263097
0.521572 0.386544 0.287488
0.562613 0.392593 0.316914
0.606177 0.400526 0.351191
0.646909 0.411869 0.385749
0.680849 0.423092 0.415834
0.723574 0.442653 0.455187
0.758118 0.458720 0.487535
0.778357 0.473271 0.507093
0.756863 0.470334 0.487537
0.764489 0.481519 0.495837
0.787190 0.500202 0.518438
0.817024 0.524075 0.548091
0.846448 0.550818 0.577734
0.877907 0.579280 0.609131
0.908988 0.607610 0.640498
0.932682 0.632036 0.664566
0.958543 0.660322 0.690656
0.986577 0.687247 0.718795
1.014464 0.715031 0.746618
1.037626 0.741608 0.770302
0.216111 0.426750 0.217886
0.221920 0.426775 0.218297
0.229039 0.426811 0.218850
0.235323 0.426849 0.219412
0.246773 0.425604 0.219452
0.259648 0.424376 0.219731
0.276399 0.421893 0.219781
0.297214 0.420787 0.221738
0.320943 0.418463 0.223772
0.349278 0.416333 0.228023
0.390889 0.409610 0.234985
0.442637 0.401549 0.250185
0.483399 0.406507 0.271943
0.523002 0.407507 0.294619
0.567970 0.414165 0.325733
0.608858 0.420155 0.356806
0.648250 0.428482 0.389266
0.682174 0.438179 0.418817
0.726151 0.456099 0.458811
0.760667 0.470861 0.490884
0.795899 0.491118 0.524478
0.824386 0.509100 0.551944
0.787182 0.498620 0.517339
0.798416 0.511638 0.529101
0.819500 0.530962 0.550583
0.847667 0.554686 0.578791
0.879109 0.582623 0.610290
0.908988 0.610246 0.640498
0.932683 0.634141 0.664605
0.958543 0.661364 0.690653
0.986577 0.688284 0.718791
1.014464 0.716076 0.746659
1.038782 0.742808 0.771408
0.258239 0.455901 0.244416
0.262479 0.454612 0.243762
0.267952 0.454644 0.244266
0.274393 0.453368 0.243814
0.281933 0.452099 0.243470
0.288636 0.450836 0.243094
0.303762 0.450958 0.244952
0.318922 0.449783 0.245995
0.338111 0.446079 0.246289
0.363858 0.441249 0.247913
0.400423 0.435521 0.253220
0.444323 0.431739 0.265615
0.483625 0.432325 0.282665
0.523157 0.432564 0.303238
0.569396 0.438393 0.333442
0.611563 0.443334 0.363975
0.649610 0.449795 0.394138
0.687417 0.458735 0.426114
0.727453 0.472362 0.461821
0.764491 0.487378 0.495894
0.797157 0.503238 0.526622
0.829302 0.521591 0.557383
0.862190 0.542300 0.589185
0.819490 0.530640 0.549351
0.828100 0.541045 0.558571
0.851322 0.561477 0.582166
0.880313 0.587573 0.611477
0.910176 0.614065 0.641482
0.933865 0.636937 0.665706
0.959715 0.663096 0.691745
0.986578 0.689853 0.718830
1.015623 0.717813 0.747825
1.038783 0.743842 0.771429
0.299154 0.479876 0.267508
0.302537 0.479895 0.267826
0.305920 0.479915 0.268144
0.309327 0.479936 0.268487
0.313981 0.479974 0.269059
0.324401 0.478741 0.269334
0.332619 0.477491 0.269345
0.345663 0.474982 0.269108
0.362639 0.472550 0.269989
0.384949 0.468940 0.271611
0.420342 0.461815 0.275355
0.452613 0.458861 0.283735
0.483932 0.457519 0.295049
0.524704 0.459715 0.315073
0.570845 0.462169 0.342031
0.612963 0.465898 0.370669
0.650979 0.470992 0.399454
0.690066 0.480593 0.431844
0.728762 0.489864 0.465234
0.767051 0.504866 0.500059
0.800912 0.518066 0.531385
0.834220 0.535896 0.563038
0.863408 0.552958 0.591082
0.897035 0.574591 0.623699
0.844005 0.557509 0.573969
0.854972 0.571792 0.585846
0.883918 0.593747 0.614737
0.910177 0.617737 0.641427
0.933866 0.639565 0.665705
0.959717 0.665744 0.691831
0.987742 0.692094 0.719912
1.015625 0.719402 0.747953
1.038784 0.745401 0.771492
0.338263 0.506485 0.293116
0.340637 0.506502 0.293348
0.341826 0.506512 0.293498
0.345394 0.506540 0.293948
0.348872 0.505250 0.293324
0.356029 0.505307 0.294227
0.364311 0.504054 0.294227
0.375293 0.502851 0.294892
0.392422 0.499102 0.294763
0.413654 0.494192 0.295464
0.442874 0.488259 0.298621
0.471278 0.483849 0.304648
0.494763 0.483328 0.312774
0.526273 0.484769 0.327202
0.571000 0.486300 0.350735
0.618322 0.489653 0.380996
0.653663 0.492146 0.406195
0.692703 0.500344 0.437480
0.732634 0.508299 0.471126
0.768341 0.520497 0.503002
0.803421 0.532961 0.535101
0.835460 0.548547 0.565287
0.869465 0.566453 0.597711
0.899431 0.585027 0.626667
0.924361 0.601690 0.650920
0.873094 0.587320 0.602993
0.891100 0.604459 0.621545
0.912554 0.624037 0.643611
0.935044 0.644801 0.666789
0.960888 0.667988 0.692879
0.987743 0.694208 0.719997
1.015626 0.721494 0.748035
1.038784 0.746426 0.771482
0.376164 0.534425 0.320422
0.379696 0.533139 0.319816
0.382116 0.533158 0.320127
0.383225 0.531848 0.319080
0.386761 0.530562 0.318475
0.392735 0.529297 0.318215
0.398860 0.528056 0.318251
0.411203 0.525572 0.318368
0.423536 0.521787 0.317531
0.443806 0.519501 0.320261
0.469349 0.513505 0.322713
0.490034 0.511413 0.327476
0.509576 0.509478 0.333396
0.537094 0.510571 0.345131
0.572529 0.511177 0.362175
0.619778 0.514818 0.390339
0.656390 0.518828 0.415430
0.694061 0.522231 0.443342
0.739076 0.529624 0.480000
0.770908 0.539434 0.507871
0.807159 0.550298 0.540393
0.839143 0.563065 0.569999
0.871882 0.578753 0.600929
0.900633 0.594635 0.628505
0.930277 0.614047 0.657281
0.953805 0.629099 0.680157
0.904230 0.619482 0.634137
0.919676 0.635356 0.650391
0.937400 0.652427 0.669059
0.963232 0.673454 0.695045
0.988908 0.698297 0.721121
1.015627 0.724215 0.748049
1.039943 0.750142 0.772795
0.417858 0.557115 0.344316
0.419080 0.557125 0.344475
0.420324 0.557137 0.344679
0.422757 0.555856 0.344070
0.427691 0.554603 0.343894
0.431372 0.553335 0.343459
0.438806 0.552109 0.343715
0.447472 0.549589 0.343177
0.457531 0.545820 0.342485
0.474049 0.543467 0.344359
0.494550 0.537404 0.345788
0.510061 0.536460 0.349590
0.529635 0.535801 0.356231
0.554437 0.535414 0.365537
0.583251 0.535486 0.378541
0.619923 0.536614 0.398493
0.657807 0.541225 0.423252
0.694137 0.543365 0.448598
0.740414 0.553410 0.485514
0.772203 0.558767 0.512021
0.809661 0.569848 0.545084
0.841600 0.580818 0.574141
0.874300 0.593215 0.604486
0.907779 0.610267 0.636323
0.931466 0.624261 0.659143
0.954984 0.639345 0.681972
0.986524 0.659972 0.712692
0.930311 0.647758 0.660370
0.945634 0.663578 0.676652
0.965578 0.680410 0.697322
0.990074 0.703993 0.722290
1.015632 0.729346 0.748316
1.039944 0.752037 0.772801
0.457038 0.588920 0.375902
0.459553 0.588948 0.376343
0.460744 0.587657 0.375510
0.464517 0.587699 0.376172
0.466966 0.586422 0.375559
0.471929 0.585173 0.375388
0.476820 0.582619 0.374140
0.484379 0.581418 0.374655
0.495826 0.578992 0.375396
0.509775 0.575307 0.375779
0.529068 0.570556 0.378012
0.538139 0.570761 0.380776
0.556318 0.569996 0.386398
0.575855 0.569350 0.393244
0.603263 0.569267 0.405034
0.630656 0.569499 0.418511
0.659288 0.570199 0.434455
0.694259 0.571062 0.456599
0.741775 0.579754 0.492513
0.778537 0.583413 0.521561
0.812173 0.592550 0.550528
0.846497 0.601448 0.580934
0.877927 0.612878 0.609794
0.908984 0.626459 0.638902
0.933842 0.638682 0.662503
0.960852 0.654647 0.688542
0.988859 0.670856 0.715612
1.012095 0.687075 0.738325
0.953852 0.676043 0.684357
0.971417 0.692310 0.702856
0.991241 0.710327 0.723442
1.017949 0.734285 0.750422
1.042258 0.756346 0.775011
0.501004 0.611575 0.401439
0.502199 0.610284 0.400609
0.503460 0.610297 0.400812
0.505912 0.609021 0.400205
0.509671 0.607773 0.399999
0.512183 0.606515 0.399617
0.518584 0.606616 0.401112
0.526189 0.604140 0.400924
0.537595 0.600429 0.400739
0.551765 0.598173 0.403339
0.564625 0.594598 0.404642
0.573702 0.594845 0.407788
0.586696 0.593990 0.412055
0.603595 0.594538 0.418641
0.621812 0.594070 0.426367
0.646478 0.593997 0.437736
0.668552 0.595454 0.450366
0.695707 0.597565 0.466969
0.741871 0.602538 0.498873
0.778602 0.604808 0.526271
0.814690 0.613206 0.556271
0.847747 0.619897 0.584633
0.880351 0.629614 0.613863
0.912563 0.642649 0.643740
0.937387 0.653888 0.667126
0.964378 0.668088 0.692874
0.991195 0.682325 0.718608
1.015577 0.698346 0.742347
1.037569 0.712466 0.763764
0.977254 0.704178 0.708239
0.997061 0.721539 0.729009
1.022583 0.742958 0.754873
1.042259 0.760108 0.774983
0.550370 0.635551 0.429934
0.554209 0.635612 0.430839
0.555488 0.635632 0.431141
0.558003 0.634380 0.430762
0.560520 0.633129 0.430384
0.564319 0.631897 0.430310
0.568121 0.630671 0.430294
0.575805 0.628280 0.430899
0.587364 0.625978 0.432703
0.600221 0.623722 0.435055
0.605385 0.622619 0.436298
0.611870 0.622829 0.438837
0.620947 0.623124 0.442405
0.632575 0.622231 0.446186
0.646811 0.621605 0.452164
0.663651 0.622386 0.460293
0.681706 0.622163 0.469250
0.706163 0.623779 0.483326
0.743260 0.625900 0.507007
0.779953 0.631564 0.533971
0.818449 0.634678 0.563540
0.849007 0.640500 0.589128
0.883986 0.649400 0.619741
0.914961 0.660097 0.647869
0.940929 0.668258 0.671704
0.965562 0.681155 0.695154
0.995859 0.695861 0.723996
1.017902 0.708904 0.745268
1.039889 0.722477 0.766618
1.064151 0.739003 0.790317
1.004023 0.732065 0.735142
1.024900 0.749770 0.756890
1.044574 0.767586 0.777293
0.605003 0.660894 0.461874
0.606258 0.659649 0.461385
0.606258 0.659649 0.461385
0.608799 0.658433 0.461297
0.612659 0.658520 0.462494
0.615200 0.657305 0.462407
