Assets/Lutify-Free-LUTs-Pack/Lutify Free LUTs Pack/Cine World Pro Warm - Amy/Lutify.me-Amy-Cineon-to-Rec709.cube
# Created with: fylm.ai - Colour Grading and Collaboration Software in Cloud 
# Website: https://fylm.ai 
# META
# Option: Gamut compress
# Block 1: IDT | ADX10
# Block 2: colourMatch | Blending Mode: Normal | {"ColorSpace":0,"CrossCovarianceLimit":50,"ReshapingIterations":1,"PercentSaturationShift":100,"PercentShadingShift":100,"ExtraShading":true,"PercentTint":100,"PercentModified":100}
# Block 3: LUT | Filmic Curve Response: Standard Contrast 1 (100%)
# Block 4: LUT | Illuminant: D60 (100%)
# Block 5: hueSaturation | Blending Mode: Normal | {"hue":0,"saturation":-0.15}
# Block 6: logPrimaries | Blending Mode: Normal | {"wheels":{"shadows":{"Y":"0","R":"1","G":"1","B":"1"},"midtones":{"Y":"0","R":"1","G":"1","B":"1"},"highlights":{"Y":"0","R":"1","G":"1","B":"1"},"offset":{"Y":"0","R":"1","G":"1","B":"1"}},"sliders":{"shadows":{"Y":0,"R":-0.097,"G":0,"B":0.158},"midtones":{"Y":0,"R":0.024,"G":0.024,"B":-0.036},"highlights":{"Y":0,"R":0.154,"G":-0.084,"B":-0.024},"offset":{"Y":0.048,"R":0,"G":0,"B":0}}}
# Block 7: smartCurves | Blending Mode: Average | [[{"x":0,"y":0},{"x":0.11328125,"y":0.085540771484375},{"x":0.21484375,"y":0.218353271484375},{"x":0.37109375,"y":0.382415771484375},{"x":0.62109375,"y":0.589447021484375},{"x":0.8125,"y":0.765228271484375},{"x":1,"y":1}],[{"x":0,"y":0},{"x":1,"y":1}],[{"x":0,"y":0},{"x":1,"y":1}],[{"x":0,"y":0},{"x":1,"y":1}]]
# Block 8: LUT | Neutral Tint: Teal Tint 4 (100%)
# Block 9: contrast | Blending Mode: Normal | {"contrast":0.1}
# Block 10: ODT | Rec709
TITLE "Lutify.me-Amy-Cineon-to-Rec709" 
LUT_3D_SIZE 33
0.000000 0.000000 0.000000
0.000000 0.000000 0.000000
0.000000 0.000000 0.000000
0.000000 0.000000 0.000000
0.000000 0.000000 0.000000
0.000000 0.000000 0.000000
0.000000 0.000000 0.000000
0.046594 0.000000 0.000000
0.079308 0.000000 0.000000
0.109703 0.000000 0.000000
0.132721 0.000000 0.000000
0.154554 0.000000 0.000000
0.184928 0.000000 0.000000
0.225608 0.000000 0.000000
0.258960 0.000000 0.000000
0.296073 0.000000 0.000000
0.330782 0.000000 0.008327
0.373422 0.000000 0.014238
0.419688 0.000000 0.020114
0.483422 0.000000 0.022862
0.531948 0.000000 0.027248
0.599500 0.000000 0.033657
0.665484 0.000000 0.039181
0.732888 0.000000 0.045903
0.813499 0.000000 0.056745
0.889551 0.000000 0.071913
0.943875 0.000000 0.095718
0.993007 0.000000 0.121993
1.000000 0.102858 0.148633
1.000000 0.232926 0.177262
1.000000 0.335456 0.214090
1.000000 0.414527 0.255761
1.000000 0.473403 0.304355
0.000000 0.000000 0.000000
0.000000 0.000000 0.000000
0.000000 0.000000 0.000000
0.000000 0.000000 0.000000
0.000000 0.000000 0.000000
0.000000 0.000000 0.000000
0.000000 0.000000 0.000000
0.056339 0.000000 0.000000
0.090035 0.000000 0.000000
0.116175 0.000000 0.000000
0.138335 0.000000 0.000000
0.161660 0.000000 0.000000
0.195521 0.000000 0.000000
0.233894 0.000000 0.000000
0.268557 0.000000 0.000000
0.304330 0.000000 0.002522
0.347585 0.000000 0.000000
0.384386 0.000000 0.017282
0.438726 0.000000 0.022027
0.501653 0.000000 0.023081
0.551489 0.000000 0.029616
0.615819 0.000000 0.036488
0.682248 0.000000 0.041180
0.758343 0.000000 0.048962
0.842776 0.000000 0.059359
0.903963 0.000000 0.079414
0.958818 0.000000 0.103725
1.000000 0.000000 0.129684
1.000000 0.155749 0.156302
1.000000 0.267242 0.187718
1.000000 0.360440 0.224433
1.000000 0.426102 0.270726
1.000000 0.494996 0.320093
0.000000 0.000000 0.000000
0.000000 0.000000 0.000000
0.000000 0.000000 0.000000
0.000000 0.000000 0.000000
0.000000 0.000000 0.000000
0.000000 0.000000 0.000000
0.016774 0.000000 0.000000
0.065203 0.000000 0.000000
0.097787 0.000000 0.000000
0.122643 0.000000 0.000000
0.145129 0.000000 0.000000
0.170411 0.000000 0.000000
0.206994 0.000000 0.000000
0.240800 0.000000 0.000000
0.276480 0.000000 0.000000
0.319409 0.000000 0.000000
0.362821 0.000000 0.009366
0.398669 0.000000 0.020149
0.451974 0.000000 0.022783
0.512788 0.000000 0.024475
0.571337 0.000000 0.031626
0.632281 0.000000 0.038761
0.699074 0.000000 0.042908
0.783762 0.000000 0.050864
0.862768 0.000000 0.065810
0.921070 0.000000 0.086702
0.975236 0.000000 0.111664
1.000000 0.000000 0.136539
1.000000 0.190113 0.165644
1.000000 0.299606 0.198699
1.000000 0.385666 0.237789
1.000000 0.449889 0.283679
1.000000 0.514457 0.338176
0.000000 0.000000 0.000000
0.000000 0.000000 0.000000
0.000000 0.000000 0.000000
0.000000 0.000000 0.000000
0.000000 0.000000 0.000000
0.000000 0.000000 0.004807
0.037146 0.000000 0.000000
0.075174 0.000000 0.000000
0.103981 0.000000 0.000000
0.123933 0.000000 0.000000
0.146567 0.000000 0.000000
0.177427 0.000000 0.000000
0.211492 0.000000 0.000000
0.249626 0.000000 0.000000
0.287936 0.000000 0.005669
0.328430 0.000000 0.005404
0.368101 0.000000 0.016688
0.410572 0.000000 0.021853
0.469222 0.000000 0.024688
0.528161 0.000000 0.027881
0.591455 0.000000 0.033919
0.657163 0.000000 0.039172
0.724388 0.000000 0.046033
0.804907 0.000000 0.055849
0.878042 0.000000 0.071091
0.937327 0.000000 0.095119
0.990267 0.000000 0.121442
1.000000 0.105078 0.146275
1.000000 0.226711 0.173603
1.000000 0.329886 0.211734
1.000000 0.409127 0.252943
1.000000 0.471745 0.300769
1.000000 0.533809 0.357131
0.000000 0.000000 0.000000
0.000000 0.000000 0.000000
0.000000 0.000000 0.000000
0.000000 0.000000 0.000000
0.000000 0.000000 0.000000
0.000000 0.000000 0.017048
0.045212 0.000000 0.000000
0.077796 0.000000 0.000000
0.105402 0.000000 0.000000
0.128082 0.000000 0.000000
0.150800 0.000000 0.000000
0.181836 0.000000 0.000000
0.218810 0.000000 0.000000
0.254934 0.000000 0.000000
0.295849 0.000000 0.010135
0.333091 0.000000 0.014428
0.376192 0.000000 0.021078
0.426048 0.000000 0.023917
0.487226 0.000000 0.024710
0.547703 0.000000 0.031392
0.607750 0.000000 0.035911
0.678070 0.000000 0.041389
0.749732 0.000000 0.047943
0.834329 0.000000 0.061006
0.896336 0.000000 0.078689
0.955367 0.000000 0.103527
0.999336 0.000000 0.128520
1.000000 0.155875 0.154125
1.000000 0.270638 0.186200
1.000000 0.359114 0.221578
1.000000 0.424534 0.267453
1.000000 0.494179 0.314492
1.000000 0.554781 0.372371
0.000000 0.000000 0.004484
0.000000 0.000000 0.004611
0.000000 0.004373 0.004493
0.000000 0.007869 0.000000
0.000000 0.012856 0.000000
0.000000 0.018417 0.016723
0.040357 0.018281 0.000000
0.077382 0.009358 0.000000
0.104365 0.000000 0.000000
0.128154 0.000000 0.000000
0.156101 0.000000 0.000000
0.191465 0.000000 0.000000
0.231561 0.000000 0.003395
0.266308 0.000000 0.009601
0.306214 0.000000 0.012616
0.352642 0.000000 0.018512
0.393037 0.000000 0.022228
0.448874 0.000000 0.023728
0.509327 0.000000 0.026635
0.567549 0.000000 0.032533
0.632395 0.000000 0.037691
0.694857 0.000000 0.042487
0.775099 0.000000 0.053221
0.854478 0.000000 0.066680
0.917288 0.000000 0.087643
0.966273 0.000000 0.112434
1.000000 0.070352 0.135213
1.000000 0.202075 0.164565
1.000000 0.307028 0.196694
1.000000 0.382874 0.233829
1.000000 0.450491 0.278818
1.000000 0.512776 0.334285
1.000000 0.572969 0.388788
0.000000 0.033128 0.009491
0.000000 0.035100 0.008948
0.000000 0.036946 0.005766
0.000000 0.039449 0.000000
0.000000 0.040924 0.000000
0.000000 0.042426 0.000000
0.040646 0.043042 0.000000
0.070171 0.043803 0.000000
0.100496 0.041678 0.000000
0.132058 0.036196 0.000000
0.163058 0.026288 0.000000
0.202270 0.000000 0.000000
0.238243 0.000000 0.000000
0.273921 0.000000 0.010777
0.321558 0.000000 0.015352
0.365676 0.000000 0.018069
0.410934 0.000000 0.022304
0.466185 0.000000 0.022297
0.528598 0.000000 0.028753
0.587758 0.000000 0.034220
0.657282 0.000000 0.038733
0.720073 0.000000 0.046301
0.796143 0.000000 0.057315
0.873639 0.000000 0.071874
0.933368 0.000000 0.096353
0.984240 0.000000 0.120669
1.000000 0.143828 0.144262
1.000000 0.242107 0.173400
1.000000 0.336760 0.209690
1.000000 0.410230 0.246334
1.000000 0.470136 0.297217
1.000000 0.531231 0.352399
1.000000 0.594447 0.402442
0.000000 0.057203 0.015725
0.000000 0.058148 0.015424
0.000000 0.060112 0.011023
0.000000 0.059362 0.000000
0.000000 0.061315 0.000000
0.000000 0.061765 0.000000
0.035498 0.062311 0.000000
0.068301 0.062402 0.000000
0.101811 0.062114 0.000000
0.135053 0.061696 0.000000
0.167843 0.057548 0.000000
0.207538 0.048849 0.000000
0.252730 0.036611 0.000000
0.289544 0.000000 0.008450
0.328625 0.000000 0.015233
0.376746 0.000000 0.019796
0.426868 0.000000 0.018104
0.488122 0.000000 0.020805
0.544674 0.000000 0.028314
0.612308 0.000000 0.032876
0.678180 0.000000 0.038970
0.745294 0.000000 0.050018
0.821248 0.000000 0.061800
0.891938 0.000000 0.080838
0.948273 0.000000 0.105618
0.993181 0.087602 0.128791
1.000000 0.183580 0.153274
1.000000 0.289006 0.185581
1.000000 0.365565 0.219448
1.000000 0.430028 0.265202
1.000000 0.495427 0.312365
1.000000 0.556586 0.368009
1.000000 0.616570 0.416989
0.000000 0.077869 0.020823
0.000000 0.078512 0.020605
0.000000 0.081130 0.015375
0.000000 0.081801 0.000000
0.000000 0.081803 0.000000
0.000000 0.083818 0.000000
0.000000 0.083077 0.000000
0.061685 0.085527 0.000000
0.097653 0.085028 0.000000
0.132660 0.084887 0.000000
0.175746 0.083137 0.000000
0.219661 0.080218 0.000000
0.260409 0.076038 0.000000
0.302228 0.066841 0.000000
0.346087 0.060998 0.000000
0.388675 0.047840 0.000000
0.447205 0.000000 0.000000
0.507091 0.000000 0.015363
0.568722 0.000000 0.026371
0.633022 0.000000 0.030439
0.694957 0.000000 0.041035
0.766203 0.000000 0.051129
0.849596 0.000000 0.065728
0.905480 0.000000 0.089417
0.961932 0.000000 0.112587
1.000000 0.147853 0.136531
1.000000 0.235311 0.166485
1.000000 0.323957 0.197935
1.000000 0.393119 0.233301
1.000000 0.456605 0.277058
1.000000 0.513947 0.332122
1.000000 0.574710 0.384378
1.000000 0.638380 0.437422
0.000000 0.097894 0.028294
0.000000 0.100316 0.026685
0.000000 0.101971 0.019910
0.000000 0.104516 0.000000
0.000000 0.103688 0.000000
0.000000 0.107057 0.000000
0.000000 0.108340 0.000000
0.031025 0.112187 0.000000
0.086335 0.113719 0.000000
0.131613 0.113136 0.000000
0.179658 0.113927 0.000000
0.228486 0.113172 0.000000
0.269235 0.112956 0.000000
0.311479 0.112621 0.000000
0.362571 0.105553 0.000000
0.404413 0.099555 0.000000
0.461942 0.091309 0.000000
0.523285 0.073045 0.006058
0.589299 0.049339 0.017450
0.657979 0.000000 0.030851
0.720075 0.000000 0.042500
0.795419 0.000000 0.054951
0.868377 0.000000 0.072899
0.928063 0.062618 0.096958
0.976758 0.137062 0.121226
1.000000 0.197713 0.147041
1.000000 0.286550 0.177514
1.000000 0.361304 0.210226
1.000000 0.416814 0.251004
1.000000 0.478320 0.296406
1.000000 0.536712 0.350585
1.000000 0.596141 0.400803
1.000000 0.662491 0.455161
0.000000 0.131614 0.028248
0.000000 0.132702 0.025932
0.000000 0.133799 0.021058
0.000000 0.138277 0.000000
0.000000 0.141802 0.000000
0.000000 0.141683 0.000000
0.000000 0.144967 0.000000
0.000000 0.146892 0.000000
0.053089 0.148422 0.000000
0.122927 0.147679 0.000000
0.179451 0.146773 0.000000
0.230849 0.148512 0.000000
0.277197 0.147209 0.000000
0.325503 0.144691 0.000000
0.371836 0.143461 0.000000
0.421261 0.140628 0.000000
0.484891 0.139050 0.000000
0.536491 0.136552 0.000000
0.610386 0.130298 0.000000
0.679083 0.129686 0.027443
0.745134 0.132581 0.042928
0.820029 0.127850 0.056968
0.889533 0.131561 0.080448
0.941953 0.166562 0.107172
0.987322 0.203289 0.131210
1.000000 0.260769 0.159876
1.000000 0.329395 0.188139
1.000000 0.392845 0.223250
1.000000 0.447381 0.266397
1.000000 0.504986 0.312796
1.000000 0.561994 0.368950
1.000000 0.620759 0.417236
1.000000 0.684586 0.472460
0.000000 0.168819 0.028563
0.000000 0.168819 0.023415
0.000000 0.170243 0.011026
0.000000 0.171682 0.000000
0.000000 0.174616 0.000000
0.000000 0.178942 0.000000
0.000000 0.180257 0.000000
0.000000 0.182894 0.000000
0.000000 0.186956 0.000000
0.091005 0.187034 0.000000
0.164319 0.188819 0.000000
0.222161 0.188907 0.000000
0.279332 0.187665 0.000000
0.330616 0.186029 0.000000
0.383573 0.191153 0.000000
0.439590 0.189317 0.000000
0.505683 0.186705 0.000000
0.565618 0.187750 0.000000
0.620035 0.190210 0.000000
0.688065 0.192138 0.020903
0.761704 0.189035 0.042637
0.847281 0.190514 0.061168
0.901841 0.203379 0.089924
0.957166 0.225975 0.119013
1.000000 0.272126 0.143729
1.000000 0.317999 0.174070
1.000000 0.375219 0.205715
1.000000 0.424205 0.237536
1.000000 0.477435 0.280378
1.000000 0.529919 0.331538
1.000000 0.589722 0.386831
1.000000 0.649705 0.438050
1.000000 0.706209 0.490843
0.000000 0.206034 0.045032
0.000000 0.209446 0.039496
0.000000 0.209447 0.028710
0.000000 0.212912 0.000000
0.000000 0.212915 0.000000
0.000000 0.219706 0.000000
0.000000 0.224565 0.000000
0.000000 0.225878 0.000000
0.000000 0.226970 0.000000
0.000000 0.230898 0.000000
0.125971 0.233967 0.000000
0.201807 0.234227 0.000000
0.272961 0.232787 0.000000
0.334076 0.230627 0.000000
0.396278 0.231433 0.000000
0.457520 0.231539 0.000000
0.523016 0.233365 0.000000
0.583147 0.233231 0.000000
0.641460 0.239006 0.000000
0.705050 0.240992 0.000000
0.786143 0.242468 0.043630
0.864683 0.249865 0.071600
0.922056 0.270772 0.098530
0.969154 0.294269 0.127612
1.000000 0.331324 0.153431
1.000000 0.371227 0.186593
1.000000 0.414807 0.218118
1.000000 0.458443 0.258785
1.000000 0.507084 0.297622
1.000000 0.559605 0.352365
1.000000 0.615202 0.403785
1.000000 0.673237 0.455860
1.000000 0.727211 0.507428
0.000000 0.246110 0.069489
0.000000 0.248010 0.062475
0.000000 0.253760 0.051350
0.000000 0.255721 0.035996
0.000000 0.255695 0.022657
0.000000 0.259546 0.000000
0.000000 0.261366 0.000000
0.000000 0.267110 0.000000
0.000000 0.272810 0.000000
0.000000 0.273843 0.000000
0.000000 0.274348 0.000000
0.178080 0.277915 0.000000
0.251070 0.278767 0.000000
0.328300 0.280088 0.000000
0.399075 0.275604 0.000000
0.469699 0.277636 0.000000
0.538715 0.279818 0.000000
0.596251 0.283296 0.000000
0.670314 0.287260 0.000000
0.729623 0.294002 0.000000
0.805558 0.302194 0.054069
0.872780 0.313913 0.085758
0.930169 0.334236 0.110335
0.976750 0.354737 0.139151
1.000000 0.391397 0.169382
1.000000 0.422665 0.200545
1.000000 0.461476 0.237200
1.000000 0.500386 0.271867
1.000000 0.540697 0.321551
1.000000 0.591780 0.370411
1.000000 0.646977 0.423510
1.000000 0.699112 0.477573
1.000000 0.746127 0.526363
0.000000 0.288566 0.097923
0.000000 0.290822 0.088775
0.000000 0.297605 0.077502
0.000000 0.299897 0.066959
0.000000 0.304531 0.055381
0.000000 0.309218 0.040107
0.000000 0.309119 0.000000
0.000000 0.313730 0.000000
0.000000 0.318255 0.000000
0.000000 0.324969 0.000000
0.000000 0.328902 0.000000
0.119847 0.329139 0.000000
0.222922 0.334187 0.000000
0.302201 0.335778 0.000000
0.392908 0.335189 0.000000
0.483920 0.339457 0.000000
0.545580 0.342704 0.000000
0.614544 0.344809 0.000000
0.682119 0.346851 0.000000
0.753070 0.352093 0.000000
0.830587 0.364340 0.065625
0.882929 0.373226 0.103736
0.936309 0.395583 0.128345
0.979768 0.417180 0.153223
1.000000 0.441579 0.182895
1.000000 0.473406 0.218787
1.000000 0.502934 0.255853
1.000000 0.541636 0.290937
1.000000 0.584286 0.340282
1.000000 0.627102 0.391571
1.000000 0.680037 0.443559
1.000000 0.723986 0.491423
1.000000 0.764273 0.543535
0.000000 0.341659 0.135772
0.000000 0.344352 0.128403
0.000000 0.349768 0.118567
0.000000 0.355255 0.108362
0.000000 0.360808 0.101222
0.000000 0.366454 0.089705
0.000000 0.372171 0.074578
0.000000 0.374967 0.057856
0.000000 0.377622 0.041903
0.000000 0.383044 0.000000
0.000000 0.388186 0.000000
0.000000 0.392735 0.000000
0.151818 0.396804 0.000000
0.269416 0.397197 0.000000
0.371035 0.396019 0.000000
0.475690 0.399347 0.000000
0.560608 0.399194 0.000000
0.620208 0.404161 0.000000
0.686036 0.415675 0.000000
0.762781 0.418645 0.035928
0.845757 0.420983 0.085807
0.897396 0.435384 0.118830
0.938745 0.447980 0.146228
0.983826 0.474131 0.172764
1.000000 0.490826 0.201214
1.000000 0.522851 0.238368
1.000000 0.555739 0.275392
1.000000 0.589746 0.319184
1.000000 0.627253 0.363207
1.000000 0.671700 0.410458
1.000000 0.704254 0.463749
1.000000 0.742547 0.512390
1.000000 0.785858 0.564882
0.000000 0.396040 0.168611
0.000000 0.399181 0.162142
0.000000 0.405501 0.156907
0.000000 0.411916 0.147520
0.000000 0.415139 0.138690
0.000000 0.421586 0.134934
0.000000 0.428203 0.124686
0.000000 0.434827 0.111480
0.000000 0.441353 0.097064
0.000000 0.444344 0.082313
0.000000 0.447062 0.068030
0.000000 0.452724 0.059350
0.000000 0.457877 0.048392
0.217105 0.458886 0.030166
0.343607 0.458548 0.000000
0.452244 0.456692 0.000000
0.547465 0.461053 0.000000
0.625252 0.465781 0.000000
0.691585 0.467288 0.045274
0.778754 0.474117 0.082518
0.851456 0.482774 0.110099
0.906267 0.494039 0.138095
0.951201 0.507375 0.165830
0.985115 0.522492 0.193762
1.000000 0.551486 0.225431
1.000000 0.574935 0.258872
1.000000 0.607661 0.299827
1.000000 0.640742 0.344199
1.000000 0.672316 0.390566
1.000000 0.705796 0.435880
1.000000 0.731836 0.483485
1.000000 0.769555 0.531318
1.000000 0.803357 0.582776
0.000000 0.458787 0.206283
0.000000 0.462227 0.203482
0.000000 0.465674 0.198399
0.000000 0.465669 0.191650
0.000000 0.472585 0.185867
0.000000 0.479528 0.179961
0.000000 0.486486 0.173922
0.000000 0.493440 0.163028
0.000000 0.500309 0.154217
0.000000 0.506986 0.140125
0.000000 0.517105 0.129046
0.000000 0.519606 0.128268
0.000000 0.521765 0.124736
0.090903 0.526762 0.113814
0.311112 0.526823 0.106894
0.428014 0.529790 0.097455
0.519470 0.528750 0.096622
0.609985 0.530309 0.097690
0.700381 0.530902 0.099340
0.782014 0.539333 0.118140
0.851361 0.545220 0.131952
0.906516 0.557066 0.156614
0.950819 0.570880 0.186962
0.987283 0.590241 0.220484
1.000000 0.611370 0.245516
1.000000 0.634381 0.281828
1.000000 0.661593 0.326274
1.000000 0.684703 0.377098
1.000000 0.710219 0.419433
1.000000 0.736522 0.461554
1.000000 0.765218 0.508084
1.000000 0.795059 0.558831
1.000000 0.820145 0.610336
0.000000 0.529161 0.257312
0.000000 0.532762 0.254162
0.000000 0.532753 0.251524
0.000000 0.532738 0.248902
0.000000 0.536331 0.245760
0.000000 0.543552 0.239407
0.000000 0.547143 0.233604
0.000000 0.557988 0.226548
0.000000 0.565120 0.220063
0.000000 0.572099 0.213544
0.000000 0.582525 0.203493
0.000000 0.588995 0.194030
0.000000 0.598771 0.183432
0.000000 0.600667 0.177332
0.224923 0.604909 0.170236
0.380857 0.601275 0.165164
0.488693 0.604559 0.157809
0.587260 0.607030 0.150436
0.685313 0.608396 0.152936
0.781984 0.612822 0.151885
0.851619 0.619242 0.167227
0.903069 0.623791 0.189789
0.945960 0.633806 0.217834
0.985082 0.645329 0.250287
1.000000 0.662351 0.281798
1.000000 0.686767 0.314356
1.000000 0.707404 0.356311
1.000000 0.727000 0.401265
1.000000 0.752221 0.448686
1.000000 0.772533 0.489970
1.000000 0.795946 0.532814
1.000000 0.818678 0.581671
1.000000 0.841598 0.636707
0.000000 0.602138 0.318146
0.000000 0.602131 0.315012
0.000000 0.605811 0.314609
0.000000 0.613201 0.310619
0.000000 0.616883 0.307065
0.000000 0.624277 0.299917
0.000000 0.627934 0.299494
0.000000 0.631571 0.292832
0.000000 0.635117 0.286237
0.000000 0.642263 0.276075
0.000000 0.652930 0.268450
0.000000 0.659515 0.264518
0.000000 0.665801 0.257471
0.000000 0.667881 0.247963
0.000000 0.676228 0.237211
0.313783 0.676801 0.234055
0.451789 0.672970 0.228671
0.564064 0.679575 0.221258
0.681751 0.677032 0.212839
0.777495 0.678319 0.216946
0.844279 0.684889 0.217678
0.895987 0.688974 0.235751
0.941498 0.694150 0.251626
0.978948 0.700758 0.284375
1.000000 0.715433 0.315577
1.000000 0.733527 0.355181
1.000000 0.756359 0.391053
1.000000 0.772633 0.434866
1.000000 0.787901 0.475895
1.000000 0.807105 0.518313
1.000000 0.825788 0.562781
1.000000 0.843341 0.610911
1.000000 0.861372 0.667629
0.000000 0.668866 0.379181
0.000000 0.672573 0.378854
0.000000 0.680006 0.378176
0.000000 0.687436 0.373927
0.000000 0.687399 0.370394
0.000000 0.694792 0.369712
0.000000 0.698445 0.365823
0.000000 0.702064 0.358370
0.000000 0.709296 0.354127
0.000000 0.716302 0.346355
0.000000 0.726626 0.338269
0.000000 0.732985 0.330664
0.000000 0.731785 0.327512
0.000000 0.730126 0.317425
0.000000 0.734589 0.306740
0.233547 0.734938 0.303538
0.405065 0.738304 0.293174
0.532901 0.743994 0.286172
0.659497 0.741487 0.284060
0.762410 0.735577 0.279612
0.834981 0.740647 0.284904
0.886977 0.746846 0.287576
0.931130 0.750587 0.301633
0.968912 0.758349 0.323869
0.998309 0.769829 0.357627
1.000000 0.781241 0.397468
1.000000 0.795038 0.435799
1.000000 0.808235 0.470085
1.000000 0.825114 0.508461
1.000000 0.837650 0.548347
1.000000 0.851684 0.592753
1.000000 0.866152 0.639992
1.000000 0.879872 0.691985
0.000000 0.734653 0.438901
0.000000 0.738110 0.438656
0.000000 0.744979 0.434462
0.000000 0.744937 0.434487
0.000000 0.751659 0.430325
0.000000 0.758246 0.429879
0.000000 0.764707 0.429456
0.000000 0.764571 0.429515
0.000000 0.770800 0.425452
0.000000 0.776834 0.421428
0.000000 0.782505 0.417494
0.000000 0.790995 0.409698
0.000000 0.790050 0.398858
0.000000 0.793993 0.391559
0.000000 0.794656 0.380804
0.000000 0.794738 0.377517
0.362811 0.794092 0.370764
0.504466 0.795739 0.360452
0.632447 0.796056 0.357973
0.735585 0.798734 0.352459
0.813144 0.799317 0.347878
0.875309 0.800386 0.355203
0.926209 0.799745 0.360104
0.961384 0.805264 0.379561
0.989048 0.813870 0.406668
1.000000 0.822867 0.444159
1.000000 0.833921 0.478165
1.000000 0.842907 0.509850
1.000000 0.851742 0.545023
1.000000 0.863733 0.584901
1.000000 0.875217 0.626542
1.000000 0.885473 0.671924
1.000000 0.896437 0.716492
0.000000 0.792716 0.506250
0.000000 0.795632 0.506118
0.000000 0.798505 0.505995
0.000000 0.804194 0.505750
0.000000 0.809734 0.505535
0.000000 0.815116 0.505353
0.000000 0.817674 0.501523
0.000000 0.822788 0.501397
0.000000 0.827688 0.501317
0.000000 0.829886 0.497567
0.000000 0.834366 0.493807
0.000000 0.838502 0.490116
0.000000 0.839890 0.486512
0.000000 0.845325 0.475500
0.000000 0.847619 0.464673
0.000000 0.851805 0.457725
0.294740 0.850530 0.454640
0.479652 0.846531 0.444324
0.622842 0.845720 0.438292
0.719311 0.843361 0.436160
0.795422 0.847581 0.431492
0.861958 0.847673 0.435005
0.914281 0.846448 0.435921
0.953636 0.846234 0.441553
0.981417 0.848989 0.461373
1.000000 0.857861 0.489149
1.000000 0.863237 0.522467
1.000000 0.870373 0.547746
1.000000 0.877347 0.579881
1.000000 0.885555 0.619702
1.000000 0.893742 0.666172
1.000000 0.902531 0.704885
1.000000 0.913121 0.741055
0.000000 0.847354 0.576513
0.000000 0.851852 0.580270
0.000000 0.854022 0.584060
0.000000 0.858402 0.584049
0.000000 0.862643 0.587854
0.000000 0.862514 0.587880
0.000000 0.866667 0.587917
0.000000 0.870638 0.587992
0.000000 0.874552 0.588082
0.000000 0.878257 0.588210
0.000000 0.879689 0.584569
0.000000 0.881017 0.580940
0.000000 0.883791 0.573682
0.000000 0.884368 0.566399
0.000000 0.886325 0.559289
0.000000 0.887146 0.556077
0.217512 0.889679 0.545672
0.461954 0.887195 0.535320
0.610528 0.887448 0.529371
0.702691 0.885179 0.523293
0.781876 0.882835 0.521483
0.846761 0.880806 0.520446
0.901639 0.880685 0.520900
0.941930 0.881358 0.522571
0.972421 0.884201 0.522337
0.995212 0.886162 0.539450
1.000000 0.890038 0.565609
1.000000 0.894108 0.595962
1.000000 0.899651 0.624461
1.000000 0.906616 0.661431
1.000000 0.914346 0.700781
1.000000 0.919652 0.737822
1.000000 0.926847 0.765341
0.000000 0.890644 0.659786
0.000000 0.894253 0.663583
0.000000 0.895968 0.667315
0.000000 0.899440 0.667426
0.000000 0.902759 0.671199
0.000000 0.904305 0.674887
0.000000 0.907495 0.675037
0.000000 0.910520 0.675212
0.000000 0.911884 0.671728
0.000000 0.913023 0.668251
0.000000 0.917078 0.668615
0.000000 0.916118 0.665057
0.000000 0.916630 0.657962
0.000000 0.915332 0.650683
0.000000 0.916828 0.643695
0.000000 0.917540 0.640492
0.161934 0.918590 0.637618
0.439980 0.914680 0.626981
0.595776 0.914060 0.617307
0.693387 0.912780 0.607734
0.767270 0.911838 0.605811
0.831976 0.910920 0.604562
0.891010 0.911254 0.601416
0.932227 0.910003 0.598617
0.963113 0.909362 0.603572
0.986154 0.910600 0.603146
1.000000 0.913491 0.619994
1.000000 0.917767 0.643724
1.000000 0.922120 0.676504
1.000000 0.925683 0.703119
1.000000 0.930158 0.735065
1.000000 0.934683 0.764676
1.000000 0.941298 0.790559
0.000000 0.927229 0.729886
0.000000 0.928517 0.733081
0.000000 0.929729 0.736247
0.000000 0.930862 0.739381
0.000000 0.933385 0.739531
