Assets/Lutify-Free-LUTs-Pack/Lutify Free LUTs Pack/Cine World Pro Warm - Amy/Lutify.me-Amy-CanonLog2-to-Rec709.cube
# Created with: fylm.ai - Colour Grading and Collaboration Software in Cloud 
# Website: https://fylm.ai 
# META
# Option: Gamut compress
# Block 1: IDT | CanonLog2 Cinema Gamut Daylight
# Block 2: colourMatch | Blending Mode: Normal | {"ColorSpace":0,"CrossCovarianceLimit":50,"ReshapingIterations":1,"PercentSaturationShift":100,"PercentShadingShift":100,"ExtraShading":true,"PercentTint":100,"PercentModified":100}
# Block 3: LUT | Filmic Curve Response: Standard Contrast 1 (100%)
# Block 4: LUT | Illuminant: D60 (100%)
# Block 5: hueSaturation | Blending Mode: Normal | {"hue":0,"saturation":-0.15}
# Block 6: logPrimaries | Blending Mode: Normal | {"wheels":{"shadows":{"Y":"0","R":"1","G":"1","B":"1"},"midtones":{"Y":"0","R":"1","G":"1","B":"1"},"highlights":{"Y":"0","R":"1","G":"1","B":"1"},"offset":{"Y":"0","R":"1","G":"1","B":"1"}},"sliders":{"shadows":{"Y":0,"R":-0.097,"G":0,"B":0.158},"midtones":{"Y":0,"R":0.024,"G":0.024,"B":-0.036},"highlights":{"Y":0,"R":0.154,"G":-0.084,"B":-0.024},"offset":{"Y":0.048,"R":0,"G":0,"B":0}}}
# Block 7: smartCurves | Blending Mode: Average | [[{"x":0,"y":0},{"x":0.11328125,"y":0.085540771484375},{"x":0.21484375,"y":0.218353271484375},{"x":0.37109375,"y":0.382415771484375},{"x":0.62109375,"y":0.589447021484375},{"x":0.8125,"y":0.765228271484375},{"x":1,"y":1}],[{"x":0,"y":0},{"x":1,"y":1}],[{"x":0,"y":0},{"x":1,"y":1}],[{"x":0,"y":0},{"x":1,"y":1}]]
# Block 8: LUT | Neutral Tint: Teal Tint 4 (100%)
# Block 9: contrast | Blending Mode: Normal | {"contrast":0.1}
# Block 10: ODT | Rec709
TITLE "Lutify.me-Amy-CanonLog2-to-Rec709" 
LUT_3D_SIZE 33
0.000000 0.000000 0.000000
0.000000 0.000000 0.000000
0.000000 0.000000 0.000000
0.000000 0.000000 0.000000
0.000000 0.000000 0.000000
0.057012 0.000000 0.000000
0.117599 0.000000 0.000000
0.163177 0.000000 0.000000
0.227280 0.000000 0.000000
0.296070 0.000000 0.000000
0.365237 0.000000 0.000000
0.425482 0.000000 0.000000
0.504668 0.000000 0.000000
0.574435 0.000000 0.000000
0.648163 0.000000 0.000000
0.720014 0.000000 0.000000
0.822925 0.000000 0.000000
0.917707 0.000000 0.018780
0.997218 0.000000 0.055612
1.000000 0.000000 0.096224
1.000000 0.000000 0.143707
1.000000 0.139298 0.198624
1.000000 0.323793 0.250895
1.000000 0.451581 0.328881
1.000000 0.562325 0.418801
1.000000 0.661151 0.497824
1.000000 0.744513 0.580585
1.000000 0.803508 0.668880
1.000000 0.851520 0.746289
1.000000 0.888172 0.803745
1.000000 0.916753 0.852350
1.000000 0.938221 0.884881
1.000000 0.955258 0.913393
0.000000 0.000000 0.000000
0.000000 0.000000 0.000000
0.000000 0.000000 0.000000
0.000000 0.000000 0.000000
0.000000 0.000000 0.000000
0.053300 0.000000 0.000000
0.113192 0.000000 0.000000
0.160128 0.000000 0.000000
0.220850 0.000000 0.000000
0.288061 0.000000 0.000000
0.360051 0.000000 0.000000
0.419298 0.000000 0.000000
0.490048 0.000000 0.000000
0.574467 0.000000 0.000000
0.644050 0.000000 0.000000
0.720019 0.000000 0.000000
0.818594 0.000000 0.000000
0.917612 0.000000 0.014403
0.996992 0.000000 0.053044
1.000000 0.000000 0.095387
1.000000 0.000000 0.141933
1.000000 0.153879 0.196767
1.000000 0.330943 0.250414
1.000000 0.454651 0.328679
1.000000 0.562325 0.418801
1.000000 0.661151 0.497824
1.000000 0.744513 0.580585
1.000000 0.804909 0.668873
1.000000 0.852579 0.746293
1.000000 0.888172 0.803745
1.000000 0.916753 0.852350
1.000000 0.938221 0.884881
1.000000 0.955258 0.913393
0.000000 0.000000 0.000000
0.000000 0.000000 0.000000
0.000000 0.000000 0.000000
0.000000 0.000000 0.000000
0.000000 0.000000 0.000000
0.053276 0.000000 0.000000
0.113145 0.000000 0.000000
0.155065 0.000000 0.000000
0.214603 0.000000 0.000000
0.284133 0.000000 0.000000
0.347473 0.000000 0.000000
0.416262 0.000000 0.000000
0.486437 0.000000 0.000000
0.582548 0.000000 0.000000
0.648235 0.000000 0.000000
0.724281 0.000000 0.000000
0.822854 0.000000 0.000000
0.921065 0.000000 0.000000
0.996742 0.000000 0.052273
1.000000 0.000000 0.094713
1.000000 0.000000 0.141496
1.000000 0.173403 0.196041
1.000000 0.334505 0.250168
1.000000 0.457729 0.328475
1.000000 0.565089 0.418641
1.000000 0.663577 0.497703
1.000000 0.746381 0.580532
1.000000 0.804909 0.668873
1.000000 0.852579 0.746293
1.000000 0.888172 0.803745
1.000000 0.917400 0.852357
1.000000 0.938221 0.884881
1.000000 0.955258 0.913393
0.000000 0.000000 0.000000
0.000000 0.000000 0.000000
0.000000 0.000000 0.000000
0.000000 0.000000 0.000000
0.000000 0.000000 0.005008
0.047216 0.000000 0.000000
0.107182 0.000000 0.000000
0.152970 0.000000 0.000000
0.213041 0.000000 0.000000
0.284116 0.000000 0.000000
0.347511 0.000000 0.000000
0.413233 0.000000 0.000000
0.490078 0.000000 0.000000
0.582582 0.000000 0.000000
0.660775 0.000000 0.000000
0.724273 0.000000 0.000000
0.822831 0.000000 0.000000
0.920989 0.000000 0.000000
0.996585 0.000000 0.051085
1.000000 0.000000 0.093996
1.000000 0.000000 0.141832
1.000000 0.173403 0.196041
1.000000 0.338069 0.249919
1.000000 0.460818 0.328268
1.000000 0.565089 0.418641
1.000000 0.663577 0.497703
1.000000 0.746381 0.580532
1.000000 0.804909 0.668873
1.000000 0.852579 0.746293
1.000000 0.888172 0.803745
1.000000 0.917400 0.852357
1.000000 0.938221 0.884881
1.000000 0.955258 0.913393
0.000000 0.011802 0.000000
0.000000 0.008057 0.000000
0.000000 0.003921 0.000000
0.000000 0.000000 0.000000
0.000000 0.000000 0.000000
0.043208 0.000000 0.000000
0.104386 0.000000 0.000000
0.147803 0.000000 0.000000
0.207001 0.000000 0.000000
0.280303 0.000000 0.000000
0.352515 0.000000 0.000000
0.413247 0.000000 0.000000
0.490131 0.000000 0.000000
0.578593 0.000000 0.000000
0.656609 0.000000 0.000000
0.728537 0.000000 0.000000
0.827089 0.000000 0.000000
0.924419 0.000000 0.000000
0.999082 0.000000 0.050471
1.000000 0.000000 0.093491
1.000000 0.000000 0.141369
1.000000 0.179460 0.195789
1.000000 0.341630 0.249665
1.000000 0.463912 0.328059
1.000000 0.567861 0.418480
1.000000 0.663577 0.497703
1.000000 0.746381 0.580532
1.000000 0.804909 0.668873
1.000000 0.852579 0.746293
1.000000 0.888172 0.803745
1.000000 0.917400 0.852357
1.000000 0.938221 0.884881
1.000000 0.955258 0.913393
0.000000 0.047582 0.000000
0.000000 0.044508 0.000000
0.000000 0.043681 0.000000
0.000000 0.040850 0.000000
0.000000 0.035838 0.000000
0.035476 0.029798 0.000000
0.097029 0.000000 0.000000
0.147147 0.000000 0.000000
0.205268 0.000000 0.000000
0.280202 0.000000 0.000000
0.352509 0.000000 0.000000
0.416318 0.000000 0.000000
0.490193 0.000000 0.000000
0.582673 0.000000 0.000000
0.660818 0.000000 0.000000
0.728541 0.000000 0.000000
0.827052 0.000000 0.000000
0.924287 0.000000 0.000000
0.998859 0.000000 0.048674
1.000000 0.000000 0.093232
1.000000 0.000000 0.139717
1.000000 0.191131 0.193857
1.000000 0.345184 0.249408
1.000000 0.463912 0.328059
1.000000 0.567861 0.418480
1.000000 0.666001 0.497584
1.000000 0.748243 0.580480
1.000000 0.804909 0.668873
1.000000 0.852579 0.746293
1.000000 0.888172 0.803745
1.000000 0.917400 0.852357
1.000000 0.938221 0.884881
1.000000 0.955258 0.913393
0.000000 0.073798 0.000000
0.000000 0.069595 0.000000
0.000000 0.066282 0.000000
0.000000 0.063736 0.000000
0.000000 0.060318 0.000000
0.021412 0.056274 0.000000
0.088437 0.048931 0.000000
0.147391 0.027149 0.000000
0.215257 0.000000 0.000000
0.285844 0.000000 0.000000
0.357635 0.000000 0.000000
0.422595 0.000000 0.000000
0.504930 0.000000 0.000000
0.598912 0.000000 0.000000
0.669233 0.000000 0.000000
0.741336 0.000000 0.000000
0.835481 0.000000 0.000000
0.927564 0.000000 0.000000
1.000000 0.000000 0.046096
1.000000 0.000000 0.092133
1.000000 0.000000 0.138672
1.000000 0.202224 0.193308
1.000000 0.353911 0.249664
1.000000 0.468556 0.328782
1.000000 0.570642 0.418318
1.000000 0.667436 0.498722
1.000000 0.748243 0.580480
1.000000 0.806309 0.668867
1.000000 0.853636 0.746298
1.000000 0.888172 0.803745
1.000000 0.917407 0.851201
1.000000 0.938221 0.884881
1.000000 0.955258 0.913393
0.000000 0.101136 0.000000
0.000000 0.096312 0.000000
0.000000 0.092459 0.000000
0.000000 0.089490 0.000000
0.000000 0.085918 0.000000
0.000000 0.079975 0.000000
0.084685 0.072702 0.000000
0.150597 0.061658 0.000000
0.226183 0.017298 0.000000
0.297985 0.000000 0.000000
0.370935 0.000000 0.000000
0.445291 0.000000 0.000000
0.512553 0.000000 0.000000
0.607151 0.000000 0.000000
0.681884 0.000000 0.000000
0.745597 0.000000 0.000000
0.843748 0.000000 0.000000
0.930706 0.000000 0.000000
1.000000 0.000000 0.042844
1.000000 0.000000 0.090283
1.000000 0.000000 0.136929
1.000000 0.220050 0.193095
1.000000 0.360925 0.250837
1.000000 0.474738 0.328356
1.000000 0.573432 0.418154
1.000000 0.669851 0.496154
1.000000 0.750101 0.580430
1.000000 0.806309 0.668867
1.000000 0.853625 0.748193
1.000000 0.888172 0.803745
1.000000 0.917407 0.851201
1.000000 0.938221 0.884881
1.000000 0.955258 0.913393
0.000000 0.136015 0.000000
0.000000 0.131612 0.000000
0.000000 0.127349 0.000000
0.000000 0.123222 0.000000
0.000000 0.119233 0.000000
0.000000 0.112225 0.000000
0.076007 0.104882 0.000000
0.152796 0.095641 0.000000
0.234384 0.076381 0.000000
0.311180 0.026463 0.000000
0.393667 0.000000 0.000000
0.459302 0.000000 0.000000
0.532120 0.000000 0.000000
0.623774 0.000000 0.000000
0.703062 0.000000 0.000000
0.758389 0.000000 0.000000
0.851806 0.000000 0.000000
0.930317 0.000000 0.000000
1.000000 0.000000 0.035405
1.000000 0.000000 0.085244
1.000000 0.000000 0.134800
1.000000 0.234844 0.190763
1.000000 0.367929 0.250292
1.000000 0.477838 0.328139
1.000000 0.577787 0.419057
1.000000 0.672252 0.496036
1.000000 0.751953 0.580382
1.000000 0.807708 0.668862
1.000000 0.853625 0.748193
1.000000 0.887115 0.802205
1.000000 0.917407 0.851201
1.000000 0.938735 0.884887
1.000000 0.955258 0.913393
0.000000 0.179029 0.000000
0.000000 0.171676 0.000000
0.000000 0.166023 0.000000
0.000000 0.161926 0.000000
0.000000 0.156652 0.000000
0.000000 0.151325 0.000000
0.000000 0.142863 0.000000
0.141148 0.139218 0.000000
0.235392 0.124825 0.000000
0.318917 0.099436 0.000000
0.409830 0.021641 0.000000
0.499572 0.000000 0.000000
0.576041 0.000000 0.000000
0.665584 0.000000 0.000000
0.724372 0.000000 0.000000
0.783920 0.000000 0.000000
0.863562 0.000000 0.000000
0.933141 0.000000 0.000000
0.999573 0.000000 0.000000
1.000000 0.000000 0.080299
1.000000 0.000000 0.133332
1.000000 0.253575 0.188037
1.000000 0.376444 0.250528
1.000000 0.484054 0.327700
1.000000 0.583387 0.418725
1.000000 0.672252 0.496036
1.000000 0.751953 0.580382
1.000000 0.807708 0.668862
1.000000 0.854679 0.748199
1.000000 0.887908 0.802213
1.000000 0.918054 0.851209
1.000000 0.938735 0.884887
1.000000 0.955258 0.913393
0.000000 0.221779 0.000000
0.000000 0.212904 0.000000
0.000000 0.206031 0.000000
0.000000 0.202687 0.000000
0.000000 0.199391 0.000000
0.000000 0.194384 0.000000
0.000000 0.185788 0.000000
0.112204 0.178798 0.000000
0.223642 0.166851 0.000000
0.323748 0.148390 0.000000
0.412498 0.122191 0.000000
0.512758 0.057872 0.000000
0.613122 0.000000 0.000000
0.716123 0.000000 0.000000
0.762548 0.000000 0.000000
0.817702 0.000000 0.000000
0.870864 0.000000 0.000000
0.945382 0.000000 0.000000
1.000000 0.000000 0.000000
1.000000 0.000000 0.070447
1.000000 0.106592 0.128660
1.000000 0.272987 0.187325
1.000000 0.393778 0.249071
1.000000 0.490293 0.327252
1.000000 0.586200 0.418558
1.000000 0.677047 0.495804
1.000000 0.753800 0.580335
1.000000 0.809106 0.668859
1.000000 0.854679 0.748199
1.000000 0.887908 0.802213
1.000000 0.918054 0.851209
1.000000 0.938735 0.884887
1.000000 0.955258 0.913393
0.000000 0.261864 0.000000
0.000000 0.255968 0.000000
0.000000 0.250187 0.000000
0.000000 0.246398 0.000000
0.000000 0.242616 0.000000
0.000000 0.238784 0.000000
0.000000 0.236328 0.000000
0.000000 0.228699 0.000000
0.202816 0.219428 0.000000
0.320373 0.202457 0.000000
0.421408 0.182110 0.000000
0.523524 0.146405 0.000000
0.623076 0.098632 0.000000
0.758388 0.000000 0.000000
0.834157 0.000000 0.000000
0.866027 0.000000 0.000000
0.903244 0.000000 0.000000
0.953021 0.000000 0.000000
1.000000 0.000000 0.000000
1.000000 0.000000 0.050051
1.000000 0.173584 0.120811
1.000000 0.302604 0.184665
1.000000 0.408993 0.248654
1.000000 0.501088 0.327522
1.000000 0.591860 0.415823
1.000000 0.681835 0.495575
1.000000 0.758499 0.581457
1.000000 0.812728 0.670042
1.000000 0.856394 0.749168
1.000000 0.888701 0.802222
1.000000 0.918700 0.851218
1.000000 0.939248 0.884894
1.000000 0.955258 0.913393
0.000000 0.314327 0.000000
0.000000 0.304801 0.000000
0.000000 0.300111 0.000000
0.000000 0.297779 0.000000
0.000000 0.295438 0.000000
0.000000 0.290811 0.000000
0.000000 0.288173 0.000000
0.000000 0.282386 0.000000
0.170811 0.271689 0.000000
0.307186 0.258982 0.000000
0.426642 0.238513 0.000000
0.531571 0.216168 0.000000
0.634037 0.191991 0.000000
0.763000 0.126195 0.000000
0.876709 0.000000 0.000000
0.923069 0.000000 0.000000
0.944607 0.000000 0.000000
0.964451 0.099695 0.000000
1.000000 0.053915 0.000000
1.000000 0.140954 0.000000
1.000000 0.231183 0.107926
1.000000 0.339072 0.176227
1.000000 0.433131 0.246345
1.000000 0.513654 0.322256
1.000000 0.604694 0.413842
1.000000 0.686610 0.495350
1.000000 0.762113 0.581380
1.000000 0.812715 0.672389
1.000000 0.857434 0.749177
1.000000 0.889495 0.802232
1.000000 0.919345 0.851228
1.000000 0.939248 0.884894
1.000000 0.955258 0.913393
0.000000 0.358340 0.000000
0.000000 0.352788 0.000000
0.000000 0.352731 0.000000
0.000000 0.349957 0.000000
0.000000 0.349875 0.000000
0.000000 0.347001 0.000000
0.000000 0.343969 0.000000
0.000000 0.340427 0.000000
0.063532 0.332328 0.000000
0.286510 0.317923 0.000000
0.418561 0.304733 0.000000
0.540270 0.282362 0.000000
0.644956 0.265812 0.000000
0.767858 0.228329 0.000000
0.889315 0.192909 0.000000
0.971977 0.138153 0.000000
1.000000 0.174045 0.000000
1.000000 0.236562 0.000000
1.000000 0.265872 0.000000
1.000000 0.262163 0.000000
1.000000 0.309525 0.086549
1.000000 0.377203 0.163961
1.000000 0.455078 0.243261
1.000000 0.537084 0.319324
1.000000 0.616151 0.413129
1.000000 0.694975 0.496197
1.000000 0.767480 0.581279
1.000000 0.816859 0.672396
1.000000 0.859505 0.749197
1.000000 0.891083 0.802254
1.000000 0.919989 0.851239
1.000000 0.939761 0.884901
1.000000 0.955671 0.913398
0.000000 0.409039 0.000000
0.000000 0.412168 0.000000
0.000000 0.408890 0.000000
0.000000 0.408806 0.000000
0.000000 0.405517 0.000000
0.000000 0.405338 0.000000
0.000000 0.401773 0.000000
0.000000 0.397878 0.000000
0.000000 0.389724 0.000000
0.251001 0.375632 0.000000
0.406684 0.367774 0.000000
0.536423 0.353439 0.000000
0.665282 0.331304 0.000000
0.776383 0.310723 0.000000
0.890020 0.285397 0.000000
0.972394 0.260612 0.000000
1.000000 0.249755 0.000000
1.000000 0.294904 0.000000
1.000000 0.348316 0.000000
1.000000 0.372888 0.000000
1.000000 0.386300 0.000000
1.000000 0.420351 0.149212
1.000000 0.494198 0.230739
1.000000 0.557452 0.312320
1.000000 0.634791 0.410790
1.000000 0.710127 0.496780
1.000000 0.775397 0.582401
1.000000 0.820985 0.672416
1.000000 0.860537 0.749209
1.000000 0.892672 0.802280
1.000000 0.920633 0.851250
1.000000 0.939766 0.884020
1.000000 0.956318 0.913749
0.000000 0.472607 0.000000
0.000000 0.469023 0.000000
0.000000 0.468934 0.000000
0.000000 0.465375 0.000000
0.000000 0.465270 0.000000
0.000000 0.465066 0.000000
0.000000 0.464709 0.000000
0.000000 0.464034 0.000000
0.000000 0.455709 0.000000
0.152671 0.449777 0.000000
0.379014 0.436260 0.000000
0.527837 0.423197 0.000000
0.664347 0.403145 0.000000
0.783268 0.389311 0.000000
0.889399 0.367851 0.000000
0.972911 0.358519 0.000000
1.000000 0.348444 0.000000
1.000000 0.355598 0.000000
1.000000 0.400632 0.000000
1.000000 0.453245 0.000000
1.000000 0.473698 0.000000
1.000000 0.486048 0.115889
1.000000 0.531530 0.211753
1.000000 0.587515 0.306493
1.000000 0.655913 0.408339
1.000000 0.723821 0.496241
1.000000 0.780540 0.582354
1.000000 0.825813 0.673625
1.000000 0.864634 0.749273
1.000000 0.894261 0.802310
1.000000 0.921284 0.850110
1.000000 0.940792 0.884037
1.000000 0.956727 0.913755
0.000000 0.543452 0.000000
0.000000 0.543271 0.000000
0.000000 0.543110 0.000000
0.000000 0.542970 0.000000
0.000000 0.542821 0.000000
0.000000 0.542597 0.000000
0.000000 0.542135 0.000000
0.000000 0.537717 0.000000
0.000000 0.529070 0.000000
0.099904 0.523260 0.000000
0.320398 0.512295 0.000000
0.503003 0.500435 0.000000
0.656145 0.492975 0.000000
0.786469 0.469306 0.000000
0.887024 0.451623 0.000000
0.970891 0.449481 0.000000
1.000000 0.441548 0.000000
1.000000 0.451274 0.000000
1.000000 0.466259 0.000000
1.000000 0.507763 0.000000
1.000000 0.557655 0.000000
1.000000 0.578525 0.000000
1.000000 0.588562 0.189731
1.000000 0.630813 0.290745
1.000000 0.690092 0.405206
1.000000 0.740354 0.494518
1.000000 0.791465 0.583559
1.000000 0.831211 0.671383
1.000000 0.868225 0.750304
1.000000 0.896653 0.800929
1.000000 0.922567 0.850139
1.000000 0.941816 0.884057
1.000000 0.957130 0.914474
0.000000 0.616340 0.000000
0.000000 0.612338 0.000000
0.000000 0.612049 0.000000
0.000000 0.611863 0.000000
0.000000 0.611580 0.000000
0.000000 0.607577 0.000000
0.000000 0.606982 0.000000
0.000000 0.602576 0.000000
0.000000 0.597527 0.000000
0.041875 0.595555 0.000000
0.297916 0.589048 0.000000
0.456853 0.576416 0.000000
0.625058 0.559495 0.000000
0.792163 0.542297 0.000000
0.881314 0.538718 0.000000
0.965569 0.526113 0.000000
1.000000 0.518691 0.000000
1.000000 0.526815 0.000000
1.000000 0.537496 0.000000
1.000000 0.553345 0.138070
1.000000 0.605452 0.000000
1.000000 0.650420 0.000000
1.000000 0.674205 0.136077
1.000000 0.691130 0.270902
1.000000 0.720743 0.392362
1.000000 0.758280 0.488192
1.000000 0.804485 0.583742
1.000000 0.839810 0.672758
1.000000 0.874123 0.750475
1.000000 0.899397 0.800238
1.000000 0.924484 0.850189
1.000000 0.942328 0.884067
1.000000 0.957946 0.914487
0.000000 0.678330 0.000000
0.000000 0.674037 0.000000
0.000000 0.673762 0.000000
0.000000 0.669780 0.000000
0.000000 0.669586 0.000000
0.000000 0.669308 0.000000
0.000000 0.664845 0.000000
0.000000 0.664291 0.000000
0.000000 0.662960 0.000000
0.147703 0.657359 0.000000
0.336037 0.650762 0.000000
0.459450 0.643225 0.000000
0.605364 0.628820 0.000000
0.762827 0.610555 0.000000
0.878769 0.609498 0.000000
0.956537 0.597713 0.000000
1.000000 0.602628 0.000000
1.000000 0.601006 0.000000
1.000000 0.608364 0.000000
1.000000 0.619482 0.115487
1.000000 0.648340 0.228691
1.000000 0.700119 0.000000
1.000000 0.731670 0.000000
1.000000 0.750775 0.237441
1.000000 0.761851 0.370873
1.000000 0.783542 0.481367
1.000000 0.817986 0.575850
1.000000 0.850677 0.672061
1.000000 0.880331 0.748043
1.000000 0.903775 0.799728
1.000000 0.927030 0.849123
1.000000 0.944373 0.884970
1.000000 0.958760 0.914503
0.000000 0.751431 0.000000
0.000000 0.750997 0.000000
0.000000 0.750517 0.000000
0.000000 0.750312 0.000000
0.000000 0.746622 0.000000
0.000000 0.746277 0.000000
0.000000 0.745793 0.000000
0.000000 0.741744 0.000000
0.000000 0.740605 0.000000
0.223318 0.735550 0.000000
0.362959 0.733119 0.000000
0.480211 0.726323 0.000000
0.599008 0.714496 0.000000
0.736618 0.706837 0.000000
0.860248 0.694966 0.000000
0.941777 0.683097 0.000000
1.000000 0.686568 0.000000
1.000000 0.683747 0.000000
1.000000 0.687987 0.000000
1.000000 0.694153 0.089394
1.000000 0.710612 0.224679
1.000000 0.730766 0.322669
1.000000 0.770821 0.124536
1.000000 0.801325 0.178539
1.000000 0.812918 0.345771
1.000000 0.818318 0.471094
1.000000 0.836985 0.571103
1.000000 0.863447 0.667309
1.000000 0.888249 0.745884
1.000000 0.909967 0.801552
1.000000 0.929542 0.848079
1.000000 0.946877 0.885900
1.000000 0.959981 0.913822
0.000000 0.805994 0.000000
0.000000 0.805445 0.000000
0.000000 0.805014 0.000000
0.000000 0.804866 0.000000
0.000000 0.801784 0.000000
0.000000 0.801475 0.000000
0.000000 0.800833 0.000000
0.182451 0.800158 0.000000
0.282686 0.796259 0.000000
0.348318 0.795106 0.000000
0.438797 0.790141 0.000000
0.535388 0.784167 0.000000
0.644354 0.776637 0.000000
0.751051 0.767974 0.000000
0.844568 0.759124 0.000000
0.930101 0.753872 0.000000
0.988679 0.752177 0.000000
1.000000 0.748283 0.000000
1.000000 0.752583 0.000000
1.000000 0.760374 0.050947
1.000000 0.765681 0.228005
1.000000 0.782544 0.330949
1.000000 0.791907 0.423776
1.000000 0.833746 0.231397
1.000000 0.854682 0.304507
1.000000 0.861425 0.458832
1.000000 0.866752 0.564343
1.000000 0.880415 0.664147
1.000000 0.898672 0.745964
1.000000 0.916046 0.801915
1.000000 0.933860 0.848304
1.000000 0.948863 0.885968
1.000000 0.961790 0.913513
0.245489 0.850076 0.000000
0.288326 0.849521 0.000000
0.313130 0.849141 0.000000
0.313130 0.849141 0.000000
0.335889 0.848754 0.000000
0.357072 0.848358 0.000000
0.379632 0.845730 0.000000
0.407417 0.845108 0.000000
0.458173 0.843809 0.000000
0.506156 0.840181 0.000000
0.569318 0.837982 0.000000
0.646131 0.832575 0.000000
0.712146 0.827132 0.000000
0.781315 0.821059 0.000000
0.848242 0.812343 0.000000
0.917194 0.807994 0.000000
0.979339 0.802625 0.000000
1.000000 0.800515 0.000000
1.000000 0.800377 0.000000
1.000000 0.805479 0.077497
1.000000 0.809109 0.233663
1.000000 0.819247 0.338858
1.000000 0.828868 0.438703
1.000000 0.841336 0.526291
1.000000 0.876755 0.338815
1.000000 0.889591 0.416940
1.000000 0.896866 0.557143
1.000000 0.901522 0.660198
1.000000 0.911580 0.744354
1.000000 0.924275 0.803530
1.000000 0.937723 0.848027
1.000000 0.951816 0.886093
1.000000 0.963766 0.913587
0.517361 0.881773 0.000000
0.533369 0.879472 0.000000
0.554757 0.878753 0.000000
0.561708 0.878511 0.000000
0.568553 0.878268 0.000000
0.581945 0.877781 0.000000
0.588496 0.877537 0.000000
0.613786 0.876560 0.000000
0.637717 0.875583 0.000000
0.661458 0.872737 0.000000
0.698296 0.871048 0.000000
0.732813 0.867499 0.000000
0.768250 0.863765 0.000000
0.813807 0.859314 0.000000
0.870118 0.855939 0.000000
0.916235 0.851131 0.000000
0.969534 0.844207 0.000000
1.000000 0.843245 0.000000
1.000000 0.844331 0.000000
1.000000 0.846880 0.093755
1.000000 0.848706 0.253342
1.000000 0.854542 0.346634
1.000000 0.861186 0.455828
1.000000 0.867870 0.538988
1.000000 0.876689 0.631292
1.000000 0.907632 0.437514
1.000000 0.918868 0.521548
1.000000 0.924940 0.651357
1.000000 0.927691 0.743957
1.000000 0.934207 0.802840
1.000000 0.943760 0.845844
1.000000 0.955698 0.885462
1.000000 0.966095 0.913697
0.698942 0.906296 0.000000
0.703734 0.906075 0.000000
0.709166 0.904441 0.000000
0.713824 0.904222 0.000000
0.713824 0.904222 0.000000
0.718415 0.904005 0.000000
0.722941 0.903789 0.000000
0.736130 0.903148 0.000000
0.744606 0.902728 0.000000
0.752832 0.902315 0.000000
0.776741 0.899672 0.000000
0.794678 0.898712 0.000000
0.822188 0.895752 0.000000
0.856142 0.892324 0.000000
0.890190 0.890261 0.000000
0.931541 0.884715 0.000000
0.967655 0.882548 0.000000
1.000000 0.881039 0.000000
1.000000 0.879422 0.000000
1.000000 0.879049 0.128886
1.000000 0.883371 0.278056
1.000000 0.882783 0.362027
1.000000 0.889637 0.465986
1.000000 0.892531 0.550449
1.000000 0.898274 0.644545
1.000000 0.906231 0.724237
1.000000 0.934121 0.540731
1.000000 0.942586 0.626925
1.000000 0.945190 0.732070
1.000000 0.946610 0.800456
1.000000 0.952449 0.844995
1.000000 0.960564 0.885423
1.000000 0.969509 0.913222
0.805726 0.930726 0.000000
0.805726 0.930726 0.000000
0.808930 0.930554 0.000000
0.808930 0.930554 0.000000
0.812099 0.930384 0.000000
0.818335 0.930045 0.000000
0.821928 0.928728 0.000000
0.824961 0.928561 0.000000
0.833858 0.928066 0.000000
0.839621 0.927742 0.000000
0.848015 0.927265 0.000000
0.861869 0.925333 0.000000
0.874343 0.924600 0.000000
0.897429 0.922070 0.000000
0.919018 0.920746 0.000000
0.948828 0.917732 0.000000
0.974364 0.916155 0.000000
0.995861 0.913791 0.000000
1.000000 0.910707 0.000000
1.000000 0.909680 0.184180
1.000000 0.911108 0.304259
1.000000 0.912243 0.395463
1.000000 0.915383 0.483956
1.000000 0.917875 0.575360
1.000000 0.922583 0.666557
1.000000 0.925904 0.732774
1.000000 0.930813 0.785323
1.000000 0.955194 0.635960
1.000000 0.961262 0.719025
1.000000 0.962617 0.797028
1.000000 0.963434 0.844462
1.000000 0.967598 0.883498
1.000000 0.974204 0.912976
0.884933 0.944549 0.000000
0.887032 0.944425 0.000000
0.889100 0.944302 0.000000
0.889100 0.944302 0.000000
