Assets/Lutify-Free-LUTs-Pack/Lutify Free LUTs Pack/Cine World Pro Warm - Amy/Lutify.me-Amy-BMDFilmGen5-to-Rec709.cube
# Created with: fylm.ai - Colour Grading and Collaboration Software in Cloud 
# Website: https://fylm.ai 
# META
# Option: Gamut compress
# Block 1: IDT | BMD Wide Gamut BMDFilm Gen 5
# Block 2: colourMatch | Blending Mode: Normal | {"ColorSpace":0,"CrossCovarianceLimit":50,"ReshapingIterations":1,"PercentSaturationShift":100,"PercentShadingShift":100,"ExtraShading":true,"PercentTint":100,"PercentModified":100}
# Block 3: LUT | Filmic Curve Response: Standard Contrast 1 (100%)
# Block 4: LUT | Illuminant: D60 (100%)
# Block 5: hueSaturation | Blending Mode: Normal | {"hue":0,"saturation":-0.15}
# Block 6: logPrimaries | Blending Mode: Normal | {"wheels":{"shadows":{"Y":"0","R":"1","G":"1","B":"1"},"midtones":{"Y":"0","R":"1","G":"1","B":"1"},"highlights":{"Y":"0","R":"1","G":"1","B":"1"},"offset":{"Y":"0","R":"1","G":"1","B":"1"}},"sliders":{"shadows":{"Y":0,"R":-0.097,"G":0,"B":0.158},"midtones":{"Y":0,"R":0.024,"G":0.024,"B":-0.036},"highlights":{"Y":0,"R":0.154,"G":-0.084,"B":-0.024},"offset":{"Y":0.048,"R":0,"G":0,"B":0}}}
# Block 7: smartCurves | Blending Mode: Average | [[{"x":0,"y":0},{"x":0.11328125,"y":0.085540771484375},{"x":0.21484375,"y":0.218353271484375},{"x":0.37109375,"y":0.382415771484375},{"x":0.62109375,"y":0.589447021484375},{"x":0.8125,"y":0.765228271484375},{"x":1,"y":1}],[{"x":0,"y":0},{"x":1,"y":1}],[{"x":0,"y":0},{"x":1,"y":1}],[{"x":0,"y":0},{"x":1,"y":1}]]
# Block 8: LUT | Neutral Tint: Teal Tint 4 (100%)
# Block 9: contrast | Blending Mode: Normal | {"contrast":0.1}
# Block 10: ODT | Rec709
TITLE "Lutify.me-Amy-BMDFilmGen5-to-Rec709" 
LUT_3D_SIZE 9
0.000000 0.000000 0.000000
0.000000 0.000000 0.000000
0.167510 0.000000 0.000000
0.458240 0.000000 0.000000
0.894959 0.000000 0.000000
1.000000 0.381484 0.186222
1.000000 0.812727 0.581074
1.000000 0.955919 0.879145
1.000000 0.997274 0.977230
0.000000 0.000000 0.000000
0.000000 0.000000 0.000000
0.157497 0.000000 0.000000
0.458416 0.000000 0.000000
0.898304 0.000000 0.000000
1.000000 0.388911 0.185230
1.000000 0.812727 0.581074
1.000000 0.955919 0.879145
1.000000 0.997274 0.977230
0.000000 0.119224 0.000000
0.000000 0.108938 0.000000
0.172018 0.088399 0.000000
0.498932 0.000000 0.000000
0.904637 0.000000 0.000000
1.000000 0.411103 0.182065
1.000000 0.814283 0.581108
1.000000 0.956395 0.879185
1.000000 0.997274 0.977230
0.000000 0.319031 0.000000
0.000000 0.318564 0.000000
0.156385 0.306011 0.000000
0.616962 0.246633 0.000000
0.932685 0.268289 0.000000
1.000000 0.475379 0.180085
1.000000 0.822601 0.584989
1.000000 0.956395 0.879185
1.000000 0.997274 0.977230
0.000000 0.671058 0.000000
0.000000 0.666713 0.000000
0.000000 0.665016 0.000000
0.511394 0.637345 0.000000
1.000000 0.581980 0.000000
1.000000 0.716480 0.097579
1.000000 0.852583 0.596236
1.000000 0.959378 0.879935
1.000000 0.997544 0.977257
0.301889 0.936641 0.052345
0.350588 0.935895 0.036069
0.392733 0.935124 0.000000
0.575848 0.930237 0.000000
0.856296 0.913650 0.000000
1.000000 0.896259 0.133024
1.000000 0.933208 0.628215
1.000000 0.968955 0.885730
1.000000 0.998215 0.977633
0.870875 0.995997 0.673426
0.872755 0.995906 0.671330
0.876262 0.995709 0.671574
0.885003 0.995242 0.667809
0.921527 0.993513 0.662330
0.989200 0.988746 0.639197
1.000000 0.985322 0.679588
1.000000 0.993126 0.896189
1.000000 1.000000 0.979167
0.985505 1.000000 0.913650
0.985505 1.000000 0.913650
0.985505 1.000000 0.913650
0.985992 1.000000 0.912978
0.988223 1.000000 0.911783
0.996653 1.000000 0.907422
1.000000 1.000000 0.901096
1.000000 1.000000 0.902651
1.000000 1.000000 0.980579
1.000000 1.000000 0.989113
1.000000 1.000000 0.989113
1.000000 1.000000 0.989113
1.000000 1.000000 0.989125
1.000000 1.000000 0.988904
1.000000 1.000000 0.988509
1.000000 1.000000 0.986905
1.000000 1.000000 0.981884
1.000000 1.000000 0.968495
0.000000 0.000000 0.015042
0.000000 0.000000 0.006482
0.144467 0.000000 0.000000
0.407381 0.000000 0.000000
0.879744 0.000000 0.011141
1.000000 0.385168 0.199732
1.000000 0.812707 0.585685
1.000000 0.955914 0.879999
1.000000 0.997274 0.977230
0.000000 0.000000 0.022864
0.000000 0.000000 0.016030
0.132829 0.000000 0.000000
0.401496 0.000000 0.000000
0.879352 0.000000 0.000000
1.000000 0.392586 0.198832
1.000000 0.812707 0.585685
1.000000 0.955914 0.879999
1.000000 0.997274 0.977230
0.000000 0.110693 0.018589
0.000000 0.107123 0.000000
0.120959 0.097870 0.000000
0.424174 0.000000 0.000000
0.882308 0.000000 0.000000
1.000000 0.415826 0.196772
1.000000 0.814263 0.585718
1.000000 0.956390 0.880038
1.000000 0.997274 0.977230
0.000000 0.331627 0.000000
0.000000 0.328882 0.000000
0.000000 0.326963 0.000000
0.512417 0.288907 0.000000
0.909811 0.281625 0.000000
1.000000 0.478158 0.190737
1.000000 0.822593 0.587284
1.000000 0.956390 0.880038
1.000000 0.997274 0.977230
0.000000 0.686471 0.000000
0.000000 0.686025 0.000000
0.000000 0.684742 0.000000
0.385529 0.667946 0.000000
0.946303 0.617717 0.000000
1.000000 0.719537 0.136126
1.000000 0.852574 0.598521
1.000000 0.959373 0.880772
1.000000 0.997544 0.977257
0.271584 0.936964 0.166409
0.300274 0.936606 0.158128
0.370390 0.936674 0.152447
0.547902 0.932291 0.112261
0.845889 0.917892 0.000000
1.000000 0.898698 0.114938
1.000000 0.933194 0.632311
1.000000 0.968955 0.885730
1.000000 0.998213 0.977936
0.870661 0.995980 0.677857
0.872436 0.995880 0.677972
0.874197 0.995782 0.678088
0.882910 0.995304 0.676488
0.918541 0.993652 0.668349
0.988698 0.989087 0.648133
1.000000 0.985325 0.677496
1.000000 0.993122 0.896822
1.000000 1.000000 0.979167
0.985461 1.000000 0.914367
0.985461 1.000000 0.914367
0.985505 1.000000 0.913650
0.985947 1.000000 0.913695
0.988179 1.000000 0.912498
0.996210 1.000000 0.908422
1.000000 1.000000 0.901684
1.000000 1.000000 0.903065
1.000000 1.000000 0.980579
1.000000 1.000000 0.989113
1.000000 1.000000 0.989113
1.000000 1.000000 0.989113
1.000000 1.000000 0.989125
1.000000 1.000000 0.989137
1.000000 1.000000 0.988509
1.000000 1.000000 0.986905
1.000000 1.000000 0.982118
1.000000 1.000000 0.968495
0.000000 0.000000 0.081661
0.000000 0.000000 0.054652
0.108518 0.000000 0.048249
0.369069 0.000000 0.052179
0.868122 0.000000 0.075502
1.000000 0.388809 0.225888
1.000000 0.812678 0.592688
1.000000 0.955909 0.880848
1.000000 0.997274 0.977230
0.000000 0.000000 0.087180
0.000000 0.000000 0.068062
0.096468 0.000000 0.060090
0.364066 0.000000 0.064650
0.867655 0.000000 0.073659
1.000000 0.399921 0.224753
1.000000 0.812678 0.592688
1.000000 0.955909 0.880848
1.000000 0.997274 0.977230
0.000000 0.125726 0.180623
0.000000 0.110067 0.170681
0.045845 0.101087 0.136500
0.367410 0.000000 0.084056
0.870523 0.000000 0.070504
1.000000 0.419441 0.225274
1.000000 0.815786 0.592751
1.000000 0.956385 0.880886
1.000000 0.997274 0.977230
0.000000 0.344096 0.168540
0.000000 0.349614 0.134185
0.000000 0.346365 0.079582
0.393959 0.332201 0.000000
0.891554 0.302159 0.000000
1.000000 0.480946 0.218669
1.000000 0.824080 0.594287
1.000000 0.956385 0.880886
1.000000 0.997274 0.977230
0.000000 0.697896 0.000000
0.000000 0.701295 0.000000
0.000000 0.700257 0.000000
0.269015 0.692635 0.000000
0.892288 0.651523 0.000000
1.000000 0.721661 0.188321
1.000000 0.853917 0.603240
1.000000 0.959368 0.881605
1.000000 0.997543 0.977564
0.230463 0.939603 0.267909
0.264795 0.939252 0.264642
0.344496 0.938154 0.258309
0.538181 0.934806 0.238244
0.836615 0.918328 0.160349
1.000000 0.903544 0.128766
1.000000 0.933171 0.638539
1.000000 0.968951 0.886517
1.000000 0.998213 0.977936
0.866402 0.996127 0.690942
0.868213 0.996027 0.691045
0.871895 0.995837 0.689042
0.880792 0.995366 0.685187
0.917965 0.993603 0.681190
0.988264 0.989046 0.659265
1.000000 0.985681 0.674693
1.000000 0.993119 0.897456
1.000000 1.000000 0.979167
0.984969 1.000000 0.915039
0.984969 1.000000 0.915039
0.985416 1.000000 0.915082
0.985858 1.000000 0.915125
0.988090 1.000000 0.913926
0.996168 1.000000 0.909119
1.000000 1.000000 0.902865
1.000000 1.000000 0.903066
1.000000 1.000000 0.980579
1.000000 1.000000 0.989345
1.000000 1.000000 0.989345
1.000000 1.000000 0.989345
1.000000 1.000000 0.989345
1.000000 1.000000 0.989125
1.000000 1.000000 0.988745
1.000000 1.000000 0.986905
1.000000 1.000000 0.982118
1.000000 1.000000 0.968655
0.000000 0.000000 0.155119
0.000000 0.000000 0.100975
0.067587 0.000000 0.082570
0.377148 0.000000 0.086039
0.838488 0.000000 0.220135
1.000000 0.381273 0.315765
1.000000 0.811883 0.618028
1.000000 0.955889 0.884218
1.000000 0.997272 0.977538
0.000000 0.000000 0.175889
0.000000 0.000000 0.134739
0.057909 0.000000 0.117824
0.361662 0.000000 0.124119
0.829891 0.000000 0.234477
1.000000 0.388807 0.315333
1.000000 0.811883 0.618028
1.000000 0.955889 0.884218
1.000000 0.997272 0.977538
0.000000 0.063746 0.265822
0.000000 0.058352 0.237001
0.000000 0.053954 0.228088
0.352872 0.000000 0.229051
0.845657 0.000000 0.255564
1.000000 0.412298 0.319368
1.000000 0.813450 0.618049
1.000000 0.956365 0.884251
1.000000 0.997272 0.977538
0.000000 0.366686 0.473618
0.000000 0.355016 0.467114
0.000000 0.351947 0.460323
0.253016 0.349617 0.429281
0.849073 0.310212 0.305195
1.000000 0.474559 0.324611
1.000000 0.822745 0.620714
1.000000 0.956365 0.884251
1.000000 0.997272 0.977538
0.000000 0.726908 0.469307
0.000000 0.726711 0.461958
0.000000 0.729601 0.439733
0.000000 0.724055 0.378907
0.813092 0.701413 0.271789
1.000000 0.723776 0.336964
1.000000 0.853383 0.628136
1.000000 0.959187 0.884471
1.000000 0.997541 0.977869
0.000000 0.943555 0.469728
0.098690 0.943228 0.466358
0.240607 0.942377 0.459678
0.468051 0.938525 0.440161
0.798145 0.928175 0.392459
1.000000 0.912885 0.339678
1.000000 0.932970 0.665086
1.000000 0.968938 0.888884
1.000000 0.998211 0.978239
0.862249 0.996399 0.735477
0.864192 0.996308 0.733429
0.866006 0.996208 0.733505
0.875012 0.996086 0.730617
0.913137 0.993959 0.722538
0.984407 0.989399 0.697664
1.000000 0.986567 0.705649
1.000000 0.993105 0.900007
1.000000 1.000000 0.979765
0.983796 1.000000 0.919230
0.983796 1.000000 0.919230
0.983796 1.000000 0.919230
0.985149 1.000000 0.919346
0.987405 1.000000 0.918139
0.995870 1.000000 0.913989
1.000000 1.000000 0.906439
1.000000 1.000000 0.905940
1.000000 1.000000 0.980924
1.000000 1.000000 0.989575
1.000000 1.000000 0.989575
1.000000 1.000000 0.989575
1.000000 1.000000 0.989575
1.000000 1.000000 0.989587
1.000000 1.000000 0.988980
1.000000 1.000000 0.987385
1.000000 1.000000 0.982352
1.000000 1.000000 0.969325
0.000000 0.000000 0.163105
0.018039 0.000000 0.152478
0.090432 0.000000 0.145835
0.317786 0.000000 0.149940
0.842622 0.000000 0.201743
1.000000 0.312750 0.579350
1.000000 0.807108 0.707748
1.000000 0.955834 0.893448
1.000000 0.997264 0.978755
0.000000 0.000000 0.218365
0.000000 0.000000 0.208480
0.065143 0.000000 0.203355
0.296569 0.000000 0.210712
0.807060 0.000000 0.275365
1.000000 0.321087 0.582636
1.000000 0.808725 0.707724
1.000000 0.955834 0.893448
1.000000 0.997264 0.978755
0.000000 0.050482 0.351345
0.000000 0.051278 0.337949
0.000000 0.047053 0.343204
0.260033 0.000000 0.349429
0.807302 0.000000 0.395026
1.000000 0.348799 0.588711
1.000000 0.808725 0.707724
1.000000 0.955834 0.893448
1.000000 0.997264 0.978755
0.000000 0.248404 0.587680
0.000000 0.250507 0.583895
0.000000 0.246103 0.584050
0.143526 0.236430 0.594885
0.832222 0.000000 0.584626
1.000000 0.441274 0.611090
1.000000 0.817351 0.708369
1.000000 0.956309 0.893472
1.000000 0.997264 0.978755
0.000000 0.739943 0.841876
0.000000 0.739849 0.844047
0.000000 0.732608 0.840108
0.000000 0.728753 0.828565
0.687405 0.709835 0.789896
1.000000 0.716678 0.675351
1.000000 0.847022 0.717441
1.000000 0.959127 0.894467
1.000000 0.997533 0.979078
0.000000 0.952034 0.835978
0.000000 0.951620 0.833945
0.000000 0.951191 0.831895
0.253950 0.948669 0.817083
0.714931 0.936705 0.770201
0.984125 0.922621 0.689302
1.000000 0.933025 0.757018
1.000000 0.968765 0.898813
1.000000 0.998204 0.979435
0.844511 0.997869 0.843886
0.846422 0.997768 0.843904
0.850202 0.997565 0.843942
0.857709 0.997175 0.842460
0.895256 0.995188 0.830299
0.970387 0.991858 0.808461
1.000000 0.988521 0.786558
1.000000 0.993253 0.910857
1.000000 1.000000 0.980340
0.981863 1.000000 0.934393
0.981905 1.000000 0.933741
0.981905 1.000000 0.933741
0.982830 1.000000 0.933793
0.985542 1.000000 0.933305
0.994170 1.000000 0.929722
1.000000 1.000000 0.920388
1.000000 1.000000 0.915603
1.000000 1.000000 0.982176
1.000000 1.000000 0.991148
1.000000 1.000000 0.991148
1.000000 1.000000 0.991148
1.000000 1.000000 0.991148
1.000000 1.000000 0.990938
1.000000 1.000000 0.990560
1.000000 1.000000 0.988844
1.000000 1.000000 0.984166
1.000000 1.000000 0.971322
0.212664 0.000000 0.207360
0.231808 0.000000 0.206967
0.269229 0.000000 0.209500
0.391205 0.000000 0.215602
0.743291 0.000000 0.288393
1.000000 0.000000 0.581186
1.000000 0.782519 0.885128
1.000000 0.953630 0.922934
1.000000 0.997096 0.983441
0.169656 0.000000 0.284008
0.187398 0.000000 0.285984
0.226550 0.000000 0.287669
0.341747 0.000000 0.299795
0.725161 0.000000 0.382159
1.000000 0.000000 0.630120
1.000000 0.784292 0.885028
1.000000 0.954120 0.922931
1.000000 0.997096 0.983441
0.000000 0.000000 0.468992
0.071554 0.000000 0.468887
0.139252 0.000000 0.468633
0.292384 0.000000 0.488467
0.720873 0.000000 0.542450
1.000000 0.000000 0.679853
1.000000 0.786025 0.886354
1.000000 0.954120 0.922931
1.000000 0.997234 0.983447
0.000000 0.248225 0.757303
0.000000 0.247878 0.757272
0.000000 0.244758 0.760607
0.060708 0.233839 0.760173
0.705694 0.106954 0.772093
1.000000 0.048638 0.794485
1.000000 0.797164 0.888635
1.000000 0.954603 0.923710
1.000000 0.997234 0.983447
0.000000 0.591958 0.911738
0.000000 0.591806 0.911718
0.000000 0.595171 0.912945
0.000000 0.592677 0.912643
0.610628 0.562966 0.912285
1.000000 0.548988 0.899822
1.000000 0.829848 0.894630
1.000000 0.957018 0.924477
1.000000 0.997369 0.983453
0.000000 0.959831 0.980159
0.000000 0.960495 0.979510
0.000000 0.958961 0.979540
0.000000 0.954336 0.978368
0.605534 0.942518 0.972386
0.944181 0.924796 0.957381
1.000000 0.932024 0.919752
1.000000 0.967395 0.928932
1.000000 0.998041 0.983768
0.796664 1.000000 0.973745
0.798942 1.000000 0.973738
0.801221 1.000000 0.973226
0.814254 1.000000 0.972157
0.856384 0.998330 0.968824
0.945510 0.994256 0.956134
1.000000 0.990657 0.930285
1.000000 0.993701 0.943967
1.000000 1.000000 0.984514
0.976204 1.000000 0.973848
0.976204 1.000000 0.973848
0.976204 1.000000 0.973848
0.977178 1.000000 0.973857
0.979554 1.000000 0.973083
0.988848 1.000000 0.970568
1.000000 1.000000 0.962261
1.000000 1.000000 0.946743
1.000000 1.000000 0.987271
1.000000 1.000000 0.996105
1.000000 1.000000 0.996105
1.000000 1.000000 0.996105
1.000000 1.000000 0.996105
1.000000 1.000000 0.996110
1.000000 1.000000 0.995786
1.000000 1.000000 0.994508
1.000000 1.000000 0.990076
1.000000 1.000000 0.978720
0.634352 0.000000 0.279009
0.641280 0.000000 0.276784
0.656244 0.000000 0.276798
0.709926 0.000000 0.274720
0.888196 0.000000 0.296815
1.000000 0.000000 0.666557
1.000000 0.510466 0.920136
1.000000 0.947602 0.987008
1.000000 0.996742 0.994210
0.629546 0.000000 0.290430
0.633710 0.000000 0.292781
0.645688 0.000000 0.297542
0.694163 0.000000 0.317397
0.839891 0.000000 0.398325
1.000000 0.000000 0.737393
1.000000 0.517058 0.923557
1.000000 0.947602 0.987008
1.000000 0.996742 0.994210
0.549450 0.000000 0.507421
0.553464 0.000000 0.510959
0.565790 0.000000 0.518032
0.616528 0.000000 0.535715
0.797758 0.000000 0.630216
1.000000 0.000000 0.812192
1.000000 0.535519 0.927687
1.000000 0.947602 0.987008
1.000000 0.996742 0.994210
0.421421 0.202613 0.881075
0.431386 0.200919 0.880980
0.456159 0.196367 0.880739
0.519049 0.185282 0.882035
0.746026 0.108805 0.890636
1.000000 0.000000 0.911198
1.000000 0.585494 0.943331
1.000000 0.948117 0.987685
1.000000 0.996882 0.994207
0.000000 0.592642 0.977879
0.051352 0.592274 0.977837
0.176517 0.591506 0.977750
0.319550 0.589056 0.979027
0.624604 0.571534 0.976258
1.000000 0.544291 0.977875
1.000000 0.704286 0.973799
1.000000 0.951698 0.987796
1.000000 0.997019 0.994416
0.000000 0.895498 1.000000
0.000000 0.895339 1.000000
0.000000 0.895018 1.000000
0.000000 0.894970 1.000000
0.534726 0.884314 1.000000
0.928897 0.863503 0.998518
1.000000 0.870698 0.994521
1.000000 0.962660 0.989454
1.000000 0.997697 0.994610
0.698546 1.000000 1.000000
0.701419 1.000000 1.000000
0.704275 1.000000 1.000000
0.718130 1.000000 1.000000
0.781062 1.000000 1.000000
0.916177 0.995877 1.000000
1.000000 0.991057 1.000000
1.000000 0.993009 0.995598
1.000000 1.000000 0.995753
0.962233 1.000000 1.000000
0.962233 1.000000 1.000000
0.962811 1.000000 1.000000
0.963954 1.000000 1.000000
0.967303 1.000000 1.000000
0.979062 1.000000 1.000000
1.000000 1.000000 1.000000
1.000000 1.000000 0.996686
1.000000 1.000000 0.998028
1.000000 1.000000 1.000000
1.000000 1.000000 1.000000
1.000000 1.000000 1.000000
1.000000 1.000000 1.000000
1.000000 1.000000 1.000000
1.000000 1.000000 1.000000
1.000000 1.000000 1.000000
1.000000 1.000000 1.000000
1.000000 1.000000 0.996736
1.000000 0.000000 0.423137
1.000000 0.000000 0.423345
1.000000 0.000000 0.423556
1.000000 0.000000 0.424432
1.000000 0.000000 0.432140
1.000000 0.000000 0.455297
1.000000 0.389633 0.972164
1.000000 0.867255 1.000000
1.000000 0.995098 1.000000
1.000000 0.000000 0.423345
1.000000 0.000000 0.423345
1.000000 0.000000 0.423556
1.000000 0.000000 0.424432
1.000000 0.000000 0.432140
1.000000 0.000000 0.455297
1.000000 0.401492 0.975785
1.000000 0.867744 1.000000
1.000000 0.995098 1.000000
1.000000 0.000000 0.423345
1.000000 0.000000 0.423345
1.000000 0.000000 0.423556
1.000000 0.000000 0.424432
1.000000 0.000000 0.432140
1.000000 0.000000 0.631842
1.000000 0.424596 0.981113
1.000000 0.868801 1.000000
1.000000 0.995098 1.000000
0.982274 0.000000 0.908307
0.982104 0.000000 0.909901
0.984698 0.000000 0.909854
0.997130 0.000000 0.914352
1.000000 0.000000 0.925267
1.000000 0.000000 0.957066
1.000000 0.488163 0.994586
1.000000 0.872115 1.000000
1.000000 0.995252 1.000000
0.875639 0.564522 1.000000
0.878819 0.564236 1.000000
0.881934 0.564106 1.000000
0.897209 0.562740 1.000000
0.945281 0.562882 1.000000
1.000000 0.583756 1.000000
1.000000 0.674117 1.000000
1.000000 0.887234 1.000000
1.000000 0.995404 1.000000
0.764166 0.877870 1.000000
0.767701 0.877686 1.000000
0.767701 0.877686 1.000000
0.781474 0.876959 1.000000
0.824505 0.876203 1.000000
0.924803 0.865593 1.000000
1.000000 0.866940 1.000000
1.000000 0.922733 1.000000
1.000000 0.996142 1.000000
0.811088 0.984781 1.000000
0.811088 0.984781 1.000000
0.813291 0.984669 1.000000
0.815468 0.984558 1.000000
0.841715 0.983189 1.000000
0.899074 0.979510 1.000000
0.999401 0.973149 1.000000
1.000000 0.976193 1.000000
1.000000 0.999565 1.000000
0.931150 1.000000 1.000000
0.931150 1.000000 1.000000
0.931929 1.000000 1.000000
0.932705 1.000000 1.000000
0.938798 1.000000 1.000000
0.957604 1.000000 1.000000
0.993110 1.000000 1.000000
1.000000 1.000000 1.000000
1.000000 1.000000 1.000000
1.000000 1.000000 1.000000
1.000000 1.000000 1.000000
1.000000 1.000000 1.000000
1.000000 1.000000 1.000000
1.000000 1.000000 1.000000
1.000000 1.000000 1.000000
1.000000 1.000000 1.000000
1.000000 1.000000 1.000000
1.000000 1.000000 1.000000
1.000000 0.136011 0.623987
1.000000 0.136011 0.623987
1.000000 0.136011 0.623987
1.000000 0.148804 0.624545
1.000000 0.190460 0.626831
1.000000 0.291211 0.638444
1.000000 0.504077 0.674801
1.000000 0.820314 1.000000
1.000000 0.966596 1.000000
1.000000 0.136011 0.623987
1.000000 0.136011 0.623987
1.000000 0.136011 0.623987
1.000000 0.148804 0.624545
1.000000 0.190460 0.626831
1.000000 0.291211 0.638444
1.000000 0.504077 0.674801
1.000000 0.821755 1.000000
1.000000 0.966554 1.000000
1.000000 0.136011 0.623987
1.000000 0.136011 0.623987
1.000000 0.136011 0.623987
1.000000 0.148804 0.624545
1.000000 0.190460 0.626831
1.000000 0.291211 0.638444
1.000000 0.504077 0.674801
1.000000 0.823767 1.000000
1.000000 0.966767 1.000000
1.000000 0.136011 0.623987
1.000000 0.136011 0.623987
1.000000 0.136011 0.623987
1.000000 0.148804 0.624545
1.000000 0.190460 0.626831
1.000000 0.291211 0.638444
1.000000 0.360074 0.930432
1.000000 0.832179 1.000000
1.000000 0.967155 1.000000
1.000000 0.455128 1.000000
1.000000 0.455128 1.000000
1.000000 0.455128 1.000000
1.000000 0.459888 1.000000
1.000000 0.466357 1.000000
1.000000 0.517591 1.000000
1.000000 0.650617 1.000000
1.000000 0.852351 1.000000
1.000000 0.968647 1.000000
1.000000 0.872456 1.000000
1.000000 0.872456 1.000000
1.000000 0.872456 1.000000
1.000000 0.872433 1.000000
1.000000 0.872337 1.000000
1.000000 0.872306 1.000000
1.000000 0.878663 1.000000
1.000000 0.912930 1.000000
1.000000 0.974748 1.000000
0.956878 0.975918 1.000000
0.957752 0.975865 1.000000
0.957752 0.975865 1.000000
0.958618 0.975813 1.000000
0.961772 0.976110 1.000000
0.971141 0.975558 1.000000
0.998761 0.973072 1.000000
1.000000 0.973797 1.000000
1.000000 0.987135 1.000000
0.964889 1.000000 1.000000
0.964889 1.000000 1.000000
0.964889 1.000000 1.000000
0.965463 1.000000 1.000000
0.967161 1.000000 1.000000
0.973976 1.000000 1.000000
0.989616 1.000000 1.000000
1.000000 1.000000 1.000000
1.000000 1.000000 1.000000
0.990674 1.000000 1.000000
0.990674 1.000000 1.000000
0.990674 1.000000 1.000000
0.990674 1.000000 1.000000
0.991105 1.000000 1.000000
0.992784 1.000000 1.000000
0.998787 1.000000 1.000000
1.000000 1.000000 1.000000
1.000000 1.000000 1.000000
