Assets/Lutify-Free-LUTs-Pack/Lutify Free LUTs Pack/Cine World Pro Warm - Amy/Lutify.me-Amy-DragonColor2RLF-to-Rec709.cube
# Created with: fylm.ai - Colour Grading and Collaboration Software in Cloud 
# Website: https://fylm.ai 
# META
# Option: Gamut compress
# Block 1: IDT | RED DragonColor2 REDLogFilm
# Block 2: colourMatch | Blending Mode: Normal | {"ColorSpace":0,"CrossCovarianceLimit":50,"ReshapingIterations":1,"PercentSaturationShift":100,"PercentShadingShift":100,"ExtraShading":true,"PercentTint":100,"PercentModified":100}
# Block 3: LUT | Filmic Curve Response: Standard Contrast 1 (100%)
# Block 4: LUT | Illuminant: D60 (100%)
# Block 5: hueSaturation | Blending Mode: Normal | {"hue":0,"saturation":-0.15}
# Block 6: logPrimaries | Blending Mode: Normal | {"wheels":{"shadows":{"Y":"0","R":"1","G":"1","B":"1"},"midtones":{"Y":"0","R":"1","G":"1","B":"1"},"highlights":{"Y":"0","R":"1","G":"1","B":"1"},"offset":{"Y":"0","R":"1","G":"1","B":"1"}},"sliders":{"shadows":{"Y":0,"R":-0.097,"G":0,"B":0.158},"midtones":{"Y":0,"R":0.024,"G":0.024,"B":-0.036},"highlights":{"Y":0,"R":0.154,"G":-0.084,"B":-0.024},"offset":{"Y":0.048,"R":0,"G":0,"B":0}}}
# Block 7: smartCurves | Blending Mode: Average | [[{"x":0,"y":0},{"x":0.11328125,"y":0.085540771484375},{"x":0.21484375,"y":0.218353271484375},{"x":0.37109375,"y":0.382415771484375},{"x":0.62109375,"y":0.589447021484375},{"x":0.8125,"y":0.765228271484375},{"x":1,"y":1}],[{"x":0,"y":0},{"x":1,"y":1}],[{"x":0,"y":0},{"x":1,"y":1}],[{"x":0,"y":0},{"x":1,"y":1}]]
# Block 8: LUT | Neutral Tint: Teal Tint 4 (100%)
# Block 9: contrast | Blending Mode: Normal | {"contrast":0.1}
# Block 10: ODT | Rec709
TITLE "Lutify.me-Amy-DragonColor2RLF-to-Rec709" 
LUT_3D_SIZE 33
0.000000 0.000000 0.000000
0.000000 0.000000 0.000000
0.000000 0.000000 0.000000
0.000000 0.000000 0.000000
0.000000 0.000000 0.000000
0.000000 0.000000 0.000000
0.000000 0.000000 0.000000
0.037951 0.000000 0.000000
0.088982 0.000000 0.000000
0.125252 0.000000 0.000000
0.161046 0.000000 0.000000
0.207093 0.000000 0.000000
0.262611 0.000000 0.000000
0.312816 0.000000 0.000000
0.370607 0.000000 0.000000
0.428721 0.000000 0.000000
0.504783 0.000000 0.000000
0.590706 0.000000 0.000000
0.669171 0.000000 0.000000
0.749834 0.000000 0.000000
0.839674 0.000000 0.000000
0.924281 0.000000 0.000000
0.971568 0.000000 0.000000
1.000000 0.000000 0.000000
1.000000 0.000000 0.000000
1.000000 0.000000 0.051698
1.000000 0.218989 0.090564
1.000000 0.346996 0.116748
1.000000 0.444333 0.157867
1.000000 0.527630 0.202922
1.000000 0.613138 0.260776
1.000000 0.699673 0.332476
1.000000 0.760333 0.403163
0.000000 0.000000 0.000000
0.000000 0.000000 0.000000
0.000000 0.000000 0.000000
0.000000 0.000000 0.000000
0.000000 0.000000 0.000000
0.000000 0.000000 0.000000
0.000000 0.000000 0.000000
0.044408 0.000000 0.000000
0.091825 0.000000 0.000000
0.126088 0.000000 0.000000
0.161022 0.000000 0.000000
0.207086 0.000000 0.000000
0.260705 0.000000 0.000000
0.310674 0.000000 0.000000
0.367975 0.000000 0.000000
0.428724 0.000000 0.000000
0.504799 0.000000 0.000000
0.586681 0.000000 0.000000
0.673378 0.000000 0.000000
0.749839 0.000000 0.000000
0.839668 0.000000 0.000000
0.924246 0.000000 0.000000
0.971529 0.000000 0.000000
1.000000 0.000000 0.000000
1.000000 0.000000 0.000000
1.000000 0.000000 0.051698
1.000000 0.219042 0.090556
1.000000 0.346996 0.116748
1.000000 0.444333 0.157867
1.000000 0.527630 0.202922
1.000000 0.613138 0.260776
1.000000 0.699707 0.332473
1.000000 0.760333 0.403163
0.000000 0.000000 0.000000
0.000000 0.000000 0.000000
0.000000 0.000000 0.000000
0.000000 0.000000 0.000000
0.000000 0.000000 0.000000
0.000000 0.000000 0.000000
0.000000 0.000000 0.000000
0.049684 0.000000 0.000000
0.095160 0.000000 0.000000
0.126923 0.000000 0.000000
0.160972 0.000000 0.000000
0.205600 0.000000 0.000000
0.258815 0.000000 0.000000
0.310691 0.000000 0.000000
0.367979 0.000000 0.000000
0.428727 0.000000 0.000000
0.504816 0.000000 0.000000
0.586696 0.000000 0.000000
0.673385 0.000000 0.000000
0.754117 0.000000 0.000000
0.839658 0.000000 0.000000
0.924208 0.000000 0.000000
0.971489 0.000000 0.000000
1.000000 0.000000 0.000000
1.000000 0.000000 0.000000
1.000000 0.000000 0.050249
1.000000 0.224202 0.089576
1.000000 0.350743 0.115832
1.000000 0.444333 0.157867
1.000000 0.527630 0.202922
1.000000 0.613138 0.260776
1.000000 0.699707 0.332473
1.000000 0.760333 0.403163
0.000000 0.000000 0.000000
0.000000 0.000000 0.000000
0.000000 0.000000 0.000000
0.000000 0.000000 0.000000
0.000000 0.000000 0.000000
0.000000 0.000000 0.000000
0.000000 0.000000 0.000000
0.055575 0.000000 0.000000
0.097799 0.000000 0.000000
0.127800 0.000000 0.000000
0.161961 0.000000 0.000000
0.205575 0.000000 0.000000
0.256950 0.000000 0.000000
0.308574 0.000000 0.000000
0.367979 0.000000 0.000000
0.425592 0.000000 0.000000
0.501168 0.000000 0.000000
0.586715 0.000000 0.000000
0.673399 0.000000 0.000000
0.754116 0.000000 0.000000
0.843815 0.000000 0.000000
0.924170 0.000000 0.000000
0.971407 0.000000 0.000000
1.000000 0.000000 0.000000
1.000000 0.000000 0.000000
1.000000 0.000000 0.048710
1.000000 0.224202 0.089576
1.000000 0.350743 0.115832
1.000000 0.447656 0.157146
1.000000 0.527630 0.202922
1.000000 0.613138 0.260776
1.000000 0.699707 0.332473
1.000000 0.760333 0.403163
0.000000 0.000000 0.000000
0.000000 0.000000 0.000000
0.000000 0.000000 0.000000
0.000000 0.000000 0.000000
0.000000 0.000000 0.000000
0.000000 0.000000 0.000000
0.000000 0.000000 0.000000
0.059174 0.000000 0.000000
0.097849 0.000000 0.000000
0.127579 0.000000 0.000000
0.161765 0.000000 0.000000
0.206996 0.000000 0.000000
0.258862 0.000000 0.000000
0.308588 0.000000 0.000000
0.365348 0.000000 0.000000
0.425628 0.000000 0.000000
0.501200 0.000000 0.000000
0.586756 0.000000 0.000000
0.677615 0.000000 0.000000
0.754115 0.000000 0.000000
0.843791 0.000000 0.000000
0.927586 0.000000 0.000000
0.971279 0.000000 0.000000
1.000000 0.000000 0.000000
1.000000 0.000000 0.000000
1.000000 0.000000 0.048710
1.000000 0.229270 0.088571
1.000000 0.355818 0.117519
1.000000 0.447656 0.157146
1.000000 0.527630 0.202922
1.000000 0.613138 0.260776
1.000000 0.699707 0.332473
1.000000 0.760333 0.403163
0.000000 0.000000 0.000000
0.000000 0.000000 0.000000
0.000000 0.000000 0.000000
0.000000 0.000000 0.000000
0.000000 0.000000 0.000000
0.000000 0.000000 0.009382
0.000000 0.000000 0.006658
0.067259 0.000000 0.000000
0.098185 0.000000 0.000000
0.126727 0.000000 0.000000
0.159509 0.000000 0.000000
0.207012 0.000000 0.000000
0.260804 0.000000 0.000000
0.312850 0.000000 0.000000
0.367967 0.000000 0.000000
0.425661 0.000000 0.000000
0.501252 0.000000 0.000000
0.590832 0.000000 0.000000
0.677631 0.000000 0.000000
0.758390 0.000000 0.000000
0.843755 0.000000 0.000000
0.927498 0.000000 0.000000
0.974084 0.000000 0.000000
1.000000 0.000000 0.000000
1.000000 0.000000 0.000000
1.000000 0.000000 0.047051
1.000000 0.234253 0.087532
1.000000 0.355854 0.117510
1.000000 0.450980 0.156414
1.000000 0.530709 0.202359
1.000000 0.613138 0.260776
1.000000 0.702082 0.332265
1.000000 0.760333 0.403163
0.000000 0.023362 0.000000
0.000000 0.023440 0.000000
0.000000 0.024481 0.000000
0.000000 0.024833 0.000000
0.000000 0.023625 0.000000
0.000000 0.023104 0.000000
0.000000 0.021999 0.000000
0.064915 0.014255 0.000000
0.100196 0.000000 0.000000
0.128934 0.000000 0.000000
0.161605 0.000000 0.000000
0.212651 0.000000 0.000000
0.260655 0.000000 0.000000
0.310595 0.000000 0.000000
0.370651 0.000000 0.000000
0.432056 0.000000 0.000000
0.508695 0.000000 0.000000
0.590881 0.000000 0.000000
0.681865 0.000000 0.000000
0.758389 0.000000 0.000000
0.847857 0.000000 0.000000
0.927379 0.000000 0.000000
0.973944 0.000000 0.000000
1.000000 0.000000 0.000000
1.000000 0.000000 0.000000
1.000000 0.000000 0.047336
1.000000 0.239254 0.086441
1.000000 0.355854 0.117510
1.000000 0.451018 0.156404
1.000000 0.530748 0.202353
1.000000 0.617393 0.263429
1.000000 0.702082 0.332265
1.000000 0.760333 0.403163
0.000000 0.052571 0.000000
0.000000 0.052194 0.000000
0.000000 0.051449 0.000000
0.000000 0.051205 0.000000
0.000000 0.049898 0.000000
0.000000 0.050295 0.000000
0.027988 0.048604 0.000000
0.062245 0.045558 0.000000
0.097499 0.039715 0.000000
0.131149 0.029118 0.000000
0.168873 0.000000 0.000000
0.213678 0.000000 0.000000
0.264452 0.000000 0.000000
0.319365 0.000000 0.000000
0.370758 0.000000 0.000000
0.438618 0.000000 0.000000
0.512500 0.000000 0.000000
0.603109 0.000000 0.000000
0.681903 0.000000 0.000000
0.758389 0.000000 0.000000
0.847770 0.000000 0.000000
0.927165 0.000000 0.000000
0.973745 0.000000 0.000000
1.000000 0.000000 0.000000
1.000000 0.000000 0.000000
1.000000 0.000000 0.045507
1.000000 0.248850 0.084192
1.000000 0.363266 0.115629
1.000000 0.454346 0.155659
1.000000 0.533833 0.201782
1.000000 0.617393 0.263429
1.000000 0.702082 0.332265
1.000000 0.762216 0.403094
0.000000 0.074101 0.000000
0.000000 0.073485 0.000000
0.000000 0.072271 0.000000
0.000000 0.071081 0.000000
0.000000 0.069400 0.000000
0.000000 0.068070 0.000000
0.033268 0.066125 0.000000
0.068436 0.064082 0.000000
0.101739 0.062133 0.000000
0.138766 0.055202 0.000000
0.178523 0.043865 0.000000
0.227896 0.000000 0.000000
0.274132 0.000000 0.000000
0.323966 0.000000 0.000000
0.379091 0.000000 0.000000
0.448724 0.000000 0.000000
0.524054 0.000000 0.000000
0.607307 0.000000 0.000000
0.681961 0.000000 0.000000
0.758379 0.000000 0.000000
0.851785 0.000000 0.000000
0.930447 0.000000 0.000000
0.979135 0.000000 0.000000
1.000000 0.000000 0.000000
1.000000 0.000000 0.000000
1.000000 0.052827 0.041429
1.000000 0.255012 0.085780
1.000000 0.366997 0.114646
1.000000 0.457676 0.154900
1.000000 0.536963 0.201197
1.000000 0.620264 0.263022
1.000000 0.704452 0.332059
1.000000 0.762245 0.403093
0.000000 0.095535 0.000000
0.000000 0.093988 0.000000
0.000000 0.094775 0.000000
0.000000 0.094817 0.000000
0.000000 0.093165 0.000000
0.000000 0.092046 0.000000
0.029225 0.089912 0.000000
0.072505 0.087996 0.000000
0.108711 0.084911 0.000000
0.141705 0.079712 0.000000
0.187705 0.072411 0.000000
0.239954 0.058514 0.000000
0.287867 0.000000 0.000000
0.333598 0.000000 0.000000
0.393564 0.000000 0.000000
0.455937 0.000000 0.000000
0.528345 0.000000 0.000000
0.607576 0.000000 0.000000
0.686265 0.000000 0.000000
0.762622 0.000000 0.000000
0.855666 0.000000 0.000000
0.926715 0.000000 0.000000
0.978773 0.000000 0.000000
1.000000 0.000000 0.000000
1.000000 0.000000 0.000000
1.000000 0.103911 0.033535
1.000000 0.264229 0.083400
1.000000 0.374402 0.112615
1.000000 0.457713 0.154893
1.000000 0.540060 0.200612
1.000000 0.623142 0.262612
1.000000 0.706848 0.331853
1.000000 0.764119 0.403028
0.000000 0.128448 0.000000
0.000000 0.127387 0.000000
0.000000 0.126288 0.000000
0.000000 0.125134 0.000000
0.000000 0.123921 0.000000
0.000000 0.122626 0.000000
0.000000 0.120068 0.000000
0.073360 0.118099 0.000000
0.112902 0.117414 0.000000
0.150436 0.114717 0.000000
0.203773 0.106327 0.000000
0.256733 0.097720 0.000000
0.305167 0.085298 0.000000
0.354346 0.059988 0.000000
0.409384 0.000000 0.000000
0.470955 0.000000 0.000000
0.544737 0.000000 0.000000
0.620297 0.000000 0.000000
0.686511 0.000000 0.000000
0.766830 0.000000 0.000000
0.855446 0.000000 0.000000
0.926325 0.000000 0.000000
0.980995 0.000000 0.000000
1.000000 0.000000 0.000000
1.000000 0.000000 0.000000
1.000000 0.135994 0.029556
1.000000 0.277678 0.079513
1.000000 0.381819 0.110472
1.000000 0.465671 0.156049
1.000000 0.543201 0.200012
1.000000 0.626027 0.262198
1.000000 0.706848 0.331853
1.000000 0.764119 0.403028
0.000000 0.160461 0.000000
0.000000 0.160421 0.000000
0.000000 0.159010 0.000000
0.000000 0.156284 0.000000
0.000000 0.156126 0.000000
0.000000 0.154535 0.000000
0.000000 0.152744 0.000000
0.067434 0.150700 0.000000
0.113249 0.149377 0.000000
0.166959 0.145087 0.000000
0.223130 0.138482 0.000000
0.268438 0.132530 0.000000
0.321538 0.122604 0.000000
0.368835 0.107063 0.000000
0.420186 0.087134 0.000000
0.486711 0.036063 0.000000
0.565517 0.000000 0.000000
0.629194 0.000000 0.000000
0.699348 0.000000 0.000000
0.779488 0.000000 0.000000
0.858997 0.000000 0.000000
0.925663 0.000000 0.000000
0.982835 0.000000 0.000000
1.000000 0.000000 0.000000
1.000000 0.000000 0.000000
1.000000 0.166783 0.000000
1.000000 0.295031 0.073604
1.000000 0.390369 0.111143
1.000000 0.468994 0.155271
1.000000 0.546316 0.199411
1.000000 0.628948 0.261778
1.000000 0.711553 0.331454
1.000000 0.765983 0.402966
0.000000 0.199090 0.000000
0.000000 0.199040 0.000000
0.000000 0.198971 0.000000
0.000000 0.198843 0.000000
0.000000 0.197024 0.000000
0.000000 0.196765 0.000000
0.000000 0.194686 0.000000
0.055192 0.192313 0.000000
0.125113 0.187690 0.000000
0.180720 0.183034 0.000000
0.236352 0.174628 0.000000
0.281082 0.168868 0.000000
0.333119 0.162188 0.000000
0.384231 0.149955 0.000000
0.438244 0.135520 0.000000
0.506874 0.114436 0.000000
0.575039 0.088920 0.000000
0.642471 0.000000 0.000000
0.708099 0.000000 0.000000
0.787841 0.000000 0.000000
0.866127 0.000000 0.000000
0.931228 0.000000 0.000000
0.987015 0.000000 0.000000
1.000000 0.000000 0.000000
1.000000 0.000000 0.000000
1.000000 0.200018 0.000000
1.000000 0.317271 0.068472
1.000000 0.401313 0.107687
1.000000 0.475688 0.153666
1.000000 0.553837 0.201054
1.000000 0.634700 0.260946
1.000000 0.713895 0.331258
1.000000 0.767839 0.402909
0.000000 0.238190 0.000000
0.000000 0.238084 0.000000
0.000000 0.237986 0.000000
0.000000 0.237830 0.000000
0.000000 0.237537 0.000000
0.000000 0.235302 0.000000
0.000000 0.234625 0.000000
0.062326 0.231716 0.000000
0.132503 0.228332 0.000000
0.186102 0.225872 0.000000
0.235312 0.220675 0.000000
0.291094 0.211651 0.000000
0.348124 0.204541 0.000000
0.405729 0.195525 0.000000
0.461184 0.184745 0.000000
0.524819 0.169389 0.000000
0.592846 0.153630 0.000000
0.660158 0.135258 0.000000
0.721283 0.101012 0.000000
0.796168 0.000000 0.000000
0.869107 0.000000 0.000000
0.936117 0.000000 0.000000
0.990233 0.000000 0.000000
1.000000 0.000000 0.000000
1.000000 0.142745 0.000000
1.000000 0.238623 0.000000
1.000000 0.334778 0.064374
1.000000 0.415867 0.102618
1.000000 0.486913 0.153998
1.000000 0.560154 0.199812
1.000000 0.641681 0.263266
1.000000 0.716261 0.331062
1.000000 0.769686 0.402854
0.000000 0.276962 0.000000
0.000000 0.276842 0.000000
0.000000 0.276679 0.000000
0.000000 0.276463 0.000000
0.000000 0.276175 0.000000
0.000000 0.273601 0.000000
0.000000 0.272871 0.000000
0.070969 0.269852 0.000000
0.136880 0.270682 0.000000
0.192579 0.268678 0.000000
0.236765 0.266362 0.000000
0.294379 0.260079 0.000000
0.353855 0.252196 0.000000
0.416063 0.240007 0.000000
0.487540 0.224080 0.000000
0.542726 0.216583 0.000000
0.615051 0.208949 0.000000
0.674180 0.202608 0.000000
0.734651 0.190639 0.000000
0.804460 0.167144 0.000000
0.871587 0.165049 0.000000
0.937077 0.143117 0.000000
0.986934 0.161408 0.000000
1.000000 0.177458 0.000000
1.000000 0.216713 0.000000
1.000000 0.288766 0.000000
1.000000 0.358817 0.047967
1.000000 0.431489 0.100367
1.000000 0.496981 0.151419
1.000000 0.566495 0.198540
1.000000 0.647393 0.262446
1.000000 0.720937 0.330683
1.000000 0.772365 0.406326
0.000000 0.329935 0.000000
0.000000 0.329749 0.000000
0.000000 0.329627 0.000000
0.000000 0.329407 0.000000
0.000000 0.329162 0.000000
0.000000 0.328774 0.000000
0.000000 0.328189 0.000000
0.000000 0.330121 0.000000
0.127216 0.328996 0.000000
0.175506 0.325309 0.000000
0.234180 0.320619 0.000000
0.284265 0.315469 0.000000
0.345342 0.308670 0.000000
0.411274 0.302758 0.000000
0.488524 0.291826 0.000000
0.571294 0.277920 0.000000
0.633199 0.267915 0.000000
0.688175 0.267385 0.000000
0.751875 0.257598 0.000000
0.812455 0.250668 0.000000
0.884379 0.244441 0.000000
0.943103 0.238663 0.000000
0.990113 0.258608 0.000000
1.000000 0.280265 0.000000
1.000000 0.298299 0.000000
1.000000 0.329357 0.000000
1.000000 0.387250 0.011413
1.000000 0.451612 0.099902
1.000000 0.514902 0.149839
1.000000 0.580269 0.198921
1.000000 0.655942 0.261212
1.000000 0.726523 0.333829
1.000000 0.774202 0.406283
0.000000 0.387963 0.000000
0.000000 0.387914 0.000000
0.000000 0.387761 0.000000
0.000000 0.387542 0.000000
0.000000 0.387305 0.000000
0.000000 0.386981 0.000000
0.000000 0.386470 0.000000
0.000000 0.385975 0.000000
0.057694 0.385419 0.000000
0.166642 0.381094 0.000000
0.224671 0.379578 0.000000
0.286821 0.374288 0.000000
0.345598 0.368391 0.000000
0.407919 0.364518 0.000000
0.488492 0.358061 0.000000
0.575497 0.342603 0.000000
0.645276 0.330592 0.000000
0.700890 0.329829 0.000000
0.760310 0.324516 0.000000
0.823550 0.313988 0.000000
0.892038 0.314350 0.000000
0.944360 0.319158 0.000000
0.989723 0.331941 0.000000
1.000000 0.344187 0.000000
1.000000 0.361028 0.000000
1.000000 0.388928 0.000000
1.000000 0.426665 0.000000
1.000000 0.477701 0.091996
1.000000 0.531777 0.144945
1.000000 0.593007 0.196226
1.000000 0.668279 0.262843
1.000000 0.733381 0.333321
1.000000 0.777818 0.406208
0.000000 0.452734 0.000000
0.000000 0.452620 0.000000
0.000000 0.452561 0.000000
0.000000 0.452377 0.000000
0.000000 0.452249 0.000000
0.000000 0.451975 0.000000
0.000000 0.451679 0.000000
0.000000 0.447807 0.000000
0.000000 0.447355 0.000000
0.139642 0.443168 0.000000
0.213276 0.438594 0.000000
0.274571 0.433610 0.000000
0.344370 0.427602 0.000000
0.409667 0.424307 0.000000
0.481402 0.423182 0.000000
0.563287 0.409554 0.000000
0.635127 0.398984 0.000000
0.711131 0.386843 0.000000
0.779424 0.378417 0.000000
0.840540 0.374266 0.000000
0.894800 0.383299 0.000000
0.946999 0.390063 0.000000
0.990755 0.395619 0.000000
1.000000 0.399753 0.000000
1.000000 0.424600 0.000000
1.000000 0.449979 0.000000
1.000000 0.476822 0.000000
1.000000 0.514443 0.074655
1.000000 0.556472 0.140711
1.000000 0.616422 0.194404
1.000000 0.683076 0.264210
1.000000 0.741001 0.336388
1.000000 0.781416 0.406152
0.000000 0.511196 0.000000
0.000000 0.511119 0.000000
0.000000 0.511040 0.000000
0.000000 0.510960 0.000000
0.000000 0.510709 0.000000
0.000000 0.510533 0.000000
0.000000 0.510350 0.000000
0.000000 0.506451 0.000000
0.036068 0.505809 0.000000
0.164761 0.501469 0.000000
0.210248 0.500786 0.000000
0.292195 0.495380 0.000000
0.353076 0.493367 0.000000
0.418156 0.494164 0.000000
0.488953 0.486757 0.000000
0.552717 0.475253 0.000000
0.620519 0.469910 0.000000
0.693985 0.463276 0.000000
0.783999 0.450377 0.000000
0.850999 0.447297 0.000000
0.905581 0.446034 0.000000
0.946557 0.446940 0.000000
0.988120 0.457310 0.000000
1.000000 0.465671 0.000000
1.000000 0.485288 0.000000
1.000000 0.513120 0.000000
1.000000 0.538358 0.000000
1.000000 0.561896 0.000000
1.000000 0.598186 0.129428
1.000000 0.643865 0.195083
1.000000 0.699264 0.261992
1.000000 0.751997 0.335711
1.000000 0.789192 0.409623
0.000000 0.582632 0.000000
0.000000 0.582530 0.000000
0.000000 0.582427 0.000000
0.000000 0.582322 0.000000
0.000000 0.582214 0.000000
0.000000 0.582104 0.000000
0.000000 0.581878 0.000000
0.000000 0.581521 0.000000
0.106672 0.577143 0.000000
0.178868 0.580158 0.000000
0.243813 0.579197 0.000000
0.302530 0.577950 0.000000
0.369454 0.572376 0.000000
0.422449 0.566773 0.000000
0.482961 0.560392 0.000000
0.549108 0.556832 0.000000
0.613959 0.548934 0.000000
0.685267 0.539826 0.000000
0.764443 0.533128 0.000000
0.851496 0.517616 0.000000
0.909357 0.521009 0.000000
0.947773 0.518929 0.000000
0.982920 0.525962 0.000000
1.000000 0.534454 0.000000
1.000000 0.557241 0.000000
1.000000 0.574938 0.000000
1.000000 0.595985 0.000000
1.000000 0.617124 0.000000
1.000000 0.647428 0.118225
1.000000 0.675473 0.192711
1.000000 0.719239 0.266502
1.000000 0.761288 0.338840
1.000000 0.798528 0.413172
0.000000 0.654756 0.000000
0.000000 0.654615 0.000000
0.000000 0.654473 0.000000
0.000000 0.654328 0.000000
0.074158 0.654032 0.000000
0.111944 0.653880 0.000000
0.157832 0.653571 0.000000
0.185499 0.649634 0.000000
0.225653 0.649143 0.000000
0.269092 0.648453 0.000000
0.297371 0.647910 0.000000
0.343659 0.643155 0.000000
0.388251 0.641915 0.000000
0.429349 0.640579 0.000000
0.480590 0.638642 0.000000
0.540664 0.635969 0.000000
0.610662 0.628499 0.000000
0.670075 0.624841 0.000000
0.758072 0.610911 0.000000
0.838337 0.596882 0.000000
0.901773 0.592348 0.000000
0.946456 0.590236 0.000000
0.977242 0.597547 0.000000
1.000000 0.602009 0.000000
1.000000 0.616485 0.000000
1.000000 0.633233 0.000000
1.000000 0.650893 0.000000
1.000000 0.666272 0.000000
1.000000 0.689316 0.111923
1.000000 0.711018 0.197055
1.000000 0.741550 0.271411
1.000000 0.776165 0.345265
1.000000 0.805323 0.416058
0.201844 0.718566 0.000000
0.217186 0.718397 0.000000
0.217186 0.718397 0.000000
0.231259 0.718225 0.000000
0.244431 0.718052 0.000000
0.256781 0.717875 0.000000
0.274702 0.714087 0.000000
0.285573 0.713906 0.000000
0.306055 0.713537 0.000000
0.334402 0.712965 0.000000
0.364729 0.708725 0.000000
0.396764 0.707895 0.000000
0.426801 0.707026 0.000000
0.469086 0.705650 0.000000
0.508873 0.704186 0.000000
0.565132 0.701821 0.000000
0.612612 0.699550 0.000000
0.685904 0.695533 0.000000
0.755204 0.683806 0.000000
0.829686 0.671128 0.000000
0.886624 0.663464 0.000000
0.938403 0.656983 0.000000
0.970792 0.660138 0.000000
0.999366 0.664457 0.000000
1.000000 0.677746 0.000000
1.000000 0.688191 0.000000
1.000000 0.703009 0.000000
1.000000 0.712053 0.000000
1.000000 0.730926 0.114008
1.000000 0.751022 0.202474
1.000000 0.774707 0.281712
1.000000 0.793980 0.353798
1.000000 0.820777 0.422046
0.333307 0.775078 0.000000
0.333307 0.775078 0.000000
0.343197 0.774881 0.000000
0.343254 0.774883 0.000000
0.352859 0.774683 0.000000
0.362211 0.774482 0.000000
0.371381 0.774280 0.000000
0.389048 0.773868 0.000000
0.397626 0.773660 0.000000
0.406037 0.773449 0.000000
0.430344 0.772801 0.000000
0.453488 0.772133 0.000000
0.475766 0.771447 0.000000
0.520392 0.766899 0.000000
0.547079 0.765893 0.000000
0.599932 0.760610 0.000000
0.655577 0.754841 0.000000
0.705059 0.752207 0.000000
0.772755 0.748203 0.000000
0.828171 0.738231 0.000000
0.875303 0.731896 0.000000
0.923144 0.729074 0.000000
0.963358 0.717607 0.000000
0.990509 0.720948 0.000000
1.000000 0.731958 0.000000
1.000000 0.740499 0.000000
1.000000 0.749110 0.000000
1.000000 0.761518 0.000000
1.000000 0.771167 0.131909
1.000000 0.790653 0.212368
1.000000 0.806036 0.299684
1.000000 0.822044 0.369001
1.000000 0.837508 0.436831
0.447439 0.825739 0.144001
0.455471 0.825516 0.144153
0.455471 0.825516 0.144153
0.455535 0.825518 0.139131
0.463443 0.825293 0.139292
0.463443 0.825293 0.139292
0.471296 0.825068 0.134277
0.479036 0.824840 0.129082
0.486615 0.824608 0.129267
0.494151 0.824377 0.123876
0.508993 0.823910 0.105799
0.530453 0.823186 0.099653
0.558089 0.822194 0.085281
0.578177 0.821429 0.066693
0.616749 0.819849 0.000000
0.652687 0.818252 0.000000
0.687368 0.814205 0.000000
0.734189 0.809352 0.000000
0.784259 0.804051 0.000000
0.826136 0.801522 0.000000
0.866160 0.796500 0.000000
0.909904 0.793764 0.000000
0.948249 0.786553 0.000000
0.980859 0.780346 0.000000
1.000000 0.785712 0.000000
1.000000 0.791656 0.000000
1.000000 0.795443 0.000000
1.000000 0.807076 0.000000
1.000000 0.814411 0.164714
1.000000 0.826117 0.237538
1.000000 0.838167 0.319721
1.000000 0.848717 0.389227
1.000000 0.862750 0.455681
0.573181 0.864551 0.241507
0.579882 0.864303 0.241635
0.579882 0.864303 0.241635
0.579955 0.864307 0.237883
0.579955 0.864307 0.237883
0.586558 0.864058 0.238015
0.586558 0.864058 0.238015
0.586628 0.864062 0.234248
0.599621 0.863567 0.230745
0.612190 0.863068 0.231034
0.618408 0.862822 0.227390
0.636499 0.862080 0.220224
0.642386 0.861834 0.216559
0.659474 0.861091 0.213237
0.681261 0.860108 0.206236
0.706897 0.858894 0.199443
0.736546 0.855437 0.188662
0.762844 0.854064 0.173795
0.794453 0.852329 0.159217
0.833643 0.848064 0.125154
0.873261 0.845666 0.084253
0.904631 0.843731 0.000000
0.942233 0.841506 0.000000
0.972846 0.835969 0.000000
1.000000 0.831250 0.000000
1.000000 0.831587 0.000000
1.000000 0.838314 0.000000
1.000000 0.843563 0.121566
1.000000 0.847463 0.200178
1.000000 0.855147 0.268870
1.000000 0.862558 0.339587
1.000000 0.872402 0.407156
1.000000 0.880990 0.477079
0.680072 0.894936 0.328965
0.680157 0.894941 0.325429
0.680157 0.894941 0.325429
0.680157 0.894941 0.325429
