Assets/Lutify-Free-LUTs-Pack/Lutify Free LUTs Pack/Cine World Pro Warm - Amy/Lutify.me-Amy-DJIDlog-to-Rec709.cube
# Created with: fylm.ai - Colour Grading and Collaboration Software in Cloud 
# Website: https://fylm.ai 
# META
# Option: Gamut compress
# Block 1: IDT | DJI D-Gamut D-Log
# Block 2: colourMatch | Blending Mode: Normal | {"ColorSpace":0,"CrossCovarianceLimit":50,"ReshapingIterations":1,"PercentSaturationShift":100,"PercentShadingShift":100,"ExtraShading":true,"PercentTint":100,"PercentModified":100}
# Block 3: LUT | Filmic Curve Response: Standard Contrast 1 (100%)
# Block 4: LUT | Illuminant: D60 (100%)
# Block 5: hueSaturation | Blending Mode: Normal | {"hue":0,"saturation":-0.15}
# Block 6: logPrimaries | Blending Mode: Normal | {"wheels":{"shadows":{"Y":"0","R":"1","G":"1","B":"1"},"midtones":{"Y":"0","R":"1","G":"1","B":"1"},"highlights":{"Y":"0","R":"1","G":"1","B":"1"},"offset":{"Y":"0","R":"1","G":"1","B":"1"}},"sliders":{"shadows":{"Y":0,"R":-0.097,"G":0,"B":0.158},"midtones":{"Y":0,"R":0.024,"G":0.024,"B":-0.036},"highlights":{"Y":0,"R":0.154,"G":-0.084,"B":-0.024},"offset":{"Y":0.048,"R":0,"G":0,"B":0}}}
# Block 7: smartCurves | Blending Mode: Average | [[{"x":0,"y":0},{"x":0.11328125,"y":0.085540771484375},{"x":0.21484375,"y":0.218353271484375},{"x":0.37109375,"y":0.382415771484375},{"x":0.62109375,"y":0.589447021484375},{"x":0.8125,"y":0.765228271484375},{"x":1,"y":1}],[{"x":0,"y":0},{"x":1,"y":1}],[{"x":0,"y":0},{"x":1,"y":1}],[{"x":0,"y":0},{"x":1,"y":1}]]
# Block 8: LUT | Neutral Tint: Teal Tint 4 (100%)
# Block 9: contrast | Blending Mode: Normal | {"contrast":0.1}
# Block 10: ODT | Rec709
TITLE "Lutify.me-Amy-DJIDlog-to-Rec709" 
LUT_3D_SIZE 9
0.000000 0.000000 0.000000
0.000000 0.000000 0.000000
0.253269 0.000000 0.000000
0.468585 0.000000 0.000000
0.762744 0.000000 0.000000
1.000000 0.000000 0.087058
1.000000 0.539836 0.313650
1.000000 0.832324 0.646351
1.000000 0.944569 0.867796
0.000000 0.006598 0.000000
0.000000 0.000000 0.005840
0.237264 0.000000 0.000000
0.468780 0.000000 0.000000
0.779794 0.000000 0.000000
1.000000 0.000000 0.082344
1.000000 0.546307 0.313091
1.000000 0.832324 0.646351
1.000000 0.944569 0.867796
0.000000 0.154043 0.000000
0.000000 0.140514 0.000000
0.276013 0.105882 0.000000
0.518569 0.000000 0.000000
0.800679 0.000000 0.000000
1.000000 0.112970 0.071256
1.000000 0.557174 0.315404
1.000000 0.833735 0.646394
1.000000 0.944569 0.867796
0.000000 0.302454 0.000000
0.000000 0.297375 0.000000
0.271123 0.270686 0.000000
0.607905 0.219308 0.000000
0.851860 0.223716 0.000000
1.000000 0.315123 0.000000
1.000000 0.586531 0.314982
1.000000 0.839881 0.650239
1.000000 0.945656 0.868873
0.000000 0.546935 0.000000
0.000000 0.542598 0.000000
0.000000 0.535702 0.000000
0.558638 0.511592 0.000000
0.939842 0.463330 0.000000
1.000000 0.572618 0.000000
1.000000 0.691459 0.316962
1.000000 0.854295 0.653388
1.000000 0.947485 0.869476
0.000000 0.838357 0.000000
0.000000 0.837602 0.000000
0.000000 0.838236 0.000000
0.194965 0.835011 0.000000
0.775700 0.807149 0.000000
1.000000 0.790764 0.000000
1.000000 0.846438 0.310761
1.000000 0.893022 0.668405
1.000000 0.953132 0.870889
0.389337 0.963117 0.320246
0.417966 0.962545 0.320491
0.470091 0.962268 0.316739
0.576144 0.959255 0.300922
0.749363 0.953274 0.272597
0.947153 0.940491 0.247308
1.000000 0.933896 0.303134
1.000000 0.952282 0.694448
1.000000 0.970989 0.879769
0.830897 0.999335 0.705196
0.832993 0.999226 0.705268
0.837224 0.999019 0.703255
0.849139 0.998401 0.701576
0.875201 0.997379 0.693460
0.935164 0.994277 0.686304
1.000000 0.990213 0.679834
1.000000 0.987939 0.714468
1.000000 0.993113 0.888898
0.956556 1.000000 0.892993
0.956556 1.000000 0.892993
0.957311 1.000000 0.893026
0.958114 1.000000 0.892197
0.961098 1.000000 0.891475
0.970555 1.000000 0.890736
0.994472 1.000000 0.884644
1.000000 1.000000 0.882415
1.000000 1.000000 0.891559
0.000000 0.000000 0.020970
0.000000 0.000000 0.010370
0.204107 0.000000 0.000000
0.401492 0.000000 0.000000
0.741544 0.000000 0.026745
1.000000 0.000000 0.112102
1.000000 0.539779 0.331350
1.000000 0.832301 0.651217
1.000000 0.944563 0.868806
0.000000 0.000000 0.033794
0.000000 0.000000 0.022732
0.182291 0.000000 0.009119
0.392843 0.000000 0.015515
0.732954 0.000000 0.024671
1.000000 0.000000 0.110257
1.000000 0.546252 0.330842
1.000000 0.832301 0.651217
1.000000 0.944563 0.868806
0.000000 0.151506 0.021457
0.000000 0.146554 0.000000
0.186369 0.137014 0.000000
0.419834 0.087367 0.000000
0.753908 0.000000 0.000000
1.000000 0.112240 0.105406
1.000000 0.555997 0.330064
1.000000 0.833712 0.651258
1.000000 0.944563 0.868806
0.000000 0.314283 0.000000
0.000000 0.314130 0.000000
0.000000 0.308185 0.000000
0.466636 0.277970 0.000000
0.783630 0.265115 0.000000
1.000000 0.314881 0.085689
1.000000 0.585478 0.327623
1.000000 0.839295 0.653879
1.000000 0.945656 0.868873
0.000000 0.569093 0.000000
0.000000 0.572434 0.000000
0.000000 0.567259 0.000000
0.356171 0.558179 0.000000
0.844584 0.518210 0.000000
1.000000 0.572139 0.000000
1.000000 0.690807 0.330573
1.000000 0.853326 0.655721
1.000000 0.947485 0.869476
0.000000 0.854632 0.000000
0.000000 0.853871 0.000000
0.000000 0.850218 0.000000
0.000000 0.843439 0.000000
0.733736 0.821368 0.000000
0.999835 0.800147 0.000000
1.000000 0.846412 0.331969
1.000000 0.893002 0.672948
1.000000 0.953127 0.871853
0.377691 0.965026 0.358567
0.397411 0.963766 0.357314
0.460542 0.963299 0.353321
0.562164 0.960494 0.345791
0.737126 0.954656 0.312612
0.941795 0.941683 0.281466
1.000000 0.936517 0.325028
1.000000 0.952274 0.696307
1.000000 0.970984 0.880624
0.828539 0.999427 0.709447
0.830661 0.999317 0.709516
0.834946 0.999108 0.707500
0.848912 0.998383 0.705884
0.872935 0.997433 0.703979
0.934889 0.994253 0.692384
1.000000 0.990186 0.686552
1.000000 0.987918 0.719713
1.000000 0.993109 0.889592
0.956501 1.000000 0.893856
0.956501 1.000000 0.893856
0.957257 1.000000 0.893888
0.958007 1.000000 0.893921
0.961045 1.000000 0.892336
0.970503 1.000000 0.891584
0.994377 1.000000 0.886263
1.000000 1.000000 0.883065
1.000000 1.000000 0.892789
0.000000 0.000000 0.129279
0.000000 0.000000 0.059719
0.167769 0.000000 0.050986
0.374174 0.000000 0.060357
0.708381 0.000000 0.088720
1.000000 0.000000 0.160807
1.000000 0.538493 0.359139
1.000000 0.831047 0.656235
1.000000 0.944563 0.868806
0.000000 0.000000 0.125140
0.000000 0.000000 0.083685
0.142106 0.000000 0.076932
0.348685 0.000000 0.091600
0.716635 0.000000 0.093539
1.000000 0.000000 0.160240
1.000000 0.541741 0.358918
1.000000 0.832266 0.658540
1.000000 0.944563 0.868806
0.000000 0.172319 0.242155
0.000000 0.157604 0.229827
0.076204 0.143578 0.188225
0.362280 0.112575 0.137609
0.724071 0.000000 0.099085
1.000000 0.111542 0.158969
1.000000 0.554783 0.358017
1.000000 0.833677 0.658576
1.000000 0.945110 0.868839
0.000000 0.339886 0.287221
0.000000 0.332502 0.253062
0.000000 0.334792 0.175640
0.341054 0.325008 0.116576
0.744700 0.284321 0.079097
1.000000 0.309667 0.156738
1.000000 0.585385 0.359330
1.000000 0.839260 0.661181
1.000000 0.945650 0.869877
0.000000 0.594852 0.151908
0.000000 0.594675 0.123746
0.000000 0.601117 0.000000
0.162124 0.591222 0.000000
0.752502 0.565024 0.000000
1.000000 0.591335 0.088523
1.000000 0.689498 0.367454
1.000000 0.853282 0.665324
1.000000 0.947474 0.871457
0.000000 0.861420 0.157574
0.000000 0.861048 0.148070
0.000000 0.859585 0.115625
0.000000 0.853076 0.000000
0.668035 0.840268 0.000000
0.979655 0.814209 0.000000
1.000000 0.845928 0.370839
1.000000 0.892973 0.679766
1.000000 0.953631 0.873814
0.353100 0.967864 0.422257
0.384848 0.967319 0.419377
0.432339 0.966379 0.413610
0.540508 0.962768 0.398335
0.723550 0.955973 0.381586
0.936870 0.943650 0.346301
1.000000 0.939045 0.366011
1.000000 0.952237 0.705635
1.000000 0.970980 0.881476
0.827580 0.999355 0.726587
0.827580 0.999355 0.726587
0.834000 0.999036 0.724647
0.844000 0.998509 0.724977
0.870533 0.997477 0.716578
0.932901 0.994606 0.707634
0.999838 0.990181 0.696285
1.000000 0.988199 0.727387
1.000000 0.993105 0.890286
0.955577 1.000000 0.896402
0.956340 1.000000 0.896433
0.956340 1.000000 0.896433
0.957899 1.000000 0.895639
0.960884 1.000000 0.894915
0.970399 1.000000 0.893280
0.993849 1.000000 0.888610
1.000000 1.000000 0.885026
1.000000 1.000000 0.893548
0.000000 0.000000 0.214995
0.000000 0.000000 0.096149
0.122836 0.000000 0.076325
0.379657 0.000000 0.078488
0.685616 0.000000 0.190737
1.000000 0.000000 0.250139
1.000000 0.530365 0.405852
1.000000 0.829524 0.673520
1.000000 0.944546 0.871815
0.000000 0.000000 0.213439
0.000000 0.000000 0.145210
0.102151 0.000000 0.123472
0.340592 0.000000 0.129777
0.686386 0.000000 0.217406
1.000000 0.000000 0.253550
1.000000 0.538092 0.406206
1.000000 0.830962 0.673543
1.000000 0.944546 0.871815
0.000000 0.124129 0.328594
0.000000 0.114138 0.290241
0.000000 0.100296 0.283864
0.339727 0.000000 0.281380
0.694578 0.000000 0.261128
1.000000 0.120150 0.262190
1.000000 0.547980 0.408381
1.000000 0.832394 0.673568
1.000000 0.945086 0.872838
0.000000 0.372711 0.469793
0.000000 0.343878 0.446609
0.000000 0.338008 0.429808
0.232332 0.328050 0.406662
0.697165 0.293154 0.313849
1.000000 0.308814 0.268732
1.000000 0.583193 0.410655
1.000000 0.838069 0.673691
1.000000 0.945632 0.872867
0.000000 0.608909 0.518080
0.000000 0.612583 0.503063
0.000000 0.615811 0.462722
0.000000 0.615271 0.395370
0.676629 0.597181 0.320560
1.000000 0.590799 0.278497
1.000000 0.685072 0.418582
1.000000 0.851407 0.681047
1.000000 0.947456 0.874401
0.000000 0.863774 0.423065
0.000000 0.863199 0.419509
0.000000 0.864216 0.405046
0.000000 0.864587 0.372935
0.631770 0.847891 0.307437
0.958046 0.830169 0.237774
1.000000 0.852525 0.446140
1.000000 0.892641 0.696968
1.000000 0.953614 0.876656
0.279407 0.970153 0.527800
0.331842 0.969449 0.527922
0.386529 0.967720 0.520769
0.513904 0.963973 0.507647
0.711623 0.956981 0.487955
0.922516 0.945979 0.446659
1.000000 0.940596 0.447593
1.000000 0.952759 0.724005
1.000000 0.970965 0.884019
0.823942 0.999678 0.754421
0.826090 0.999567 0.754467
0.828213 0.999458 0.754514
0.838450 0.998923 0.754759
0.867180 0.997784 0.746443
0.930450 0.994569 0.733535
0.997537 0.990492 0.720902
1.000000 0.988447 0.742754
1.000000 0.993087 0.893773
0.955254 1.000000 0.901517
0.955254 1.000000 0.901517
0.956017 1.000000 0.901544
0.956828 1.000000 0.900725
0.959841 1.000000 0.899995
0.969411 1.000000 0.899140
0.993525 1.000000 0.893065
1.000000 1.000000 0.889426
1.000000 1.000000 0.895885
0.000000 0.000000 0.250521
0.000000 0.000000 0.152562
0.084026 0.000000 0.128787
0.316826 0.000000 0.131335
0.705696 0.000000 0.157442
1.000000 0.000000 0.454987
1.000000 0.525075 0.525231
1.000000 0.826622 0.711125
1.000000 0.944504 0.878694
0.000000 0.000000 0.294257
0.000000 0.000000 0.226927
0.043418 0.000000 0.209899
0.289129 0.000000 0.216027
0.665662 0.000000 0.243508
1.000000 0.000000 0.461253
1.000000 0.531782 0.528129
1.000000 0.828086 0.711121
1.000000 0.944504 0.878694
0.000000 0.097490 0.420841
0.000000 0.090497 0.373436
0.000000 0.084177 0.364860
0.259557 0.000000 0.375013
0.680759 0.000000 0.376088
1.000000 0.000000 0.483993
1.000000 0.542929 0.531355
1.000000 0.829531 0.713559
1.000000 0.945051 0.878716
0.000000 0.293437 0.567461
0.000000 0.277290 0.549622
0.000000 0.274770 0.553434
0.108650 0.266439 0.560694
0.692732 0.192991 0.544175
1.000000 0.255907 0.516714
1.000000 0.577678 0.536735
1.000000 0.833862 0.715988
1.000000 0.945597 0.878738
0.000000 0.633926 0.749266
0.000000 0.619009 0.743545
0.000000 0.618797 0.743565
0.000000 0.612260 0.730250
0.552942 0.602226 0.693945
0.972472 0.590502 0.581050
1.000000 0.682808 0.549055
1.000000 0.848415 0.719288
1.000000 0.947221 0.879771
0.000000 0.875747 0.793431
0.000000 0.877442 0.788172
0.000000 0.874592 0.780256
0.000000 0.869427 0.757572
0.491316 0.863283 0.685873
0.919627 0.843322 0.607765
1.000000 0.849465 0.587917
1.000000 0.889524 0.737255
1.000000 0.953233 0.883292
0.000000 0.972295 0.738942
0.079760 0.972621 0.736414
0.270432 0.971464 0.730727
0.403682 0.969500 0.719123
0.654016 0.963978 0.699424
0.897541 0.951550 0.645083
1.000000 0.945973 0.613444
1.000000 0.955046 0.770209
1.000000 0.970505 0.891580
0.809251 1.000000 0.818603
0.811519 1.000000 0.818622
0.818278 1.000000 0.816985
0.826888 1.000000 0.815369
0.858165 0.998448 0.808962
0.916801 0.995211 0.798650
0.990685 0.990828 0.778365
1.000000 0.989210 0.780928
1.000000 0.993264 0.901407
0.952696 1.000000 0.917441
0.953472 1.000000 0.917460
0.953523 1.000000 0.916663
0.955055 1.000000 0.916702
0.958142 1.000000 0.915184
0.967965 1.000000 0.911783
0.991455 1.000000 0.905544
1.000000 1.000000 0.899679
1.000000 1.000000 0.903467
0.000000 0.000000 0.268406
0.000000 0.000000 0.246719
0.081047 0.000000 0.240666
0.240300 0.000000 0.242189
0.609385 0.000000 0.283576
1.000000 0.000000 0.405905
1.000000 0.462825 0.753164
1.000000 0.819867 0.800993
1.000000 0.943838 0.897415
0.000000 0.012758 0.371246
0.000000 0.017856 0.351523
0.000000 0.000000 0.351374
0.201414 0.000000 0.352864
0.606502 0.000000 0.398016
1.000000 0.000000 0.481223
1.000000 0.473101 0.755822
1.000000 0.821382 0.802914
1.000000 0.943838 0.897415
0.000000 0.111374 0.528929
0.000000 0.108401 0.518146
0.000000 0.105401 0.514571
0.109439 0.091776 0.521293
0.601592 0.000000 0.535745
1.000000 0.000000 0.576188
1.000000 0.491378 0.761282
1.000000 0.822907 0.802854
1.000000 0.943838 0.897415
0.000000 0.249041 0.670143
0.000000 0.251171 0.666312
0.000000 0.244547 0.666522
0.000000 0.241754 0.666339
0.585512 0.150726 0.678683
1.000000 0.000000 0.684929
1.000000 0.532676 0.779583
1.000000 0.828936 0.804593
1.000000 0.944934 0.897424
0.000000 0.541138 0.842656
0.000000 0.544754 0.840155
0.000000 0.540921 0.842635
0.000000 0.539818 0.847056
0.447591 0.523601 0.845539
0.979100 0.481282 0.822217
1.000000 0.634199 0.798776
1.000000 0.843122 0.808690
1.000000 0.946569 0.897442
0.000000 0.880260 0.931295
0.000000 0.882080 0.930019
0.000000 0.881678 0.929981
0.000000 0.879998 0.928694
0.180749 0.866893 0.914740
0.855361 0.842957 0.890681
1.000000 0.845817 0.842830
1.000000 0.886680 0.823345
1.000000 0.952441 0.899371
0.000000 0.979155 0.940109
0.000000 0.978769 0.939169
0.000000 0.977952 0.938181
0.000000 0.975109 0.934277
0.543945 0.967411 0.922618
0.846553 0.957160 0.897527
0.989011 0.950040 0.859113
1.000000 0.953710 0.848256
1.000000 0.969706 0.909170
0.782081 1.000000 0.916219
0.786970 1.000000 0.916212
0.791763 1.000000 0.916205
0.801138 1.000000 0.915189
0.828991 1.000000 0.910049
0.898063 0.996723 0.897172
0.979509 0.992611 0.876942
1.000000 0.990953 0.862585
1.000000 0.993374 0.921045
0.946795 1.000000 0.947916
0.948395 1.000000 0.947928
0.948395 1.000000 0.947928
0.950009 1.000000 0.947313
0.953867 1.000000 0.946719
0.963204 1.000000 0.944295
0.986826 1.000000 0.937395
1.000000 1.000000 0.925798
1.000000 1.000000 0.920728
0.000000 0.025548 0.518802
0.000000 0.000000 0.525945
0.000000 0.000000 0.529280
0.224213 0.000000 0.532020
0.502653 0.000000 0.562168
0.965611 0.000000 0.652424
1.000000 0.000000 0.761062
1.000000 0.790216 0.923454
1.000000 0.941757 0.937552
0.000000 0.083543 0.614026
0.000000 0.082183 0.613982
0.000000 0.078022 0.613788
0.179881 0.052406 0.620460
0.485888 0.000000 0.636354
0.964823 0.000000 0.692926
1.000000 0.000000 0.786776
1.000000 0.791724 0.924582
1.000000 0.941757 0.937552
0.000000 0.163807 0.717525
0.000000 0.166630 0.717417
0.000000 0.166681 0.717265
0.000000 0.156038 0.716860
0.460713 0.072609 0.732333
0.963468 0.000000 0.758452
1.000000 0.119713 0.814987
1.000000 0.795042 0.925463
1.000000 0.942769 0.937773
0.000000 0.291758 0.822343
0.000000 0.289034 0.825059
0.000000 0.290898 0.822243
0.000000 0.290797 0.824510
0.419668 0.258676 0.827902
0.954750 0.000000 0.837292
1.000000 0.293933 0.851602
1.000000 0.803287 0.924982
1.000000 0.942762 0.938514
0.000000 0.497786 0.906014
0.000000 0.497649 0.904341
0.000000 0.500894 0.907390
0.000000 0.499548 0.911968
0.258861 0.482906 0.911220
0.919827 0.424138 0.911547
1.000000 0.485132 0.904073
1.000000 0.821545 0.928170
1.000000 0.945519 0.939139
0.000000 0.826844 0.968457
0.000000 0.826696 0.969197
0.000000 0.823801 0.969336
0.000000 0.825019 0.969014
0.000000 0.814092 0.968766
0.802425 0.791469 0.963960
1.000000 0.786484 0.954316
1.000000 0.870750 0.940635
1.000000 0.951454 0.941085
0.000000 0.986056 0.994082
0.000000 0.985794 0.994057
0.000000 0.985229 0.994003
0.000000 0.984163 0.993070
0.000000 0.977006 0.991579
0.774237 0.960921 0.985906
0.966424 0.950247 0.975433
1.000000 0.952506 0.958720
1.000000 0.967798 0.946243
0.726174 1.000000 0.993750
0.728923 1.000000 0.993455
0.734445 1.000000 0.993436
0.748416 1.000000 0.993079
0.784956 1.000000 0.992070
0.860888 1.000000 0.988253
0.959820 0.994910 0.979612
1.000000 0.992490 0.965975
1.000000 0.993584 0.959597
0.937751 1.000000 0.986068
0.937751 1.000000 0.986068
0.938619 1.000000 0.985737
0.940296 1.000000 0.985733
0.942808 1.000000 0.985060
0.953600 1.000000 0.984010
0.979773 1.000000 0.979338
1.000000 1.000000 0.971589
1.000000 1.000000 0.961008
0.000000 0.217220 0.875164
0.071564 0.215751 0.875040
0.185240 0.210225 0.874833
0.304342 0.203587 0.874135
0.530845 0.162947 0.880194
0.877058 0.000000 0.894536
1.000000 0.151468 0.920437
1.000000 0.609282 0.944782
1.000000 0.931316 0.988863
0.000000 0.251621 0.890393
0.000000 0.250425 0.892208
0.148969 0.247817 0.890037
0.288799 0.240715 0.889439
0.509714 0.211240 0.893287
0.869427 0.088061 0.906037
1.000000 0.194943 0.926689
1.000000 0.612805 0.947568
1.000000 0.931923 0.989179
0.000000 0.305696 0.912079
0.000000 0.304695 0.913616
0.000000 0.302768 0.913407
0.246720 0.300474 0.916031
0.495454 0.279532 0.914317
0.859486 0.206985 0.921993
1.000000 0.249240 0.936070
1.000000 0.626197 0.950766
1.000000 0.931923 0.989179
0.000000 0.394367 0.939137
0.000000 0.393722 0.940332
0.000000 0.392331 0.941426
0.105163 0.392644 0.942176
0.447181 0.383187 0.940703
0.842294 0.327430 0.944424
1.000000 0.341503 0.952548
1.000000 0.649176 0.959395
1.000000 0.932870 0.989097
0.000000 0.569481 0.974586
0.000000 0.565477 0.974740
0.000000 0.564624 0.974629
0.000000 0.562556 0.975214
0.323816 0.559254 0.975861
0.775240 0.528506 0.975031
1.000000 0.523923 0.976522
1.000000 0.709497 0.972998
1.000000 0.935290 0.989634
0.000000 0.795800 0.995877
0.000000 0.792697 0.996045
0.000000 0.791910 0.995956
0.000000 0.787547 0.995990
0.000000 0.782302 0.994940
0.678066 0.763732 0.995041
1.000000 0.742844 0.993690
1.000000 0.799760 0.988228
1.000000 0.942342 0.990841
0.000000 0.964062 1.000000
0.000000 0.963868 1.000000
0.000000 0.962431 1.000000
0.000000 0.960963 1.000000
0.000000 0.955108 1.000000
0.648126 0.944159 1.000000
0.952775 0.926536 1.000000
1.000000 0.929607 0.998915
1.000000 0.962015 0.993810
0.574999 1.000000 1.000000
0.578563 1.000000 1.000000
0.589111 1.000000 1.000000
0.608302 1.000000 1.000000
0.661999 1.000000 1.000000
0.781469 1.000000 1.000000
0.936288 0.995852 1.000000
1.000000 0.992416 1.000000
1.000000 0.993217 0.998792
0.917930 1.000000 1.000000
0.918865 1.000000 1.000000
0.918865 1.000000 1.000000
0.919796 1.000000 1.000000
0.925259 1.000000 1.000000
0.936426 1.000000 1.000000
0.967478 1.000000 1.000000
0.999120 1.000000 1.000000
1.000000 1.000000 1.000000
0.540419 0.493118 0.997281
0.546119 0.492736 0.997243
0.568668 0.491284 0.997715
0.612698 0.487953 0.997394
0.707653 0.479494 0.996621
0.876607 0.461067 0.998019
1.000000 0.481526 0.999004
1.000000 0.633032 1.000000
1.000000 0.859455 0.999721
0.528399 0.508893 0.998535
0.540002 0.508165 0.998462
0.562866 0.506662 0.998312
0.608785 0.499643 0.998159
0.704394 0.491580 0.998008
0.873213 0.477660 0.998039
1.000000 0.494271 0.999676
1.000000 0.635893 1.000000
1.000000 0.861043 0.999927
0.521760 0.524440 1.000000
0.533552 0.523741 1.000000
0.551003 0.522665 1.000000
0.596366 0.519748 1.000000
0.693470 0.512058 0.999637
0.868568 0.498942 1.000000
1.000000 0.520010 1.000000
1.000000 0.647464 1.000000
1.000000 0.863077 1.000000
0.486778 0.582672 1.000000
0.493195 0.582373 1.000000
0.512207 0.581567 1.000000
0.560865 0.578991 1.000000
0.659234 0.569210 1.000000
0.844630 0.554002 1.000000
1.000000 0.566255 1.000000
1.000000 0.670270 1.000000
1.000000 0.866363 1.000000
0.420901 0.690297 1.000000
0.428749 0.690056 1.000000
0.461880 0.685378 1.000000
0.510987 0.683539 1.000000
0.602509 0.675750 1.000000
0.807338 0.663279 1.000000
1.000000 0.659535 1.000000
1.000000 0.724471 1.000000
1.000000 0.874122 1.000000
0.288089 0.836813 1.000000
0.304900 0.834373 1.000000
0.341156 0.833807 1.000000
0.411403 0.832317 1.000000
0.548273 0.826119 1.000000
0.745571 0.812677 1.000000
0.955059 0.802999 1.000000
1.000000 0.817497 1.000000
1.000000 0.895703 1.000000
0.370775 0.942184 1.000000
0.370775 0.942184 1.000000
0.390869 0.941806 1.000000
0.444897 0.941730 1.000000
0.533030 0.938313 1.000000
0.711747 0.928353 1.000000
0.908142 0.917985 1.000000
1.000000 0.912125 1.000000
1.000000 0.933980 1.000000
0.641952 1.000000 1.000000
0.642388 1.000000 1.000000
0.649078 1.000000 1.000000
0.666085 1.000000 1.000000
0.700431 0.999986 1.000000
0.778041 0.995815 1.000000
0.895775 0.990023 1.000000
0.998116 0.983551 1.000000
1.000000 0.984554 1.000000
0.856896 1.000000 1.000000
0.858034 1.000000 1.000000
0.859169 1.000000 1.000000
0.861436 1.000000 1.000000
0.871515 1.000000 1.000000
0.889710 1.000000 1.000000
0.932365 1.000000 1.000000
0.990637 1.000000 1.000000
1.000000 1.000000 1.000000
