Assets/Lutify-Free-LUTs-Pack/Lutify Free LUTs Pack/Cine World Pro Warm - Amy/Lutify.me-Amy-SLog3CineVenice-to-Rec709.cube
# Created with: fylm.ai - Colour Grading and Collaboration Software in Cloud 
# Website: https://fylm.ai 
# META
# Option: Gamut compress
# Block 1: IDT | Sony Venice S-Log3 S-Gamut3.Cine
# Block 2: colourMatch | Blending Mode: Normal | {"ColorSpace":0,"CrossCovarianceLimit":50,"ReshapingIterations":1,"PercentSaturationShift":100,"PercentShadingShift":100,"ExtraShading":true,"PercentTint":100,"PercentModified":100}
# Block 3: LUT | Filmic Curve Response: Standard Contrast 1 (100%)
# Block 4: LUT | Illuminant: D60 (100%)
# Block 5: hueSaturation | Blending Mode: Normal | {"hue":0,"saturation":-0.15}
# Block 6: logPrimaries | Blending Mode: Normal | {"wheels":{"shadows":{"Y":"0","R":"1","G":"1","B":"1"},"midtones":{"Y":"0","R":"1","G":"1","B":"1"},"highlights":{"Y":"0","R":"1","G":"1","B":"1"},"offset":{"Y":"0","R":"1","G":"1","B":"1"}},"sliders":{"shadows":{"Y":0,"R":-0.097,"G":0,"B":0.158},"midtones":{"Y":0,"R":0.024,"G":0.024,"B":-0.036},"highlights":{"Y":0,"R":0.154,"G":-0.084,"B":-0.024},"offset":{"Y":0.048,"R":0,"G":0,"B":0}}}
# Block 7: smartCurves | Blending Mode: Average | [[{"x":0,"y":0},{"x":0.11328125,"y":0.085540771484375},{"x":0.21484375,"y":0.218353271484375},{"x":0.37109375,"y":0.382415771484375},{"x":0.62109375,"y":0.589447021484375},{"x":0.8125,"y":0.765228271484375},{"x":1,"y":1}],[{"x":0,"y":0},{"x":1,"y":1}],[{"x":0,"y":0},{"x":1,"y":1}],[{"x":0,"y":0},{"x":1,"y":1}]]
# Block 8: LUT | Neutral Tint: Teal Tint 4 (100%)
# Block 9: contrast | Blending Mode: Normal | {"contrast":0.1}
# Block 10: ODT | Rec709
TITLE "Lutify.me-Amy-SLog3CineVenice-to-Rec709" 
LUT_3D_SIZE 33
0.000000 0.000000 0.000000
0.000000 0.000000 0.000000
0.000000 0.000000 0.000000
0.000000 0.000000 0.000000
0.000000 0.000000 0.000000
0.031210 0.000000 0.000000
0.092772 0.000000 0.000000
0.143545 0.000000 0.000000
0.194362 0.000000 0.000000
0.258843 0.000000 0.000000
0.323844 0.000000 0.000000
0.392530 0.000000 0.000000
0.461574 0.000000 0.000000
0.542698 0.000000 0.000000
0.623171 0.000000 0.000000
0.690118 0.000000 0.000000
0.766979 0.000000 0.000000
0.856464 0.000000 0.000000
0.928366 0.000000 0.000000
0.997639 0.000000 0.000000
1.000000 0.000000 0.050056
1.000000 0.000000 0.089516
1.000000 0.000000 0.132112
1.000000 0.239934 0.176709
1.000000 0.382298 0.230296
1.000000 0.498111 0.296233
1.000000 0.601098 0.386612
1.000000 0.681008 0.464847
1.000000 0.756954 0.546823
1.000000 0.814682 0.634289
1.000000 0.856443 0.711242
1.000000 0.888261 0.770703
1.000000 0.914208 0.819314
0.000000 0.000000 0.000000
0.000000 0.000000 0.000000
0.000000 0.000000 0.000000
0.000000 0.000000 0.000000
0.000000 0.000000 0.000000
0.032113 0.000000 0.000000
0.089901 0.000000 0.000000
0.137533 0.000000 0.000000
0.189049 0.000000 0.000000
0.253264 0.000000 0.000000
0.321594 0.000000 0.000000
0.384089 0.000000 0.000000
0.448085 0.000000 0.000000
0.527175 0.000000 0.000000
0.614980 0.000000 0.000000
0.685918 0.000000 0.000000
0.766978 0.000000 0.000000
0.856437 0.000000 0.000000
0.928291 0.000000 0.000000
0.997450 0.000000 0.000000
1.000000 0.000000 0.048142
1.000000 0.000000 0.089962
1.000000 0.000000 0.131186
1.000000 0.248422 0.176051
1.000000 0.385446 0.229997
1.000000 0.498111 0.296233
1.000000 0.603605 0.386442
1.000000 0.683173 0.464739
1.000000 0.758612 0.546788
1.000000 0.814682 0.634289
1.000000 0.856443 0.711242
1.000000 0.888261 0.770703
1.000000 0.914208 0.819314
0.000000 0.000000 0.000000
0.000000 0.000000 0.000000
0.000000 0.000000 0.000000
0.000000 0.000000 0.000000
0.000000 0.000000 0.000000
0.034293 0.000000 0.000000
0.091486 0.000000 0.000000
0.135356 0.000000 0.000000
0.182663 0.000000 0.000000
0.249604 0.000000 0.000000
0.312797 0.000000 0.000000
0.375892 0.000000 0.000000
0.444799 0.000000 0.000000
0.519547 0.000000 0.000000
0.615016 0.000000 0.000000
0.685948 0.000000 0.000000
0.762693 0.000000 0.000000
0.860490 0.000000 0.000000
0.931663 0.000000 0.000000
0.999947 0.000000 0.000000
1.000000 0.000000 0.047101
1.000000 0.000000 0.089032
1.000000 0.000000 0.131846
1.000000 0.252594 0.176874
1.000000 0.388590 0.231087
1.000000 0.500930 0.295986
1.000000 0.603605 0.386442
1.000000 0.683173 0.464739
1.000000 0.758612 0.546788
1.000000 0.815939 0.634305
1.000000 0.855725 0.709868
1.000000 0.888261 0.770703
1.000000 0.914208 0.819314
0.000000 0.000000 0.000000
0.000000 0.000000 0.000000
0.000000 0.000000 0.000000
0.000000 0.000000 0.000000
0.000000 0.000000 0.003349
0.031519 0.000000 0.000000
0.089126 0.000000 0.000000
0.133234 0.000000 0.000000
0.177699 0.000000 0.000000
0.240700 0.000000 0.000000
0.304280 0.000000 0.000000
0.367933 0.000000 0.000000
0.438299 0.000000 0.000000
0.519566 0.000000 0.000000
0.610958 0.000000 0.000000
0.681746 0.000000 0.000000
0.758407 0.000000 0.000000
0.860457 0.000000 0.000000
0.931593 0.000000 0.000000
0.999773 0.000000 0.000000
1.000000 0.000000 0.046496
1.000000 0.000000 0.089271
1.000000 0.000000 0.131190
1.000000 0.256732 0.176535
1.000000 0.390433 0.232121
1.000000 0.505460 0.298668
1.000000 0.606127 0.386271
1.000000 0.683173 0.464739
1.000000 0.758612 0.546788
1.000000 0.815939 0.634305
1.000000 0.855725 0.709868
1.000000 0.889013 0.770735
1.000000 0.914208 0.819314
0.000000 0.016290 0.000000
0.000000 0.015221 0.000000
0.000000 0.012106 0.000000
0.000000 0.007340 0.000000
0.000000 0.000000 0.000000
0.017847 0.000000 0.000000
0.085737 0.000000 0.000000
0.126840 0.000000 0.000000
0.170498 0.000000 0.000000
0.235541 0.000000 0.000000
0.304343 0.000000 0.000000
0.367960 0.000000 0.000000
0.438310 0.000000 0.000000
0.519629 0.000000 0.000000
0.606922 0.000000 0.000000
0.681768 0.000000 0.000000
0.762699 0.000000 0.000000
0.860414 0.000000 0.000000
0.931505 0.000000 0.000000
0.999616 0.000000 0.000000
1.000000 0.000000 0.045637
1.000000 0.000000 0.087878
1.000000 0.000000 0.130851
1.000000 0.260828 0.177364
1.000000 0.393558 0.233222
1.000000 0.505460 0.298668
1.000000 0.606119 0.388213
1.000000 0.685338 0.464630
1.000000 0.760266 0.546754
1.000000 0.815939 0.634305
1.000000 0.857420 0.711273
1.000000 0.889013 0.770735
1.000000 0.914208 0.819314
0.000000 0.049330 0.000000
0.000000 0.047199 0.000000
0.000000 0.045960 0.000000
0.000000 0.043272 0.000000
0.000000 0.038716 0.000000
0.017153 0.033262 0.000000
0.075570 0.024747 0.000000
0.124711 0.000000 0.000000
0.168502 0.000000 0.000000
0.233710 0.000000 0.000000
0.300119 0.000000 0.000000
0.367955 0.000000 0.000000
0.431928 0.000000 0.000000
0.512241 0.000000 0.000000
0.606974 0.000000 0.000000
0.686012 0.000000 0.000000
0.766986 0.000000 0.000000
0.860374 0.000000 0.000000
0.934827 0.000000 0.000000
1.000000 0.000000 0.000000
1.000000 0.000000 0.046467
1.000000 0.000000 0.088064
1.000000 0.000000 0.131157
1.000000 0.260828 0.177364
1.000000 0.396692 0.232916
1.000000 0.505460 0.298668
1.000000 0.608651 0.388041
1.000000 0.685338 0.464630
1.000000 0.760266 0.546754
1.000000 0.815939 0.634305
1.000000 0.857410 0.713049
1.000000 0.889013 0.770735
1.000000 0.914833 0.819340
0.000000 0.071954 0.000000
0.000000 0.069600 0.000000
0.000000 0.066813 0.000000
0.000000 0.065282 0.000000
0.000000 0.060812 0.000000
0.000000 0.056131 0.000000
0.068701 0.052222 0.000000
0.118327 0.040649 0.000000
0.169891 0.000000 0.000000
0.238605 0.000000 0.000000
0.300011 0.000000 0.000000
0.368019 0.000000 0.000000
0.432026 0.000000 0.000000
0.519779 0.000000 0.000000
0.607035 0.000000 0.000000
0.690264 0.000000 0.000000
0.766984 0.000000 0.000000
0.856245 0.000000 0.000000
0.934695 0.000000 0.000000
1.000000 0.000000 0.000000
1.000000 0.000000 0.046279
1.000000 0.000000 0.086897
1.000000 0.000000 0.130434
1.000000 0.268922 0.177853
1.000000 0.399828 0.232608
1.000000 0.508279 0.298421
1.000000 0.608651 0.388041
1.000000 0.685338 0.464630
1.000000 0.760266 0.546754
1.000000 0.815939 0.634305
1.000000 0.857410 0.713049
1.000000 0.889013 0.770735
1.000000 0.914833 0.819340
0.000000 0.100319 0.000000
0.000000 0.096314 0.000000
0.000000 0.093220 0.000000
0.000000 0.089492 0.000000
0.000000 0.085920 0.000000
0.000000 0.081566 0.000000
0.059194 0.076755 0.000000
0.115378 0.067588 0.000000
0.175057 0.053703 0.000000
0.243783 0.000000 0.000000
0.306390 0.000000 0.000000
0.370907 0.000000 0.000000
0.445240 0.000000 0.000000
0.523817 0.000000 0.000000
0.615291 0.000000 0.000000
0.694521 0.000000 0.000000
0.766974 0.000000 0.000000
0.856156 0.000000 0.000000
0.937845 0.000000 0.000000
1.000000 0.000000 0.000000
1.000000 0.000000 0.044383
1.000000 0.000000 0.088363
1.000000 0.081294 0.131157
1.000000 0.276894 0.178340
1.000000 0.399823 0.234028
1.000000 0.511101 0.299878
1.000000 0.611192 0.387869
1.000000 0.687502 0.464523
1.000000 0.761916 0.546722
1.000000 0.817195 0.634322
1.000000 0.857410 0.713049
1.000000 0.889013 0.770735
1.000000 0.914826 0.820473
0.000000 0.133798 0.000000
0.000000 0.131614 0.000000
0.000000 0.128404 0.000000
0.000000 0.124243 0.000000
0.000000 0.120231 0.000000
0.000000 0.115127 0.000000
0.020070 0.108643 0.000000
0.108294 0.101464 0.000000
0.176387 0.089618 0.000000
0.255083 0.071173 0.000000
0.313308 0.000000 0.000000
0.379589 0.000000 0.000000
0.452436 0.000000 0.000000
0.528106 0.000000 0.000000
0.619585 0.000000 0.000000
0.694584 0.000000 0.000000
0.766950 0.000000 0.000000
0.860051 0.000000 0.000000
0.940820 0.000000 0.000000
1.000000 0.000000 0.000000
1.000000 0.000000 0.040380
1.000000 0.000000 0.087607
1.000000 0.125709 0.131661
1.000000 0.288701 0.179409
1.000000 0.406094 0.236286
1.000000 0.511101 0.299878
1.000000 0.611192 0.387869
1.000000 0.689666 0.464416
1.000000 0.763552 0.548780
1.000000 0.817185 0.636366
1.000000 0.858385 0.713080
1.000000 0.889756 0.772170
1.000000 0.914826 0.820473
0.000000 0.171678 0.000000
0.000000 0.168815 0.000000
0.000000 0.166024 0.000000
0.000000 0.160585 0.000000
0.000000 0.156659 0.000000
0.000000 0.151336 0.000000
0.000000 0.146966 0.000000
0.090159 0.142735 0.000000
0.170625 0.134629 0.000000
0.259528 0.119073 0.000000
0.323403 0.094701 0.000000
0.389580 0.057404 0.000000
0.464271 0.000000 0.000000
0.544749 0.000000 0.000000
0.628322 0.000000 0.000000
0.703180 0.000000 0.000000
0.779713 0.000000 0.000000
0.867758 0.000000 0.000000
0.943647 0.000000 0.000000
1.000000 0.000000 0.000000
1.000000 0.000000 0.033586
1.000000 0.000000 0.085990
1.000000 0.163332 0.131669
1.000000 0.300123 0.179502
1.000000 0.415538 0.236804
1.000000 0.516779 0.299375
1.000000 0.616302 0.387520
1.000000 0.689657 0.466488
1.000000 0.765194 0.548753
1.000000 0.818442 0.636384
1.000000 0.858385 0.713080
1.000000 0.889756 0.772170
1.000000 0.915451 0.820500
0.000000 0.216419 0.000000
0.000000 0.209442 0.000000
0.000000 0.204353 0.000000
0.000000 0.201033 0.000000
0.000000 0.199377 0.000000
0.000000 0.195992 0.000000
0.000000 0.190784 0.000000
0.000000 0.186439 0.000000
0.153225 0.178732 0.000000
0.255034 0.162914 0.000000
0.326232 0.146203 0.000000
0.406426 0.122087 0.000000
0.480549 0.085927 0.000000
0.561974 0.000000 0.000000
0.641518 0.000000 0.000000
0.707695 0.000000 0.000000
0.788031 0.000000 0.000000
0.871215 0.000000 0.000000
0.946159 0.000000 0.000000
1.000000 0.000000 0.000000
1.000000 0.000000 0.019290
1.000000 0.000000 0.083385
1.000000 0.190357 0.131743
1.000000 0.315108 0.180422
1.000000 0.426642 0.236872
1.000000 0.522484 0.300592
1.000000 0.618864 0.389304
1.000000 0.691820 0.466383
1.000000 0.766291 0.550300
1.000000 0.819698 0.636404
1.000000 0.859358 0.713113
1.000000 0.890509 0.772203
1.000000 0.915451 0.820500
0.000000 0.255974 0.000000
0.000000 0.250208 0.000000
0.000000 0.248308 0.000000
0.000000 0.242706 0.000000
0.000000 0.240778 0.000000
0.000000 0.238786 0.000000
0.000000 0.234791 0.000000
0.000000 0.233671 0.000000
0.104486 0.225661 0.000000
0.235222 0.215196 0.000000
0.320363 0.202459 0.000000
0.415056 0.181272 0.000000
0.498032 0.154290 0.000000
0.576389 0.132135 0.000000
0.659365 0.084170 0.000000
0.720797 0.000000 0.000000
0.796244 0.000000 0.000000
0.877978 0.000000 0.000000
0.947956 0.000000 0.000000
1.000000 0.000000 0.000000
1.000000 0.000000 0.000000
1.000000 0.000000 0.078693
1.000000 0.222771 0.129768
1.000000 0.338847 0.181415
1.000000 0.436093 0.238859
1.000000 0.534001 0.299547
1.000000 0.625666 0.390410
1.000000 0.701057 0.471117
1.000000 0.769525 0.550253
1.000000 0.820953 0.636426
1.000000 0.860329 0.713148
1.000000 0.890509 0.772203
1.000000 0.915451 0.820500
0.000000 0.302479 0.000000
0.000000 0.297878 0.000000
0.000000 0.295582 0.000000
0.000000 0.297792 0.000000
0.000000 0.297710 0.000000
0.000000 0.290847 0.000000
0.000000 0.288407 0.000000
0.000000 0.285570 0.000000
0.000000 0.279364 0.000000
0.190868 0.270880 0.000000
0.295296 0.257817 0.000000
0.398437 0.244657 0.000000
0.502099 0.219110 0.000000
0.595189 0.199454 0.000000
0.677607 0.181706 0.000000
0.750734 0.156548 0.000000
0.808641 0.123428 0.000000
0.887483 0.000000 0.000000
0.951538 0.000000 0.000000
1.000000 0.000000 0.000000
1.000000 0.000000 0.000000
1.000000 0.155406 0.070648
1.000000 0.259634 0.126560
1.000000 0.364154 0.179595
1.000000 0.451951 0.238660
1.000000 0.544223 0.301764
1.000000 0.633368 0.391853
1.000000 0.703168 0.473103
1.000000 0.772730 0.552301
1.000000 0.823051 0.640063
1.000000 0.860320 0.714923
1.000000 0.890509 0.772203
1.000000 0.916077 0.820528
0.000000 0.355558 0.000000
0.000000 0.355534 0.000000
0.000000 0.358268 0.000000
0.000000 0.355455 0.000000
0.000000 0.352651 0.000000
0.000000 0.349850 0.000000
0.000000 0.346991 0.000000
0.000000 0.349331 0.000000
0.000000 0.348279 0.000000
0.000000 0.340412 0.000000
0.235516 0.333649 0.000000
0.368044 0.317495 0.000000
0.475266 0.301800 0.000000
0.598490 0.276718 0.000000
0.699938 0.258421 0.000000
0.763972 0.251228 0.000000
0.820554 0.236815 0.000000
0.892064 0.220250 0.000000
0.955810 0.211030 0.000000
1.000000 0.170149 0.000000
1.000000 0.156151 0.000000
1.000000 0.230265 0.059445
1.000000 0.310731 0.119647
1.000000 0.391464 0.177390
1.000000 0.475767 0.238723
1.000000 0.558824 0.302174
1.000000 0.641061 0.395332
1.000000 0.711616 0.474832
1.000000 0.775923 0.552271
1.000000 0.824293 0.640088
1.000000 0.862257 0.714994
1.000000 0.891254 0.773638
1.000000 0.916702 0.820556
0.000000 0.415440 0.000000
0.000000 0.415408 0.000000
0.000000 0.418592 0.000000
0.000000 0.418552 0.000000
0.000000 0.415292 0.000000
0.000000 0.412023 0.000000
0.000000 0.415123 0.000000
0.000000 0.418141 0.000000
0.000000 0.410946 0.000000
0.000000 0.409503 0.000000
0.105045 0.403833 0.000000
0.291646 0.393150 0.000000
0.430362 0.375782 0.000000
0.565245 0.357088 0.000000
0.689016 0.335028 0.000000
0.780296 0.321292 0.000000
0.838740 0.315278 0.000000
0.894988 0.322209 0.000000
0.949938 0.318454 0.000000
1.000000 0.313614 0.000000
1.000000 0.300032 0.000000
1.000000 0.316328 0.000000
1.000000 0.364631 0.117948
1.000000 0.428351 0.177110
1.000000 0.501550 0.238780
1.000000 0.575011 0.303859
1.000000 0.655291 0.399995
1.000000 0.720013 0.476599
1.000000 0.780647 0.556451
1.000000 0.828016 0.640174
1.000000 0.864186 0.715072
1.000000 0.892762 0.773706
1.000000 0.917741 0.821457
0.000000 0.486618 0.000000
0.000000 0.486595 0.000000
0.000000 0.486569 0.000000
0.000000 0.486537 0.000000
0.000000 0.490007 0.000000
0.000000 0.489961 0.000000
0.000000 0.489872 0.000000
0.000000 0.489687 0.000000
0.000000 0.485801 0.000000
0.000000 0.485090 0.000000
0.000000 0.480079 0.000000
0.156604 0.473697 0.000000
0.344686 0.458554 0.000000
0.500981 0.446507 0.000000
0.634621 0.428153 0.000000
0.758588 0.407472 0.000000
0.850440 0.396517 0.000000
0.906389 0.398054 0.000000
0.948465 0.402240 0.000000
0.997022 0.399628 0.000000
1.000000 0.409132 0.000000
1.000000 0.409243 0.000000
1.000000 0.423995 0.109191
1.000000 0.468524 0.177388
1.000000 0.535344 0.240702
1.000000 0.595932 0.309285
1.000000 0.670475 0.403134
1.000000 0.732666 0.483421
1.000000 0.787830 0.560090
1.000000 0.831717 0.642325
1.000000 0.865138 0.716884
1.000000 0.894768 0.776253
1.000000 0.918979 0.821519
0.000000 0.569191 0.000000
0.000000 0.569160 0.000000
0.000000 0.569126 0.000000
0.000000 0.569084 0.000000
0.000000 0.569028 0.000000
0.000000 0.568964 0.000000
0.000000 0.568859 0.000000
0.000000 0.572351 0.000000
0.000000 0.572106 0.000000
0.000000 0.571639 0.000000
0.000000 0.566999 0.000000
0.000000 0.565279 0.000000
0.164923 0.554964 0.000000
0.402236 0.545574 0.000000
0.562715 0.526171 0.000000
0.693588 0.508678 0.000000
0.826545 0.488617 0.000000
0.908197 0.481499 0.000000
0.951903 0.486804 0.000000
0.987532 0.493799 0.000000
1.000000 0.499198 0.000000
1.000000 0.497863 0.000000
1.000000 0.505432 0.086476
1.000000 0.517514 0.173081
1.000000 0.567355 0.238522
1.000000 0.624471 0.315757
1.000000 0.688024 0.408341
1.000000 0.744753 0.485176
1.000000 0.792493 0.562228
1.000000 0.834924 0.646012
1.000000 0.869204 0.719675
1.000000 0.897010 0.777742
1.000000 0.919200 0.820681
0.000000 0.654138 0.000000
0.000000 0.654094 0.000000
0.000000 0.657760 0.000000
0.000000 0.657690 0.000000
0.000000 0.653900 0.000000
0.000000 0.653837 0.000000
0.000000 0.650014 0.000000
0.000000 0.653595 0.000000
0.000000 0.653380 0.000000
0.000000 0.652950 0.000000
0.000000 0.655958 0.000000
0.000000 0.650933 0.000000
0.000000 0.645203 0.000000
0.273026 0.633665 0.000000
0.466416 0.624318 0.000000
0.623446 0.612607 0.000000
0.760428 0.587561 0.000000
0.885105 0.573800 0.000000
0.949737 0.570389 0.000000
0.982731 0.577760 0.000000
1.000000 0.587092 0.000000
1.000000 0.596233 0.000000
1.000000 0.601069 0.000000
1.000000 0.601493 0.167284
1.000000 0.618616 0.241640
1.000000 0.662634 0.321189
1.000000 0.715993 0.414742
1.000000 0.759444 0.488489
1.000000 0.801042 0.565937
1.000000 0.842192 0.648345
1.000000 0.872901 0.721607
1.000000 0.898503 0.779193
1.000000 0.921064 0.821911
0.000000 0.734696 0.000000
0.000000 0.734616 0.000000
0.000000 0.734555 0.000000
0.000000 0.734486 0.000000
0.000000 0.734427 0.000000
0.000000 0.734345 0.000000
0.000000 0.734237 0.000000
0.000000 0.734095 0.000000
0.000000 0.733857 0.000000
0.000000 0.733473 0.000000
0.000000 0.732804 0.000000
0.000000 0.731873 0.000000
0.000000 0.729793 0.000000
0.000000 0.726678 0.000000
0.373934 0.715603 0.000000
0.532180 0.706851 0.000000
0.694920 0.687676 0.000000
0.830984 0.667235 0.000000
0.921247 0.649940 0.000000
0.973271 0.648566 0.000000
1.000000 0.661136 0.000000
1.000000 0.665047 0.000000
1.000000 0.674630 0.000000
1.000000 0.693148 0.153082
1.000000 0.693465 0.240805
1.000000 0.708889 0.325233
1.000000 0.742522 0.421630
1.000000 0.775308 0.491967
1.000000 0.813219 0.570429
1.000000 0.849974 0.654327
1.000000 0.878341 0.723680
1.000000 0.901498 0.780726
1.000000 0.922302 0.823109
0.000000 0.804135 0.063440
0.000000 0.804038 0.025629
0.000000 0.803953 0.000000
0.000000 0.803887 0.000000
0.000000 0.803816 0.000000
0.000000 0.803740 0.000000
0.000000 0.803574 0.000000
0.000000 0.803424 0.000000
0.000000 0.803149 0.000000
0.000000 0.805523 0.000000
0.000000 0.805023 0.000000
0.000000 0.803990 0.000000
0.000000 0.796679 0.000000
0.000000 0.791023 0.000000
0.295172 0.787536 0.000000
0.478652 0.777364 0.000000
0.635415 0.771137 0.000000
0.787502 0.753577 0.000000
0.883853 0.741066 0.000000
0.948251 0.724669 0.000000
0.994129 0.724322 0.000000
1.000000 0.742051 0.000000
1.000000 0.748347 0.000000
1.000000 0.755950 0.154331
1.000000 0.757062 0.249069
1.000000 0.759663 0.334458
1.000000 0.771426 0.426904
1.000000 0.797342 0.500087
1.000000 0.825802 0.574453
1.000000 0.856953 0.656800
1.000000 0.884169 0.728791
1.000000 0.907126 0.784763
1.000000 0.925393 0.824428
0.000000 0.862270 0.236040
0.000000 0.862206 0.232238
0.000000 0.862026 0.228487
0.000000 0.861951 0.224651
0.000000 0.861790 0.220844
0.000000 0.861703 0.220896
0.000000 0.861569 0.217046
0.000000 0.861331 0.209244
0.000000 0.861176 0.205336
0.000000 0.860713 0.197493
0.000000 0.860104 0.185339
0.000000 0.861362 0.163703
0.000000 0.859840 0.145243
0.000000 0.855944 0.112346
0.056888 0.851012 0.016854
0.401937 0.847234 0.000000
0.584704 0.841642 0.000000
0.728299 0.830686 0.000000
0.834661 0.820077 0.000000
0.915266 0.805682 0.000000
0.971490 0.798118 0.000000
1.000000 0.797987 0.000000
1.000000 0.804000 0.000000
1.000000 0.806762 0.157259
1.000000 0.810611 0.258157
1.000000 0.813918 0.348674
1.000000 0.815868 0.436917
1.000000 0.821626 0.513262
1.000000 0.843522 0.583322
1.000000 0.869753 0.663350
1.000000 0.892098 0.733591
1.000000 0.910805 0.786353
1.000000 0.927848 0.825722
0.000000 0.901651 0.331531
0.000000 0.901534 0.331572
0.000000 0.901356 0.327948
0.000000 0.901161 0.328015
0.000000 0.901025 0.328060
0.000000 0.900885 0.328107
0.000000 0.900819 0.324439
0.000000 0.900599 0.320815
0.000000 0.900291 0.313505
0.000000 0.899687 0.309988
0.000000 0.899229 0.298984
0.000000 0.900124 0.292259
0.000000 0.898972 0.281532
0.000000 0.897384 0.263544
0.000000 0.895215 0.245710
0.379286 0.890171 0.220036
0.554514 0.883766 0.186249
0.697035 0.878024 0.146946
0.799721 0.871001 0.085411
0.887965 0.860329 0.000000
0.947734 0.854868 0.000000
0.993559 0.849179 0.000000
1.000000 0.843773 0.000000
1.000000 0.850506 0.170653
1.000000 0.852764 0.273773
1.000000 0.856188 0.365418
1.000000 0.859574 0.459179
1.000000 0.862712 0.528305
1.000000 0.868365 0.600846
1.000000 0.883670 0.672405
1.000000 0.901919 0.742360
1.000000 0.916979 0.789108
1.000000 0.932076 0.828294
0.000000 0.934595 0.429569
0.000000 0.934511 0.426068
0.000000 0.934323 0.426107
0.000000 0.934234 0.422610
0.000000 0.934137 0.422631
0.000000 0.933946 0.419159
0.000000 0.932464 0.418645
0.000000 0.932367 0.415150
0.000000 0.932054 0.411705
0.000000 0.931721 0.411779
0.000000 0.929859 0.404323
0.000000 0.929257 0.393968
0.000000 0.928465 0.390666
0.000000 0.927031 0.377084
0.172551 0.926389 0.360909
0.401862 0.923396 0.348014
0.562655 0.920366 0.336621
0.681143 0.913287 0.306642
0.772169 0.908991 0.283246
0.855148 0.900444 0.250811
0.926980 0.894750 0.223055
0.975277 0.890554 0.190714
1.000000 0.885172 0.154931
1.000000 0.883920 0.192117
1.000000 0.886067 0.292122
1.000000 0.890505 0.388317
1.000000 0.893119 0.476444
1.000000 0.893991 0.548219
1.000000 0.896730 0.616425
1.000000 0.900980 0.683799
1.000000 0.912239 0.748013
1.000000 0.925043 0.794675
1.000000 0.937069 0.830647
0.000000 0.955923 0.515261
0.000000 0.955809 0.511838
0.000000 0.955683 0.511857
0.000000 0.955556 0.511876
0.000000 0.955428 0.511895
0.000000 0.955298 0.511915
0.000000 0.955167 0.511935
0.000000 0.955176 0.508500
0.000000 0.954783 0.505132
0.000000 0.954517 0.501757
0.000000 0.953955 0.498438
0.000000 0.953529 0.491703
0.000000 0.952605 0.488472
0.161499 0.951632 0.481882
0.335158 0.949883 0.468764
0.464330 0.947354 0.452648
0.586620 0.943784 0.443767
0.689320 0.939857 0.432332
0.759993 0.936684 0.408758
0.835569 0.931722 0.383894
0.903508 0.925633 0.362819
0.957581 0.923465 0.347503
0.992173 0.917098 0.322357
1.000000 0.914080 0.289715
1.000000 0.914267 0.319897
1.000000 0.917183 0.408470
1.000000 0.918638 0.494343
1.000000 0.920668 0.570282
1.000000 0.921216 0.634441
1.000000 0.922943 0.699304
1.000000 0.925878 0.756104
1.000000 0.933373 0.800400
1.000000 0.942992 0.834266
0.000000 0.973471 0.608261
0.000000 0.973471 0.608261
0.000000 0.973317 0.608277
0.000000 0.973173 0.604942
0.000000 0.973173 0.604942
0.000000 0.973173 0.604942
0.000000 0.973173 0.604942
0.000000 0.973028 0.601611
0.087778 0.972720 0.598308
0.136748 0.972558 0.598326
0.197137 0.973038 0.595711
0.271031 0.972375 0.592472
0.349511 0.971339 0.585985
0.401738 0.970423 0.582810
0.472450 0.968913 0.573177
0.551516 0.965966 0.563015
0.617691 0.963000 0.549746
0.687787 0.959509 0.533694
0.762350 0.956199 0.522645
0.825641 0.953055 0.503348
0.888241 0.948781 0.477205
0.938318 0.944964 0.458704
0.978654 0.942537 0.446230
1.000000 0.940352 0.432488
1.000000 0.936289 0.404815
1.000000 0.936545 0.432467
1.000000 0.938055 0.513866
1.000000 0.939210 0.590566
1.000000 0.940003 0.658308
1.000000 0.941474 0.713955
1.000000 0.942423 0.771103
1.000000 0.943374 0.807077
1.000000 0.949946 0.840917
0.390850 0.986563 0.697124
0.400627 0.986399 0.694200
0.400627 0.986399 0.694200
0.409715 0.986223 0.694211
