Assets/Lutify-Free-LUTs-Pack/Lutify Free LUTs Pack/Cine World Pro Warm - Amy/Lutify.me-Amy-LogC3-to-Rec709.cube
# Created with: fylm.ai - Colour Grading and Collaboration Software in Cloud 
# Website: https://fylm.ai 
# META
# Option: Gamut compress
# Block 1: IDT | Arri Alexa - LogC3
# Block 2: colourMatch | Blending Mode: Normal | {"ColorSpace":0,"CrossCovarianceLimit":50,"ReshapingIterations":1,"PercentSaturationShift":100,"PercentShadingShift":100,"ExtraShading":true,"PercentTint":100,"PercentModified":100}
# Block 3: LUT | Filmic Curve Response: Standard Contrast 1 (100%)
# Block 4: LUT | Illuminant: D60 (100%)
# Block 5: hueSaturation | Blending Mode: Normal | {"hue":0,"saturation":-0.15}
# Block 6: logPrimaries | Blending Mode: Normal | {"wheels":{"shadows":{"Y":"0","R":"1","G":"1","B":"1"},"midtones":{"Y":"0","R":"1","G":"1","B":"1"},"highlights":{"Y":"0","R":"1","G":"1","B":"1"},"offset":{"Y":"0","R":"1","G":"1","B":"1"}},"sliders":{"shadows":{"Y":0,"R":-0.097,"G":0,"B":0.158},"midtones":{"Y":0,"R":0.024,"G":0.024,"B":-0.036},"highlights":{"Y":0,"R":0.154,"G":-0.084,"B":-0.024},"offset":{"Y":0.048,"R":0,"G":0,"B":0}}}
# Block 7: smartCurves | Blending Mode: Average | [[{"x":0,"y":0},{"x":0.11328125,"y":0.085540771484375},{"x":0.21484375,"y":0.218353271484375},{"x":0.37109375,"y":0.382415771484375},{"x":0.62109375,"y":0.589447021484375},{"x":0.8125,"y":0.765228271484375},{"x":1,"y":1}],[{"x":0,"y":0},{"x":1,"y":1}],[{"x":0,"y":0},{"x":1,"y":1}],[{"x":0,"y":0},{"x":1,"y":1}]]
# Block 8: LUT | Neutral Tint: Teal Tint 4 (100%)
# Block 9: contrast | Blending Mode: Normal | {"contrast":0.1}
# Block 10: ODT | Rec709
TITLE "Lutify.me-Amy-LogC3-to-Rec709" 
LUT_3D_SIZE 33
0.000000 0.000000 0.000000
0.000000 0.000000 0.000000
0.000000 0.000000 0.000000
0.000000 0.000000 0.000000
0.000000 0.000000 0.000000
0.056623 0.000000 0.000000
0.114729 0.000000 0.000000
0.162116 0.000000 0.000000
0.220866 0.000000 0.000000
0.284164 0.000000 0.000000
0.347464 0.000000 0.000000
0.407167 0.000000 0.000000
0.461651 0.000000 0.000000
0.546789 0.000000 0.000000
0.619334 0.000000 0.000000
0.686167 0.000000 0.000000
0.788431 0.000000 0.000000
0.890947 0.000000 0.000000
0.966941 0.000000 0.049614
1.000000 0.000000 0.090764
1.000000 0.122244 0.140245
1.000000 0.312620 0.195932
1.000000 0.432429 0.255641
1.000000 0.531779 0.336369
1.000000 0.623559 0.417914
1.000000 0.719077 0.505481
1.000000 0.781515 0.585783
1.000000 0.833842 0.671038
1.000000 0.874916 0.743908
1.000000 0.904820 0.801069
1.000000 0.930193 0.850013
1.000000 0.948613 0.885126
1.000000 0.962955 0.913245
0.000000 0.000000 0.000000
0.000000 0.000000 0.000000
0.000000 0.000000 0.000000
0.000000 0.000000 0.000000
0.000000 0.000000 0.000000
0.058404 0.000000 0.000000
0.115026 0.000000 0.000000
0.160128 0.000000 0.000000
0.214635 0.000000 0.000000
0.280310 0.000000 0.000000
0.335394 0.000000 0.000000
0.398393 0.000000 0.000000
0.458249 0.000000 0.000000
0.542944 0.000000 0.000000
0.619378 0.000000 0.000000
0.690406 0.000000 0.000000
0.788386 0.000000 0.000000
0.890809 0.000000 0.000000
0.966729 0.000000 0.047681
1.000000 0.000000 0.090680
1.000000 0.140457 0.139420
1.000000 0.316875 0.197196
1.000000 0.436077 0.255297
1.000000 0.531779 0.336369
1.000000 0.623549 0.420555
1.000000 0.721506 0.505389
1.000000 0.783362 0.585773
1.000000 0.833830 0.673570
1.000000 0.874916 0.743908
1.000000 0.904820 0.801069
1.000000 0.930193 0.850013
1.000000 0.948613 0.885126
1.000000 0.962955 0.913245
0.000000 0.000000 0.000000
0.000000 0.000000 0.000000
0.000000 0.000000 0.000000
0.000000 0.000000 0.000000
0.000000 0.000000 0.000000
0.064384 0.000000 0.000000
0.117705 0.000000 0.000000
0.156016 0.000000 0.000000
0.211549 0.000000 0.000000
0.274302 0.000000 0.000000
0.330754 0.000000 0.000000
0.392656 0.000000 0.000000
0.458316 0.000000 0.000000
0.543032 0.000000 0.000000
0.619432 0.000000 0.000000
0.694648 0.000000 0.000000
0.788329 0.000000 0.000000
0.890597 0.000000 0.000000
0.966506 0.000000 0.045508
1.000000 0.000000 0.090074
1.000000 0.156358 0.139994
1.000000 0.325324 0.196388
1.000000 0.439717 0.256935
1.000000 0.535148 0.336116
1.000000 0.626699 0.420361
1.000000 0.721506 0.505389
1.000000 0.783362 0.585773
1.000000 0.833830 0.673570
1.000000 0.875329 0.744765
1.000000 0.905675 0.801105
1.000000 0.930864 0.850043
1.000000 0.948613 0.885126
1.000000 0.962955 0.913245
0.000000 0.000000 0.000000
0.000000 0.000000 0.000000
0.000000 0.000000 0.000000
0.000000 0.000000 0.000000
0.000000 0.000000 0.009121
0.065857 0.000000 0.000000
0.113552 0.000000 0.000000
0.151696 0.000000 0.000000
0.205527 0.000000 0.000000
0.270430 0.000000 0.000000
0.328468 0.000000 0.000000
0.398431 0.000000 0.000000
0.458398 0.000000 0.000000
0.543131 0.000000 0.000000
0.623606 0.000000 0.000000
0.694669 0.000000 0.000000
0.792552 0.000000 0.000000
0.890465 0.000000 0.000000
0.966190 0.000000 0.043929
1.000000 0.000000 0.088536
1.000000 0.163708 0.139552
1.000000 0.325324 0.196388
1.000000 0.439717 0.256935
1.000000 0.535148 0.336116
1.000000 0.626699 0.420361
1.000000 0.723924 0.505299
1.000000 0.783362 0.585773
1.000000 0.833830 0.673570
1.000000 0.876380 0.744811
1.000000 0.905675 0.801105
1.000000 0.930864 0.850043
1.000000 0.949153 0.885147
1.000000 0.962955 0.913245
0.000000 0.018250 0.000000
0.000000 0.020248 0.000000
0.000000 0.021439 0.000000
0.000000 0.019048 0.000000
0.000000 0.017471 0.000000
0.062025 0.000000 0.000000
0.111613 0.000000 0.000000
0.152672 0.000000 0.000000
0.203777 0.000000 0.000000
0.270359 0.000000 0.000000
0.330724 0.000000 0.000000
0.395607 0.000000 0.000000
0.465384 0.000000 0.000000
0.547126 0.000000 0.000000
0.623669 0.000000 0.000000
0.698913 0.000000 0.000000
0.788207 0.000000 0.000000
0.890289 0.000000 0.000000
0.965853 0.000000 0.040089
1.000000 0.000000 0.087438
1.000000 0.170738 0.140556
1.000000 0.333687 0.195554
1.000000 0.443363 0.256586
1.000000 0.538512 0.338310
1.000000 0.629845 0.420168
1.000000 0.723924 0.505299
1.000000 0.785205 0.585764
1.000000 0.835289 0.673601
1.000000 0.876380 0.744811
1.000000 0.905675 0.801105
1.000000 0.930864 0.850043
1.000000 0.949153 0.885147
1.000000 0.962955 0.913245
0.000000 0.051904 0.000000
0.000000 0.051503 0.000000
0.000000 0.051608 0.000000
0.000000 0.051044 0.000000
0.000000 0.046508 0.000000
0.054920 0.044761 0.000000
0.104583 0.036245 0.000000
0.151739 0.000000 0.000000
0.212170 0.000000 0.000000
0.274277 0.000000 0.000000
0.333126 0.000000 0.000000
0.407515 0.000000 0.000000
0.476112 0.000000 0.000000
0.559053 0.000000 0.000000
0.623769 0.000000 0.000000
0.703167 0.000000 0.000000
0.788145 0.000000 0.000000
0.890136 0.000000 0.000000
0.965586 0.000000 0.036601
1.000000 0.000000 0.085672
1.000000 0.184041 0.139636
1.000000 0.337834 0.196825
1.000000 0.447002 0.258242
1.000000 0.541888 0.338056
1.000000 0.634033 0.420886
1.000000 0.726331 0.505212
1.000000 0.785193 0.588448
1.000000 0.835289 0.673601
1.000000 0.876380 0.744811
1.000000 0.905675 0.801105
1.000000 0.930864 0.850043
1.000000 0.949153 0.885147
1.000000 0.962955 0.913245
0.000000 0.076972 0.000000
0.000000 0.075091 0.000000
0.000000 0.073319 0.000000
0.000000 0.069909 0.000000
0.000000 0.065459 0.000000
0.055109 0.062119 0.000000
0.104457 0.056927 0.000000
0.156571 0.046603 0.000000
0.221321 0.000000 0.000000
0.285815 0.000000 0.000000
0.345322 0.000000 0.000000
0.410747 0.000000 0.000000
0.483555 0.000000 0.000000
0.567223 0.000000 0.000000
0.632141 0.000000 0.000000
0.707442 0.000000 0.000000
0.792308 0.000000 0.000000
0.893637 0.000000 0.000000
0.965307 0.000000 0.032330
1.000000 0.000000 0.085591
1.000000 0.196535 0.138669
1.000000 0.346085 0.195963
1.000000 0.450646 0.257890
1.000000 0.541888 0.338056
1.000000 0.634033 0.420886
1.000000 0.726331 0.505212
1.000000 0.785193 0.588448
1.000000 0.835289 0.673601
1.000000 0.876380 0.744811
1.000000 0.905666 0.802659
1.000000 0.930864 0.850043
1.000000 0.949153 0.885147
1.000000 0.962955 0.913245
0.000000 0.103658 0.000000
0.000000 0.101137 0.000000
0.000000 0.097101 0.000000
0.000000 0.094754 0.000000
0.000000 0.090788 0.000000
0.048314 0.087382 0.000000
0.104956 0.082961 0.000000
0.162905 0.073878 0.000000
0.232832 0.056319 0.000000
0.296106 0.000000 0.000000
0.358355 0.000000 0.000000
0.423534 0.000000 0.000000
0.495036 0.000000 0.000000
0.575663 0.000000 0.000000
0.640740 0.000000 0.000000
0.715963 0.000000 0.000000
0.796450 0.000000 0.000000
0.893316 0.000000 0.000000
0.964705 0.000000 0.023224
1.000000 0.000000 0.085041
1.000000 0.214807 0.137607
1.000000 0.354272 0.195073
1.000000 0.454288 0.257533
1.000000 0.545267 0.337800
1.000000 0.634033 0.420886
1.000000 0.726331 0.505212
1.000000 0.787031 0.588441
1.000000 0.835289 0.673601
1.000000 0.877424 0.744860
1.000000 0.906322 0.803970
1.000000 0.930864 0.850043
1.000000 0.949153 0.885147
1.000000 0.962955 0.913245
0.000000 0.138274 0.000000
0.000000 0.138274 0.000000
0.000000 0.132701 0.000000
0.000000 0.128413 0.000000
0.000000 0.122972 0.000000
0.000000 0.120016 0.000000
0.106830 0.115725 0.000000
0.169457 0.108601 0.000000
0.243201 0.098225 0.000000
0.307353 0.079618 0.000000
0.369963 0.045995 0.000000
0.440844 0.000000 0.000000
0.510828 0.000000 0.000000
0.588529 0.000000 0.000000
0.649479 0.000000 0.000000
0.720313 0.000000 0.000000
0.800492 0.000000 0.000000
0.896372 0.000000 0.000000
0.966807 0.000000 0.000000
1.000000 0.078182 0.082860
1.000000 0.231372 0.137491
1.000000 0.366442 0.195433
1.000000 0.461567 0.258849
1.000000 0.548642 0.340018
1.000000 0.640251 0.420506
1.000000 0.728727 0.505128
1.000000 0.787031 0.588441
1.000000 0.835289 0.673601
1.000000 0.877424 0.744860
1.000000 0.907164 0.804005
1.000000 0.930864 0.850043
1.000000 0.949153 0.885147
1.000000 0.962955 0.913245
0.000000 0.176058 0.000000
0.000000 0.171676 0.000000
0.000000 0.166024 0.000000
0.000000 0.164660 0.000000
0.000000 0.160309 0.000000
0.000000 0.152949 0.000000
0.100121 0.152427 0.000000
0.174138 0.145864 0.000000
0.253803 0.135163 0.000000
0.319244 0.119980 0.000000
0.387986 0.099882 0.000000
0.452630 0.084901 0.000000
0.523832 0.029656 0.000000
0.605622 0.000000 0.000000
0.666622 0.000000 0.000000
0.733143 0.000000 0.000000
0.808682 0.000000 0.000000
0.898952 0.000000 0.000000
0.968324 0.000000 0.000000
1.000000 0.150256 0.082227
1.000000 0.262967 0.134372
1.000000 0.378505 0.194002
1.000000 0.472488 0.257744
1.000000 0.555418 0.339503
1.000000 0.643347 0.420317
1.000000 0.731101 0.507707
1.000000 0.790159 0.590498
1.000000 0.836742 0.673634
1.000000 0.877424 0.744860
1.000000 0.907164 0.804005
1.000000 0.931533 0.850075
1.000000 0.949153 0.885147
1.000000 0.962955 0.913245
0.000000 0.216418 0.000000
0.000000 0.212905 0.000000
0.000000 0.206046 0.000000
0.000000 0.202595 0.000000
0.000000 0.199038 0.000000
0.000000 0.195109 0.000000
0.068526 0.193753 0.000000
0.164126 0.185742 0.000000
0.258818 0.175125 0.000000
0.325182 0.167082 0.000000
0.404790 0.150950 0.000000
0.475881 0.139500 0.000000
0.548879 0.122294 0.000000
0.619441 0.117934 0.000000
0.680008 0.100576 0.000000
0.742022 0.113583 0.000000
0.820923 0.107220 0.000000
0.900931 0.115748 0.000000
0.971531 0.146904 0.000000
1.000000 0.208048 0.072917
1.000000 0.296440 0.131215
1.000000 0.394476 0.191984
1.000000 0.479769 0.256987
1.000000 0.565607 0.338716
1.000000 0.649499 0.422599
1.000000 0.733474 0.507629
1.000000 0.791965 0.590497
1.000000 0.838188 0.673669
1.000000 0.877424 0.744860
1.000000 0.908004 0.804042
1.000000 0.931533 0.850075
1.000000 0.949691 0.885168
1.000000 0.963392 0.913263
0.000000 0.255951 0.000000
0.000000 0.248270 0.000000
0.000000 0.248156 0.000000
0.000000 0.246079 0.000000
0.000000 0.245633 0.000000
0.000000 0.241190 0.000000
0.000000 0.239680 0.000000
0.152306 0.234807 0.000000
0.245390 0.227348 0.000000
0.325662 0.217366 0.000000
0.415175 0.202365 0.000000
0.496687 0.188505 0.000000
0.574780 0.179603 0.000000
0.641328 0.177327 0.000000
0.705986 0.182399 0.000000
0.759157 0.189641 0.000000
0.832554 0.200168 0.000000
0.909220 0.210312 0.000000
0.973078 0.242046 0.000000
1.000000 0.285146 0.046883
1.000000 0.337197 0.128154
1.000000 0.418217 0.190566
1.000000 0.497149 0.258549
1.000000 0.571490 0.339866
1.000000 0.658667 0.422054
1.000000 0.738977 0.508507
1.000000 0.795558 0.590504
1.000000 0.840136 0.677214
1.000000 0.878451 0.746923
1.000000 0.908004 0.804042
1.000000 0.932198 0.850108
1.000000 0.949691 0.885168
1.000000 0.963392 0.913263
0.000000 0.304740 0.000000
0.000000 0.304662 0.000000
0.000000 0.302213 0.000000
0.000000 0.301979 0.000000
0.000000 0.299329 0.000000
0.000000 0.296468 0.000000
0.000000 0.295326 0.000000
0.122066 0.292824 0.000000
0.233813 0.286544 0.000000
0.327726 0.273042 0.000000
0.412599 0.264181 0.000000
0.502732 0.252042 0.000000
0.597518 0.244473 0.000000
0.683344 0.235780 0.000000
0.735676 0.247206 0.000000
0.776077 0.263024 0.000000
0.835441 0.280457 0.000000
0.912424 0.294013 0.000000
0.975675 0.320083 0.000000
1.000000 0.344195 0.000000
1.000000 0.388947 0.125834
1.000000 0.445646 0.188342
1.000000 0.515443 0.256516
1.000000 0.588616 0.338510
1.000000 0.670736 0.421350
1.000000 0.745898 0.508309
1.000000 0.799127 0.590521
1.000000 0.841560 0.677254
1.000000 0.879483 0.746973
1.000000 0.908004 0.804042
1.000000 0.932198 0.850108
1.000000 0.950227 0.885191
1.000000 0.963392 0.913263
0.000000 0.363776 0.000000
0.000000 0.360857 0.000000
0.000000 0.357917 0.000000
0.000000 0.357703 0.000000
0.000000 0.354610 0.000000
0.000000 0.354143 0.000000
0.000000 0.350376 0.000000
0.067901 0.348148 0.000000
0.216216 0.342479 0.000000
0.318370 0.334765 0.000000
0.404621 0.325610 0.000000
0.500769 0.319455 0.000000
0.598210 0.310675 0.000000
0.696876 0.299221 0.000000
0.764372 0.301760 0.000000
0.800139 0.317999 0.000000
0.852324 0.345048 0.000000
0.917865 0.360332 0.000000
0.972170 0.388340 0.000000
1.000000 0.403993 0.000000
1.000000 0.442551 0.115990
1.000000 0.492740 0.189179
1.000000 0.541057 0.257922
1.000000 0.609244 0.342007
1.000000 0.682601 0.423359
1.000000 0.748168 0.510913
1.000000 0.800903 0.590533
1.000000 0.844375 0.679843
1.000000 0.881540 0.747081
1.000000 0.908842 0.804080
1.000000 0.932854 0.851371
1.000000 0.950227 0.885191
1.000000 0.963828 0.913281
0.000000 0.421621 0.000000
0.000000 0.424749 0.000000
0.000000 0.421334 0.000000
0.000000 0.421111 0.000000
0.000000 0.420800 0.000000
0.000000 0.420340 0.000000
0.000000 0.419531 0.000000
0.000000 0.415062 0.000000
0.158713 0.409702 0.000000
0.281772 0.406646 0.000000
0.379347 0.398920 0.000000
0.481989 0.395455 0.000000
0.589608 0.389337 0.000000
0.691654 0.374443 0.000000
0.779708 0.370769 0.000000
0.836973 0.374720 0.000000
0.870694 0.402034 0.000000
0.921774 0.424716 0.000000
0.970873 0.445765 0.000000
1.000000 0.469953 0.000000
1.000000 0.503233 0.096832
1.000000 0.544095 0.186140
1.000000 0.589244 0.262024
1.000000 0.636844 0.342409
1.000000 0.699996 0.425134
1.000000 0.757820 0.514412
1.000000 0.809038 0.595362
1.000000 0.848556 0.679986
1.000000 0.882555 0.749136
1.000000 0.910510 0.804161
1.000000 0.933513 0.851406
1.000000 0.950756 0.886146
1.000000 0.963823 0.914058
0.000000 0.500317 0.000000
0.000000 0.500163 0.000000
0.000000 0.496396 0.000000
0.000000 0.496152 0.000000
0.000000 0.495810 0.000000
0.000000 0.495407 0.000000
0.000000 0.494847 0.000000
0.000000 0.490440 0.000000
0.000000 0.489100 0.000000
0.208646 0.486793 0.000000
0.334871 0.479909 0.000000
0.445989 0.471301 0.000000
0.560300 0.467401 0.000000
0.667825 0.461992 0.000000
0.755198 0.453377 0.000000
0.843869 0.451897 0.000000
0.898274 0.462493 0.000000
0.926509 0.488209 0.000000
0.969082 0.514269 0.000000
1.000000 0.538557 0.000000
1.000000 0.570920 0.042640
1.000000 0.605695 0.176764
1.000000 0.644918 0.261418
1.000000 0.681110 0.348898
1.000000 0.722321 0.429538
1.000000 0.768622 0.516918
1.000000 0.815887 0.595488
1.000000 0.854439 0.683656
1.000000 0.886965 0.752173
1.000000 0.912167 0.804248
1.000000 0.934395 0.851942
1.000000 0.950756 0.886146
1.000000 0.964257 0.914077
0.000000 0.583042 0.000000
0.000000 0.582873 0.000000
0.000000 0.582677 0.000000
0.000000 0.578763 0.000000
0.000000 0.578529 0.000000
0.000000 0.578221 0.000000
0.000000 0.577862 0.000000
0.000000 0.580902 0.000000
0.000000 0.580074 0.000000
0.000000 0.578384 0.000000
0.199881 0.576267 0.000000
0.366361 0.568821 0.000000
0.505499 0.559259 0.000000
0.612549 0.552805 0.000000
0.721519 0.544517 0.000000
0.815399 0.544163 0.000000
0.892746 0.541827 0.000000
0.939792 0.558904 0.000000
0.966838 0.585820 0.000000
1.000000 0.606012 0.000000
1.000000 0.633190 0.000000
1.000000 0.665772 0.163362
1.000000 0.693229 0.256229
1.000000 0.718358 0.352886
1.000000 0.749106 0.440571
1.000000 0.787046 0.519558
1.000000 0.826402 0.596836
1.000000 0.859740 0.683924
1.000000 0.889971 0.752363
1.000000 0.913805 0.805862
1.000000 0.935690 0.852016
1.000000 0.951820 0.886194
1.000000 0.965391 0.914678
0.000000 0.667849 0.000000
0.000000 0.667639 0.000000
0.000000 0.667505 0.000000
0.000000 0.667324 0.000000
0.000000 0.667167 0.000000
0.000000 0.663168 0.000000
0.000000 0.662820 0.000000
0.000000 0.662359 0.000000
0.000000 0.665414 0.000000
0.000000 0.664091 0.000000
0.000000 0.658536 0.000000
0.278320 0.655682 0.000000
0.437020 0.647765 0.000000
0.544540 0.639549 0.000000
0.649134 0.637587 0.000000
0.759881 0.633901 0.000000
0.861641 0.630214 0.000000
0.926097 0.626320 0.000000
0.966257 0.644703 0.000000
0.994330 0.671806 0.000000
1.000000 0.695925 0.000000
1.000000 0.713231 0.140618
1.000000 0.734430 0.254586
1.000000 0.760388 0.355864
1.000000 0.782613 0.443979
1.000000 0.813607 0.524482
1.000000 0.840403 0.599090
1.000000 0.869008 0.687903
1.000000 0.895219 0.755470
1.000000 0.917315 0.808210
1.000000 0.937609 0.852138
1.000000 0.953038 0.887527
1.000000 0.966235 0.914719
0.000000 0.743388 0.000000
0.000000 0.743166 0.000000
0.000000 0.743021 0.000000
0.000000 0.742869 0.000000
0.000000 0.746061 0.000000
0.000000 0.745887 0.000000
0.000000 0.745637 0.000000
0.000000 0.745076 0.000000
0.000000 0.744595 0.000000
0.000000 0.740129 0.000000
0.000000 0.738445 0.000000
0.122156 0.736382 0.000000
0.362733 0.733116 0.000000
0.484143 0.729586 0.000000
0.598659 0.724892 0.000000
0.721745 0.718253 0.000000
0.831219 0.711127 0.000000
0.899781 0.706675 0.000000
0.956447 0.707556 0.000000
0.989009 0.720918 0.000000
1.000000 0.750302 0.000000
1.000000 0.764205 0.117282
1.000000 0.780252 0.250379
1.000000 0.798336 0.354642
1.000000 0.816580 0.452537
1.000000 0.840539 0.535155
1.000000 0.859822 0.608556
1.000000 0.879700 0.693693
1.000000 0.901009 0.759773
1.000000 0.921279 0.808488
1.000000 0.939488 0.853475
1.000000 0.954077 0.888499
1.000000 0.967073 0.914764
0.000000 0.817982 0.000000
0.000000 0.817842 0.000000
0.000000 0.817696 0.000000
0.000000 0.817545 0.000000
0.000000 0.817388 0.000000
0.000000 0.817225 0.000000
0.000000 0.816787 0.000000
0.000000 0.816305 0.000000
0.000000 0.815782 0.000000
0.000000 0.817498 0.000000
0.000000 0.815917 0.000000
0.000000 0.817010 0.000000
0.290116 0.812128 0.000000
0.438113 0.806410 0.000000
0.554423 0.802617 0.000000
0.686297 0.799377 0.000000
0.795285 0.790631 0.000000
0.870875 0.785868 0.000000
0.933382 0.784714 0.000000
0.976598 0.785603 0.000000
1.000000 0.800255 0.000000
1.000000 0.812619 0.078496
1.000000 0.825215 0.249606
1.000000 0.835383 0.359310
1.000000 0.853361 0.458450
1.000000 0.867303 0.547492
1.000000 0.881176 0.617814
1.000000 0.893947 0.697001
1.000000 0.909469 0.762484
1.000000 0.926888 0.811060
1.000000 0.942743 0.855392
1.000000 0.956141 0.888615
1.000000 0.968309 0.915596
0.000000 0.876919 0.000000
0.000000 0.876598 0.000000
0.000000 0.874382 0.000000
0.000000 0.874268 0.000000
0.000000 0.874154 0.000000
0.000000 0.873920 0.000000
0.000000 0.873679 0.000000
0.000000 0.873305 0.000000
0.000000 0.872917 0.000000
0.000000 0.872235 0.000000
0.000000 0.873514 0.000000
0.000000 0.871934 0.000000
0.293414 0.867969 0.000000
0.439060 0.863097 0.000000
0.546514 0.859879 0.000000
0.669852 0.856935 0.000000
0.774835 0.849600 0.000000
0.848529 0.845303 0.000000
0.910112 0.843507 0.000000
0.959710 0.840658 0.000000
0.998372 0.841385 0.000000
1.000000 0.847427 0.000000
1.000000 0.855580 0.235392
1.000000 0.870196 0.360085
1.000000 0.879229 0.465670
1.000000 0.888728 0.554307
1.000000 0.899047 0.626402
1.000000 0.908776 0.705103
1.000000 0.921212 0.768387
1.000000 0.935104 0.815464
1.000000 0.947854 0.857949
1.000000 0.958793 0.890036
1.000000 0.969640 0.916703
0.000000 0.913712 0.000000
0.000000 0.913572 0.000000
0.000000 0.913574 0.000000
0.000000 0.913432 0.000000
0.000000 0.913145 0.000000
0.000000 0.912998 0.000000
0.000000 0.912849 0.000000
0.000000 0.912395 0.000000
0.000000 0.912084 0.000000
0.000000 0.911437 0.000000
0.162372 0.910592 0.000000
0.278856 0.909519 0.000000
0.396352 0.906063 0.000000
0.491901 0.903720 0.000000
0.598077 0.900251 0.000000
0.688288 0.896535 0.000000
0.760256 0.893043 0.000000
0.836719 0.888842 0.000000
0.893838 0.885408 0.000000
0.944933 0.883772 0.000000
0.985271 0.881565 0.000000
1.000000 0.880848 0.100297
1.000000 0.887972 0.231250
1.000000 0.892465 0.350196
1.000000 0.902208 0.464967
1.000000 0.909717 0.560523
1.000000 0.917167 0.641987
1.000000 0.924141 0.712001
1.000000 0.932797 0.774650
1.000000 0.942689 0.819978
1.000000 0.952589 0.861180
1.000000 0.961717 0.892058
1.000000 0.972376 0.918391
0.135811 0.939158 0.224520
0.168142 0.938988 0.224613
0.193729 0.938816 0.224707
0.215486 0.938642 0.224802
0.234705 0.938467 0.224899
0.252293 0.938294 0.221437
0.268277 0.938115 0.221537
0.283164 0.937935 0.221639
0.310391 0.937569 0.221849
0.357942 0.936819 0.218720
0.398645 0.937227 0.217108
0.435988 0.936424 0.214043
0.502373 0.934734 0.211585
0.579021 0.933523 0.207850
0.644067 0.931136 0.195727
0.709251 0.927201 0.182713
0.770453 0.923074 0.175036
0.832979 0.919724 0.176853
0.882546 0.918036 0.183507
0.932863 0.913754 0.195242
0.974914 0.911188 0.212019
1.000000 0.912255 0.241039
1.000000 0.914075 0.273812
1.000000 0.916411 0.350298
1.000000 0.922181 0.465680
1.000000 0.926113 0.563576
1.000000 0.931147 0.646381
1.000000 0.939471 0.724952
1.000000 0.945939 0.780360
1.000000 0.952757 0.826064
1.000000 0.959759 0.863702
1.000000 0.966606 0.894925
1.000000 0.974713 0.920313
0.460114 0.957801 0.351125
0.468385 0.957599 0.351204
0.468385 0.957599 0.351204
0.476478 0.957396 0.351285
0.484404 0.957193 0.351366
0.484531 0.957198 0.348330
0.492294 0.956994 0.348414
0.514702 0.956380 0.348675
0.522012 0.956179 0.345737
0.536027 0.955768 0.345923
0.562782 0.954947 0.343297
0.587876 0.954125 0.340709
0.616902 0.954055 0.339659
0.654295 0.952634 0.340552
0.692852 0.951067 0.332838
0.738428 0.949986 0.327434
0.788085 0.947561 0.327551
0.836430 0.944997 0.326153
0.885362 0.941266 0.320574
0.928499 0.938673 0.318226
0.962368 0.937502 0.331615
0.991392 0.935740 0.349442
1.000000 0.933836 0.363002
1.000000 0.936311 0.392574
1.000000 0.939084 0.465048
1.000000 0.942730 0.567720
1.000000 0.947958 0.654837
1.000000 0.952314 0.729988
1.000000 0.958211 0.789273
1.000000 0.962993 0.831536
1.000000 0.968637 0.868610
1.000000 0.973188 0.897281
1.000000 0.977981 0.922338
0.638595 0.974916 0.460443
0.643544 0.974730 0.460528
0.643544 0.974730 0.460528
0.648423 0.974545 0.460613
0.648374 0.973837 0.459264
0.653199 0.973652 0.459352
0.653313 0.973659 0.456548
0.658068 0.973475 0.456638
0.662756 0.973291 0.456729
0.667377 0.973109 0.456822
0.676415 0.972747 0.457011
0.685303 0.972395 0.454420
0.702212 0.970968 0.453479
0.718183 0.970286 0.451141
0.744194 0.969122 0.449231
0.775123 0.967669 0.445000
0.814565 0.966410 0.443160
0.850763 0.965191 0.442139
0.888609 0.963766 0.440468
0.925668 0.960835 0.440973
0.957071 0.958163 0.444279
0.980040 0.957428 0.455063
1.000000 0.956878 0.466443
1.000000 0.957503 0.488373
1.000000 0.957200 0.511197
1.000000 0.957931 0.571546
1.000000 0.960765 0.661061
1.000000 0.964760 0.734221
1.000000 0.968710 0.795033
1.000000 0.972040 0.836165
1.000000 0.975581 0.873552
1.000000 0.978878 0.900886
1.000000 0.982007 0.924518
0.728690 0.985485 0.561967
0.732195 0.985330 0.562050
0.732322 0.985338 0.559333
0.732322 0.985338 0.559333
0.735795 0.985184 0.559418
