Assets/Lutify-Free-LUTs-Pack/Lutify Free LUTs Pack/Cine World Pro Warm - Amy/Lutify.me-Amy-VLog-to-Rec709.cube
# Created with: fylm.ai - Colour Grading and Collaboration Software in Cloud 
# Website: https://fylm.ai 
# META
# Option: Gamut compress
# Block 1: IDT | Panasonic V-Gamut V-Log
# Block 2: colourMatch | Blending Mode: Normal | {"ColorSpace":0,"CrossCovarianceLimit":50,"ReshapingIterations":1,"PercentSaturationShift":100,"PercentShadingShift":100,"ExtraShading":true,"PercentTint":100,"PercentModified":100}
# Block 3: LUT | Filmic Curve Response: Standard Contrast 1 (100%)
# Block 4: LUT | Illuminant: D60 (100%)
# Block 5: hueSaturation | Blending Mode: Normal | {"hue":0,"saturation":-0.15}
# Block 6: logPrimaries | Blending Mode: Normal | {"wheels":{"shadows":{"Y":"0","R":"1","G":"1","B":"1"},"midtones":{"Y":"0","R":"1","G":"1","B":"1"},"highlights":{"Y":"0","R":"1","G":"1","B":"1"},"offset":{"Y":"0","R":"1","G":"1","B":"1"}},"sliders":{"shadows":{"Y":0,"R":-0.097,"G":0,"B":0.158},"midtones":{"Y":0,"R":0.024,"G":0.024,"B":-0.036},"highlights":{"Y":0,"R":0.154,"G":-0.084,"B":-0.024},"offset":{"Y":0.048,"R":0,"G":0,"B":0}}}
# Block 7: smartCurves | Blending Mode: Average | [[{"x":0,"y":0},{"x":0.11328125,"y":0.085540771484375},{"x":0.21484375,"y":0.218353271484375},{"x":0.37109375,"y":0.382415771484375},{"x":0.62109375,"y":0.589447021484375},{"x":0.8125,"y":0.765228271484375},{"x":1,"y":1}],[{"x":0,"y":0},{"x":1,"y":1}],[{"x":0,"y":0},{"x":1,"y":1}],[{"x":0,"y":0},{"x":1,"y":1}]]
# Block 8: LUT | Neutral Tint: Teal Tint 4 (100%)
# Block 9: contrast | Blending Mode: Normal | {"contrast":0.1}
# Block 10: ODT | Rec709
TITLE "Lutify.me-Amy-VLog-to-Rec709" 
LUT_3D_SIZE 9
0.000000 0.000000 0.000000
0.000000 0.000000 0.000000
0.198508 0.000000 0.000000
0.464992 0.000000 0.000000
0.749851 0.000000 0.000000
1.000000 0.000000 0.087632
1.000000 0.476335 0.329367
1.000000 0.816052 0.673585
1.000000 0.942311 0.886693
0.000000 0.000000 0.000000
0.000000 0.000000 0.000000
0.170724 0.000000 0.000000
0.431867 0.000000 0.000000
0.745596 0.000000 0.000000
1.000000 0.000000 0.089406
1.000000 0.484035 0.332049
1.000000 0.816052 0.673585
1.000000 0.942823 0.886703
0.000000 0.101137 0.000000
0.000000 0.088046 0.000000
0.160034 0.057887 0.000000
0.445335 0.000000 0.000000
0.741331 0.000000 0.000000
1.000000 0.000000 0.088599
1.000000 0.496527 0.333372
1.000000 0.817429 0.675947
1.000000 0.942823 0.886703
0.000000 0.267880 0.000000
0.000000 0.244581 0.000000
0.000000 0.231084 0.000000
0.477713 0.169450 0.000000
0.762753 0.088931 0.000000
1.000000 0.042967 0.080047
1.000000 0.523069 0.336980
1.000000 0.822960 0.675974
1.000000 0.943334 0.886712
0.000000 0.507871 0.000000
0.000000 0.511360 0.000000
0.000000 0.514691 0.000000
0.074091 0.502199 0.000000
0.783999 0.450377 0.000000
1.000000 0.478972 0.000000
1.000000 0.600583 0.350173
1.000000 0.834494 0.684241
1.000000 0.944858 0.887617
0.000000 0.836188 0.258435
0.000000 0.835948 0.239973
0.000000 0.837979 0.228738
0.000000 0.838553 0.182084
0.474412 0.822687 0.000000
0.966032 0.788408 0.000000
1.000000 0.808995 0.399967
1.000000 0.869445 0.705837
1.000000 0.949819 0.891130
0.000000 0.973522 0.655439
0.000000 0.974077 0.655933
0.000000 0.973575 0.652582
0.000000 0.971742 0.642480
0.397076 0.966229 0.602836
0.859026 0.948440 0.537325
1.000000 0.937854 0.510601
1.000000 0.944751 0.760737
1.000000 0.962610 0.899328
0.665861 1.000000 0.893625
0.669245 1.000000 0.893619
0.676046 1.000000 0.892449
0.686121 1.000000 0.890097
0.727585 1.000000 0.885479
0.843171 1.000000 0.873224
0.971627 0.993413 0.842611
1.000000 0.989610 0.828150
1.000000 0.991414 0.923305
0.901845 1.000000 0.981677
0.902910 1.000000 0.981673
0.902910 1.000000 0.981673
0.905041 1.000000 0.981296
0.910392 1.000000 0.980556
0.926035 1.000000 0.978596
0.961217 1.000000 0.972809
1.000000 1.000000 0.960162
1.000000 1.000000 0.948350
0.000000 0.000000 0.000000
0.000000 0.000000 0.000000
0.155834 0.000000 0.000000
0.395480 0.000000 0.000000
0.694684 0.000000 0.000000
1.000000 0.000000 0.107396
1.000000 0.476295 0.338194
1.000000 0.814649 0.675944
1.000000 0.942311 0.886693
0.000000 0.000000 0.000000
0.000000 0.000000 0.000000
0.136210 0.000000 0.000000
0.357674 0.000000 0.000000
0.690525 0.000000 0.011348
1.000000 0.000000 0.111503
1.000000 0.482535 0.340030
1.000000 0.816040 0.675945
1.000000 0.942823 0.886703
0.000000 0.093982 0.025395
0.000000 0.088773 0.000000
0.101175 0.072612 0.000000
0.352775 0.000000 0.000000
0.690569 0.000000 0.007956
1.000000 0.000000 0.111746
1.000000 0.495081 0.343782
1.000000 0.817429 0.675947
1.000000 0.942823 0.886703
0.000000 0.267727 0.000000
0.000000 0.255895 0.000000
0.000000 0.255184 0.000000
0.369088 0.224202 0.000000
0.721100 0.145470 0.000000
1.000000 0.042791 0.111628
1.000000 0.521714 0.352432
1.000000 0.822948 0.678328
1.000000 0.943328 0.887585
0.000000 0.529317 0.095261
0.000000 0.529286 0.000000
0.000000 0.529124 0.000000
0.000000 0.525589 0.000000
0.717748 0.476116 0.000000
1.000000 0.482810 0.079379
1.000000 0.600545 0.362734
1.000000 0.834482 0.686568
1.000000 0.944853 0.888489
0.000000 0.838563 0.321491
0.000000 0.838304 0.306676
0.000000 0.840365 0.291955
0.000000 0.840893 0.255792
0.463317 0.825288 0.149172
0.958455 0.791171 0.000000
1.000000 0.808976 0.411037
1.000000 0.869434 0.708076
1.000000 0.949819 0.891130
0.000000 0.974302 0.672601
0.000000 0.974021 0.669312
0.000000 0.973519 0.666018
0.000000 0.971815 0.656072
0.384560 0.966345 0.623121
0.856188 0.948537 0.549904
1.000000 0.938709 0.523471
1.000000 0.944742 0.762565
1.000000 0.962605 0.900155
0.665657 1.000000 0.895924
0.669143 1.000000 0.894772
0.675845 1.000000 0.894761
0.685920 1.000000 0.892434
0.727391 1.000000 0.887853
0.842992 1.000000 0.875780
0.971462 0.993398 0.845502
1.000000 0.989604 0.829033
1.000000 0.991410 0.923975
0.901845 1.000000 0.981677
0.902910 1.000000 0.981673
0.902910 1.000000 0.981673
0.905018 1.000000 0.981667
0.909355 1.000000 0.980934
0.926035 1.000000 0.978596
0.961217 1.000000 0.972809
1.000000 1.000000 0.960674
1.000000 1.000000 0.948350
0.000000 0.000000 0.105207
0.000000 0.000000 0.046293
0.118116 0.000000 0.036394
0.358107 0.000000 0.032637
0.678148 0.000000 0.045836
1.000000 0.000000 0.134047
1.000000 0.474738 0.353499
1.000000 0.814636 0.678305
1.000000 0.942305 0.887568
0.000000 0.000000 0.090808
0.000000 0.000000 0.060726
0.090812 0.000000 0.050691
0.317862 0.000000 0.049718
0.674061 0.000000 0.056736
1.000000 0.000000 0.136201
1.000000 0.482447 0.358797
1.000000 0.816027 0.678305
1.000000 0.942817 0.887576
0.000000 0.111946 0.167693
0.000000 0.101472 0.149155
0.033573 0.082507 0.111076
0.303616 0.000000 0.075514
0.674011 0.000000 0.061855
1.000000 0.000000 0.138017
1.000000 0.495006 0.360458
1.000000 0.817403 0.680665
1.000000 0.942817 0.887576
0.000000 0.300354 0.243085
0.000000 0.274123 0.210147
0.000000 0.268685 0.140153
0.279914 0.256938 0.075372
0.695595 0.172196 0.054449
1.000000 0.043301 0.144013
1.000000 0.521652 0.367168
1.000000 0.822923 0.683035
1.000000 0.943328 0.887585
0.000000 0.536400 0.261632
0.000000 0.536431 0.204459
0.000000 0.536344 0.159005
0.000000 0.540492 0.000000
0.680823 0.502183 0.000000
1.000000 0.490745 0.144383
1.000000 0.599515 0.377276
1.000000 0.834470 0.688894
1.000000 0.944847 0.889360
0.000000 0.838507 0.384905
0.000000 0.840632 0.373881
0.000000 0.840310 0.359179
0.000000 0.840904 0.322588
0.451582 0.827847 0.230782
0.954832 0.796224 0.125927
1.000000 0.811016 0.430870
1.000000 0.869423 0.710312
1.000000 0.949813 0.891984
0.000000 0.974342 0.685641
0.000000 0.974051 0.685652
0.000000 0.973556 0.682438
0.000000 0.972714 0.673155
0.372352 0.966482 0.636705
0.855042 0.949376 0.569888
1.000000 0.939549 0.539168
1.000000 0.944726 0.766201
1.000000 0.962605 0.900155
0.665457 1.000000 0.898198
0.668843 1.000000 0.898192
0.672305 1.000000 0.897053
0.686582 1.000000 0.894892
0.727295 1.000000 0.889032
0.841015 1.000000 0.877032
0.970536 0.993431 0.848281
1.000000 0.989593 0.831443
1.000000 0.991407 0.924643
0.901822 1.000000 0.982044
0.902888 1.000000 0.982041
0.902888 1.000000 0.982041
0.905200 1.000000 0.981689
0.909355 1.000000 0.980934
0.926009 1.000000 0.978985
0.961187 1.000000 0.973251
1.000000 1.000000 0.961184
1.000000 1.000000 0.948814
0.000000 0.000000 0.230333
0.000000 0.000000 0.089327
0.074663 0.000000 0.062198
0.353056 0.000000 0.060107
0.659441 0.000000 0.119028
1.000000 0.000000 0.198770
1.000000 0.473083 0.387548
1.000000 0.813778 0.686683
1.000000 0.942294 0.889316
0.000000 0.000000 0.215102
0.000000 0.000000 0.137023
0.056776 0.000000 0.103254
0.302141 0.000000 0.098785
0.643264 0.000000 0.155828
1.000000 0.000000 0.204562
1.000000 0.479391 0.389799
1.000000 0.815181 0.686678
1.000000 0.942806 0.889323
0.000000 0.096732 0.288505
0.000000 0.084567 0.240014
0.000000 0.068886 0.214140
0.289207 0.000000 0.193067
0.652005 0.000000 0.181130
1.000000 0.000000 0.211926
1.000000 0.488898 0.391887
1.000000 0.816569 0.689047
1.000000 0.942806 0.889323
0.000000 0.333102 0.423039
0.000000 0.307423 0.394090
0.000000 0.281360 0.373007
0.181071 0.271425 0.333033
0.666116 0.195298 0.249090
1.000000 0.111276 0.221260
1.000000 0.518950 0.398971
1.000000 0.822872 0.692444
1.000000 0.943317 0.889332
0.000000 0.568438 0.516840
0.000000 0.550217 0.495931
0.000000 0.557561 0.462880
0.000000 0.559391 0.385729
0.614475 0.537155 0.290496
1.000000 0.494646 0.260580
1.000000 0.598411 0.414125
1.000000 0.833756 0.699519
1.000000 0.944842 0.890230
0.000000 0.840551 0.538679
0.000000 0.840380 0.523605
0.000000 0.842443 0.504789
0.000000 0.845587 0.463844
0.385578 0.835973 0.381073
0.945481 0.803682 0.297907
1.000000 0.812574 0.473285
1.000000 0.869367 0.721444
1.000000 0.949803 0.893690
0.000000 0.975237 0.734942
0.000000 0.974778 0.732049
0.000000 0.974407 0.726195
0.000000 0.972794 0.711205
0.343468 0.967507 0.683640
0.848436 0.949506 0.612016
1.000000 0.939453 0.575894
1.000000 0.944619 0.771001
1.000000 0.962595 0.901802
0.662574 1.000000 0.903881
0.665962 1.000000 0.903875
0.672671 1.000000 0.903862
0.685909 1.000000 0.902745
0.726730 1.000000 0.895974
0.838786 1.000000 0.883322
0.970293 0.993409 0.852512
1.000000 0.989870 0.837902
1.000000 0.991399 0.925971
0.901977 1.000000 0.982790
0.901977 1.000000 0.982790
0.903037 1.000000 0.982787
0.904111 1.000000 0.982422
0.909309 1.000000 0.981676
0.925034 1.000000 0.979757
0.961128 1.000000 0.974123
1.000000 1.000000 0.961691
1.000000 1.000000 0.950199
0.000000 0.000000 0.292027
0.000000 0.000000 0.197618
0.000000 0.000000 0.168592
0.269310 0.000000 0.156422
0.684294 0.000000 0.130683
1.000000 0.000000 0.378873
1.000000 0.473095 0.482638
1.000000 0.812782 0.718828
1.000000 0.942272 0.892808
0.000000 0.048644 0.356870
0.000000 0.044501 0.278635
0.000000 0.038865 0.256186
0.234940 0.000000 0.248098
0.630422 0.000000 0.212077
1.000000 0.000000 0.390564
1.000000 0.479557 0.485388
1.000000 0.814197 0.718807
1.000000 0.942783 0.892814
0.000000 0.110144 0.427297
0.000000 0.096415 0.358925
0.000000 0.087695 0.340016
0.211576 0.027208 0.339047
0.638012 0.000000 0.307419
1.000000 0.000000 0.408961
1.000000 0.492560 0.487872
1.000000 0.815611 0.718787
1.000000 0.942783 0.892814
0.000000 0.308184 0.574302
0.000000 0.282209 0.523821
0.000000 0.264335 0.517253
0.000000 0.250273 0.517629
0.647242 0.107459 0.477674
1.000000 0.055603 0.443188
1.000000 0.519930 0.496438
1.000000 0.819822 0.721069
1.000000 0.943294 0.892819
0.000000 0.630261 0.739558
0.000000 0.600648 0.713550
0.000000 0.582185 0.700105
0.000000 0.581169 0.685335
0.484161 0.557481 0.644110
0.984631 0.506216 0.523001
1.000000 0.600869 0.514997
1.000000 0.831584 0.726433
1.000000 0.945313 0.895310
0.000000 0.860040 0.806682
0.000000 0.857741 0.801944
0.000000 0.857528 0.794400
0.000000 0.860792 0.775424
0.000000 0.848718 0.703424
0.900097 0.821147 0.605854
1.000000 0.813047 0.576508
1.000000 0.867244 0.746141
1.000000 0.949781 0.897096
0.000000 0.975352 0.828980
0.000000 0.974931 0.826928
0.000000 0.975217 0.824932
0.000000 0.973810 0.814405
0.249860 0.968721 0.792219
0.831221 0.953116 0.724129
1.000000 0.940919 0.677567
1.000000 0.945840 0.795265
1.000000 0.962575 0.905082
0.654212 1.000000 0.921411
0.661067 1.000000 0.921396
0.664542 1.000000 0.920416
0.678893 1.000000 0.919492
0.716797 1.000000 0.916436
0.829807 1.000000 0.902854
0.968211 0.993665 0.872588
1.000000 0.990690 0.855206
1.000000 0.991610 0.928491
0.900808 1.000000 0.984554
0.901875 1.000000 0.984550
0.901875 1.000000 0.984550
0.903986 1.000000 0.984543
0.908140 1.000000 0.984183
0.925099 1.000000 0.982041
0.960301 1.000000 0.976675
1.000000 1.000000 0.964740
1.000000 1.000000 0.952631
0.000000 0.125515 0.525028
0.000000 0.120022 0.510741
0.000000 0.115367 0.500101
0.032900 0.098209 0.499916
0.570490 0.000000 0.489584
1.000000 0.000000 0.421579
1.000000 0.429853 0.704217
1.000000 0.811491 0.788863
1.000000 0.942179 0.906611
0.000000 0.156074 0.564544
0.000000 0.154854 0.553547
0.000000 0.147956 0.539071
0.000000 0.131960 0.539065
0.579364 0.000000 0.535842
1.000000 0.000000 0.484518
1.000000 0.443235 0.710432
1.000000 0.812905 0.790821
1.000000 0.942179 0.906611
0.000000 0.193376 0.596887
0.000000 0.191755 0.589501
0.000000 0.184921 0.585981
0.000000 0.178751 0.585924
0.569590 0.000000 0.583167
1.000000 0.000000 0.536775
1.000000 0.453294 0.716654
1.000000 0.814333 0.790767
1.000000 0.942691 0.906607
0.000000 0.291735 0.687437
0.000000 0.289565 0.668705
0.000000 0.282312 0.668975
0.000000 0.271631 0.669243
0.542169 0.196444 0.671120
1.000000 0.000000 0.644757
1.000000 0.491600 0.728478
1.000000 0.817843 0.792161
1.000000 0.943202 0.906604
0.000000 0.577896 0.838327
0.000000 0.566816 0.834290
0.000000 0.566752 0.836623
0.000000 0.555189 0.834847
0.372547 0.534259 0.829283
0.976630 0.440072 0.792737
1.000000 0.579814 0.755476
1.000000 0.829228 0.798718
1.000000 0.944729 0.907442
0.000000 0.878661 0.922220
0.000000 0.880580 0.922071
0.000000 0.874465 0.921292
0.000000 0.871829 0.921386
0.000000 0.859567 0.907015
0.834465 0.827440 0.876164
1.000000 0.814727 0.817750
1.000000 0.866426 0.812067
1.000000 0.949267 0.908283
0.000000 0.983310 0.954742
0.000000 0.982001 0.953978
0.000000 0.981506 0.953933
0.000000 0.980230 0.949900
0.000000 0.975420 0.940001
0.767308 0.958016 0.910950
0.987555 0.946187 0.868013
1.000000 0.945157 0.855840
1.000000 0.961763 0.916659
0.632660 1.000000 0.961982
0.636249 1.000000 0.961972
0.639824 1.000000 0.961339
0.661537 1.000000 0.960030
0.703206 1.000000 0.957326
0.817063 1.000000 0.945870
0.958313 0.994721 0.921228
1.000000 0.991068 0.898356
1.000000 0.992040 0.938815
0.898351 1.000000 0.990242
0.898351 1.000000 0.990242
0.899435 1.000000 0.990237
0.900950 1.000000 0.989666
0.906162 1.000000 0.989351
0.921949 1.000000 0.987777
0.958552 1.000000 0.983073
1.000000 1.000000 0.972471
1.000000 1.000000 0.961237
0.000000 0.362782 0.851335
0.000000 0.365577 0.853449
0.000000 0.368266 0.855524
0.000000 0.360465 0.857817
0.364259 0.323610 0.854829
0.952339 0.122503 0.841471
1.000000 0.123320 0.802837
1.000000 0.792475 0.911832
1.000000 0.940632 0.935731
0.000000 0.378240 0.857437
0.000000 0.378012 0.857405
0.000000 0.380803 0.859434
0.000000 0.372843 0.861701
0.343968 0.343323 0.858702
0.949829 0.171839 0.852292
1.000000 0.183636 0.812582
1.000000 0.794044 0.912896
1.000000 0.940632 0.935731
0.000000 0.397585 0.867462
0.000000 0.394096 0.867582
0.000000 0.397044 0.869503
0.000000 0.392211 0.869451
0.332037 0.363028 0.868763
0.947006 0.216170 0.858287
1.000000 0.236848 0.824111
1.000000 0.796421 0.912852
1.000000 0.940625 0.936471
0.000000 0.448399 0.883393
0.000000 0.448216 0.883366
0.000000 0.451416 0.885091
0.000000 0.446583 0.886987
0.279455 0.426023 0.886322
0.943839 0.304473 0.880904
1.000000 0.325849 0.851327
1.000000 0.800294 0.913684
1.000000 0.941150 0.936449
0.000000 0.585346 0.923560
0.000000 0.581551 0.925094
0.000000 0.581328 0.925061
0.000000 0.584076 0.923385
0.000000 0.558329 0.924882
0.905058 0.484452 0.918031
1.000000 0.486298 0.896519
1.000000 0.814862 0.918532
1.000000 0.942970 0.937263
0.000000 0.861841 0.971159
0.000000 0.861718 0.970427
0.000000 0.861527 0.971124
0.000000 0.856425 0.972072
0.000000 0.847147 0.971891
0.763912 0.810850 0.963769
1.000000 0.775125 0.947970
1.000000 0.859847 0.927611
1.000000 0.947795 0.941471
0.000000 0.991903 0.994261
0.000000 0.991698 0.994241
0.000000 0.992072 0.993801
0.000000 0.990255 0.994101
0.000000 0.985550 0.992591
0.685720 0.965656 0.986588
0.965628 0.947989 0.974534
1.000000 0.946028 0.954516
1.000000 0.963388 0.946426
0.579814 1.000000 0.999148
0.591004 1.000000 0.999118
0.594673 1.000000 0.999108
0.608734 1.000000 0.998627
0.658279 1.000000 0.997794
0.782069 1.000000 0.995373
0.942702 0.996451 0.986525
1.000000 0.992729 0.973089
1.000000 0.992058 0.965220
0.891157 1.000000 1.000000
0.891157 1.000000 1.000000
0.893359 1.000000 1.000000
0.895533 1.000000 0.999943
0.900853 1.000000 0.999584
0.918864 1.000000 0.998437
0.953643 1.000000 0.996513
1.000000 1.000000 0.988558
1.000000 1.000000 0.980065
0.000000 0.687261 0.986353
0.000000 0.686981 0.986320
0.000000 0.682917 0.987162
0.000000 0.681241 0.986967
0.269764 0.675557 0.985004
0.758311 0.635910 0.985306
1.000000 0.586931 0.980434
1.000000 0.682101 0.961350
1.000000 0.936778 0.987712
0.000000 0.691028 0.986793
0.000000 0.690844 0.986771
0.000000 0.690406 0.987369
0.000000 0.685025 0.987400
0.257255 0.683148 0.985240
0.747467 0.640576 0.985828
1.000000 0.590992 0.980948
1.000000 0.687529 0.962642
1.000000 0.936778 0.987712
0.000000 0.698556 0.987007
0.000000 0.698339 0.987625
0.000000 0.697852 0.987567
0.000000 0.692523 0.987602
0.243794 0.690738 0.986123
0.742932 0.652409 0.985874
1.000000 0.598804 0.981302
1.000000 0.691061 0.963997
1.000000 0.937313 0.988390
0.000000 0.716858 0.989074
0.000000 0.716594 0.989043
0.000000 0.712557 0.989210
0.000000 0.710957 0.989026
0.221967 0.709068 0.988202
0.736613 0.668322 0.988209
1.000000 0.623057 0.982873
1.000000 0.708963 0.966852
1.000000 0.937313 0.988390
0.000000 0.764531 0.993634
0.000000 0.764285 0.993606
0.000000 0.760628 0.993218
0.000000 0.759111 0.992501
0.000000 0.753939 0.992491
0.709230 0.720542 0.992359
1.000000 0.684166 0.988406
1.000000 0.740863 0.974158
1.000000 0.939456 0.988598
0.000000 0.864788 0.999216
0.000000 0.864549 0.999191
0.000000 0.862140 0.999309
0.000000 0.858805 0.999333
0.000000 0.852565 0.999464
0.650775 0.833499 0.997969
1.000000 0.796507 0.995752
1.000000 0.814895 0.987384
1.000000 0.944767 0.989274
0.000000 0.981441 1.000000
0.000000 0.980411 1.000000
0.000000 0.980757 1.000000
0.000000 0.979616 1.000000
0.000000 0.975108 1.000000
0.600655 0.963628 1.000000
0.945285 0.942791 1.000000
1.000000 0.931145 0.998818
1.000000 0.960517 0.992350
0.313360 1.000000 1.000000
0.333689 1.000000 1.000000
0.343473 1.000000 1.000000
0.392736 1.000000 1.000000
0.511637 1.000000 1.000000
0.693204 1.000000 1.000000
0.917895 0.999110 1.000000
1.000000 0.993192 1.000000
1.000000 0.992436 0.998906
0.869690 1.000000 1.000000
0.870826 1.000000 1.000000
0.870826 1.000000 1.000000
0.873089 1.000000 1.000000
0.878672 1.000000 1.000000
0.899947 1.000000 1.000000
0.940182 1.000000 1.000000
0.995695 1.000000 1.000000
1.000000 1.000000 1.000000
0.511763 0.901775 1.000000
0.518934 0.901560 1.000000
0.525550 0.901327 1.000000
0.546010 0.900677 1.000000
0.619579 0.896608 1.000000
0.771518 0.889722 1.000000
0.940913 0.872564 1.000000
1.000000 0.857414 1.000000
1.000000 0.893527 1.000000
0.510808 0.903218 1.000000
0.517991 0.903003 1.000000
0.525047 0.902787 1.000000
0.546400 0.900694 1.000000
0.618733 0.898081 1.000000
0.771518 0.889722 1.000000
0.940913 0.872564 1.000000
1.000000 0.858957 1.000000
1.000000 0.894165 1.000000
0.510808 0.903218 1.000000
0.517991 0.903003 1.000000
0.525047 0.902787 1.000000
0.545496 0.902140 1.000000
0.618733 0.898081 1.000000
0.770767 0.891211 1.000000
0.940907 0.872602 1.000000
1.000000 0.860346 1.000000
1.000000 0.894714 1.000000
0.509438 0.906056 1.000000
0.516626 0.905842 1.000000
0.523688 0.905628 1.000000
0.544150 0.904984 1.000000
0.617641 0.901003 1.000000
0.770214 0.892730 1.000000
0.939535 0.875794 1.000000
1.000000 0.863394 1.000000
1.000000 0.895906 1.000000
0.506364 0.914173 1.000000
0.513542 0.913964 1.000000
0.520593 0.913754 1.000000
0.541018 0.913123 1.000000
0.614687 0.907926 1.000000
0.766301 0.901196 1.000000
0.935605 0.884864 1.000000
1.000000 0.870735 1.000000
1.000000 0.900607 1.000000
0.506853 0.936915 1.000000
0.513799 0.936717 1.000000
0.520621 0.936520 1.000000
0.534863 0.935019 1.000000
0.601175 0.931717 1.000000
0.753421 0.922997 1.000000
0.922855 0.910213 1.000000
1.000000 0.895347 1.000000
1.000000 0.913051 1.000000
0.518973 0.971088 1.000000
0.525070 0.970917 1.000000
0.531073 0.970745 1.000000
0.560308 0.969880 1.000000
0.611795 0.968177 1.000000
0.738459 0.960046 1.000000
0.906303 0.950416 1.000000
1.000000 0.938399 1.000000
1.000000 0.942753 1.000000
0.646787 1.000000 1.000000
0.652365 1.000000 1.000000
0.655141 1.000000 1.000000
0.662509 1.000000 1.000000
0.689640 1.000000 1.000000
0.766035 1.000000 1.000000
0.888148 0.998401 1.000000
0.995950 0.991070 1.000000
1.000000 0.987361 1.000000
0.798111 1.000000 1.000000
0.800069 1.000000 1.000000
0.800823 1.000000 1.000000
0.802792 1.000000 1.000000
0.813966 1.000000 1.000000
0.844209 1.000000 1.000000
0.907502 1.000000 1.000000
0.987400 1.000000 1.000000
1.000000 1.000000 1.000000
