Assets/Lutify-Free-LUTs-Pack/Lutify Free LUTs Pack/Cine World Pro Warm - Amy/Lutify.me-Amy-LLog-to-Rec709.cube
# Created with: fylm.ai - Colour Grading and Collaboration Software in Cloud 
# Website: https://fylm.ai 
# META
# Option: Gamut compress
# Block 1: IDT | Leica BT2020 L-Log
# Block 2: colourMatch | Blending Mode: Normal | {"ColorSpace":0,"CrossCovarianceLimit":50,"ReshapingIterations":1,"PercentSaturationShift":100,"PercentShadingShift":100,"ExtraShading":true,"PercentTint":100,"PercentModified":100}
# Block 3: LUT | Filmic Curve Response: Standard Contrast 1 (100%)
# Block 4: LUT | Illuminant: D60 (100%)
# Block 5: hueSaturation | Blending Mode: Normal | {"hue":0,"saturation":-0.15}
# Block 6: logPrimaries | Blending Mode: Normal | {"wheels":{"shadows":{"Y":"0","R":"1","G":"1","B":"1"},"midtones":{"Y":"0","R":"1","G":"1","B":"1"},"highlights":{"Y":"0","R":"1","G":"1","B":"1"},"offset":{"Y":"0","R":"1","G":"1","B":"1"}},"sliders":{"shadows":{"Y":0,"R":-0.097,"G":0,"B":0.158},"midtones":{"Y":0,"R":0.024,"G":0.024,"B":-0.036},"highlights":{"Y":0,"R":0.154,"G":-0.084,"B":-0.024},"offset":{"Y":0.048,"R":0,"G":0,"B":0}}}
# Block 7: smartCurves | Blending Mode: Average | [[{"x":0,"y":0},{"x":0.11328125,"y":0.085540771484375},{"x":0.21484375,"y":0.218353271484375},{"x":0.37109375,"y":0.382415771484375},{"x":0.62109375,"y":0.589447021484375},{"x":0.8125,"y":0.765228271484375},{"x":1,"y":1}],[{"x":0,"y":0},{"x":1,"y":1}],[{"x":0,"y":0},{"x":1,"y":1}],[{"x":0,"y":0},{"x":1,"y":1}]]
# Block 8: LUT | Neutral Tint: Teal Tint 4 (100%)
# Block 9: contrast | Blending Mode: Normal | {"contrast":0.1}
# Block 10: ODT | Rec709
TITLE "Lutify.me-Amy-LLog-to-Rec709" 
LUT_3D_SIZE 9
0.000000 0.000000 0.000000
0.000000 0.000000 0.000000
0.159084 0.000000 0.000000
0.370557 0.000000 0.000000
0.627637 0.000000 0.000000
0.973841 0.000000 0.058435
1.000000 0.334543 0.232766
1.000000 0.706791 0.518796
1.000000 0.889159 0.791158
0.000000 0.000000 0.000000
0.000000 0.000000 0.000000
0.144334 0.000000 0.000000
0.355066 0.000000 0.000000
0.627752 0.000000 0.000000
0.970447 0.000000 0.059552
1.000000 0.347437 0.236009
1.000000 0.709173 0.518698
1.000000 0.889159 0.791158
0.000000 0.088697 0.000000
0.000000 0.081129 0.000000
0.127761 0.062982 0.000000
0.357935 0.000000 0.000000
0.636212 0.000000 0.000000
0.966656 0.000000 0.062376
1.000000 0.358908 0.236851
1.000000 0.713666 0.523341
1.000000 0.890904 0.792635
0.000000 0.232028 0.000000
0.000000 0.223372 0.000000
0.000000 0.221774 0.000000
0.372850 0.186937 0.000000
0.647577 0.133941 0.000000
0.968700 0.000000 0.051653
1.000000 0.405143 0.240831
1.000000 0.725236 0.525515
1.000000 0.891768 0.794218
0.000000 0.441806 0.000000
0.000000 0.441770 0.000000
0.000000 0.448387 0.000000
0.000000 0.451102 0.000000
0.645745 0.412433 0.000000
0.964635 0.409552 0.000000
1.000000 0.502975 0.252574
1.000000 0.747652 0.535361
1.000000 0.896108 0.795889
0.000000 0.741807 0.249671
0.000000 0.745121 0.232113
0.000000 0.744810 0.218645
0.000000 0.743269 0.177028
0.413597 0.735040 0.000000
0.914434 0.695239 0.000000
1.000000 0.732076 0.296396
1.000000 0.799282 0.558458
1.000000 0.905819 0.803066
0.000000 0.929046 0.559755
0.000000 0.928839 0.559783
0.000000 0.928145 0.552558
0.000000 0.927701 0.534863
0.000000 0.923294 0.503471
0.794747 0.904670 0.439281
1.000000 0.893098 0.417588
1.000000 0.905668 0.637954
1.000000 0.930762 0.820746
0.238706 0.995991 0.833906
0.269666 0.995681 0.833892
0.297220 0.995377 0.832025
0.384124 0.994081 0.830104
0.546463 0.990392 0.816557
0.738856 0.984035 0.794720
0.947585 0.973708 0.756993
1.000000 0.969350 0.748839
1.000000 0.974594 0.862139
0.783382 1.000000 0.954620
0.787684 1.000000 0.954607
0.789852 1.000000 0.953946
0.798217 1.000000 0.953262
0.812163 1.000000 0.951891
0.855052 1.000000 0.947046
0.922664 1.000000 0.936148
0.996167 0.999064 0.917593
1.000000 0.998054 0.909832
0.000000 0.000000 0.007987
0.000000 0.000000 0.003229
0.137539 0.000000 0.000000
0.330861 0.000000 0.000000
0.607365 0.000000 0.024342
0.967998 0.000000 0.080560
1.000000 0.334504 0.241605
1.000000 0.709161 0.521315
1.000000 0.889159 0.791158
0.000000 0.000000 0.025552
0.000000 0.000000 0.017044
0.122963 0.000000 0.000000
0.310771 0.000000 0.011579
0.607459 0.000000 0.027955
0.967480 0.000000 0.081632
1.000000 0.346144 0.240727
1.000000 0.711536 0.521220
1.000000 0.889159 0.791158
0.000000 0.088744 0.048585
0.000000 0.085213 0.032252
0.092050 0.075426 0.013102
0.308301 0.000000 0.018594
0.607662 0.000000 0.029361
0.966583 0.000000 0.083588
1.000000 0.362688 0.243805
1.000000 0.711524 0.523848
1.000000 0.890045 0.791177
0.000000 0.235209 0.063949
0.000000 0.233609 0.000000
0.000000 0.231083 0.000000
0.301607 0.212392 0.000000
0.619739 0.165872 0.000000
0.965651 0.000000 0.085069
1.000000 0.408838 0.252002
1.000000 0.725224 0.528137
1.000000 0.891768 0.794218
0.000000 0.451995 0.128081
0.000000 0.455403 0.083803
0.000000 0.458699 0.000000
0.000000 0.458706 0.000000
0.616214 0.429909 0.000000
0.953644 0.414450 0.063662
1.000000 0.502947 0.268114
1.000000 0.747641 0.538025
1.000000 0.896099 0.797444
0.000000 0.745192 0.300452
0.000000 0.745074 0.283315
0.000000 0.748186 0.265910
0.000000 0.743308 0.229824
0.409336 0.738449 0.135401
0.908853 0.706126 0.000000
1.000000 0.731827 0.313063
1.000000 0.800633 0.562938
1.000000 0.905811 0.804593
0.000000 0.929080 0.578068
0.000000 0.928788 0.574437
0.000000 0.929497 0.567469
0.000000 0.929073 0.549727
0.000000 0.924749 0.514611
0.793544 0.906000 0.456976
1.000000 0.894401 0.432958
1.000000 0.905658 0.640715
1.000000 0.930754 0.822184
0.237469 0.995970 0.837571
0.268623 0.995660 0.837557
0.296303 0.995356 0.835718
0.383797 0.994070 0.831971
0.545822 0.990360 0.822396
0.735161 0.984165 0.798849
0.947354 0.973687 0.761542
1.000000 0.969341 0.750825
1.000000 0.974594 0.862139
0.783339 1.000000 0.955270
0.787641 1.000000 0.955258
0.789809 1.000000 0.954601
0.798173 1.000000 0.953922
0.812163 1.000000 0.951891
0.855003 1.000000 0.947744
0.922611 1.000000 0.936923
0.996013 0.999265 0.918612
1.000000 0.998050 0.910600
0.000000 0.000000 0.067524
0.000000 0.000000 0.048788
0.107249 0.000000 0.047036
0.298406 0.000000 0.049640
0.583575 0.000000 0.056366
0.962043 0.000000 0.112395
1.000000 0.333117 0.255754
1.000000 0.709137 0.526582
1.000000 0.889150 0.792749
0.000000 0.000000 0.085210
0.000000 0.000000 0.071589
0.091130 0.000000 0.064255
0.284328 0.000000 0.061482
0.583688 0.000000 0.063788
0.961505 0.000000 0.113392
1.000000 0.346069 0.257474
1.000000 0.711512 0.526487
1.000000 0.889150 0.792749
0.000000 0.114845 0.161914
0.000000 0.100594 0.153054
0.036554 0.089530 0.120654
0.277651 0.034391 0.088606
0.587716 0.000000 0.069046
0.963565 0.000000 0.116070
1.000000 0.361429 0.258306
1.000000 0.713867 0.529043
1.000000 0.890036 0.792767
0.000000 0.258863 0.236406
0.000000 0.247470 0.214477
0.000000 0.248295 0.159377
0.253700 0.242076 0.108350
0.610302 0.178282 0.075085
0.962498 0.000000 0.125613
1.000000 0.407753 0.269562
1.000000 0.725189 0.536065
1.000000 0.891759 0.795781
0.000000 0.462145 0.265610
0.000000 0.462169 0.233695
0.000000 0.465549 0.187327
0.000000 0.469691 0.123228
0.599239 0.442344 0.000000
0.943451 0.431507 0.129042
1.000000 0.502220 0.286029
1.000000 0.749792 0.546021
1.000000 0.896090 0.798998
0.000000 0.745074 0.368519
0.000000 0.748372 0.353736
0.000000 0.751534 0.331771
0.000000 0.753444 0.293220
0.370891 0.742640 0.217461
0.902926 0.716760 0.137345
1.000000 0.734789 0.333760
1.000000 0.800612 0.568431
1.000000 0.905802 0.806119
0.000000 0.930322 0.604042
0.000000 0.931396 0.604317
0.000000 0.930703 0.600716
0.000000 0.928972 0.578905
0.000000 0.926130 0.543790
0.785137 0.907666 0.481403
1.000000 0.894368 0.450845
1.000000 0.905638 0.646251
1.000000 0.930746 0.823618
0.235638 0.995939 0.842959
0.251977 0.995784 0.842951
0.294500 0.995314 0.842928
0.384853 0.994559 0.837659
0.546014 0.990864 0.828309
0.734703 0.984134 0.804976
0.946967 0.974248 0.764220
1.000000 0.969316 0.756738
1.000000 0.974588 0.863265
0.783297 1.000000 0.955916
0.787599 1.000000 0.955903
0.789765 1.000000 0.955251
0.798129 1.000000 0.954577
0.812117 1.000000 0.952560
0.854954 1.000000 0.948438
0.922559 1.000000 0.937692
0.995960 0.999260 0.919475
1.000000 0.998049 0.911225
0.000000 0.000000 0.144017
0.000000 0.000000 0.109676
0.081510 0.000000 0.102187
0.288462 0.000000 0.103301
0.570249 0.000000 0.151865
0.959120 0.000000 0.186367
1.000000 0.339362 0.309173
1.000000 0.710351 0.547024
1.000000 0.889121 0.797499
0.000000 0.039459 0.183152
0.000000 0.033705 0.157577
0.063625 0.018590 0.151018
0.279443 0.000000 0.146253
0.570962 0.000000 0.172257
0.958415 0.000000 0.190455
1.000000 0.347181 0.308774
1.000000 0.713763 0.550622
1.000000 0.889121 0.797499
0.000000 0.128222 0.274418
0.000000 0.115360 0.258330
0.000000 0.103474 0.252749
0.271546 0.058909 0.231820
0.571292 0.000000 0.193263
0.954243 0.000000 0.195804
1.000000 0.366514 0.310054
1.000000 0.716124 0.550531
1.000000 0.890008 0.797514
0.000000 0.295318 0.381729
0.000000 0.279224 0.366888
0.000000 0.266096 0.355829
0.173810 0.260934 0.320111
0.575478 0.218269 0.253122
0.951777 0.108917 0.213876
1.000000 0.409292 0.322627
1.000000 0.725466 0.552931
1.000000 0.890884 0.799108
0.000000 0.496415 0.473819
0.000000 0.489388 0.459978
0.000000 0.496430 0.438386
0.000000 0.497940 0.380192
0.546724 0.478802 0.302037
0.933955 0.444630 0.256761
1.000000 0.504483 0.340789
1.000000 0.751882 0.565110
1.000000 0.896072 0.802104
0.000000 0.751473 0.516181
0.000000 0.754751 0.500947
0.000000 0.757851 0.493301
0.000000 0.763172 0.452177
0.321323 0.753025 0.376925
0.876664 0.724843 0.312109
1.000000 0.745767 0.396419
1.000000 0.802418 0.585184
1.000000 0.905793 0.807643
0.000000 0.935345 0.677618
0.000000 0.935012 0.674133
0.000000 0.934464 0.667094
0.000000 0.930124 0.645083
0.000000 0.927370 0.605763
0.767153 0.910921 0.541384
0.999072 0.895614 0.502862
1.000000 0.906556 0.667900
1.000000 0.930730 0.826479
0.235495 0.996372 0.856781
0.251819 0.996218 0.856772
0.294720 0.995758 0.855093
0.382398 0.994477 0.851674
0.532361 0.991127 0.842892
0.730293 0.984768 0.819068
0.944538 0.974792 0.783827
1.000000 0.969819 0.766292
1.000000 0.974527 0.867407
0.783135 1.000000 0.958450
0.787475 1.000000 0.957810
0.789599 1.000000 0.957804
0.795905 1.000000 0.957154
0.812376 1.000000 0.954582
0.853167 1.000000 0.950496
0.922404 1.000000 0.939958
0.995801 0.999245 0.922036
1.000000 0.998037 0.913521
0.000000 0.071867 0.298167
0.000000 0.071430 0.293634
0.000000 0.065732 0.293659
0.252271 0.000000 0.294131
0.576839 0.000000 0.290613
0.937252 0.000000 0.374472
1.000000 0.340256 0.422779
1.000000 0.711431 0.597029
1.000000 0.889951 0.806963
0.000000 0.098234 0.337107
0.000000 0.095920 0.329386
0.000000 0.089842 0.329488
0.242921 0.027315 0.336022
0.579547 0.000000 0.322733
0.939791 0.000000 0.380443
1.000000 0.353245 0.428870
1.000000 0.713828 0.596937
1.000000 0.890837 0.806973
0.000000 0.142230 0.378078
0.000000 0.141063 0.375164
0.000000 0.134504 0.375365
0.227231 0.109085 0.380771
0.596174 0.000000 0.370052
0.941634 0.000000 0.392614
1.000000 0.372852 0.431268
1.000000 0.716200 0.599771
1.000000 0.890827 0.808539
0.000000 0.311336 0.519048
0.000000 0.298873 0.515939
0.000000 0.298786 0.512357
0.000000 0.290054 0.512573
0.581181 0.241049 0.483384
0.942032 0.138966 0.426743
1.000000 0.419144 0.438812
1.000000 0.725647 0.602358
1.000000 0.891712 0.808549
0.000000 0.542155 0.653386
0.000000 0.531253 0.650199
0.000000 0.531173 0.650226
0.000000 0.525929 0.631660
0.423860 0.520183 0.597420
0.900982 0.482785 0.496537
1.000000 0.510197 0.463449
1.000000 0.751498 0.611179
1.000000 0.896094 0.811724
0.000000 0.782655 0.762310
0.000000 0.779484 0.759461
0.000000 0.779345 0.746994
0.000000 0.778261 0.724058
0.056679 0.778565 0.655106
0.841246 0.751656 0.578930
1.000000 0.753092 0.529645
1.000000 0.803552 0.642478
1.000000 0.906225 0.820707
0.000000 0.936147 0.801413
0.000000 0.937207 0.796690
0.000000 0.936689 0.794274
0.000000 0.936063 0.779205
0.000000 0.930900 0.745879
0.743902 0.913814 0.676728
0.985558 0.900703 0.626017
1.000000 0.907082 0.714294
1.000000 0.931413 0.835031
0.210948 0.996826 0.889004
0.229542 0.996674 0.888993
0.276629 0.996219 0.887664
0.381148 0.995301 0.883684
0.524247 0.992147 0.876611
0.727560 0.985122 0.854991
0.937096 0.976568 0.819558
1.000000 0.970769 0.797219
1.000000 0.974921 0.875163
0.783452 1.000000 0.962724
0.783452 1.000000 0.962724
0.787757 1.000000 0.962121
0.796124 1.000000 0.961499
0.810088 1.000000 0.960251
0.852933 1.000000 0.957078
0.920870 1.000000 0.946513
0.994647 0.999261 0.927759
1.000000 0.998189 0.920365
0.000000 0.224357 0.581064
0.000000 0.222152 0.584840
0.000000 0.219724 0.584884
0.000000 0.215210 0.588341
0.555111 0.124210 0.589942
0.937489 0.000000 0.581722
1.000000 0.364222 0.662253
1.000000 0.711491 0.706142
1.000000 0.891992 0.838625
0.000000 0.243930 0.595289
0.000000 0.239577 0.599157
0.000000 0.237095 0.599212
0.000000 0.231000 0.602773
0.552406 0.148254 0.604547
0.940202 0.000000 0.592517
1.000000 0.372243 0.662067
1.000000 0.713946 0.706039
1.000000 0.892882 0.838616
0.000000 0.266964 0.624412
0.000000 0.264505 0.628245
0.000000 0.264107 0.628234
0.000000 0.260941 0.628050
0.542222 0.192648 0.626389
0.943044 0.000000 0.614190
1.000000 0.391251 0.664980
1.000000 0.717313 0.709334
1.000000 0.892882 0.838616
0.000000 0.341423 0.681744
0.000000 0.338546 0.678095
0.000000 0.335478 0.678203
0.000000 0.335960 0.693026
0.521961 0.291102 0.680540
0.934543 0.183112 0.660747
1.000000 0.429869 0.670904
1.000000 0.726903 0.711856
1.000000 0.894645 0.840080
0.000000 0.574163 0.808990
0.000000 0.570415 0.806520
0.000000 0.566578 0.806715
0.000000 0.569204 0.803733
0.371065 0.553062 0.797490
0.892264 0.499165 0.758307
1.000000 0.531350 0.709865
1.000000 0.748510 0.722957
1.000000 0.898155 0.841524
0.000000 0.808481 0.885415
0.000000 0.808409 0.883739
0.000000 0.810985 0.885205
0.000000 0.807210 0.881950
0.000000 0.799044 0.861332
0.766553 0.774937 0.833605
1.000000 0.767748 0.775575
1.000000 0.804438 0.746197
1.000000 0.908797 0.847689
0.000000 0.947929 0.923940
0.000000 0.946475 0.922865
0.000000 0.945996 0.921687
0.000000 0.943130 0.918146
0.000000 0.939278 0.905435
0.703965 0.923864 0.874809
0.964074 0.910230 0.831655
1.000000 0.911739 0.800063
1.000000 0.933242 0.861753
0.149675 0.998837 0.941559
0.199593 0.998552 0.940685
0.236865 0.998260 0.939800
0.354064 0.997354 0.937935
0.516534 0.993956 0.932224
0.712782 0.987348 0.914617
0.926428 0.977123 0.887968
1.000000 0.972579 0.863521
1.000000 0.975134 0.895940
0.781878 1.000000 0.974909
0.781878 1.000000 0.974909
0.784002 1.000000 0.974901
0.792376 1.000000 0.973920
0.808290 1.000000 0.972402
0.850719 1.000000 0.969207
0.917736 1.000000 0.960158
0.991338 0.999698 0.944244
1.000000 0.998497 0.932561
0.000000 0.464093 0.861865
0.000000 0.463837 0.861834
0.000000 0.463227 0.863899
0.000000 0.457243 0.865901
0.391101 0.446232 0.862683
0.896166 0.376633 0.859758
1.000000 0.395462 0.845968
1.000000 0.723779 0.875379
1.000000 0.895136 0.892527
0.000000 0.474712 0.865603
0.000000 0.474425 0.865568
0.000000 0.470290 0.865672
0.000000 0.464341 0.867662
0.386229 0.453565 0.866572
0.894720 0.385407 0.861602
1.000000 0.399317 0.848011
1.000000 0.726213 0.876866
1.000000 0.895136 0.892527
0.000000 0.492492 0.868885
0.000000 0.492221 0.870907
0.000000 0.488079 0.871019
0.000000 0.482110 0.872955
0.376345 0.468293 0.872083
0.888787 0.399029 0.867394
1.000000 0.411569 0.849801
1.000000 0.731055 0.876610
1.000000 0.896020 0.892489
0.000000 0.528589 0.880971
0.000000 0.528344 0.882851
0.000000 0.527827 0.882790
0.000000 0.525682 0.884430
0.339929 0.505716 0.887745
0.878968 0.450328 0.877511
1.000000 0.451402 0.858969
1.000000 0.739836 0.879228
1.000000 0.896892 0.893577
0.000000 0.628537 0.909499
0.000000 0.624599 0.909694
0.000000 0.624186 0.911126
0.000000 0.618740 0.909664
0.242820 0.611003 0.910316
0.847337 0.563158 0.902327
1.000000 0.560733 0.884842
1.000000 0.760497 0.887232
1.000000 0.901265 0.894513
0.000000 0.840356 0.952299
0.000000 0.840164 0.951351
0.000000 0.839855 0.951319
0.000000 0.838454 0.952103
0.000000 0.828157 0.949073
0.730430 0.805384 0.939496
1.000000 0.785401 0.923414
1.000000 0.815634 0.900550
1.000000 0.910096 0.898219
0.000000 0.958920 0.977485
0.000000 0.958611 0.977455
0.000000 0.958168 0.976839
0.000000 0.957666 0.976029
0.000000 0.950721 0.973969
0.669806 0.934809 0.964270
0.938271 0.920883 0.952432
1.000000 0.920088 0.928674
1.000000 0.933662 0.911565
0.177176 1.000000 0.988382
0.198491 1.000000 0.988370
0.233357 1.000000 0.987970
0.333192 1.000000 0.987487
0.489928 0.997631 0.986443
0.689309 0.991203 0.981347
0.909926 0.981313 0.969022
1.000000 0.976235 0.952441
1.000000 0.977306 0.937263
0.780113 1.000000 0.992361
0.782183 1.000000 0.992353
0.782183 1.000000 0.992353
0.786266 1.000000 0.992048
0.803913 1.000000 0.991392
0.845815 1.000000 0.989699
0.912918 1.000000 0.984379
0.987650 1.000000 0.974269
1.000000 0.999217 0.962995
0.000000 0.745293 0.978332
0.000000 0.744966 0.978297
0.000000 0.744458 0.978243
0.178523 0.745948 0.977842
0.436271 0.734690 0.977790
0.749730 0.713576 0.976816
1.000000 0.691465 0.973699
1.000000 0.731919 0.965596
1.000000 0.899584 0.968945
0.000000 0.748599 0.978121
0.000000 0.748272 0.978086
0.000000 0.751079 0.978525
0.167627 0.749269 0.978336
0.433198 0.738061 0.977583
0.749730 0.713576 0.976816
1.000000 0.695039 0.974223
1.000000 0.734519 0.965454
1.000000 0.899578 0.969532
0.000000 0.755153 0.978404
0.000000 0.754860 0.979066
0.000000 0.754360 0.979013
0.155722 0.752559 0.978825
0.435321 0.744507 0.977850
0.748172 0.717119 0.977318
1.000000 0.698581 0.974742
1.000000 0.736850 0.966070
1.000000 0.900478 0.969474
0.000000 0.767923 0.979650
0.000000 0.767606 0.979616
0.000000 0.767116 0.979565
0.043937 0.768453 0.979181
0.423105 0.757542 0.979110
0.740512 0.734246 0.977718
1.000000 0.712347 0.975402
1.000000 0.746283 0.967743
1.000000 0.901363 0.970574
0.000000 0.800378 0.983335
0.000000 0.800075 0.983303
0.000000 0.799606 0.983255
0.000000 0.797941 0.983699
0.389017 0.790693 0.982825
0.720571 0.766483 0.982355
1.000000 0.747523 0.977472
1.000000 0.771996 0.970513
1.000000 0.906097 0.971432
0.000000 0.863874 0.989514
0.000000 0.863733 0.989500
0.000000 0.863298 0.989457
0.000000 0.861899 0.989320
0.303396 0.857863 0.989428
0.696820 0.839426 0.988251
0.973752 0.819636 0.984941
1.000000 0.825596 0.976849
1.000000 0.915760 0.974110
0.000000 0.962344 0.999718
0.000000 0.962215 0.999706
0.000000 0.961688 0.999657
0.000000 0.959484 0.999316
0.297427 0.956778 0.999205
0.648989 0.945923 0.997963
0.918729 0.932343 0.993927
1.000000 0.924580 0.988252
1.000000 0.937930 0.979564
0.235193 1.000000 1.000000
0.261419 1.000000 1.000000
0.305751 1.000000 1.000000
0.356018 1.000000 1.000000
0.498661 1.000000 1.000000
0.687188 0.995251 1.000000
0.897178 0.984996 1.000000
0.992641 0.979321 0.995747
1.000000 0.979998 0.988549
0.777444 1.000000 1.000000
0.779377 1.000000 1.000000
0.781298 1.000000 1.000000
0.786912 1.000000 1.000000
0.801500 1.000000 1.000000
0.836520 1.000000 1.000000
0.904708 1.000000 1.000000
0.982177 1.000000 1.000000
1.000000 1.000000 0.996279
0.669526 0.909158 1.000000
0.669526 0.909158 1.000000
0.674237 0.908956 1.000000
0.683451 0.908556 1.000000
0.717604 0.907010 1.000000
0.810010 0.903606 1.000000
0.925583 0.893005 1.000000
1.000000 0.886665 1.000000
1.000000 0.902516 1.000000
0.668843 0.910474 1.000000
0.668843 0.910474 1.000000
0.673556 0.910273 1.000000
0.683451 0.908556 1.000000
0.717604 0.907010 1.000000
0.809371 0.904928 1.000000
0.925583 0.893005 1.000000
1.000000 0.887998 1.000000
1.000000 0.903469 1.000000
0.668843 0.910474 1.000000
0.668843 0.910474 1.000000
0.673556 0.910273 1.000000
0.682771 0.909874 1.000000
0.716929 0.908332 1.000000
0.809371 0.904928 1.000000
0.924973 0.894368 1.000000
1.000000 0.887998 1.000000
1.000000 0.904309 1.000000
0.667506 0.913075 1.000000
0.667506 0.913075 1.000000
0.672220 0.912874 1.000000
0.681437 0.912478 1.000000
0.715599 0.910944 1.000000
0.808780 0.906254 1.000000
0.923760 0.897076 1.000000
1.000000 0.889260 1.000000
1.000000 0.905255 1.000000
0.665422 0.918176 1.000000
0.665422 0.918176 1.000000
0.670121 0.917979 1.000000
0.679309 0.917588 1.000000
0.713363 0.916074 1.000000
0.805785 0.912673 1.000000
0.921384 0.902353 1.000000
1.000000 0.895641 1.000000
1.000000 0.908261 1.000000
0.655166 0.932592 1.000000
0.659884 0.932401 1.000000
0.664531 0.932211 1.000000
0.674131 0.930712 1.000000
0.707821 0.929252 1.000000
0.799891 0.925859 1.000000
0.915201 0.916001 1.000000
1.000000 0.908887 1.000000
1.000000 0.919494 1.000000
0.658129 0.960065 1.000000
0.658129 0.960065 1.000000
0.662458 0.959894 1.000000
0.670925 0.959556 1.000000
0.710225 0.957099 1.000000
0.791865 0.953249 1.000000
0.904978 0.945359 1.000000
1.000000 0.938035 1.000000
1.000000 0.941333 1.000000
0.699290 0.999614 1.000000
0.702373 0.999488 1.000000
0.702373 0.999488 1.000000
0.711029 0.998753 1.000000
0.737325 0.997627 1.000000
0.791254 0.995133 1.000000
0.887793 0.990047 1.000000
0.985192 0.983846 1.000000
1.000000 0.982061 1.000000
0.781188 1.000000 1.000000
0.782917 1.000000 1.000000
0.784639 1.000000 1.000000
0.788058 1.000000 1.000000
0.801363 1.000000 1.000000
0.833917 1.000000 1.000000
0.898483 1.000000 1.000000
0.976742 1.000000 1.000000
1.000000 1.000000 1.000000
