Assets/Lutify-Free-LUTs-Pack/Lutify Free LUTs Pack/Cine World Pro Warm - Amy/Lutify.me-Amy-NLog-to-Rec709.cube
# Created with: fylm.ai - Colour Grading and Collaboration Software in Cloud 
# Website: https://fylm.ai 
# META
# Option: Gamut compress
# Block 1: IDT | Nikon BT2020 N-Log
# Block 2: colourMatch | Blending Mode: Normal | {"ColorSpace":0,"CrossCovarianceLimit":50,"ReshapingIterations":1,"PercentSaturationShift":100,"PercentShadingShift":100,"ExtraShading":true,"PercentTint":100,"PercentModified":100}
# Block 3: LUT | Filmic Curve Response: Standard Contrast 1 (100%)
# Block 4: LUT | Illuminant: D60 (100%)
# Block 5: hueSaturation | Blending Mode: Normal | {"hue":0,"saturation":-0.15}
# Block 6: logPrimaries | Blending Mode: Normal | {"wheels":{"shadows":{"Y":"0","R":"1","G":"1","B":"1"},"midtones":{"Y":"0","R":"1","G":"1","B":"1"},"highlights":{"Y":"0","R":"1","G":"1","B":"1"},"offset":{"Y":"0","R":"1","G":"1","B":"1"}},"sliders":{"shadows":{"Y":0,"R":-0.097,"G":0,"B":0.158},"midtones":{"Y":0,"R":0.024,"G":0.024,"B":-0.036},"highlights":{"Y":0,"R":0.154,"G":-0.084,"B":-0.024},"offset":{"Y":0.048,"R":0,"G":0,"B":0}}}
# Block 7: smartCurves | Blending Mode: Average | [[{"x":0,"y":0},{"x":0.11328125,"y":0.085540771484375},{"x":0.21484375,"y":0.218353271484375},{"x":0.37109375,"y":0.382415771484375},{"x":0.62109375,"y":0.589447021484375},{"x":0.8125,"y":0.765228271484375},{"x":1,"y":1}],[{"x":0,"y":0},{"x":1,"y":1}],[{"x":0,"y":0},{"x":1,"y":1}],[{"x":0,"y":0},{"x":1,"y":1}]]
# Block 8: LUT | Neutral Tint: Teal Tint 4 (100%)
# Block 9: contrast | Blending Mode: Normal | {"contrast":0.1}
# Block 10: ODT | Rec709
TITLE "Lutify.me-Amy-NLog-to-Rec709" 
LUT_3D_SIZE 33
0.000000 0.000000 0.000000
0.000000 0.000000 0.000000
0.000000 0.000000 0.000000
0.000000 0.000000 0.000000
0.000000 0.000000 0.000000
0.000000 0.000000 0.000000
0.099698 0.000000 0.000000
0.162106 0.000000 0.000000
0.239009 0.000000 0.000000
0.304305 0.000000 0.000000
0.367975 0.000000 0.000000
0.425619 0.000000 0.000000
0.493867 0.000000 0.000000
0.562770 0.000000 0.000000
0.619479 0.000000 0.000000
0.682036 0.000000 0.000000
0.758581 0.000000 0.000000
0.848039 0.000000 0.025606
0.909741 0.000000 0.040362
0.968028 0.000000 0.062553
1.000000 0.000000 0.090187
1.000000 0.000000 0.119313
1.000000 0.000000 0.152277
1.000000 0.216080 0.190806
1.000000 0.327988 0.230052
1.000000 0.414014 0.278440
1.000000 0.487647 0.334252
1.000000 0.558268 0.396322
1.000000 0.627563 0.449591
1.000000 0.699780 0.511668
1.000000 0.756550 0.570273
1.000000 0.795950 0.635999
1.000000 0.831754 0.696165
0.000000 0.000000 0.000000
0.000000 0.000000 0.000000
0.000000 0.000000 0.000000
0.000000 0.000000 0.000000
0.000000 0.000000 0.000000
0.000000 0.000000 0.000000
0.099698 0.000000 0.000000
0.162106 0.000000 0.000000
0.239009 0.000000 0.000000
0.304305 0.000000 0.000000
0.367975 0.000000 0.000000
0.425619 0.000000 0.000000
0.493867 0.000000 0.000000
0.562770 0.000000 0.000000
0.619483 0.000000 0.000000
0.682036 0.000000 0.000000
0.758581 0.000000 0.000000
0.848039 0.000000 0.025606
0.909741 0.000000 0.040362
0.968028 0.000000 0.062553
1.000000 0.000000 0.090187
1.000000 0.000000 0.119313
1.000000 0.000000 0.151985
1.000000 0.216080 0.190806
1.000000 0.327988 0.230052
1.000000 0.414014 0.278440
1.000000 0.487647 0.334252
1.000000 0.558268 0.396322
1.000000 0.627563 0.449591
1.000000 0.699780 0.511668
1.000000 0.756550 0.570273
1.000000 0.795950 0.635999
1.000000 0.831754 0.696165
0.000000 0.000000 0.000000
0.000000 0.000000 0.000000
0.000000 0.000000 0.000000
0.000000 0.000000 0.000000
0.000000 0.000000 0.000000
0.000000 0.000000 0.000000
0.099931 0.000000 0.000000
0.161070 0.000000 0.000000
0.239003 0.000000 0.000000
0.304305 0.000000 0.000000
0.367978 0.000000 0.000000
0.425619 0.000000 0.000000
0.493875 0.000000 0.000000
0.562775 0.000000 0.000000
0.619500 0.000000 0.000000
0.682037 0.000000 0.000000
0.758578 0.000000 0.000000
0.848028 0.000000 0.025234
0.909689 0.000000 0.039638
0.967975 0.000000 0.062229
1.000000 0.000000 0.090187
1.000000 0.000000 0.119042
1.000000 0.000000 0.151985
1.000000 0.216080 0.190806
1.000000 0.327988 0.230052
1.000000 0.414014 0.278440
1.000000 0.487647 0.334252
1.000000 0.558268 0.396322
1.000000 0.627563 0.449591
1.000000 0.699780 0.511668
1.000000 0.756550 0.570273
1.000000 0.795950 0.635999
1.000000 0.831754 0.696165
0.000000 0.000000 0.000000
0.000000 0.000000 0.000000
0.000000 0.000000 0.000000
0.000000 0.000000 0.000000
0.000000 0.000000 0.000000
0.000000 0.000000 0.000000
0.098028 0.000000 0.000000
0.159001 0.000000 0.000000
0.235560 0.000000 0.000000
0.300153 0.000000 0.000000
0.365359 0.000000 0.000000
0.422511 0.000000 0.000000
0.493889 0.000000 0.000000
0.562801 0.000000 0.000000
0.619518 0.000000 0.000000
0.682045 0.000000 0.000000
0.758573 0.000000 0.000000
0.848007 0.000000 0.024444
0.909634 0.000000 0.038861
0.967922 0.000000 0.061901
1.000000 0.000000 0.090488
1.000000 0.000000 0.118765
1.000000 0.000000 0.151985
1.000000 0.221446 0.190490
1.000000 0.331930 0.231484
1.000000 0.417526 0.278166
1.000000 0.490917 0.336368
1.000000 0.558268 0.396322
1.000000 0.630458 0.449427
1.000000 0.699780 0.511668
1.000000 0.756550 0.570273
1.000000 0.795950 0.635999
1.000000 0.831754 0.696165
0.000000 0.000000 0.000000
0.000000 0.000000 0.000000
0.000000 0.000000 0.000000
0.000000 0.000000 0.000000
0.000000 0.000000 0.000000
0.000000 0.000000 0.000000
0.096945 0.000000 0.000000
0.154905 0.000000 0.000000
0.228842 0.000000 0.000000
0.296083 0.000000 0.000000
0.362758 0.000000 0.000000
0.416364 0.000000 0.000000
0.493934 0.000000 0.000000
0.562843 0.000000 0.000000
0.619548 0.000000 0.000000
0.686268 0.000000 0.000000
0.758561 0.000000 0.000000
0.847931 0.000000 0.023128
0.909521 0.000000 0.038561
0.967758 0.000000 0.062019
1.000000 0.000000 0.091051
1.000000 0.000000 0.119715
1.000000 0.000000 0.151686
1.000000 0.226718 0.190168
1.000000 0.331930 0.231484
1.000000 0.417526 0.278166
1.000000 0.490917 0.336368
1.000000 0.561378 0.396131
1.000000 0.630458 0.449427
1.000000 0.699780 0.511668
1.000000 0.756550 0.570273
1.000000 0.795950 0.635999
1.000000 0.831754 0.696165
0.000000 0.000000 0.000000
0.000000 0.000000 0.000000
0.000000 0.000000 0.000000
0.000000 0.000000 0.000000
0.000000 0.000000 0.000000
0.000000 0.000000 0.016215
0.087613 0.000000 0.000000
0.145788 0.000000 0.000000
0.222386 0.000000 0.000000
0.290064 0.000000 0.000000
0.355052 0.000000 0.000000
0.410353 0.000000 0.000000
0.490364 0.000000 0.000000
0.558962 0.000000 0.000000
0.623708 0.000000 0.000000
0.686283 0.000000 0.000000
0.758538 0.000000 0.000000
0.843695 0.000000 0.023140
0.909373 0.000000 0.040490
0.967526 0.000000 0.062909
1.000000 0.000000 0.091282
1.000000 0.000000 0.120091
1.000000 0.000000 0.151940
1.000000 0.231893 0.189840
1.000000 0.335856 0.232930
1.000000 0.421033 0.279917
1.000000 0.494201 0.336140
1.000000 0.561367 0.398683
1.000000 0.631759 0.450425
1.000000 0.702212 0.511564
1.000000 0.756550 0.570273
1.000000 0.795950 0.635999
1.000000 0.831754 0.696165
0.000000 0.053769 0.000000
0.000000 0.053769 0.000000
0.000000 0.053320 0.000000
0.000000 0.053355 0.000000
0.000000 0.053452 0.000000
0.000000 0.049819 0.000000
0.066238 0.044300 0.000000
0.141800 0.019874 0.000000
0.215304 0.000000 0.000000
0.287794 0.000000 0.000000
0.355116 0.000000 0.000000
0.413512 0.000000 0.000000
0.490529 0.000000 0.000000
0.559096 0.000000 0.000000
0.627899 0.000000 0.000000
0.686313 0.000000 0.000000
0.754223 0.000000 0.000000
0.843538 0.000000 0.022189
0.905402 0.000000 0.041261
0.967081 0.000000 0.064969
1.000000 0.000000 0.091749
1.000000 0.000000 0.120118
1.000000 0.086045 0.153411
1.000000 0.239369 0.189623
1.000000 0.344919 0.232945
1.000000 0.428078 0.279358
1.000000 0.497480 0.338278
1.000000 0.564484 0.398491
1.000000 0.634630 0.450263
1.000000 0.704636 0.511461
1.000000 0.758543 0.570229
1.000000 0.795937 0.638596
1.000000 0.833117 0.696176
0.000000 0.093989 0.000000
0.000000 0.093989 0.000000
0.000000 0.093989 0.000000
0.000000 0.093989 0.000000
0.000000 0.091712 0.000000
0.000000 0.088051 0.000000
0.043003 0.081915 0.000000
0.133363 0.073047 0.000000
0.220713 0.052705 0.000000
0.295930 0.000000 0.000000
0.358092 0.000000 0.000000
0.423285 0.000000 0.000000
0.498265 0.000000 0.000000
0.567309 0.000000 0.000000
0.623951 0.000000 0.000000
0.682177 0.000000 0.000000
0.758400 0.000000 0.000000
0.839114 0.000000 0.020909
0.905003 0.000000 0.039971
0.963703 0.000000 0.064692
1.000000 0.000000 0.092061
1.000000 0.000000 0.121431
1.000000 0.121965 0.155204
1.000000 0.254157 0.190150
1.000000 0.352650 0.234084
1.000000 0.435114 0.280841
1.000000 0.500763 0.340436
1.000000 0.564484 0.398491
1.000000 0.637486 0.452670
1.000000 0.707041 0.513974
1.000000 0.758543 0.570229
1.000000 0.797562 0.638590
1.000000 0.833117 0.696176
0.000000 0.146554 0.000000
0.000000 0.146554 0.000000
0.000000 0.145342 0.000000
0.000000 0.144140 0.000000
0.000000 0.141765 0.000000
0.000000 0.139430 0.000000
0.000000 0.131101 0.000000
0.112939 0.125822 0.000000
0.223084 0.112782 0.000000
0.303155 0.099753 0.000000
0.367657 0.072992 0.000000
0.422068 0.034655 0.000000
0.496289 0.000000 0.000000
0.568519 0.000000 0.000000
0.628650 0.000000 0.000000
0.686541 0.000000 0.000000
0.758234 0.000000 0.000000
0.842884 0.000000 0.000000
0.904380 0.000000 0.038721
0.965665 0.000000 0.064119
1.000000 0.000000 0.090395
1.000000 0.000000 0.123247
1.000000 0.162234 0.155799
1.000000 0.273017 0.191893
1.000000 0.367996 0.234573
1.000000 0.443297 0.285161
1.000000 0.507352 0.342388
1.000000 0.570735 0.398106
1.000000 0.640337 0.455091
1.000000 0.709451 0.513875
1.000000 0.760526 0.570187
1.000000 0.797562 0.638590
1.000000 0.834464 0.698537
0.000000 0.197759 0.000000
0.000000 0.197759 0.000000
0.000000 0.197759 0.000000
0.000000 0.194528 0.000000
0.000000 0.189766 0.000000
0.000000 0.185118 0.000000
0.000000 0.183303 0.000000
0.009593 0.177210 0.000000
0.205172 0.165922 0.000000
0.297043 0.154915 0.000000
0.372595 0.139494 0.000000
0.431441 0.133287 0.000000
0.506353 0.108860 0.000000
0.574602 0.084807 0.000000
0.634002 0.000000 0.000000
0.695336 0.000000 0.000000
0.766515 0.000000 0.000000
0.846334 0.000000 0.000000
0.907010 0.000000 0.028584
0.964570 0.000000 0.061459
1.000000 0.000000 0.090877
1.000000 0.042289 0.122339
1.000000 0.195171 0.158278
1.000000 0.301990 0.197257
1.000000 0.383202 0.236875
1.000000 0.450309 0.286694
1.000000 0.515130 0.345199
1.000000 0.578206 0.401187
1.000000 0.643194 0.454932
1.000000 0.711841 0.516402
1.000000 0.762486 0.572771
1.000000 0.799184 0.638587
1.000000 0.835820 0.698550
0.000000 0.239114 0.000000
0.000000 0.239115 0.000000
0.000000 0.237316 0.000000
0.000000 0.235530 0.000000
0.000000 0.235516 0.000000
0.000000 0.233700 0.000000
0.000000 0.233366 0.000000
0.000000 0.233994 0.000000
0.151862 0.225797 0.000000
0.271887 0.213673 0.000000
0.371683 0.203121 0.000000
0.437681 0.193983 0.000000
0.517774 0.181305 0.000000
0.581508 0.172127 0.000000
0.644051 0.156852 0.000000
0.704565 0.136933 0.000000
0.774831 0.112307 0.000000
0.852985 0.054795 0.000000
0.912223 0.000000 0.000000
0.962691 0.000000 0.058482
1.000000 0.070615 0.095257
1.000000 0.156167 0.125743
1.000000 0.234778 0.159859
1.000000 0.323458 0.200356
1.000000 0.403083 0.239508
1.000000 0.460837 0.287952
1.000000 0.525033 0.346960
1.000000 0.587609 0.403177
1.000000 0.651726 0.457056
1.000000 0.717607 0.519892
1.000000 0.764448 0.572734
1.000000 0.802418 0.638585
1.000000 0.835820 0.698550
0.000000 0.284560 0.000000
0.000000 0.284562 0.000000
0.000000 0.284560 0.000000
0.000000 0.280265 0.000000
0.000000 0.280259 0.000000
0.000000 0.284504 0.000000
0.000000 0.280028 0.000000
0.000000 0.283691 0.000000
0.000000 0.276862 0.000000
0.218208 0.271732 0.000000
0.344490 0.262237 0.000000
0.432723 0.247097 0.000000
0.521011 0.241400 0.000000
0.588695 0.234809 0.000000
0.650398 0.224604 0.000000
0.710196 0.226089 0.000000
0.783206 0.216553 0.000000
0.859211 0.199594 0.000000
0.916283 0.188030 0.000000
0.965133 0.175373 0.044954
1.000000 0.180335 0.095004
1.000000 0.219362 0.127965
1.000000 0.289872 0.161386
1.000000 0.361579 0.200597
1.000000 0.421821 0.243445
1.000000 0.479432 0.291533
1.000000 0.534984 0.351240
1.000000 0.593902 0.405382
1.000000 0.657381 0.459357
1.000000 0.722317 0.519715
1.000000 0.768000 0.577468
1.000000 0.804030 0.638588
1.000000 0.837159 0.700908
0.000000 0.339424 0.000000
0.000000 0.339425 0.000000
0.000000 0.339426 0.000000
0.000000 0.336816 0.000000
0.000000 0.336801 0.000000
0.000000 0.339375 0.000000
0.000000 0.341897 0.000000
0.000000 0.341536 0.000000
0.000000 0.340061 0.000000
0.124190 0.336845 0.000000
0.278423 0.331630 0.000000
0.399020 0.317562 0.000000
0.510860 0.303521 0.000000
0.586152 0.302958 0.000000
0.648836 0.300273 0.000000
0.707667 0.297558 0.000000
0.783237 0.294812 0.000000
0.860753 0.287367 0.000000
0.918850 0.284343 0.000000
0.965053 0.285570 0.000000
1.000000 0.285726 0.088220
1.000000 0.300267 0.125643
1.000000 0.334709 0.162672
1.000000 0.393744 0.202335
1.000000 0.439605 0.246861
1.000000 0.492474 0.296233
1.000000 0.548323 0.352827
1.000000 0.603386 0.407404
1.000000 0.666898 0.465141
1.000000 0.726978 0.522186
1.000000 0.771794 0.580035
1.000000 0.807227 0.641200
1.000000 0.838493 0.703262
0.000000 0.390292 0.000000
0.000000 0.390292 0.000000
0.000000 0.387258 0.000000
0.000000 0.390289 0.000000
0.000000 0.390280 0.000000
0.000000 0.390251 0.000000
0.000000 0.393228 0.000000
0.000000 0.393005 0.000000
0.000000 0.395127 0.000000
0.000000 0.393084 0.000000
0.214774 0.389188 0.000000
0.358477 0.377137 0.000000
0.481274 0.368495 0.000000
0.581536 0.358734 0.000000
0.643053 0.362204 0.000000
0.707499 0.357906 0.000000
0.778756 0.355860 0.000000
0.854655 0.352841 0.000000
0.917800 0.352281 0.000000
0.959947 0.351765 0.000000
1.000000 0.361658 0.073958
1.000000 0.371202 0.127378
1.000000 0.390587 0.164592
1.000000 0.420850 0.205899
1.000000 0.464950 0.247562
1.000000 0.517195 0.300927
1.000000 0.565087 0.354187
1.000000 0.616106 0.409237
1.000000 0.677961 0.469863
1.000000 0.731611 0.522026
1.000000 0.773668 0.582643
1.000000 0.810407 0.643827
1.000000 0.841172 0.703296
0.000000 0.441800 0.000000
0.000000 0.441800 0.000000
0.000000 0.441799 0.000000
0.000000 0.445191 0.000000
0.000000 0.445181 0.000000
0.000000 0.445157 0.000000
0.000000 0.448508 0.000000
0.000000 0.455202 0.000000
0.000000 0.451230 0.000000
0.000000 0.449935 0.000000
0.000000 0.450733 0.000000
0.290054 0.439901 0.000000
0.434346 0.433238 0.000000
0.551095 0.421286 0.000000
0.636959 0.413326 0.000000
0.700201 0.414083 0.000000
0.781267 0.412560 0.000000
0.848558 0.408687 0.000000
0.907677 0.406194 0.000000
0.956977 0.410066 0.000000
0.996577 0.416473 0.070728
1.000000 0.434070 0.122828
1.000000 0.443968 0.171778
1.000000 0.467886 0.209563
1.000000 0.497183 0.251077
1.000000 0.534093 0.303312
1.000000 0.580997 0.359937
1.000000 0.630926 0.415518
1.000000 0.688895 0.471989
1.000000 0.740726 0.527048
1.000000 0.779241 0.585228
1.000000 0.811064 0.647505
1.000000 0.843085 0.704282
0.000000 0.500743 0.000000
0.000000 0.500743 0.000000
0.000000 0.500742 0.000000
0.000000 0.497200 0.000000
0.000000 0.497187 0.000000
0.000000 0.497164 0.000000
0.000000 0.497106 0.000000
0.000000 0.504048 0.000000
0.000000 0.507144 0.000000
0.000000 0.506084 0.000000
0.000000 0.500501 0.000000
0.199031 0.497455 0.000000
0.394950 0.488085 0.000000
0.516064 0.481423 0.000000
0.609805 0.474496 0.000000
0.698095 0.462896 0.000000
0.774037 0.462965 0.000000
0.848697 0.463278 0.000000
0.899925 0.462586 0.000000
0.950156 0.471121 0.000000
0.991379 0.473819 0.069924
1.000000 0.491060 0.125435
1.000000 0.500195 0.172250
1.000000 0.519237 0.216169
1.000000 0.535860 0.256956
1.000000 0.558306 0.305125
1.000000 0.600533 0.362935
1.000000 0.649743 0.419703
1.000000 0.703220 0.475014
1.000000 0.750447 0.530506
1.000000 0.782896 0.587859
1.000000 0.815774 0.650161
1.000000 0.845714 0.704329
0.000000 0.558274 0.084292
0.000000 0.558272 0.084297
0.000000 0.558269 0.084313
0.000000 0.558264 0.075211
0.000000 0.554601 0.073611
0.000000 0.554576 0.040286
0.000000 0.558158 0.000000
0.000000 0.561666 0.000000
0.000000 0.564969 0.000000
0.000000 0.567755 0.000000
0.000000 0.566065 0.000000
0.000000 0.559824 0.000000
0.318494 0.555646 0.000000
0.455337 0.550619 0.000000
0.571727 0.540486 0.000000
0.667916 0.533586 0.000000
0.764804 0.529245 0.000000
0.843123 0.522327 0.000000
0.899167 0.525813 0.000000
0.942876 0.527352 0.000000
0.984536 0.534263 0.047268
1.000000 0.547255 0.120503
1.000000 0.559505 0.171718
1.000000 0.572975 0.219236
1.000000 0.588511 0.265532
1.000000 0.601992 0.311845
1.000000 0.627964 0.369013
1.000000 0.672632 0.419184
1.000000 0.716287 0.479835
1.000000 0.754795 0.535756
1.000000 0.791471 0.592592
1.000000 0.821989 0.652863
1.000000 0.848310 0.706693
0.000000 0.624516 0.137557
0.000000 0.624516 0.137557
0.000000 0.624514 0.134148
0.000000 0.624506 0.130690
0.000000 0.624486 0.127192
0.000000 0.620741 0.114234
0.000000 0.616957 0.095811
0.000000 0.620483 0.065770
0.000000 0.623900 0.000000
0.000000 0.626952 0.000000
0.000000 0.629216 0.000000
0.000000 0.626941 0.000000
0.241928 0.615788 0.000000
0.403971 0.615453 0.000000
0.532425 0.610101 0.000000
0.635211 0.596665 0.000000
0.736673 0.589410 0.000000
0.833003 0.585611 0.000000
0.887293 0.589427 0.000000
0.935705 0.590826 0.000000
0.971643 0.597858 0.000000
1.000000 0.606532 0.119657
1.000000 0.618052 0.171307
1.000000 0.630450 0.222815
1.000000 0.640807 0.275067
1.000000 0.655864 0.329029
1.000000 0.672023 0.377776
1.000000 0.696476 0.428882
1.000000 0.731530 0.487430
1.000000 0.765470 0.538246
1.000000 0.800324 0.595270
1.000000 0.826590 0.655560
1.000000 0.852167 0.709088
0.000000 0.683953 0.193097
0.000000 0.683953 0.193097
0.000000 0.683947 0.193106
0.000000 0.683934 0.193124
0.000000 0.687634 0.185585
0.000000 0.687594 0.175631
0.000000 0.683766 0.159823
0.000000 0.687307 0.144139
0.000000 0.687027 0.115861
0.000000 0.682735 0.099615
0.000000 0.685192 0.056152
0.000000 0.683280 0.000000
0.000000 0.680112 0.000000
0.336156 0.676529 0.000000
0.481085 0.672116 0.000000
0.592480 0.663386 0.000000
0.702625 0.656956 0.000000
0.805238 0.649799 0.000000
0.876982 0.640842 0.000000
0.923187 0.646061 0.000000
0.963835 0.648851 0.000000
0.996283 0.657011 0.119576
1.000000 0.663368 0.181742
1.000000 0.675049 0.232944
1.000000 0.686793 0.281310
1.000000 0.699414 0.337721
1.000000 0.712842 0.393136
1.000000 0.724285 0.437945
1.000000 0.746882 0.496195
1.000000 0.778962 0.550966
1.000000 0.807285 0.600662
1.000000 0.833164 0.661917
1.000000 0.858455 0.713853
0.000000 0.738332 0.253679
0.000000 0.738332 0.253679
0.000000 0.738326 0.253684
0.000000 0.738308 0.250324
0.000000 0.738276 0.246977
0.000000 0.738221 0.240266
0.000000 0.741557 0.229498
0.000000 0.741339 0.219424
0.000000 0.744475 0.211982
0.000000 0.737068 0.200073
0.000000 0.736101 0.179267
0.000000 0.734331 0.149530
0.000000 0.734900 0.113161
0.230978 0.735293 0.082173
0.416879 0.731572 0.045837
0.552689 0.719942 0.000000
0.670751 0.714152 0.000000
0.776322 0.707702 0.000000
0.850361 0.702716 0.000000
0.909370 0.695505 0.000000
0.950494 0.700863 0.000000
0.986849 0.704156 0.129311
1.000000 0.712412 0.189491
1.000000 0.718170 0.241978
1.000000 0.728596 0.292314
1.000000 0.736086 0.347942
1.000000 0.747195 0.401188
1.000000 0.758841 0.452043
1.000000 0.773830 0.503164
1.000000 0.794477 0.553711
1.000000 0.819739 0.604580
1.000000 0.840536 0.664715
1.000000 0.863791 0.719461
0.000000 0.789933 0.313346
0.000000 0.789924 0.313352
0.000000 0.789930 0.309715
0.000000 0.789903 0.309734
0.000000 0.789859 0.306139
0.000000 0.789805 0.298969
0.000000 0.792642 0.295163
0.000000 0.792452 0.284528
0.000000 0.792116 0.274007
0.000000 0.791621 0.263571
0.000000 0.790831 0.253246
0.000000 0.789308 0.232360
0.000000 0.786726 0.211427
0.000000 0.783923 0.186077
0.352117 0.780507 0.175658
0.504821 0.776315 0.156993
0.627859 0.771333 0.127738
0.742966 0.762267 0.102187
0.818464 0.760639 0.064110
0.883188 0.756494 0.055785
0.935056 0.753561 0.056077
0.974697 0.752390 0.146987
1.000000 0.758722 0.211758
1.000000 0.762828 0.258855
1.000000 0.770595 0.307423
1.000000 0.776378 0.362494
1.000000 0.784802 0.416246
1.000000 0.793962 0.468212
1.000000 0.806506 0.513936
1.000000 0.815902 0.563147
1.000000 0.831223 0.612968
1.000000 0.852336 0.671291
1.000000 0.872038 0.724315
0.000000 0.833319 0.374014
0.000000 0.833319 0.374014
0.000000 0.833305 0.374021
0.000000 0.833290 0.374029
0.000000 0.833237 0.370343
0.000000 0.833179 0.366660
0.000000 0.833040 0.363011
0.000000 0.835252 0.351923
0.000000 0.834893 0.340911
0.000000 0.836716 0.329914
0.000000 0.836054 0.326422
0.000000 0.837221 0.311839
0.000000 0.834930 0.294005
0.000000 0.832310 0.272766
0.264493 0.826912 0.251822
0.453423 0.825434 0.245753
0.591248 0.818382 0.229347
0.703110 0.810832 0.213711
0.790067 0.806018 0.195252
0.859899 0.801715 0.186551
0.918683 0.798059 0.181147
0.958800 0.798464 0.173983
0.992373 0.800137 0.232282
1.000000 0.802920 0.281221
1.000000 0.806348 0.329309
1.000000 0.812678 0.384130
1.000000 0.823415 0.435809
1.000000 0.826769 0.485115
1.000000 0.834988 0.533305
1.000000 0.841595 0.574623
1.000000 0.851009 0.623871
1.000000 0.864388 0.679608
1.000000 0.879121 0.727783
0.000000 0.873195 0.430520
0.000000 0.873195 0.430520
0.000000 0.873173 0.430527
0.000000 0.873160 0.426822
0.000000 0.873115 0.426837
0.000000 0.873029 0.423158
0.000000 0.874877 0.419630
0.000000 0.874667 0.419697
0.000000 0.874247 0.416120
0.000000 0.875663 0.409020
0.000000 0.874804 0.398160
0.000000 0.875761 0.387507
0.000000 0.874100 0.376868
0.000000 0.873747 0.351906
0.125415 0.870932 0.334277
0.399584 0.867497 0.324273
0.545085 0.863438 0.310952
0.671224 0.856421 0.301966
0.762443 0.851892 0.286898
0.832202 0.847942 0.276962
0.897505 0.839838 0.273033
0.942112 0.837206 0.264618
0.980148 0.837612 0.257957
1.000000 0.839292 0.310421
1.000000 0.841770 0.356398
1.000000 0.844548 0.405350
1.000000 0.851517 0.457036
1.000000 0.853864 0.497576
1.000000 0.860188 0.548184
1.000000 0.866961 0.590986
1.000000 0.873325 0.642429
1.000000 0.880096 0.690141
1.000000 0.889847 0.732978
0.000000 0.902751 0.492475
0.000000 0.902751 0.492475
0.000000 0.902719 0.492482
0.000000 0.902687 0.492490
0.000000 0.902621 0.492504
0.000000 0.902552 0.492520
0.000000 0.902303 0.488874
0.000000 0.902018 0.485236
0.000000 0.901592 0.481634
0.000000 0.900851 0.470728
0.000000 0.901851 0.463739
0.000000 0.900732 0.452944
0.000000 0.901186 0.446114
0.000000 0.899353 0.428257
0.000000 0.898483 0.418199
0.342001 0.895427 0.404459
0.513681 0.893058 0.387972
0.646270 0.886633 0.382135
0.742686 0.878819 0.369526
0.810507 0.876938 0.351897
0.871466 0.873371 0.346248
0.926704 0.869998 0.340569
0.965165 0.867846 0.337199
0.993571 0.865083 0.338178
1.000000 0.868263 0.383060
1.000000 0.870181 0.431592
1.000000 0.872483 0.478145
1.000000 0.876857 0.521805
1.000000 0.881723 0.567233
1.000000 0.886646 0.608425
1.000000 0.890596 0.654253
1.000000 0.894788 0.706651
1.000000 0.900934 0.743993
0.000000 0.927843 0.559450
0.000000 0.927843 0.559450
0.000000 0.927795 0.559456
0.000000 0.927795 0.559456
0.000000 0.927659 0.555812
0.000000 0.927568 0.552163
0.000000 0.927418 0.548525
0.000000 0.927015 0.544923
0.000000 0.926497 0.537685
0.000000 0.927321 0.534419
0.000000 0.926385 0.527261
0.000000 0.925404 0.520126
0.000000 0.924159 0.513045
0.000000 0.922869 0.505996
0.000000 0.920781 0.499098
0.307355 0.918008 0.481637
0.494417 0.915464 0.468601
0.623736 0.912544 0.452570
0.713504 0.906044 0.442654
0.792774 0.902082 0.434736
0.851861 0.900160 0.424839
0.908411 0.895425 0.413227
0.950960 0.894199 0.412095
0.980463 0.891238 0.407743
1.000000 0.890448 0.409355
1.000000 0.892960 0.455106
1.000000 0.893174 0.499453
1.000000 0.896473 0.541941
1.000000 0.900260 0.583285
1.000000 0.903249 0.630185
1.000000 0.906372 0.674317
1.000000 0.910740 0.717132
1.000000 0.916433 0.754285
0.000000 0.948671 0.630509
0.000000 0.948671 0.630509
0.000000 0.948671 0.630509
0.000000 0.948599 0.630514
0.000000 0.948540 0.626915
