Assets/Lutify-Free-LUTs-Pack/Lutify Free LUTs Pack/Cine World Pro Warm - Amy/Lutify.me-Amy-NLog-to-Rec709.cube
# Created with: fylm.ai - Colour Grading and Collaboration Software in Cloud 
# Website: https://fylm.ai 
# META
# Option: Gamut compress
# Block 1: IDT | Nikon BT2020 N-Log
# Block 2: colourMatch | Blending Mode: Normal | {"ColorSpace":0,"CrossCovarianceLimit":50,"ReshapingIterations":1,"PercentSaturationShift":100,"PercentShadingShift":100,"ExtraShading":true,"PercentTint":100,"PercentModified":100}
# Block 3: LUT | Filmic Curve Response: Standard Contrast 1 (100%)
# Block 4: LUT | Illuminant: D60 (100%)
# Block 5: hueSaturation | Blending Mode: Normal | {"hue":0,"saturation":-0.15}
# Block 6: logPrimaries | Blending Mode: Normal | {"wheels":{"shadows":{"Y":"0","R":"1","G":"1","B":"1"},"midtones":{"Y":"0","R":"1","G":"1","B":"1"},"highlights":{"Y":"0","R":"1","G":"1","B":"1"},"offset":{"Y":"0","R":"1","G":"1","B":"1"}},"sliders":{"shadows":{"Y":0,"R":-0.097,"G":0,"B":0.158},"midtones":{"Y":0,"R":0.024,"G":0.024,"B":-0.036},"highlights":{"Y":0,"R":0.154,"G":-0.084,"B":-0.024},"offset":{"Y":0.048,"R":0,"G":0,"B":0}}}
# Block 7: smartCurves | Blending Mode: Average | [[{"x":0,"y":0},{"x":0.11328125,"y":0.085540771484375},{"x":0.21484375,"y":0.218353271484375},{"x":0.37109375,"y":0.382415771484375},{"x":0.62109375,"y":0.589447021484375},{"x":0.8125,"y":0.765228271484375},{"x":1,"y":1}],[{"x":0,"y":0},{"x":1,"y":1}],[{"x":0,"y":0},{"x":1,"y":1}],[{"x":0,"y":0},{"x":1,"y":1}]]
# Block 8: LUT | Neutral Tint: Teal Tint 4 (100%)
# Block 9: contrast | Blending Mode: Normal | {"contrast":0.1}
# Block 10: ODT | Rec709
TITLE "Lutify.me-Amy-NLog-to-Rec709" 
LUT_3D_SIZE 9
0.000000 0.000000 0.000000
0.000000 0.000000 0.000000
0.239009 0.000000 0.000000
0.493867 0.000000 0.000000
0.758581 0.000000 0.000000
1.000000 0.000000 0.090187
1.000000 0.327988 0.230052
1.000000 0.627563 0.449591
1.000000 0.831754 0.696165
0.000000 0.000000 0.000000
0.000000 0.000000 0.000000
0.228842 0.000000 0.000000
0.493934 0.000000 0.000000
0.758561 0.000000 0.000000
1.000000 0.000000 0.091051
1.000000 0.331930 0.231484
1.000000 0.630458 0.449427
1.000000 0.831754 0.696165
0.000000 0.146554 0.000000
0.000000 0.141765 0.000000
0.223084 0.112782 0.000000
0.496289 0.000000 0.000000
0.758234 0.000000 0.000000
1.000000 0.000000 0.090395
1.000000 0.367996 0.234573
1.000000 0.640337 0.455091
1.000000 0.834464 0.698537
0.000000 0.339424 0.000000
0.000000 0.336801 0.000000
0.000000 0.340061 0.000000
0.510860 0.303521 0.000000
0.783237 0.294812 0.000000
1.000000 0.285726 0.088220
1.000000 0.439605 0.246861
1.000000 0.666898 0.465141
1.000000 0.838493 0.703262
0.000000 0.558274 0.084292
0.000000 0.554601 0.073611
0.000000 0.564969 0.000000
0.318494 0.555646 0.000000
0.764804 0.529245 0.000000
0.984536 0.534263 0.047268
1.000000 0.588511 0.265532
1.000000 0.716287 0.479835
1.000000 0.848310 0.706693
0.000000 0.789933 0.313346
0.000000 0.789859 0.306139
0.000000 0.792116 0.274007
0.000000 0.786726 0.211427
0.627859 0.771333 0.127738
0.935056 0.753561 0.056077
1.000000 0.770595 0.307423
1.000000 0.806506 0.513936
1.000000 0.872038 0.724315
0.000000 0.927843 0.559450
0.000000 0.927659 0.555812
0.000000 0.926497 0.537685
0.000000 0.924159 0.513045
0.494417 0.915464 0.468601
0.851861 0.900160 0.424839
1.000000 0.890448 0.409355
1.000000 0.900260 0.583285
1.000000 0.916433 0.754285
0.000000 0.987108 0.789130
0.000000 0.986973 0.789126
0.000000 0.986291 0.786854
0.286127 0.983552 0.775168
0.559769 0.979355 0.753512
0.798046 0.970626 0.723351
0.956229 0.961890 0.688365
1.000000 0.957989 0.688083
1.000000 0.963019 0.802652
0.666937 1.000000 0.915997
0.666937 1.000000 0.915997
0.677162 1.000000 0.915975
0.700435 1.000000 0.912843
0.740591 1.000000 0.906410
0.819018 0.999702 0.897492
0.924581 0.994051 0.878113
0.994153 0.990566 0.862860
1.000000 0.989457 0.858123
0.000000 0.000000 0.000000
0.000000 0.000000 0.000000
0.225636 0.000000 0.000000
0.468838 0.000000 0.000000
0.754366 0.000000 0.030664
1.000000 0.000000 0.098052
1.000000 0.327965 0.235295
1.000000 0.627551 0.452166
1.000000 0.831754 0.696165
0.000000 0.000000 0.000000
0.000000 0.000000 0.000000
0.213021 0.000000 0.000000
0.461964 0.000000 0.000000
0.754345 0.000000 0.032211
1.000000 0.000000 0.098188
1.000000 0.331914 0.234998
1.000000 0.630446 0.452002
1.000000 0.831754 0.696165
0.000000 0.145342 0.000000
0.000000 0.141766 0.000000
0.195001 0.124927 0.000000
0.485676 0.000000 0.000000
0.758226 0.000000 0.022366
1.000000 0.000000 0.101644
1.000000 0.367983 0.238215
1.000000 0.640326 0.457684
1.000000 0.834464 0.698537
0.000000 0.341973 0.000000
0.000000 0.341986 0.000000
0.000000 0.345803 0.000000
0.496853 0.316902 0.000000
0.774866 0.296424 0.000000
1.000000 0.290590 0.101064
1.000000 0.439595 0.250899
1.000000 0.665796 0.466810
1.000000 0.838493 0.703262
0.000000 0.561904 0.142630
0.000000 0.561882 0.127942
0.000000 0.568649 0.000000
0.314477 0.559384 0.000000
0.751377 0.530431 0.000000
0.981605 0.538313 0.087642
1.000000 0.588504 0.272893
1.000000 0.716277 0.482541
1.000000 0.848310 0.706693
0.000000 0.789926 0.327981
0.000000 0.789840 0.324365
0.000000 0.792091 0.291887
0.000000 0.789679 0.229149
0.627548 0.771315 0.163954
0.934926 0.753561 0.097099
1.000000 0.770591 0.313410
1.000000 0.806497 0.516774
1.000000 0.872027 0.726540
0.000000 0.927818 0.566784
0.000000 0.927634 0.563142
0.000000 0.926461 0.548647
0.000000 0.924137 0.520294
0.485943 0.915668 0.475650
0.851592 0.900137 0.435018
1.000000 0.890432 0.418198
1.000000 0.900251 0.586114
1.000000 0.916423 0.756304
0.000000 0.987096 0.791358
0.000000 0.986961 0.791354
0.000000 0.986279 0.789107
0.287520 0.984197 0.777804
0.559266 0.979330 0.758610
0.798046 0.970626 0.723351
0.956106 0.961878 0.691154
1.000000 0.957991 0.687634
1.000000 0.963019 0.802652
0.666937 1.000000 0.915997
0.666937 1.000000 0.915997
0.677162 1.000000 0.915975
0.700435 1.000000 0.912843
0.740505 1.000000 0.907487
0.818935 0.999696 0.898624
0.924502 0.994044 0.879345
0.994079 0.990559 0.864155
1.000000 0.989457 0.858123
0.000000 0.000000 0.092300
0.000000 0.000000 0.079652
0.177021 0.000000 0.067265
0.427431 0.000000 0.087490
0.729708 0.000000 0.101351
1.000000 0.000000 0.153435
1.000000 0.327970 0.265103
1.000000 0.633239 0.472861
1.000000 0.831716 0.703209
0.000000 0.000000 0.106175
0.000000 0.000000 0.094675
0.164412 0.000000 0.081500
0.424416 0.000000 0.092738
0.729619 0.000000 0.102892
1.000000 0.000000 0.154294
1.000000 0.333183 0.267423
1.000000 0.633239 0.472861
1.000000 0.831716 0.703209
0.000000 0.185296 0.255340
0.000000 0.179420 0.249622
0.085340 0.155457 0.201959
0.431280 0.101178 0.144984
0.732665 0.000000 0.119276
1.000000 0.000000 0.161262
1.000000 0.368360 0.273337
1.000000 0.641872 0.475077
1.000000 0.834439 0.703225
0.000000 0.382576 0.340493
0.000000 0.379533 0.332024
0.000000 0.379481 0.253085
0.410307 0.364133 0.181173
0.750054 0.330508 0.146297
1.000000 0.304722 0.182447
1.000000 0.440704 0.287709
1.000000 0.668528 0.482777
1.000000 0.838480 0.705596
0.000000 0.579912 0.366281
0.000000 0.576246 0.353198
0.000000 0.583235 0.296055
0.219604 0.582996 0.217336
0.715342 0.560238 0.158852
0.971925 0.550594 0.195317
1.000000 0.587943 0.316264
1.000000 0.717993 0.500831
1.000000 0.848274 0.713600
0.000000 0.792686 0.446264
0.000000 0.792628 0.438839
0.000000 0.794914 0.409221
0.000000 0.795836 0.340162
0.582771 0.781845 0.282493
0.927629 0.759770 0.237391
1.000000 0.775412 0.367333
1.000000 0.806098 0.533171
1.000000 0.872016 0.728759
0.000000 0.930332 0.626094
0.000000 0.928816 0.622211
0.000000 0.927686 0.603924
0.000000 0.925433 0.571538
0.481350 0.916865 0.529658
0.840966 0.901908 0.482924
1.000000 0.891726 0.460499
1.000000 0.900120 0.602596
1.000000 0.916404 0.760318
0.000000 0.987279 0.806567
0.000000 0.987014 0.806557
0.000000 0.986350 0.802260
0.284049 0.984126 0.791481
0.551683 0.979443 0.773339
0.793802 0.971372 0.742526
0.954218 0.961882 0.707460
1.000000 0.958603 0.702776
1.000000 0.962990 0.808974
0.663308 1.000000 0.918024
0.666767 1.000000 0.918017
0.673693 1.000000 0.916995
0.700181 1.000000 0.915926
0.740169 1.000000 0.911724
0.818835 0.999996 0.902089
0.924271 0.994024 0.882970
0.993427 0.990577 0.866620
1.000000 0.989440 0.861545
0.000000 0.045111 0.224837
0.000000 0.042639 0.213093
0.131826 0.000000 0.205698
0.428683 0.000000 0.202994
0.709548 0.000000 0.261808
0.996151 0.000000 0.291642
1.000000 0.330034 0.362618
1.000000 0.636346 0.509520
1.000000 0.830978 0.716326
0.000000 0.057048 0.240690
0.000000 0.054691 0.235260
0.123819 0.028041 0.227521
0.431809 0.000000 0.218485
0.709875 0.000000 0.270286
0.998338 0.000000 0.293963
1.000000 0.338059 0.362315
1.000000 0.639246 0.512228
1.000000 0.832353 0.716324
0.000000 0.200852 0.382255
0.000000 0.192664 0.376414
0.000000 0.176866 0.377039
0.440650 0.113134 0.355286
0.725310 0.000000 0.316642
0.997512 0.000000 0.312161
1.000000 0.373436 0.369199
1.000000 0.649104 0.515455
1.000000 0.833710 0.718651
0.000000 0.423672 0.528576
0.000000 0.420376 0.521421
0.000000 0.406694 0.514934
0.297012 0.407291 0.482349
0.698268 0.366818 0.407284
0.980682 0.336850 0.357646
1.000000 0.446249 0.386080
1.000000 0.674653 0.525772
1.000000 0.839123 0.723289
0.000000 0.608500 0.619489
0.000000 0.608501 0.615713
0.000000 0.611925 0.596693
0.000000 0.609832 0.518378
0.643597 0.591137 0.461336
0.943076 0.575635 0.410004
1.000000 0.597045 0.420517
1.000000 0.724793 0.539933
1.000000 0.847658 0.726461
0.000000 0.803573 0.669070
0.000000 0.803504 0.669081
0.000000 0.805839 0.646293
0.000000 0.809705 0.585587
0.527263 0.799628 0.518870
0.892249 0.780871 0.473563
1.000000 0.779768 0.471673
1.000000 0.807605 0.574060
1.000000 0.871571 0.741189
0.000000 0.933873 0.736578
0.000000 0.933796 0.733511
0.000000 0.933887 0.721096
0.000000 0.927976 0.687845
0.434579 0.919995 0.642441
0.819252 0.907854 0.592528
0.990512 0.896993 0.552202
1.000000 0.901079 0.646549
1.000000 0.916169 0.773510
0.000000 0.987726 0.842394
0.000000 0.987473 0.840533
0.000000 0.986938 0.838643
0.244444 0.984905 0.829106
0.541918 0.980095 0.811041
0.785366 0.971482 0.781573
0.947276 0.962702 0.746408
1.000000 0.959147 0.735098
1.000000 0.963476 0.818216
0.662510 1.000000 0.927652
0.662510 1.000000 0.927652
0.672894 1.000000 0.926703
0.696323 1.000000 0.923824
0.739684 1.000000 0.917859
0.816156 1.000000 0.909627
0.922540 0.994050 0.891174
0.992252 0.990891 0.875419
1.000000 0.989406 0.867882
0.000000 0.124971 0.400474
0.000000 0.122634 0.400534
0.000000 0.113186 0.407158
0.420796 0.000000 0.408578
0.720740 0.000000 0.401190
0.986792 0.000000 0.472783
1.000000 0.349795 0.506586
1.000000 0.639287 0.591538
1.000000 0.831544 0.743132
0.000000 0.137480 0.416646
0.000000 0.134950 0.416715
0.000000 0.123069 0.420238
0.419379 0.000000 0.418435
0.726346 0.000000 0.414206
0.986386 0.000000 0.476103
1.000000 0.353858 0.506475
1.000000 0.642235 0.591405
1.000000 0.831544 0.743132
0.000000 0.218557 0.497281
0.000000 0.218519 0.497290
0.000000 0.211939 0.504652
0.398375 0.165411 0.503725
0.735862 0.000000 0.488370
0.982043 0.044863 0.495793
1.000000 0.390559 0.515706
1.000000 0.651039 0.591011
1.000000 0.834303 0.743100
0.000000 0.443028 0.658391
0.000000 0.439593 0.658560
0.000000 0.435835 0.658761
0.238489 0.423826 0.647366
0.692696 0.391383 0.616664
0.963145 0.365188 0.558896
1.000000 0.465050 0.533735
1.000000 0.677877 0.602985
1.000000 0.838395 0.745313
0.000000 0.644994 0.767643
0.000000 0.641274 0.761649
0.000000 0.637223 0.761881
0.000000 0.635959 0.735493
0.573035 0.616140 0.707553
0.909885 0.596154 0.627203
1.000000 0.613159 0.579272
1.000000 0.727379 0.620582
1.000000 0.848281 0.752601
0.000000 0.827081 0.831745
0.000000 0.827013 0.831743
0.000000 0.826522 0.818081
0.000000 0.822407 0.793355
0.448246 0.813316 0.750225
0.851994 0.790028 0.688826
1.000000 0.788793 0.643834
1.000000 0.808287 0.656941
1.000000 0.871067 0.764121
0.000000 0.935967 0.863355
0.000000 0.935849 0.861565
0.000000 0.935917 0.854103
0.000000 0.934072 0.836255
0.375501 0.928810 0.803239
0.791627 0.913263 0.761022
0.976486 0.900605 0.712819
1.000000 0.904042 0.720293
1.000000 0.916813 0.797383
0.000000 0.988939 0.893701
0.000000 0.988820 0.892393
0.000000 0.988032 0.891027
0.213070 0.986023 0.882803
0.529461 0.980601 0.869262
0.768591 0.973123 0.840710
0.939611 0.964011 0.808870
1.000000 0.960283 0.787870
1.000000 0.963345 0.837636
0.658029 1.000000 0.940593
0.661517 1.000000 0.940585
0.668477 1.000000 0.939760
0.688711 1.000000 0.938071
0.736071 1.000000 0.933771
0.815281 1.000000 0.923723
0.921189 0.994615 0.909008
0.989738 0.990901 0.891182
1.000000 0.989651 0.880513
0.000000 0.264135 0.647038
0.000000 0.264030 0.647035
0.000000 0.262795 0.646970
0.329891 0.234311 0.649992
0.714057 0.113488 0.651470
0.977441 0.000000 0.636635
1.000000 0.364085 0.693576
1.000000 0.636095 0.722318
1.000000 0.832070 0.796675
0.000000 0.270739 0.654327
0.000000 0.270575 0.658087
0.000000 0.269449 0.654261
0.325765 0.243840 0.657263
0.713144 0.130555 0.655087
0.979588 0.000000 0.643907
1.000000 0.364007 0.697081
1.000000 0.639171 0.722183
1.000000 0.832070 0.796675
0.000000 0.316704 0.686485
0.000000 0.316572 0.690246
0.000000 0.315522 0.693957
0.288322 0.298318 0.693331
0.704507 0.224522 0.687610
0.983367 0.092931 0.672602
1.000000 0.399318 0.709899
1.000000 0.649288 0.728095
1.000000 0.834864 0.798522
0.000000 0.473102 0.786057
0.000000 0.469558 0.786228
0.000000 0.469013 0.786190
0.000000 0.455345 0.785968
0.643959 0.424663 0.778326
0.956605 0.378722 0.749381
1.000000 0.473051 0.727611
1.000000 0.678948 0.735649
1.000000 0.840418 0.798343
0.000000 0.678122 0.862684
0.000000 0.681819 0.862447
0.000000 0.670219 0.859019
0.000000 0.666012 0.858631
0.535977 0.646992 0.840514
0.904646 0.618399 0.816616
1.000000 0.631584 0.779050
1.000000 0.730241 0.753826
1.000000 0.850869 0.802698
0.000000 0.846078 0.907994
0.000000 0.848322 0.907827
0.000000 0.845554 0.907947
0.000000 0.839346 0.900917
0.374776 0.828271 0.881726
0.808648 0.808520 0.863452
0.995222 0.799552 0.819863
1.000000 0.817732 0.788470
1.000000 0.872386 0.811967
0.000000 0.949115 0.937518
0.000000 0.947843 0.937589
0.000000 0.945693 0.934584
0.000000 0.942422 0.929099
0.314870 0.932425 0.914902
0.765067 0.920825 0.889513
0.953027 0.909390 0.859172
1.000000 0.907833 0.833279
1.000000 0.919951 0.841600
0.000000 0.992651 0.950262
0.000000 0.992530 0.950251
0.000000 0.992114 0.948569
0.143011 0.989697 0.945152
0.499592 0.984617 0.938753
0.752734 0.975093 0.917519
0.925934 0.967897 0.897007
1.000000 0.963129 0.875901
1.000000 0.965333 0.875898
0.655132 1.000000 0.965495
0.655132 1.000000 0.965495
0.665498 1.000000 0.963678
0.685524 1.000000 0.962401
0.729635 1.000000 0.959122
0.811417 1.000000 0.952883
0.913844 0.996007 0.940334
0.985309 0.991508 0.922651
1.000000 0.990106 0.911844
0.000000 0.460622 0.857706
0.000000 0.460500 0.857691
0.000000 0.459142 0.859710
0.148570 0.446412 0.861580
0.601271 0.424107 0.859647
0.948235 0.354532 0.851260
1.000000 0.385909 0.841817
1.000000 0.653536 0.868053
1.000000 0.837685 0.881043
0.000000 0.464132 0.859712
0.000000 0.464011 0.859698
0.000000 0.459141 0.861866
0.139022 0.449981 0.863554
0.601047 0.424109 0.861772
0.947515 0.359127 0.853304
1.000000 0.390173 0.841706
1.000000 0.656590 0.867906
1.000000 0.839083 0.880968
0.000000 0.496107 0.870763
0.000000 0.495959 0.870745
0.000000 0.491141 0.872813
0.000000 0.478608 0.872576
0.589446 0.458634 0.870777
0.941870 0.395194 0.862841
1.000000 0.418653 0.847423
1.000000 0.665684 0.867463
1.000000 0.840476 0.880893
0.000000 0.565328 0.891902
0.000000 0.565244 0.893648
0.000000 0.564265 0.893532
0.000000 0.555737 0.894927
0.547971 0.532807 0.890347
0.924308 0.486219 0.886613
1.000000 0.494308 0.867393
1.000000 0.692126 0.876477
1.000000 0.844928 0.883097
0.000000 0.710644 0.926194
0.000000 0.710566 0.926185
0.000000 0.709849 0.926102
0.000000 0.699025 0.926182
0.465267 0.687099 0.922442
0.868598 0.656413 0.914371
1.000000 0.652884 0.899636
1.000000 0.738771 0.888253
1.000000 0.855672 0.887852
0.000000 0.862653 0.958562
0.000000 0.862518 0.958548
0.000000 0.863834 0.957478
0.000000 0.858665 0.955629
0.274237 0.847424 0.950490
0.781941 0.830148 0.942411
0.987493 0.814073 0.927382
1.000000 0.827206 0.906279
1.000000 0.875576 0.894358
0.000000 0.956881 0.976511
0.000000 0.956738 0.976497
0.000000 0.956825 0.975141
0.000000 0.952794 0.974346
0.239763 0.943194 0.970576
0.730040 0.929973 0.962142
0.934117 0.917797 0.951100
1.000000 0.915923 0.931227
1.000000 0.921420 0.911866
0.000000 0.996435 0.987484
0.000000 0.996452 0.986679
0.000000 0.995629 0.986195
0.055776 0.993768 0.984257
0.485560 0.988206 0.982112
0.735573 0.979628 0.975110
0.911442 0.971743 0.963527
0.991658 0.967820 0.949400
1.000000 0.967530 0.934866
0.644413 1.000000 0.989758
0.647812 1.000000 0.989748
0.657813 1.000000 0.989382
0.683649 1.000000 0.988619
0.723555 1.000000 0.987777
0.799539 1.000000 0.984973
0.906004 0.996991 0.978476
0.979282 0.993253 0.967166
1.000000 0.991947 0.956844
0.000000 0.679741 0.962972
0.000000 0.679604 0.962956
0.000000 0.678282 0.962809
0.223804 0.678715 0.963123
0.536564 0.666327 0.961560
0.847888 0.631386 0.958728
1.000000 0.621681 0.955165
1.000000 0.662488 0.946670
1.000000 0.841949 0.954953
0.000000 0.679741 0.962972
0.000000 0.679604 0.962956
0.000000 0.682076 0.963489
0.215482 0.682531 0.963795
0.536564 0.666327 0.961560
0.846603 0.635397 0.958530
1.000000 0.621681 0.955165
1.000000 0.666673 0.946476
1.000000 0.843373 0.954865
0.000000 0.694775 0.963863
0.000000 0.694642 0.963849
0.000000 0.693387 0.964590
0.222700 0.693466 0.964843
0.526758 0.681765 0.963377
0.842472 0.647518 0.960661
1.000000 0.637848 0.957174
1.000000 0.675317 0.948954
1.000000 0.845252 0.955535
0.000000 0.727425 0.968625
0.000000 0.727298 0.968611
0.000000 0.726220 0.968493
0.000000 0.726479 0.968728
0.510905 0.714806 0.967312
0.827098 0.690303 0.964453
1.000000 0.672671 0.962418
1.000000 0.702192 0.953143
1.000000 0.852097 0.957338
0.000000 0.785766 0.975461
0.000000 0.785650 0.975449
0.000000 0.784658 0.975344
0.000000 0.784629 0.975548
0.472044 0.773945 0.973551
0.798059 0.752568 0.971772
1.000000 0.728480 0.968834
1.000000 0.747742 0.959952
1.000000 0.861728 0.959654
0.000000 0.878069 0.985745
0.000000 0.877959 0.985735
0.000000 0.875221 0.985797
0.000000 0.872465 0.984984
0.372275 0.866387 0.984948
0.753745 0.852654 0.982065
0.968359 0.834415 0.977867
1.000000 0.836627 0.969869
1.000000 0.883304 0.963789
0.000000 0.960936 0.995729
0.000000 0.960833 0.995719
0.000000 0.959853 0.995274
0.000000 0.956296 0.994758
0.340783 0.952260 0.994219
0.705977 0.940534 0.991903
0.919864 0.927201 0.988816
1.000000 0.920464 0.982656
1.000000 0.926647 0.973613
0.000000 1.000000 1.000000
0.000000 1.000000 1.000000
0.000000 1.000000 1.000000
0.184792 0.997634 1.000000
0.474775 0.993394 1.000000
0.724158 0.985060 0.998261
0.897740 0.975702 0.995183
0.984300 0.971122 0.990177
1.000000 0.970275 0.982563
0.646668 1.000000 1.000000
0.646668 1.000000 1.000000
0.656062 1.000000 1.000000
0.680288 1.000000 1.000000
0.721057 1.000000 1.000000
0.791871 1.000000 1.000000
0.896967 0.999313 0.999422
0.973855 0.994442 0.996095
1.000000 0.993547 0.991049
0.467293 0.860852 0.999765
0.475630 0.860619 0.999743
0.493530 0.858139 0.999839
0.559634 0.855950 0.999269
0.658670 0.847975 0.999194
0.785910 0.839533 0.998750
0.956052 0.825494 0.997992
1.000000 0.821252 0.995451
1.000000 0.847006 0.991950
0.467293 0.860852 0.999765
0.475630 0.860619 0.999743
0.491908 0.860147 0.999699
0.559634 0.855950 0.999269
0.658670 0.847975 0.999194
0.785910 0.839533 0.998750
0.955199 0.827639 0.997857
1.000000 0.821252 0.995451
1.000000 0.848487 0.991856
0.465799 0.862855 0.999990
0.474169 0.862623 0.999969
0.490505 0.862152 0.999925
0.558374 0.857984 0.999498
0.661658 0.851876 0.999262
0.787398 0.843582 0.999190
0.955896 0.829711 0.998079
1.000000 0.825338 0.995587
1.000000 0.849795 0.992172
0.461458 0.868734 1.000000
0.469923 0.868503 1.000000
0.486428 0.868037 1.000000
0.554699 0.863957 1.000000
0.658309 0.857936 0.999578
0.783410 0.851760 0.999370
0.951681 0.840072 0.998149
1.000000 0.833314 0.996223
1.000000 0.856549 0.992916
0.450169 0.883398 1.000000
0.450169 0.883398 1.000000
0.475839 0.882717 1.000000
0.538362 0.879119 1.000000
0.644619 0.873380 1.000000
0.780315 0.865083 1.000000
0.948341 0.851758 0.998791
1.000000 0.846507 0.996846
1.000000 0.864052 0.993566
0.430739 0.912636 1.000000
0.430739 0.912636 1.000000
0.457754 0.911996 1.000000
0.521385 0.908898 1.000000
0.628890 0.903807 1.000000
0.765012 0.896217 1.000000
0.932862 0.883889 1.000000
1.000000 0.877415 0.998546
1.000000 0.886689 0.995610
0.440311 0.958960 1.000000
0.440311 0.958960 1.000000
0.480305 0.958008 1.000000
0.535783 0.956479 1.000000
0.621673 0.952733 1.000000
0.742459 0.947701 1.000000
0.905348 0.937157 1.000000
1.000000 0.929967 1.000000
1.000000 0.929778 0.998919
0.537664 0.995838 1.000000
0.537664 0.995838 1.000000
0.548076 0.995538 1.000000
0.591777 0.994191 1.000000
0.658271 0.992329 1.000000
0.747914 0.987642 1.000000
0.888341 0.980928 1.000000
0.977063 0.975154 1.000000
1.000000 0.973407 1.000000
0.656232 1.000000 1.000000
0.656232 1.000000 1.000000
0.663172 1.000000 1.000000
0.685304 1.000000 1.000000
0.725200 1.000000 1.000000
0.789667 1.000000 1.000000
0.889475 1.000000 1.000000
0.968076 0.996572 1.000000
1.000000 0.994185 1.000000
