Assets/Lutify-Free-LUTs-Pack/Lutify Free LUTs Pack/Cine World Pro Warm - Amy/Lutify.me-Amy-CanonLog1-to-Rec709.cube
# Created with: fylm.ai - Colour Grading and Collaboration Software in Cloud 
# Website: https://fylm.ai 
# META
# Option: Gamut compress
# Block 1: IDT | CanonLog Cinema Gamut Daylight
# Block 2: colourMatch | Blending Mode: Normal | {"ColorSpace":0,"CrossCovarianceLimit":50,"ReshapingIterations":1,"PercentSaturationShift":100,"PercentShadingShift":100,"ExtraShading":true,"PercentTint":100,"PercentModified":100}
# Block 3: LUT | Filmic Curve Response: Standard Contrast 1 (100%)
# Block 4: LUT | Illuminant: D60 (100%)
# Block 5: hueSaturation | Blending Mode: Normal | {"hue":0,"saturation":-0.15}
# Block 6: logPrimaries | Blending Mode: Normal | {"wheels":{"shadows":{"Y":"0","R":"1","G":"1","B":"1"},"midtones":{"Y":"0","R":"1","G":"1","B":"1"},"highlights":{"Y":"0","R":"1","G":"1","B":"1"},"offset":{"Y":"0","R":"1","G":"1","B":"1"}},"sliders":{"shadows":{"Y":0,"R":-0.097,"G":0,"B":0.158},"midtones":{"Y":0,"R":0.024,"G":0.024,"B":-0.036},"highlights":{"Y":0,"R":0.154,"G":-0.084,"B":-0.024},"offset":{"Y":0.048,"R":0,"G":0,"B":0}}}
# Block 7: smartCurves | Blending Mode: Average | [[{"x":0,"y":0},{"x":0.11328125,"y":0.085540771484375},{"x":0.21484375,"y":0.218353271484375},{"x":0.37109375,"y":0.382415771484375},{"x":0.62109375,"y":0.589447021484375},{"x":0.8125,"y":0.765228271484375},{"x":1,"y":1}],[{"x":0,"y":0},{"x":1,"y":1}],[{"x":0,"y":0},{"x":1,"y":1}],[{"x":0,"y":0},{"x":1,"y":1}]]
# Block 8: LUT | Neutral Tint: Teal Tint 4 (100%)
# Block 9: contrast | Blending Mode: Normal | {"contrast":0.1}
# Block 10: ODT | Rec709
TITLE "Lutify.me-Amy-CanonLog1-to-Rec709" 
LUT_3D_SIZE 5
0.000000 0.000000 0.000000
0.504587 0.000000 0.000000
1.000000 0.000000 0.060198
1.000000 0.000000 0.132990
1.000000 0.654651 0.481408
0.000000 0.263867 0.000000
0.458976 0.147086 0.000000
1.000000 0.000000 0.000000
1.000000 0.241155 0.097916
1.000000 0.682224 0.478986
0.000000 0.606147 0.000000
0.396601 0.520335 0.000000
1.000000 0.458544 0.000000
1.000000 0.554049 0.126212
1.000000 0.747446 0.474923
0.000000 0.846843 0.000000
0.560505 0.822316 0.000000
0.986935 0.790407 0.000000
1.000000 0.806286 0.305240
1.000000 0.883183 0.406350
0.868932 0.946404 0.000000
0.914129 0.942791 0.000000
0.986909 0.936380 0.000000
1.000000 0.932246 0.396891
1.000000 0.942065 0.749495
0.000000 0.000000 0.348796
0.300295 0.000000 0.052975
0.929037 0.000000 0.024834
1.000000 0.000000 0.238517
1.000000 0.653715 0.526022
0.000000 0.279344 0.357916
0.125607 0.216319 0.267277
0.792262 0.000000 0.157119
1.000000 0.234391 0.242717
1.000000 0.681687 0.525815
0.000000 0.650493 0.302664
0.000000 0.630850 0.000000
0.824618 0.574575 0.000000
1.000000 0.594751 0.189701
1.000000 0.746725 0.526715
0.000000 0.848287 0.000000
0.506556 0.821852 0.000000
0.984834 0.787931 0.000000
1.000000 0.804372 0.305190
1.000000 0.883882 0.489466
0.861786 0.946816 0.000000
0.910466 0.943015 0.000000
0.986293 0.935470 0.000000
1.000000 0.931301 0.392719
1.000000 0.942065 0.749495
0.000000 0.000000 0.637067
0.179123 0.000000 0.097482
0.870017 0.000000 0.102710
1.000000 0.000000 0.411597
1.000000 0.635101 0.622454
0.000000 0.165961 0.586491
0.000000 0.114954 0.430551
0.733625 0.000000 0.382253
1.000000 0.044900 0.515886
1.000000 0.664458 0.625577
0.000000 0.740261 0.826096
0.000000 0.667253 0.778366
0.578209 0.627156 0.714002
1.000000 0.568599 0.577368
1.000000 0.738253 0.640669
0.000000 0.924049 0.738970
0.000000 0.927890 0.669527
0.448134 0.912141 0.564478
0.981905 0.882539 0.464553
1.000000 0.886084 0.634574
0.843986 0.947824 0.000000
0.899080 0.943705 0.000000
0.980973 0.935797 0.000000
1.000000 0.931202 0.386686
1.000000 0.941454 0.749304
0.000000 0.000000 0.867086
0.174283 0.000000 0.171727
0.684732 0.000000 0.164103
1.000000 0.000000 0.227009
1.000000 0.543517 0.805802
0.000000 0.142169 0.798491
0.000000 0.095296 0.547344
0.588789 0.000000 0.482478
1.000000 0.000000 0.227009
1.000000 0.595888 0.823205
0.000000 0.600523 0.926763
0.000000 0.526515 0.871493
0.383050 0.478816 0.869512
1.000000 0.342016 0.828808
1.000000 0.694316 0.847259
0.000000 0.965491 0.976246
0.000000 0.941745 0.963717
0.000000 0.926938 0.958147
0.906390 0.892108 0.929213
1.000000 0.876601 0.884175
0.000000 1.000000 0.940216
0.000000 1.000000 0.933786
0.517110 0.998544 0.916409
0.876852 0.983626 0.877760
1.000000 0.975682 0.836858
0.000000 0.000000 0.486912
0.236340 0.000000 0.257779
0.632301 0.000000 0.249337
1.000000 0.000000 0.282352
1.000000 0.389972 0.439182
0.000000 0.000000 0.633344
0.179602 0.000000 0.342210
0.628509 0.000000 0.249333
1.000000 0.000000 0.282352
1.000000 0.389972 0.439182
0.000000 0.547864 0.982217
0.000000 0.487725 0.938018
0.171949 0.467220 0.938527
0.994795 0.304255 0.926191
1.000000 0.291858 0.833849
0.000000 0.911666 1.000000
0.000000 0.866677 0.990400
0.000000 0.857235 0.990659
0.825797 0.810177 0.987084
1.000000 0.773820 0.975653
0.000000 1.000000 1.000000
0.000000 1.000000 1.000000
0.000000 1.000000 1.000000
0.758305 0.991327 1.000000
0.989771 0.978171 0.994517
