Assets/Lutify-Free-LUTs-Pack/Lutify Free LUTs Pack/Cine World Pro Warm - Amy/Lutify.me-Amy-BMDFilmGen4-to-Rec709.cube
# Created with: fylm.ai - Colour Grading and Collaboration Software in Cloud 
# Website: https://fylm.ai 
# META
# Option: Gamut compress
# Block 1: IDT | BMD Wide Gamut BMDFilm Gen 4
# Block 2: colourMatch | Blending Mode: Normal | {"ColorSpace":0,"CrossCovarianceLimit":50,"ReshapingIterations":1,"PercentSaturationShift":100,"PercentShadingShift":100,"ExtraShading":true,"PercentTint":100,"PercentModified":100}
# Block 3: LUT | Filmic Curve Response: Standard Contrast 1 (100%)
# Block 4: LUT | Illuminant: D60 (100%)
# Block 5: hueSaturation | Blending Mode: Normal | {"hue":0,"saturation":-0.15}
# Block 6: logPrimaries | Blending Mode: Normal | {"wheels":{"shadows":{"Y":"0","R":"1","G":"1","B":"1"},"midtones":{"Y":"0","R":"1","G":"1","B":"1"},"highlights":{"Y":"0","R":"1","G":"1","B":"1"},"offset":{"Y":"0","R":"1","G":"1","B":"1"}},"sliders":{"shadows":{"Y":0,"R":-0.097,"G":0,"B":0.158},"midtones":{"Y":0,"R":0.024,"G":0.024,"B":-0.036},"highlights":{"Y":0,"R":0.154,"G":-0.084,"B":-0.024},"offset":{"Y":0.048,"R":0,"G":0,"B":0}}}
# Block 7: smartCurves | Blending Mode: Average | [[{"x":0,"y":0},{"x":0.11328125,"y":0.085540771484375},{"x":0.21484375,"y":0.218353271484375},{"x":0.37109375,"y":0.382415771484375},{"x":0.62109375,"y":0.589447021484375},{"x":0.8125,"y":0.765228271484375},{"x":1,"y":1}],[{"x":0,"y":0},{"x":1,"y":1}],[{"x":0,"y":0},{"x":1,"y":1}],[{"x":0,"y":0},{"x":1,"y":1}]]
# Block 8: LUT | Neutral Tint: Teal Tint 4 (100%)
# Block 9: contrast | Blending Mode: Normal | {"contrast":0.1}
# Block 10: ODT | Rec709
TITLE "Lutify.me-Amy-BMDFilmGen4-to-Rec709" 
LUT_3D_SIZE 33
0.000000 0.000000 0.000000
0.000000 0.000000 0.000000
0.000000 0.000000 0.000000
0.040058 0.000000 0.000000
0.102342 0.000000 0.000000
0.144799 0.000000 0.000000
0.183890 0.000000 0.000000
0.235557 0.000000 0.000000
0.280303 0.000000 0.000000
0.323875 0.000000 0.000000
0.367972 0.000000 0.000000
0.410241 0.000000 0.000000
0.454914 0.000000 0.000000
0.512270 0.000000 0.000000
0.570698 0.000000 0.000000
0.623507 0.000000 0.000000
0.677706 0.000000 0.000000
0.724326 0.000000 0.000000
0.792695 0.000000 0.000000
0.855968 0.000000 0.000000
0.905778 0.000000 0.000000
0.955842 0.000000 0.000000
0.997061 0.000000 0.000000
1.000000 0.000000 0.045671
1.000000 0.000000 0.070875
1.000000 0.081659 0.097829
1.000000 0.211904 0.125987
1.000000 0.303400 0.156456
1.000000 0.380300 0.188463
1.000000 0.450481 0.225445
1.000000 0.507618 0.258566
1.000000 0.559874 0.304101
1.000000 0.618270 0.352093
0.000000 0.000000 0.000000
0.000000 0.000000 0.000000
0.000000 0.000000 0.000000
0.045699 0.000000 0.000000
0.102492 0.000000 0.000000
0.140357 0.000000 0.000000
0.180080 0.000000 0.000000
0.227190 0.000000 0.000000
0.270404 0.000000 0.000000
0.317240 0.000000 0.000000
0.362753 0.000000 0.000000
0.407275 0.000000 0.000000
0.451611 0.000000 0.000000
0.516053 0.000000 0.000000
0.574766 0.000000 0.000000
0.623549 0.000000 0.000000
0.677724 0.000000 0.000000
0.724327 0.000000 0.000000
0.796947 0.000000 0.000000
0.855884 0.000000 0.000000
0.905630 0.000000 0.000000
0.955639 0.000000 0.000000
0.994220 0.000000 0.000000
1.000000 0.000000 0.042774
1.000000 0.000000 0.069296
1.000000 0.096236 0.097174
1.000000 0.217431 0.125394
1.000000 0.307623 0.154502
1.000000 0.384033 0.187980
1.000000 0.450481 0.225445
1.000000 0.510918 0.258197
1.000000 0.563046 0.303803
1.000000 0.618270 0.352093
0.000000 0.000000 0.000000
0.000000 0.000000 0.000000
0.000000 0.000000 0.003875
0.047297 0.000000 0.000000
0.098181 0.000000 0.000000
0.136117 0.000000 0.000000
0.172743 0.000000 0.000000
0.227239 0.000000 0.000000
0.274433 0.000000 0.000000
0.321638 0.000000 0.000000
0.365337 0.000000 0.000000
0.407324 0.000000 0.000000
0.455047 0.000000 0.000000
0.519900 0.000000 0.000000
0.578847 0.000000 0.000000
0.623598 0.000000 0.000000
0.677760 0.000000 0.000000
0.728585 0.000000 0.000000
0.796883 0.000000 0.000000
0.859768 0.000000 0.000000
0.905400 0.000000 0.000000
0.955422 0.000000 0.000000
0.993893 0.000000 0.000000
1.000000 0.000000 0.038971
1.000000 0.000000 0.067602
1.000000 0.119224 0.095799
1.000000 0.228199 0.124161
1.000000 0.315987 0.153387
1.000000 0.387760 0.187489
1.000000 0.453944 0.225024
1.000000 0.514223 0.257824
1.000000 0.566224 0.303503
1.000000 0.622510 0.353066
0.000000 0.044574 0.000000
0.000000 0.043755 0.000000
0.000000 0.041342 0.000000
0.036418 0.037873 0.000000
0.089991 0.031209 0.000000
0.136105 0.000000 0.000000
0.177154 0.000000 0.000000
0.228393 0.000000 0.000000
0.276181 0.000000 0.000000
0.319352 0.000000 0.000000
0.365430 0.000000 0.000000
0.410454 0.000000 0.000000
0.462018 0.000000 0.000000
0.520051 0.000000 0.000000
0.578954 0.000000 0.000000
0.627804 0.000000 0.000000
0.682014 0.000000 0.000000
0.732838 0.000000 0.000000
0.796819 0.000000 0.000000
0.859633 0.000000 0.000000
0.905182 0.000000 0.000000
0.955070 0.000000 0.000000
0.993543 0.000000 0.000000
1.000000 0.000000 0.032427
1.000000 0.000000 0.064814
1.000000 0.137833 0.094344
1.000000 0.238606 0.122871
1.000000 0.320135 0.152814
1.000000 0.391482 0.186991
1.000000 0.457408 0.224599
1.000000 0.517528 0.259282
1.000000 0.566224 0.303503
1.000000 0.622510 0.353066
0.000000 0.072042 0.000000
0.000000 0.071574 0.000000
0.000000 0.067640 0.000000
0.020894 0.063651 0.000000
0.084139 0.059987 0.000000
0.136159 0.051562 0.000000
0.184428 0.035386 0.000000
0.236648 0.000000 0.000000
0.285776 0.000000 0.000000
0.326244 0.000000 0.000000
0.370972 0.000000 0.000000
0.422997 0.000000 0.000000
0.476315 0.000000 0.000000
0.528002 0.000000 0.000000
0.579135 0.000000 0.000000
0.632046 0.000000 0.000000
0.686284 0.000000 0.000000
0.741341 0.000000 0.000000
0.796721 0.000000 0.000000
0.863436 0.000000 0.000000
0.908564 0.000000 0.000000
0.954816 0.000000 0.000000
0.993074 0.000000 0.000000
1.000000 0.000000 0.025351
1.000000 0.000000 0.061672
1.000000 0.153974 0.092798
1.000000 0.242582 0.121482
1.000000 0.328369 0.151637
1.000000 0.395200 0.186485
1.000000 0.460874 0.224167
1.000000 0.520842 0.258906
1.000000 0.569402 0.305249
1.000000 0.625553 0.352828
0.000000 0.102814 0.000000
0.000000 0.097899 0.000000
0.000000 0.096342 0.000000
0.000000 0.091934 0.000000
0.079505 0.088406 0.000000
0.133377 0.082384 0.000000
0.187627 0.073368 0.000000
0.249276 0.057160 0.000000
0.298165 0.000000 0.000000
0.336055 0.000000 0.000000
0.382390 0.000000 0.000000
0.433120 0.000000 0.000000
0.491378 0.000000 0.000000
0.544040 0.000000 0.000000
0.591617 0.000000 0.000000
0.644709 0.000000 0.000000
0.694815 0.000000 0.000000
0.749828 0.000000 0.000000
0.805132 0.000000 0.000000
0.867169 0.000000 0.000000
0.915378 0.000000 0.000000
0.957467 0.000000 0.000000
0.995270 0.000000 0.000000
1.000000 0.000000 0.000000
1.000000 0.000000 0.056764
1.000000 0.168511 0.091155
1.000000 0.257458 0.119375
1.000000 0.331406 0.150255
1.000000 0.402621 0.185451
1.000000 0.468931 0.224213
1.000000 0.524160 0.258526
1.000000 0.572591 0.304948
1.000000 0.628594 0.352591
0.000000 0.134904 0.000000
0.000000 0.131615 0.000000
0.000000 0.128448 0.000000
0.000000 0.122783 0.000000
0.064580 0.119333 0.000000
0.133479 0.116084 0.000000
0.194789 0.107606 0.000000
0.260524 0.097994 0.000000
0.307389 0.086036 0.000000
0.354443 0.064841 0.000000
0.397757 0.000000 0.000000
0.450648 0.000000 0.000000
0.503402 0.000000 0.000000
0.560553 0.000000 0.000000
0.608360 0.000000 0.000000
0.657501 0.000000 0.000000
0.703408 0.000000 0.000000
0.758282 0.000000 0.000000
0.809211 0.000000 0.000000
0.870720 0.000000 0.000000
0.918409 0.000000 0.000000
0.959861 0.000000 0.000000
0.997297 0.000000 0.000000
1.000000 0.000000 0.000000
1.000000 0.087553 0.050135
1.000000 0.188290 0.088484
1.000000 0.271781 0.117121
1.000000 0.343619 0.148358
1.000000 0.410043 0.184381
1.000000 0.472388 0.223769
1.000000 0.527488 0.258141
1.000000 0.575785 0.304644
1.000000 0.628588 0.354819
0.000000 0.167414 0.000000
0.000000 0.161928 0.000000
0.000000 0.159258 0.000000
0.000000 0.153592 0.000000
0.000000 0.150048 0.000000
0.131624 0.144728 0.000000
0.199419 0.138358 0.000000
0.264540 0.130430 0.000000
0.321503 0.117808 0.000000
0.366073 0.104261 0.000000
0.411075 0.089425 0.000000
0.458903 0.066914 0.000000
0.515987 0.000000 0.000000
0.573560 0.000000 0.000000
0.617316 0.000000 0.000000
0.666262 0.000000 0.000000
0.716226 0.000000 0.000000
0.762492 0.000000 0.000000
0.821674 0.000000 0.000000
0.877952 0.000000 0.000000
0.917720 0.000000 0.000000
0.959142 0.000000 0.000000
0.998852 0.000000 0.000000
1.000000 0.000000 0.000000
1.000000 0.132593 0.043429
1.000000 0.217806 0.083379
1.000000 0.291137 0.116161
1.000000 0.356646 0.147159
1.000000 0.421162 0.182715
1.000000 0.482772 0.222403
1.000000 0.534151 0.259228
1.000000 0.583311 0.305142
1.000000 0.634651 0.354351
0.000000 0.199389 0.000000
0.000000 0.196152 0.000000
0.000000 0.191274 0.000000
0.000000 0.187752 0.000000
0.000000 0.186898 0.000000
0.114063 0.181797 0.000000
0.202106 0.173629 0.000000
0.268132 0.164240 0.000000
0.326000 0.153072 0.000000
0.375611 0.142498 0.000000
0.425356 0.132989 0.000000
0.474793 0.120236 0.000000
0.532789 0.101243 0.000000
0.586793 0.084147 0.000000
0.630393 0.021145 0.000000
0.679263 0.000000 0.000000
0.720745 0.000000 0.000000
0.775155 0.000000 0.000000
0.833797 0.000000 0.000000
0.888383 0.000000 0.000000
0.923586 0.000000 0.000000
0.960821 0.000000 0.000000
0.997858 0.000000 0.000000
1.000000 0.075860 0.000000
1.000000 0.164595 0.033887
1.000000 0.240194 0.081219
1.000000 0.308944 0.114253
1.000000 0.368559 0.146613
1.000000 0.428562 0.181561
1.000000 0.486237 0.221938
1.000000 0.538574 0.259868
1.000000 0.583305 0.307213
1.000000 0.637674 0.354118
0.000000 0.228513 0.000000
0.000000 0.226732 0.000000
0.000000 0.223101 0.000000
0.000000 0.220873 0.000000
0.000000 0.221508 0.000000
0.084311 0.214262 0.000000
0.194544 0.207760 0.000000
0.272466 0.195458 0.000000
0.328119 0.188229 0.000000
0.384718 0.180903 0.000000
0.446592 0.165891 0.000000
0.498011 0.154299 0.000000
0.550056 0.148336 0.000000
0.607951 0.134639 0.000000
0.647811 0.125967 0.000000
0.688333 0.109938 0.000000
0.733673 0.096410 0.000000
0.779450 0.101726 0.000000
0.841518 0.000000 0.000000
0.891017 0.000000 0.000000
0.928873 0.000000 0.000000
0.961979 0.059458 0.000000
0.998537 0.083366 0.000000
1.000000 0.149876 0.000000
1.000000 0.215046 0.000000
1.000000 0.271001 0.073826
1.000000 0.327053 0.112973
1.000000 0.380377 0.146014
1.000000 0.436911 0.182881
1.000000 0.493174 0.220988
1.000000 0.544183 0.258043
1.000000 0.589704 0.306602
1.000000 0.640685 0.356145
0.000000 0.255888 0.000000
0.000000 0.255803 0.000000
0.000000 0.255608 0.000000
0.000000 0.253206 0.000000
0.000000 0.248339 0.000000
0.052538 0.244511 0.000000
0.186679 0.236924 0.000000
0.263263 0.229692 0.000000
0.324199 0.223549 0.000000
0.388833 0.217205 0.000000
0.455082 0.201769 0.000000
0.518705 0.188512 0.000000
0.571127 0.183361 0.000000
0.617705 0.181625 0.000000
0.673204 0.169596 0.000000
0.709805 0.170060 0.000000
0.750755 0.164973 0.000000
0.792006 0.159200 0.000000
0.840919 0.159347 0.000000
0.897032 0.152193 0.000000
0.933535 0.157999 0.000000
0.962603 0.176168 0.000000
0.998310 0.189381 0.000000
1.000000 0.213507 0.000000
1.000000 0.257684 0.000000
1.000000 0.304304 0.064726
1.000000 0.348154 0.109607
1.000000 0.396865 0.145437
1.000000 0.447948 0.181068
1.000000 0.502605 0.218560
1.000000 0.547534 0.257640
1.000000 0.596121 0.305983
1.000000 0.647760 0.356911
0.000000 0.295513 0.000000
0.000000 0.290942 0.000000
0.000000 0.290745 0.000000
0.000000 0.288158 0.000000
0.000000 0.285078 0.000000
0.000000 0.281035 0.000000
0.170088 0.276006 0.000000
0.257505 0.267208 0.000000
0.325956 0.259495 0.000000
0.393323 0.254562 0.000000
0.458354 0.243368 0.000000
0.528507 0.229661 0.000000
0.596220 0.219039 0.000000
0.642976 0.217075 0.000000
0.690658 0.214401 0.000000
0.735121 0.215753 0.000000
0.767656 0.217250 0.000000
0.804412 0.217730 0.000000
0.855767 0.213925 0.000000
0.895377 0.223810 0.000000
0.934295 0.231454 0.000000
0.962796 0.239128 0.000000
1.000000 0.257272 0.000000
1.000000 0.280293 0.000000
1.000000 0.301402 0.000000
1.000000 0.335264 0.046058
1.000000 0.373579 0.105532
1.000000 0.417049 0.143940
1.000000 0.463532 0.181127
1.000000 0.516593 0.216503
1.000000 0.557611 0.256409
1.000000 0.605782 0.305039
1.000000 0.655648 0.355013
0.000000 0.328988 0.000000
0.000000 0.328902 0.000000
0.000000 0.331230 0.000000
0.000000 0.330877 0.000000
0.000000 0.327654 0.000000
0.000000 0.323420 0.000000
0.148978 0.318422 0.000000
0.239905 0.312728 0.000000
0.325181 0.305032 0.000000
0.394013 0.296516 0.000000
0.461699 0.286636 0.000000
0.532741 0.274871 0.000000
0.609880 0.265838 0.000000
0.679923 0.252711 0.000000
0.719719 0.250826 0.000000
0.759994 0.255752 0.000000
0.796338 0.258375 0.000000
0.824320 0.259423 0.000000
0.865728 0.269847 0.000000
0.900241 0.279186 0.000000
0.937495 0.289599 0.000000
0.967536 0.294176 0.000000
1.000000 0.313633 0.000000
1.000000 0.326529 0.000000
1.000000 0.346372 0.000000
1.000000 0.373964 0.000000
1.000000 0.402528 0.095102
1.000000 0.432426 0.142224
1.000000 0.474510 0.180889
1.000000 0.523606 0.215436
1.000000 0.567719 0.255144
1.000000 0.612246 0.304399
1.000000 0.662552 0.355808
0.000000 0.369407 0.000000
0.000000 0.369281 0.000000
0.000000 0.369099 0.000000
0.000000 0.368728 0.000000
0.000000 0.365158 0.000000
0.000000 0.360913 0.000000
0.110259 0.355958 0.000000
0.225593 0.350412 0.000000
0.316230 0.346116 0.000000
0.387915 0.338499 0.000000
0.457404 0.329796 0.000000
0.533401 0.318824 0.000000
0.614185 0.305292 0.000000
0.684951 0.294448 0.000000
0.744347 0.287436 0.000000
0.780330 0.287800 0.000000
0.812219 0.296684 0.000000
0.846554 0.301952 0.000000
0.885436 0.311286 0.000000
0.914263 0.323429 0.000000
0.943412 0.332131 0.000000
0.971632 0.342012 0.000000
1.000000 0.357307 0.000000
1.000000 0.378647 0.000000
1.000000 0.393713 0.000000
1.000000 0.407891 0.000000
1.000000 0.430981 0.084372
1.000000 0.459892 0.136574
1.000000 0.495672 0.175808
1.000000 0.536791 0.212233
1.000000 0.580329 0.250390
1.000000 0.625228 0.303095
1.000000 0.671315 0.355169
0.000000 0.408750 0.000000
0.000000 0.405453 0.000000
0.000000 0.402049 0.000000
0.000000 0.401714 0.000000
0.000000 0.397879 0.000000
0.000000 0.393463 0.000000
0.000000 0.388633 0.000000
0.213305 0.386067 0.000000
0.307385 0.382850 0.000000
0.381187 0.375815 0.000000
0.454322 0.370706 0.000000
0.530070 0.364038 0.000000
0.615466 0.354876 0.000000
0.688919 0.342132 0.000000
0.748506 0.333701 0.000000
0.808026 0.324355 0.000000
0.842220 0.326623 0.000000
0.867337 0.330660 0.000000
0.897038 0.346601 0.000000
0.929540 0.367097 0.000000
0.948069 0.377622 0.000000
0.974499 0.392257 0.000000
0.999233 0.399584 0.000000
1.000000 0.416547 0.000000
1.000000 0.435287 0.000000
1.000000 0.448711 0.000000
1.000000 0.470785 0.061058
1.000000 0.494681 0.125686
1.000000 0.518458 0.172229
1.000000 0.554453 0.207437
1.000000 0.598222 0.249176
1.000000 0.639107 0.302950
1.000000 0.683727 0.355615
0.000000 0.451680 0.000000
0.000000 0.451563 0.000000
0.000000 0.447927 0.000000
0.000000 0.447562 0.000000
0.000000 0.443578 0.000000
0.000000 0.439202 0.000000
0.000000 0.434449 0.000000
0.174595 0.429255 0.000000
0.285772 0.426498 0.000000
0.368525 0.419685 0.000000
0.443698 0.411924 0.000000
0.522876 0.409508 0.000000
0.609003 0.401651 0.000000
0.686801 0.386002 0.000000
0.747745 0.378656 0.000000
0.803266 0.371446 0.000000
0.869667 0.358461 0.000000
0.892421 0.371495 0.000000
0.913755 0.381092 0.000000
0.943653 0.398508 0.000000
0.955057 0.413996 0.000000
0.977801 0.429104 0.000000
0.999321 0.436770 0.000000
1.000000 0.457723 0.000000
1.000000 0.476105 0.000000
1.000000 0.488900 0.000000
1.000000 0.502868 0.000000
1.000000 0.529252 0.114698
1.000000 0.548462 0.166613
1.000000 0.583526 0.207295
1.000000 0.616095 0.249912
1.000000 0.654992 0.299205
1.000000 0.695013 0.354852
0.000000 0.496729 0.000000
0.000000 0.496556 0.000000
0.000000 0.496302 0.000000
0.000000 0.492387 0.000000
0.000000 0.488329 0.000000
0.000000 0.487551 0.000000
0.000000 0.482919 0.000000
0.039098 0.477929 0.000000
0.254554 0.471884 0.000000
0.345284 0.465499 0.000000
0.432558 0.457867 0.000000
0.508024 0.453153 0.000000
0.598348 0.449739 0.000000
0.676999 0.435039 0.000000
0.745438 0.424073 0.000000
0.797840 0.418178 0.000000
0.860179 0.411075 0.000000
0.921234 0.400539 0.000000
0.939132 0.419143 0.000000
0.947950 0.434726 0.000000
0.966018 0.449910 0.000000
0.984360 0.469551 0.000000
0.997724 0.481608 0.000000
1.000000 0.498453 0.000000
1.000000 0.516626 0.000000
1.000000 0.528958 0.000000
1.000000 0.549980 0.000000
1.000000 0.574854 0.091699
1.000000 0.592966 0.158502
1.000000 0.619650 0.207868
1.000000 0.647336 0.250850
1.000000 0.674394 0.300745
1.000000 0.706860 0.355442
0.000000 0.542971 0.000000
0.000000 0.542781 0.000000
0.000000 0.542496 0.000000
0.000000 0.538533 0.000000
0.000000 0.534405 0.000000
0.000000 0.533821 0.000000
0.000000 0.536512 0.000000
0.000000 0.531366 0.000000
0.194433 0.525864 0.000000
0.303611 0.523546 0.000000
0.399039 0.516615 0.000000
0.499520 0.507947 0.000000
0.581822 0.502560 0.000000
0.665559 0.492170 0.000000
0.738886 0.481677 0.000000
0.793671 0.476291 0.000000
0.856297 0.470193 0.000000
0.913839 0.453254 0.000000
0.966096 0.449737 0.000000
0.974911 0.473658 0.000000
0.979542 0.489785 0.000000
0.984795 0.513898 0.000000
1.000000 0.522060 0.000000
1.000000 0.542710 0.000000
1.000000 0.560796 0.000000
1.000000 0.576046 0.000000
1.000000 0.592043 0.000000
1.000000 0.612723 0.053831
1.000000 0.633663 0.142939
1.000000 0.655250 0.200099
1.000000 0.676647 0.251070
1.000000 0.695400 0.300993
1.000000 0.722971 0.354521
0.000000 0.593873 0.000000
0.000000 0.590002 0.000000
0.000000 0.589736 0.000000
0.000000 0.585684 0.000000
0.000000 0.585343 0.000000
0.000000 0.588366 0.000000
0.000000 0.587567 0.000000
0.000000 0.586352 0.000000
0.000000 0.581271 0.000000
0.240770 0.575622 0.000000
0.359780 0.569034 0.000000
0.466103 0.561204 0.000000
0.561701 0.552347 0.000000
0.645923 0.542866 0.000000
0.714095 0.537469 0.000000
0.786682 0.527269 0.000000
0.847222 0.525792 0.000000
0.901997 0.513585 0.000000
0.957246 0.502465 0.000000
0.997106 0.501502 0.000000
1.000000 0.521750 0.000000
0.998707 0.553890 0.000000
1.000000 0.570235 0.000000
1.000000 0.578705 0.000000
1.000000 0.600382 0.000000
1.000000 0.614975 0.000000
1.000000 0.631034 0.000000
1.000000 0.646506 0.000000
1.000000 0.669448 0.126246
1.000000 0.682450 0.193779
1.000000 0.701538 0.247855
1.000000 0.720671 0.302118
1.000000 0.735961 0.356185
0.000000 0.638011 0.000000
0.000000 0.637789 0.000000
0.000000 0.637537 0.000000
0.000000 0.633561 0.000000
0.000000 0.633185 0.000000
0.000000 0.632683 0.000000
0.000000 0.632010 0.000000
0.000000 0.630709 0.000000
0.000000 0.625586 0.000000
0.202965 0.620072 0.000000
0.338133 0.613777 0.000000
0.433585 0.610727 0.000000
0.529353 0.606542 0.000000
0.614271 0.598027 0.000000
0.683779 0.589562 0.000000
0.766081 0.583242 0.000000
0.832399 0.573928 0.000000
0.882829 0.570023 0.000000
0.937514 0.558975 0.000000
0.984945 0.553702 0.000000
1.000000 0.554657 0.000000
1.000000 0.574274 0.000000
1.000000 0.598277 0.000000
1.000000 0.622445 0.000000
1.000000 0.635839 0.000000
1.000000 0.650273 0.000000
1.000000 0.664860 0.000000
1.000000 0.675944 0.000000
1.000000 0.699743 0.108976
1.000000 0.711269 0.184846
1.000000 0.725609 0.244124
1.000000 0.740275 0.302152
1.000000 0.755316 0.356490
0.000000 0.686026 0.000000
0.000000 0.685876 0.000000
0.000000 0.685584 0.000000
0.000000 0.685299 0.000000
0.000000 0.681240 0.000000
0.000000 0.680813 0.000000
0.000000 0.683671 0.000000
0.000000 0.679107 0.000000
0.000000 0.673868 0.000000
0.124360 0.668533 0.000000
0.305090 0.662533 0.000000
0.410424 0.656083 0.000000
0.495460 0.652978 0.000000
0.576522 0.652989 0.000000
0.656491 0.644728 0.000000
0.736107 0.635620 0.000000
0.808753 0.626381 0.000000
0.866778 0.622055 0.000000
0.917803 0.618882 0.000000
0.967894 0.605400 0.000000
1.000000 0.597857 0.000000
1.000000 0.600604 0.000000
1.000000 0.626954 0.000000
1.000000 0.646758 0.000000
1.000000 0.670656 0.000000
1.000000 0.686780 0.000000
1.000000 0.699907 0.000000
1.000000 0.709728 0.000000
1.000000 0.725587 0.083938
1.000000 0.741574 0.179265
1.000000 0.753417 0.238355
1.000000 0.766064 0.300164
1.000000 0.776685 0.355292
0.000000 0.732778 0.000000
0.000000 0.732632 0.000000
0.000000 0.732424 0.000000
0.000000 0.732140 0.000000
0.000000 0.731892 0.000000
0.000000 0.727810 0.000000
0.000000 0.730766 0.000000
0.000000 0.729913 0.000000
0.000000 0.728771 0.000000
0.000000 0.727290 0.000000
0.226369 0.721838 0.000000
0.357766 0.716019 0.000000
0.460097 0.709571 0.000000
0.532444 0.706858 0.000000
0.613022 0.699565 0.000000
0.695063 0.687681 0.000000
0.766210 0.679355 0.000000
0.839744 0.674216 0.000000
0.897059 0.666645 0.000000
0.942303 0.660657 0.000000
0.983708 0.652397 0.000000
1.000000 0.649776 0.000000
1.000000 0.649699 0.000000
1.000000 0.681283 0.000000
1.000000 0.699402 0.000000
1.000000 0.711417 0.000000
1.000000 0.729086 0.000000
1.000000 0.743396 0.000000
1.000000 0.757427 0.023809
1.000000 0.765606 0.165737
1.000000 0.778862 0.233166
1.000000 0.789325 0.299350
1.000000 0.799063 0.357730
0.000000 0.775238 0.000000
0.000000 0.775117 0.000000
0.000000 0.774726 0.000000
0.000000 0.774439 0.000000
0.000000 0.774129 0.000000
0.000000 0.773794 0.000000
0.000000 0.773140 0.000000
0.000000 0.769233 0.000000
0.000000 0.764944 0.000000
0.000000 0.763696 0.000000
0.164317 0.762121 0.000000
0.324040 0.763174 0.000000
0.424291 0.757689 0.000000
0.520179 0.751384 0.000000
0.586335 0.745459 0.000000
0.665107 0.738350 0.000000
0.740309 0.730731 0.000000
0.818672 0.725688 0.000000
0.873017 0.722087 0.000000
0.920908 0.712424 0.000000
0.961290 0.703971 0.000000
0.992735 0.700463 0.000000
1.000000 0.698590 0.000000
1.000000 0.699116 0.000000
1.000000 0.724099 0.000000
1.000000 0.749123 0.000000
1.000000 0.756094 0.000000
1.000000 0.768346 0.000000
1.000000 0.783229 0.000000
1.000000 0.794650 0.151867
1.000000 0.801721 0.229854
1.000000 0.811289 0.298130
1.000000 0.820867 0.359339
0.000000 0.814890 0.000000
0.000000 0.814733 0.000000
0.000000 0.814485 0.000000
0.000000 0.814038 0.000000
0.000000 0.813647 0.000000
0.000000 0.813230 0.000000
0.000000 0.815227 0.000000
0.000000 0.812077 0.000000
0.000000 0.811030 0.000000
0.000000 0.809866 0.000000
0.000000 0.808914 0.000000
0.287493 0.806979 0.000000
0.390514 0.805003 0.000000
0.489129 0.799612 0.000000
0.553768 0.794630 0.000000
0.639207 0.785445 0.000000
0.716030 0.781527 0.000000
0.789570 0.777245 0.000000
0.848519 0.773520 0.000000
0.900552 0.764449 0.000000
0.937857 0.756474 0.000000
0.970432 0.752359 0.000000
0.997093 0.752339 0.000000
1.000000 0.747894 0.000000
1.000000 0.748608 0.000000
1.000000 0.766854 0.000000
1.000000 0.787932 0.000000
1.000000 0.795923 0.000000
1.000000 0.808408 0.000000
1.000000 0.818708 0.138880
1.000000 0.828741 0.227282
1.000000 0.832969 0.295865
1.000000 0.841462 0.360563
0.000000 0.852281 0.000000
0.000000 0.851976 0.000000
0.000000 0.851765 0.000000
0.000000 0.851326 0.000000
0.000000 0.851097 0.000000
0.000000 0.850742 0.000000
0.000000 0.849986 0.000000
0.000000 0.849448 0.000000
0.000000 0.848735 0.000000
0.000000 0.847978 0.000000
0.145336 0.848731 0.000000
0.264208 0.847659 0.000000
0.372151 0.843675 0.000000
0.461944 0.839272 0.000000
0.531056 0.834875 0.000000
0.614072 0.827142 0.000000
0.690091 0.821320 0.000000
0.766716 0.817229 0.000000
0.824857 0.813783 0.000000
0.873620 0.808349 0.000000
0.916512 0.803258 0.000000
0.950391 0.798963 0.000000
0.974822 0.798031 0.000000
1.000000 0.792916 0.000000
1.000000 0.786785 0.000000
1.000000 0.787211 0.000000
1.000000 0.806889 0.000000
1.000000 0.822825 0.000000
1.000000 0.827732 0.000000
1.000000 0.842318 0.120079
1.000000 0.847584 0.218547
1.000000 0.852684 0.289368
1.000000 0.858321 0.361497
0.000000 0.877670 0.000000
0.000000 0.877424 0.000000
0.000000 0.877171 0.000000
0.000000 0.876912 0.000000
