Assets/Lutify-Free-LUTs-Pack/Lutify Free LUTs Pack/Cine World Pro Warm - Amy/Lutify.me-Amy-SLog3Venice-to-Rec709.cube
# Created with: fylm.ai - Colour Grading and Collaboration Software in Cloud 
# Website: https://fylm.ai 
# META
# Option: Gamut compress
# Block 1: IDT | Sony Venice S-Log3 S-Gamut3
# Block 2: colourMatch | Blending Mode: Normal | {"ColorSpace":0,"CrossCovarianceLimit":50,"ReshapingIterations":1,"PercentSaturationShift":100,"PercentShadingShift":100,"ExtraShading":true,"PercentTint":100,"PercentModified":100}
# Block 3: LUT | Filmic Curve Response: Standard Contrast 1 (100%)
# Block 4: LUT | Illuminant: D60 (100%)
# Block 5: hueSaturation | Blending Mode: Normal | {"hue":0,"saturation":-0.15}
# Block 6: logPrimaries | Blending Mode: Normal | {"wheels":{"shadows":{"Y":"0","R":"1","G":"1","B":"1"},"midtones":{"Y":"0","R":"1","G":"1","B":"1"},"highlights":{"Y":"0","R":"1","G":"1","B":"1"},"offset":{"Y":"0","R":"1","G":"1","B":"1"}},"sliders":{"shadows":{"Y":0,"R":-0.097,"G":0,"B":0.158},"midtones":{"Y":0,"R":0.024,"G":0.024,"B":-0.036},"highlights":{"Y":0,"R":0.154,"G":-0.084,"B":-0.024},"offset":{"Y":0.048,"R":0,"G":0,"B":0}}}
# Block 7: smartCurves | Blending Mode: Average | [[{"x":0,"y":0},{"x":0.11328125,"y":0.085540771484375},{"x":0.21484375,"y":0.218353271484375},{"x":0.37109375,"y":0.382415771484375},{"x":0.62109375,"y":0.589447021484375},{"x":0.8125,"y":0.765228271484375},{"x":1,"y":1}],[{"x":0,"y":0},{"x":1,"y":1}],[{"x":0,"y":0},{"x":1,"y":1}],[{"x":0,"y":0},{"x":1,"y":1}]]
# Block 8: LUT | Neutral Tint: Teal Tint 4 (100%)
# Block 9: contrast | Blending Mode: Normal | {"contrast":0.1}
# Block 10: ODT | Rec709
TITLE "Lutify.me-Amy-SLog3Venice-to-Rec709" 
LUT_3D_SIZE 5
0.000000 0.000000 0.000000
0.228905 0.000000 0.000000
0.779946 0.000000 0.000000
1.000000 0.485482 0.324444
1.000000 0.935978 0.870914
0.000000 0.130537 0.000000
0.163400 0.086925 0.000000
0.788307 0.000000 0.000000
1.000000 0.502277 0.330689
1.000000 0.935978 0.870914
0.000000 0.576530 0.241976
0.000000 0.561970 0.000000
0.742902 0.508113 0.000000
1.000000 0.613383 0.347428
1.000000 0.938670 0.871968
0.000000 0.985805 0.875950
0.000000 0.976720 0.828938
0.000000 0.974594 0.692045
1.000000 0.937916 0.520249
1.000000 0.958864 0.885452
0.424463 1.000000 1.000000
0.433672 1.000000 1.000000
0.572843 1.000000 0.998756
0.880517 1.000000 0.981600
1.000000 1.000000 0.942095
0.000000 0.000000 0.079674
0.161326 0.000000 0.043638
0.733379 0.000000 0.057400
1.000000 0.483847 0.349880
1.000000 0.935428 0.871872
0.000000 0.140514 0.196779
0.048131 0.101857 0.137606
0.728891 0.000000 0.071729
1.000000 0.500721 0.354499
1.000000 0.935972 0.871886
0.000000 0.616763 0.419084
0.000000 0.576432 0.287611
0.679788 0.540225 0.000000
1.000000 0.613294 0.377562
1.000000 0.938670 0.871968
0.000000 0.987264 0.887641
0.000000 0.976644 0.844714
0.000000 0.974573 0.716914
1.000000 0.938732 0.547529
1.000000 0.958859 0.886325
0.424008 1.000000 1.000000
0.434115 1.000000 1.000000
0.573041 1.000000 0.998959
0.880496 1.000000 0.981972
1.000000 1.000000 0.942606
0.000000 0.000000 0.181846
0.097061 0.000000 0.136352
0.778375 0.000000 0.122530
1.000000 0.469469 0.484028
1.000000 0.935380 0.879527
0.000000 0.088788 0.373470
0.000000 0.071685 0.319732
0.695804 0.000000 0.295331
1.000000 0.491427 0.487381
1.000000 0.935923 0.879534
0.000000 0.671139 0.778129
0.000000 0.622807 0.739985
0.510943 0.578346 0.665502
1.000000 0.611200 0.519934
1.000000 0.938074 0.881437
0.000000 0.994842 0.934164
0.000000 0.983931 0.914334
0.000000 0.975381 0.851993
1.000000 0.940157 0.689156
1.000000 0.958823 0.892434
0.424356 1.000000 1.000000
0.433430 1.000000 1.000000
0.578416 1.000000 1.000000
0.879397 1.000000 0.984863
1.000000 1.000000 0.947824
0.000000 0.172901 0.716731
0.114663 0.160559 0.712857
0.602244 0.000000 0.687249
1.000000 0.000000 0.601923
1.000000 0.931880 0.925685
0.000000 0.243493 0.779989
0.000000 0.236329 0.776694
0.580253 0.105261 0.761078
1.000000 0.000000 0.705428
1.000000 0.932438 0.926477
0.000000 0.526202 0.904454
0.000000 0.525589 0.906001
0.373338 0.493583 0.903745
1.000000 0.443642 0.876028
1.000000 0.935230 0.927983
0.000000 1.000000 0.999156
0.000000 1.000000 0.998878
0.000000 0.989700 0.992514
0.963887 0.945732 0.972514
1.000000 0.958069 0.939513
0.580327 1.000000 1.000000
0.580327 1.000000 1.000000
0.550594 1.000000 1.000000
0.869793 1.000000 1.000000
1.000000 1.000000 0.977496
0.765677 0.709376 1.000000
0.769958 0.709104 1.000000
0.835731 0.701428 1.000000
1.000000 0.653863 1.000000
1.000000 0.838742 0.980226
0.757000 0.720267 1.000000
0.767116 0.716309 1.000000
0.829699 0.708868 1.000000
1.000000 0.661570 1.000000
1.000000 0.839021 0.982624
0.716541 0.780990 1.000000
0.725868 0.780484 1.000000
0.791867 0.776773 1.000000
1.000000 0.733479 1.000000
1.000000 0.859904 0.993170
0.530191 0.946632 1.000000
0.549210 0.946055 1.000000
0.647633 0.940612 1.000000
0.934000 0.920831 1.000000
1.000000 0.927342 1.000000
0.685033 1.000000 1.000000
0.685033 1.000000 1.000000
0.685033 1.000000 1.000000
0.799578 1.000000 1.000000
1.000000 1.000000 1.000000
