Assets/Lutify-Free-LUTs-Pack/Lutify Free LUTs Pack/Cine World Pro Warm - Amy/Lutify.me-Amy-FLog-to-Rec709.cube
# Created with: fylm.ai - Colour Grading and Collaboration Software in Cloud 
# Website: https://fylm.ai 
# META
# Option: Gamut compress
# Block 1: IDT | Fujifilm F-Gamut F-Log
# Block 2: colourMatch | Blending Mode: Normal | {"ColorSpace":0,"CrossCovarianceLimit":50,"ReshapingIterations":1,"PercentSaturationShift":100,"PercentShadingShift":100,"ExtraShading":true,"PercentTint":100,"PercentModified":100}
# Block 3: LUT | Filmic Curve Response: Standard Contrast 1 (100%)
# Block 4: LUT | Illuminant: D60 (100%)
# Block 5: hueSaturation | Blending Mode: Normal | {"hue":0,"saturation":-0.15}
# Block 6: logPrimaries | Blending Mode: Normal | {"wheels":{"shadows":{"Y":"0","R":"1","G":"1","B":"1"},"midtones":{"Y":"0","R":"1","G":"1","B":"1"},"highlights":{"Y":"0","R":"1","G":"1","B":"1"},"offset":{"Y":"0","R":"1","G":"1","B":"1"}},"sliders":{"shadows":{"Y":0,"R":-0.097,"G":0,"B":0.158},"midtones":{"Y":0,"R":0.024,"G":0.024,"B":-0.036},"highlights":{"Y":0,"R":0.154,"G":-0.084,"B":-0.024},"offset":{"Y":0.048,"R":0,"G":0,"B":0}}}
# Block 7: smartCurves | Blending Mode: Average | [[{"x":0,"y":0},{"x":0.11328125,"y":0.085540771484375},{"x":0.21484375,"y":0.218353271484375},{"x":0.37109375,"y":0.382415771484375},{"x":0.62109375,"y":0.589447021484375},{"x":0.8125,"y":0.765228271484375},{"x":1,"y":1}],[{"x":0,"y":0},{"x":1,"y":1}],[{"x":0,"y":0},{"x":1,"y":1}],[{"x":0,"y":0},{"x":1,"y":1}]]
# Block 8: LUT | Neutral Tint: Teal Tint 4 (100%)
# Block 9: contrast | Blending Mode: Normal | {"contrast":0.1}
# Block 10: ODT | Rec709
TITLE "Lutify.me-Amy-FLog-to-Rec709" 
LUT_3D_SIZE 5
0.000000 0.000000 0.000000
0.163237 0.000000 0.000000
0.562685 0.000000 0.000000
1.000000 0.000000 0.110354
1.000000 0.679078 0.491534
0.000000 0.091690 0.000000
0.132826 0.065730 0.000000
0.567239 0.000000 0.000000
1.000000 0.000000 0.110571
1.000000 0.684177 0.493872
0.000000 0.381294 0.000000
0.000000 0.380926 0.000000
0.575337 0.342632 0.000000
1.000000 0.353556 0.111615
1.000000 0.717586 0.503959
0.000000 0.823329 0.355678
0.000000 0.825377 0.329787
0.000000 0.823131 0.251079
0.956908 0.788672 0.145017
1.000000 0.837086 0.556801
0.000000 0.993344 0.817231
0.095863 0.992922 0.813186
0.453490 0.988838 0.802776
0.833558 0.976240 0.752848
1.000000 0.965440 0.725171
0.000000 0.000000 0.069215
0.111440 0.000000 0.048650
0.498480 0.000000 0.054177
1.000000 0.000000 0.149027
1.000000 0.681589 0.501816
0.000000 0.119686 0.168843
0.040545 0.093971 0.126745
0.502213 0.000000 0.073647
1.000000 0.000000 0.156620
1.000000 0.686665 0.506859
0.000000 0.404995 0.271475
0.000000 0.411634 0.181969
0.500658 0.390482 0.067571
1.000000 0.366285 0.175692
1.000000 0.717531 0.517271
0.000000 0.828337 0.437359
0.000000 0.830320 0.415144
0.000000 0.828125 0.331724
0.951789 0.791334 0.237948
1.000000 0.836740 0.569950
0.000000 0.993277 0.828954
0.079787 0.992856 0.825085
0.444489 0.988969 0.811031
0.832368 0.976767 0.769899
1.000000 0.965405 0.733365
0.000000 0.051966 0.254067
0.000000 0.043207 0.235283
0.488018 0.000000 0.232201
1.000000 0.000000 0.335793
1.000000 0.684130 0.557458
0.000000 0.138161 0.352233
0.000000 0.122101 0.339162
0.502631 0.000000 0.328106
1.000000 0.000000 0.345828
1.000000 0.691829 0.559993
0.000000 0.474709 0.585339
0.000000 0.460746 0.574902
0.350675 0.455963 0.534096
1.000000 0.395173 0.408123
1.000000 0.722739 0.571189
0.000000 0.839632 0.724297
0.000000 0.841593 0.707263
0.000000 0.840162 0.637762
0.915522 0.811602 0.522480
1.000000 0.837657 0.627079
0.000000 0.993174 0.870303
0.000000 0.993315 0.867282
0.439288 0.989287 0.855770
0.824718 0.977409 0.812509
1.000000 0.965833 0.771800
0.000000 0.295959 0.694780
0.000000 0.290306 0.694919
0.397136 0.263001 0.697364
1.000000 0.000000 0.680857
1.000000 0.686046 0.761998
0.000000 0.329594 0.715795
0.000000 0.326117 0.719498
0.368756 0.297518 0.722227
1.000000 0.107034 0.705791
1.000000 0.691431 0.764411
0.000000 0.526374 0.821920
0.000000 0.522425 0.822083
0.167324 0.510135 0.823963
0.985691 0.435364 0.792893
1.000000 0.723589 0.778639
0.000000 0.880119 0.924406
0.000000 0.877743 0.924513
0.000000 0.868119 0.918273
0.845095 0.835340 0.885228
1.000000 0.846511 0.820457
0.000000 0.997565 0.961985
0.000000 0.996750 0.961245
0.389334 0.993879 0.958884
0.797542 0.980523 0.935186
1.000000 0.969865 0.897315
0.000000 0.722472 0.973376
0.000000 0.724914 0.973801
0.336808 0.720154 0.973298
0.880902 0.672038 0.969677
1.000000 0.704754 0.959152
0.000000 0.726038 0.974674
0.000000 0.728459 0.975087
0.332263 0.723726 0.974587
0.877020 0.683443 0.969854
1.000000 0.713598 0.960324
0.000000 0.769198 0.978417
0.000000 0.771422 0.978122
0.266117 0.766836 0.977649
0.858063 0.726694 0.974903
1.000000 0.742352 0.964214
0.000000 0.901554 0.992050
0.000000 0.900916 0.991546
0.000000 0.896963 0.991167
0.795264 0.874220 0.988761
1.000000 0.862287 0.977380
0.000000 1.000000 1.000000
0.036233 1.000000 1.000000
0.401707 1.000000 1.000000
0.771531 0.988902 1.000000
0.989385 0.976828 0.994059
