Assets/Lutify-Free-LUTs-Pack/Lutify Free LUTs Pack/Cine World Pro Warm - Amy/Lutify.me-Amy-VLog-to-Rec709.cube
# Created with: fylm.ai - Colour Grading and Collaboration Software in Cloud 
# Website: https://fylm.ai 
# META
# Option: Gamut compress
# Block 1: IDT | Panasonic V-Gamut V-Log
# Block 2: colourMatch | Blending Mode: Normal | {"ColorSpace":0,"CrossCovarianceLimit":50,"ReshapingIterations":1,"PercentSaturationShift":100,"PercentShadingShift":100,"ExtraShading":true,"PercentTint":100,"PercentModified":100}
# Block 3: LUT | Filmic Curve Response: Standard Contrast 1 (100%)
# Block 4: LUT | Illuminant: D60 (100%)
# Block 5: hueSaturation | Blending Mode: Normal | {"hue":0,"saturation":-0.15}
# Block 6: logPrimaries | Blending Mode: Normal | {"wheels":{"shadows":{"Y":"0","R":"1","G":"1","B":"1"},"midtones":{"Y":"0","R":"1","G":"1","B":"1"},"highlights":{"Y":"0","R":"1","G":"1","B":"1"},"offset":{"Y":"0","R":"1","G":"1","B":"1"}},"sliders":{"shadows":{"Y":0,"R":-0.097,"G":0,"B":0.158},"midtones":{"Y":0,"R":0.024,"G":0.024,"B":-0.036},"highlights":{"Y":0,"R":0.154,"G":-0.084,"B":-0.024},"offset":{"Y":0.048,"R":0,"G":0,"B":0}}}
# Block 7: smartCurves | Blending Mode: Average | [[{"x":0,"y":0},{"x":0.11328125,"y":0.085540771484375},{"x":0.21484375,"y":0.218353271484375},{"x":0.37109375,"y":0.382415771484375},{"x":0.62109375,"y":0.589447021484375},{"x":0.8125,"y":0.765228271484375},{"x":1,"y":1}],[{"x":0,"y":0},{"x":1,"y":1}],[{"x":0,"y":0},{"x":1,"y":1}],[{"x":0,"y":0},{"x":1,"y":1}]]
# Block 8: LUT | Neutral Tint: Teal Tint 4 (100%)
# Block 9: contrast | Blending Mode: Normal | {"contrast":0.1}
# Block 10: ODT | Rec709
TITLE "Lutify.me-Amy-VLog-to-Rec709" 
LUT_3D_SIZE 5
0.000000 0.000000 0.000000
0.198508 0.000000 0.000000
0.749851 0.000000 0.000000
1.000000 0.476335 0.329367
1.000000 0.942311 0.886693
0.000000 0.101137 0.000000
0.160034 0.057887 0.000000
0.741331 0.000000 0.000000
1.000000 0.496527 0.333372
1.000000 0.942823 0.886703
0.000000 0.507871 0.000000
0.000000 0.514691 0.000000
0.783999 0.450377 0.000000
1.000000 0.600583 0.350173
1.000000 0.944858 0.887617
0.000000 0.973522 0.655439
0.000000 0.973575 0.652582
0.397076 0.966229 0.602836
1.000000 0.937854 0.510601
1.000000 0.962610 0.899328
0.901845 1.000000 0.981677
0.902910 1.000000 0.981673
0.910392 1.000000 0.980556
0.961217 1.000000 0.972809
1.000000 1.000000 0.948350
0.000000 0.000000 0.105207
0.118116 0.000000 0.036394
0.678148 0.000000 0.045836
1.000000 0.474738 0.353499
1.000000 0.942305 0.887568
0.000000 0.111946 0.167693
0.033573 0.082507 0.111076
0.674011 0.000000 0.061855
1.000000 0.495006 0.360458
1.000000 0.942817 0.887576
0.000000 0.536400 0.261632
0.000000 0.536344 0.159005
0.680823 0.502183 0.000000
1.000000 0.599515 0.377276
1.000000 0.944847 0.889360
0.000000 0.974342 0.685641
0.000000 0.973556 0.682438
0.372352 0.966482 0.636705
1.000000 0.939549 0.539168
1.000000 0.962605 0.900155
0.901822 1.000000 0.982044
0.902888 1.000000 0.982041
0.909355 1.000000 0.980934
0.961187 1.000000 0.973251
1.000000 1.000000 0.948814
0.000000 0.000000 0.292027
0.000000 0.000000 0.168592
0.684294 0.000000 0.130683
1.000000 0.473095 0.482638
1.000000 0.942272 0.892808
0.000000 0.110144 0.427297
0.000000 0.087695 0.340016
0.638012 0.000000 0.307419
1.000000 0.492560 0.487872
1.000000 0.942783 0.892814
0.000000 0.630261 0.739558
0.000000 0.582185 0.700105
0.484161 0.557481 0.644110
1.000000 0.600869 0.514997
1.000000 0.945313 0.895310
0.000000 0.975352 0.828980
0.000000 0.975217 0.824932
0.249860 0.968721 0.792219
1.000000 0.940919 0.677567
1.000000 0.962575 0.905082
0.900808 1.000000 0.984554
0.901875 1.000000 0.984550
0.908140 1.000000 0.984183
0.960301 1.000000 0.976675
1.000000 1.000000 0.952631
0.000000 0.362782 0.851335
0.000000 0.368266 0.855524
0.364259 0.323610 0.854829
1.000000 0.123320 0.802837
1.000000 0.940632 0.935731
0.000000 0.397585 0.867462
0.000000 0.397044 0.869503
0.332037 0.363028 0.868763
1.000000 0.236848 0.824111
1.000000 0.940625 0.936471
0.000000 0.585346 0.923560
0.000000 0.581328 0.925061
0.000000 0.558329 0.924882
1.000000 0.486298 0.896519
1.000000 0.942970 0.937263
0.000000 0.991903 0.994261
0.000000 0.992072 0.993801
0.000000 0.985550 0.992591
0.965628 0.947989 0.974534
1.000000 0.963388 0.946426
0.891157 1.000000 1.000000
0.893359 1.000000 1.000000
0.900853 1.000000 0.999584
0.953643 1.000000 0.996513
1.000000 1.000000 0.980065
0.511763 0.901775 1.000000
0.525550 0.901327 1.000000
0.619579 0.896608 1.000000
0.940913 0.872564 1.000000
1.000000 0.893527 1.000000
0.510808 0.903218 1.000000
0.525047 0.902787 1.000000
0.618733 0.898081 1.000000
0.940907 0.872602 1.000000
1.000000 0.894714 1.000000
0.506364 0.914173 1.000000
0.520593 0.913754 1.000000
0.614687 0.907926 1.000000
0.935605 0.884864 1.000000
1.000000 0.900607 1.000000
0.518973 0.971088 1.000000
0.531073 0.970745 1.000000
0.611795 0.968177 1.000000
0.906303 0.950416 1.000000
1.000000 0.942753 1.000000
0.798111 1.000000 1.000000
0.800823 1.000000 1.000000
0.813966 1.000000 1.000000
0.907502 1.000000 1.000000
1.000000 1.000000 1.000000
