Assets/Lutify-Free-LUTs-Pack/Lutify Free LUTs Pack/Cine World Pro Warm - Amy/Lutify.me-Amy-RWG-to-RWG.cube
# Created with: fylm.ai - Colour Grading and Collaboration Software in Cloud 
# Website: https://fylm.ai 
# META
# Option: Gamut compress
# Block 1: colourMatch | Blending Mode: Normal | {"ColorSpace":0,"CrossCovarianceLimit":50,"ReshapingIterations":1,"PercentSaturationShift":100,"PercentShadingShift":100,"ExtraShading":true,"PercentTint":100,"PercentModified":100}
# Block 2: LUT | Filmic Curve Response: Standard Contrast 1 (100%)
# Block 3: LUT | Illuminant: D60 (100%)
# Block 4: hueSaturation | Blending Mode: Normal | {"hue":0,"saturation":-0.15}
# Block 5: logPrimaries | Blending Mode: Normal | {"wheels":{"shadows":{"Y":"0","R":"1","G":"1","B":"1"},"midtones":{"Y":"0","R":"1","G":"1","B":"1"},"highlights":{"Y":"0","R":"1","G":"1","B":"1"},"offset":{"Y":"0","R":"1","G":"1","B":"1"}},"sliders":{"shadows":{"Y":0,"R":-0.097,"G":0,"B":0.158},"midtones":{"Y":0,"R":0.024,"G":0.024,"B":-0.036},"highlights":{"Y":0,"R":0.154,"G":-0.084,"B":-0.024},"offset":{"Y":0.048,"R":0,"G":0,"B":0}}}
# Block 6: smartCurves | Blending Mode: Average | [[{"x":0,"y":0},{"x":0.11328125,"y":0.085540771484375},{"x":0.21484375,"y":0.218353271484375},{"x":0.37109375,"y":0.382415771484375},{"x":0.62109375,"y":0.589447021484375},{"x":0.8125,"y":0.765228271484375},{"x":1,"y":1}],[{"x":0,"y":0},{"x":1,"y":1}],[{"x":0,"y":0},{"x":1,"y":1}],[{"x":0,"y":0},{"x":1,"y":1}]]
# Block 7: LUT | Neutral Tint: Teal Tint 4 (100%)
# Block 8: contrast | Blending Mode: Normal | {"contrast":0.1}
TITLE "Lutify.me-Amy-ACEScct-to-ACEScct" 
LUT_3D_SIZE 9
0.057803 0.074463 0.087371
0.106845 0.081309 0.093202
0.285358 0.106806 0.125567
0.406879 0.163163 0.182868
0.530096 0.271794 0.279453
0.668716 0.400811 0.408533
0.802712 0.524000 0.539568
0.915346 0.639920 0.652725
1.005124 0.747156 0.749031
0.066523 0.110015 0.098492
0.093414 0.107151 0.104025
0.282309 0.117574 0.127197
0.417592 0.175354 0.190449
0.532543 0.275982 0.281650
0.668720 0.401789 0.408557
0.803825 0.525104 0.540497
0.915346 0.639920 0.652725
1.005124 0.747156 0.749031
0.097616 0.226733 0.146721
0.113621 0.215304 0.141685
0.300404 0.208924 0.160279
0.457455 0.230179 0.223920
0.550768 0.295960 0.296961
0.671100 0.404947 0.410267
0.803830 0.526131 0.540617
0.915346 0.639920 0.652725
1.005124 0.747156 0.749031
0.149052 0.326154 0.213214
0.168125 0.320743 0.210161
0.289124 0.313709 0.213680
0.463475 0.321433 0.258710
0.630479 0.366490 0.367792
0.678275 0.419427 0.416436
0.804954 0.529769 0.541549
0.915353 0.641453 0.652861
1.005127 0.747751 0.749051
0.245775 0.421662 0.294034
0.262506 0.421761 0.294710
0.321676 0.417558 0.294277
0.453786 0.411783 0.307019
0.634581 0.433095 0.390188
0.782413 0.493647 0.510196
0.809447 0.543726 0.544881
0.916441 0.645606 0.653960
1.005129 0.748293 0.748818
0.386094 0.524597 0.391593
0.391112 0.524633 0.391845
0.409210 0.522390 0.390802
0.471356 0.518503 0.392536
0.626790 0.520315 0.428405
0.789486 0.552698 0.529965
0.908754 0.610537 0.633800
0.920790 0.661161 0.658025
1.005145 0.751809 0.748682
0.530012 0.634799 0.500950
0.533757 0.634844 0.501255
0.540022 0.633734 0.500681
0.571208 0.633008 0.502686
0.641367 0.631256 0.510799
0.787202 0.637603 0.562382
0.917618 0.668756 0.653792
1.004892 0.711210 0.730580
1.005238 0.767035 0.749591
0.691085 0.729138 0.600642
0.691085 0.729138 0.600642
0.694206 0.729207 0.601087
0.704396 0.728298 0.601557
0.734045 0.726935 0.605194
0.800726 0.729128 0.622791
0.914070 0.739664 0.676708
1.005173 0.761663 0.742735
1.005129 0.755791 0.740984
0.839567 0.807456 0.690627
0.839567 0.807456 0.690627
0.839567 0.807456 0.690627
0.841631 0.807544 0.691143
0.849887 0.807897 0.693205
0.874968 0.810409 0.701867
0.926052 0.812463 0.720490
1.005778 0.822815 0.764722
1.005712 0.817577 0.762518
0.064499 0.086889 0.112787
0.091804 0.084240 0.104422
0.259817 0.103041 0.121996
0.385623 0.156309 0.174907
0.525252 0.270028 0.278154
0.667539 0.400987 0.408912
0.802713 0.524051 0.539761
0.915346 0.639920 0.652725
1.005124 0.747156 0.749031
0.068252 0.105700 0.119404
0.084716 0.098043 0.111142
0.249007 0.111004 0.121245
0.385727 0.168318 0.177216
0.526492 0.275254 0.279653
0.668727 0.402060 0.409704
0.802715 0.524552 0.539773
0.915346 0.639920 0.652725
1.005124 0.747156 0.749031
0.098250 0.229781 0.151426
0.107039 0.222472 0.146553
0.278832 0.211161 0.157315
0.415766 0.229586 0.204163
0.532654 0.292175 0.285965
0.669922 0.405098 0.410346
0.803831 0.526182 0.540810
0.915346 0.639920 0.652725
1.005124 0.747156 0.749031
0.147926 0.326148 0.213181
0.165425 0.319609 0.209149
0.288086 0.312597 0.212843
0.463458 0.320507 0.258304
0.630476 0.365922 0.367655
0.677097 0.419699 0.416432
0.804956 0.529855 0.541922
0.915353 0.641475 0.652956
1.005127 0.747751 0.749051
0.244153 0.421654 0.293982
0.260999 0.421751 0.294646
0.320564 0.416361 0.293212
0.452585 0.410600 0.305954
0.634572 0.432245 0.389894
0.781285 0.492929 0.509164
0.809448 0.543787 0.545151
0.916441 0.645628 0.654055
1.005130 0.748319 0.748945
0.385384 0.524592 0.391557
0.390391 0.524628 0.391809
0.408389 0.522383 0.390750
0.471206 0.517315 0.391529
0.626790 0.520315 0.428405
0.789480 0.551933 0.529738
0.908754 0.610537 0.633800
0.920791 0.661182 0.658118
1.005146 0.751835 0.748809
0.530012 0.634799 0.500950
0.532822 0.634833 0.501179
0.540022 0.633734 0.500681
0.571208 0.633008 0.502686
0.641367 0.631256 0.510799
0.787202 0.637603 0.562382
0.917618 0.668756 0.653792
1.004892 0.711210 0.730580
1.005238 0.767035 0.749591
0.691085 0.729138 0.600642
0.691085 0.729138 0.600642
0.694206 0.729207 0.601087
0.704396 0.728298 0.601557
0.734045 0.726935 0.605194
0.800726 0.729128 0.622791
0.914070 0.739664 0.676708
1.005173 0.761663 0.742735
1.005129 0.755791 0.740984
0.839567 0.807456 0.690627
0.839567 0.807456 0.690627
0.839567 0.807456 0.690627
0.841631 0.807544 0.691143
0.849887 0.807897 0.693205
0.874968 0.810409 0.701867
0.926052 0.812463 0.720490
1.005778 0.822815 0.764722
1.005712 0.817577 0.762518
0.079102 0.113095 0.176734
0.084692 0.096490 0.136579
0.243835 0.107090 0.142776
0.368452 0.153204 0.193699
0.514462 0.268523 0.283487
0.665194 0.401231 0.411237
0.802723 0.525359 0.540947
0.915347 0.639972 0.652921
1.005125 0.747184 0.749161
0.085459 0.128450 0.195439
0.084515 0.113613 0.163087
0.227964 0.115559 0.158334
0.368718 0.167904 0.205260
0.515707 0.274451 0.284964
0.665196 0.401746 0.411227
0.802723 0.525359 0.540947
0.915347 0.639972 0.652921
1.005125 0.747184 0.749161
0.142223 0.269998 0.293753
0.136875 0.259659 0.282090
0.218961 0.242250 0.258270
0.374394 0.233755 0.228181
0.514639 0.292174 0.287095
0.666404 0.406370 0.412334
0.802726 0.525860 0.540958
0.915347 0.639972 0.652921
1.005125 0.747184 0.749161
0.166704 0.345059 0.285115
0.165933 0.341797 0.263778
0.216910 0.337711 0.238037
0.396590 0.335430 0.247234
0.533342 0.356875 0.308849
0.671202 0.419763 0.416103
0.803849 0.529425 0.541752
0.915354 0.641497 0.653051
1.005128 0.747776 0.749178
0.238490 0.421621 0.293740
0.254331 0.420519 0.293322
0.316319 0.416308 0.292888
0.450330 0.410505 0.305444
0.633375 0.431062 0.388764
0.781283 0.492501 0.509080
0.808345 0.543531 0.545400
0.916445 0.646200 0.654355
1.005134 0.748966 0.749218
0.383256 0.524576 0.391450
0.388947 0.524618 0.391736
0.406748 0.522367 0.390647
0.470143 0.517292 0.391382
0.626790 0.520315 0.428405
0.789480 0.551933 0.529738
0.908754 0.610537 0.633800
0.920792 0.661239 0.658396
1.005147 0.751861 0.748936
0.529075 0.634788 0.500874
0.532822 0.634833 0.501179
0.539087 0.633723 0.500605
0.571208 0.633008 0.502686
0.641367 0.631256 0.510799
0.787202 0.637603 0.562382
0.917618 0.668756 0.653792
1.004892 0.711210 0.730580
1.005238 0.767048 0.749655
0.691085 0.729138 0.600642
0.691085 0.729138 0.600642
0.694206 0.729207 0.601087
0.704396 0.728298 0.601557
0.734045 0.726935 0.605194
0.799653 0.729064 0.622446
0.914070 0.739664 0.676708
1.005173 0.761663 0.742735
1.005129 0.755791 0.740984
0.839567 0.807456 0.690627
0.839567 0.807456 0.690627
0.839567 0.807456 0.690627
0.841631 0.807544 0.691143
0.849887 0.807897 0.693205
0.874968 0.810409 0.701867
0.926052 0.812463 0.720490
1.005778 0.822815 0.764722
1.005712 0.817577 0.762518
0.090582 0.128155 0.206887
0.105760 0.113312 0.175349
0.208972 0.114005 0.165384
0.392833 0.150219 0.199341
0.501631 0.266524 0.326618
0.655811 0.400062 0.418842
0.800515 0.525542 0.542639
0.915351 0.640205 0.653804
1.005132 0.747926 0.749832
0.101639 0.152678 0.240607
0.106849 0.136662 0.212656
0.195004 0.133502 0.201329
0.375595 0.155019 0.214607
0.501719 0.273590 0.330212
0.658182 0.401628 0.420408
0.800515 0.525542 0.542639
0.915351 0.640205 0.653804
1.005132 0.747926 0.749832
0.148604 0.246342 0.325573
0.142598 0.232994 0.307990
0.189055 0.223828 0.302639
0.357077 0.223276 0.302942
0.502040 0.296794 0.341411
0.659392 0.406273 0.421999
0.800519 0.526510 0.542572
0.915354 0.640730 0.653912
1.005132 0.747926 0.749832
0.235882 0.395761 0.424172
0.230409 0.390972 0.416389
0.232659 0.374660 0.399928
0.355561 0.371898 0.388532
0.510332 0.367336 0.365208
0.661846 0.421159 0.425562
0.801655 0.530710 0.543929
0.915358 0.641727 0.653931
1.005131 0.747894 0.749700
0.263336 0.460991 0.413488
0.263588 0.459942 0.404908
0.273743 0.459217 0.388979
0.359281 0.462461 0.373091
0.517202 0.454769 0.363203
0.669401 0.478271 0.436691
0.805040 0.543545 0.546819
0.916450 0.646398 0.655208
1.005136 0.749043 0.749598
0.375467 0.524519 0.391061
0.381838 0.524566 0.391379
0.400642 0.521105 0.389171
0.464852 0.517176 0.390657
0.623255 0.518910 0.426318
0.788357 0.550754 0.528611
0.908752 0.610107 0.633716
0.918660 0.660497 0.657803
1.005150 0.751965 0.749444
0.527200 0.634766 0.500721
0.529075 0.634788 0.500874
0.536284 0.633689 0.500377
0.568187 0.632960 0.502363
0.639183 0.631189 0.510389
0.786088 0.637423 0.561730
0.917618 0.668756 0.653792
1.004892 0.711210 0.730580
1.005240 0.767111 0.749986
0.690042 0.729115 0.600493
0.691085 0.729138 0.600642
0.693171 0.729184 0.600940
0.703363 0.728275 0.601409
0.734045 0.726935 0.605194
0.799653 0.729064 0.622446
0.914070 0.739664 0.676708
1.005173 0.761663 0.742735
1.005129 0.755791 0.740984
0.838535 0.807412 0.690369
0.839567 0.807456 0.690627
0.839567 0.807456 0.690627
0.841631 0.807544 0.691143
0.849887 0.807897 0.693205
0.872885 0.810284 0.701195
0.926052 0.812463 0.720490
1.005778 0.822815 0.764722
1.005712 0.817577 0.762518
0.139383 0.134559 0.216414
0.155540 0.132667 0.211729
0.221226 0.133357 0.206993
0.365255 0.150757 0.213765
0.538494 0.238123 0.296567
0.644246 0.397889 0.452863
0.794982 0.523930 0.548959
0.913239 0.642068 0.656262
1.005139 0.748211 0.751026
0.141386 0.162953 0.257840
0.155251 0.162236 0.256142
0.206956 0.158762 0.248792
0.345590 0.164540 0.244735
0.538494 0.238123 0.296567
0.645451 0.399912 0.454173
0.796103 0.525016 0.549844
0.913239 0.642068 0.656262
1.005138 0.748179 0.750893
0.174633 0.257149 0.353733
0.180482 0.254918 0.351466
0.209514 0.250124 0.347114
0.332767 0.248171 0.347799
0.487413 0.251979 0.341374
0.646708 0.406536 0.457976
0.796108 0.526019 0.550025
0.913239 0.642068 0.656262
1.005138 0.748179 0.750893
0.233322 0.364664 0.436146
0.232855 0.359892 0.432421
0.246182 0.357599 0.431187
0.332170 0.355711 0.433008
0.490531 0.352305 0.426654
0.648077 0.424061 0.465893
0.796125 0.529522 0.550438
0.913243 0.643068 0.656330
1.005142 0.748794 0.751034
0.354522 0.523047 0.559494
0.354522 0.523047 0.559494
0.335588 0.502973 0.537945
0.364669 0.495939 0.530955
0.482497 0.486071 0.504277
0.648897 0.484427 0.485909
0.799559 0.545048 0.554905
0.915404 0.647751 0.658252
1.005145 0.749377 0.751042
0.380854 0.585918 0.537177
0.381641 0.586684 0.534710
0.382446 0.582532 0.526702
0.406661 0.585382 0.513399
0.486849 0.586308 0.495858
0.656963 0.584281 0.495879
0.807777 0.606411 0.569702
0.917623 0.663276 0.660920
1.005166 0.753517 0.751257
0.516757 0.634662 0.500001
0.518446 0.634678 0.500113
0.526924 0.633578 0.499614
0.556906 0.631600 0.500102
0.633617 0.629858 0.508384
0.784974 0.637243 0.561078
0.917612 0.668003 0.653568
1.004890 0.710785 0.730497
1.005253 0.768062 0.751547
0.685870 0.729024 0.599895
0.686913 0.729047 0.600044
0.690042 0.729115 0.600493
0.699230 0.728185 0.600819
0.732989 0.726903 0.604989
0.798579 0.728999 0.622100
0.912994 0.738524 0.675609
1.005173 0.761663 0.742735
1.005129 0.755791 0.740984
0.838535 0.807412 0.690369
0.838535 0.807412 0.690369
0.838535 0.807412 0.690369
0.840599 0.807500 0.690885
0.848855 0.807853 0.692947
0.872885 0.810284 0.701195
0.926052 0.812463 0.720490
1.005778 0.822815 0.764722
1.005712 0.817577 0.762518
0.255684 0.158598 0.250759
0.265859 0.157282 0.247677
0.296280 0.157564 0.244078
0.368196 0.166883 0.246194
0.505937 0.225180 0.295518
0.681594 0.358373 0.417701
0.785225 0.524575 0.583578
0.911160 0.641678 0.666652
1.005185 0.750333 0.757796
0.242618 0.188188 0.293733
0.249797 0.187805 0.292923
0.278619 0.185799 0.288076
0.351085 0.182475 0.276495
0.505937 0.225180 0.295518
0.681594 0.358373 0.417701
0.785235 0.525263 0.584299
0.911162 0.642178 0.666742
1.005185 0.750333 0.757796
0.247794 0.287506 0.398823
0.253392 0.287628 0.398890
0.275826 0.285424 0.396825
0.339161 0.279798 0.392315
0.459793 0.264400 0.369656
0.681594 0.358373 0.417701
0.785255 0.526639 0.585739
0.911162 0.642178 0.666742
1.005183 0.750280 0.757557
0.286480 0.385756 0.483000
0.290718 0.386528 0.484203
0.303262 0.386687 0.484306
0.346128 0.384967 0.483473
0.462197 0.384041 0.484934
0.629202 0.388775 0.479477
0.785304 0.531774 0.588317
0.912242 0.644241 0.667777
1.005187 0.750887 0.757690
0.353063 0.486348 0.571602
0.353498 0.486299 0.570506
0.358499 0.485821 0.571582
0.383476 0.485550 0.572805
0.466175 0.481798 0.570123
0.632870 0.477062 0.557111
0.787695 0.548107 0.596338
0.912261 0.648206 0.668266
1.005187 0.751387 0.757345
0.495798 0.660691 0.710276
0.495798 0.660691 0.710276
0.495798 0.660691 0.710276
0.470156 0.632805 0.682069
0.504518 0.627499 0.675495
0.626568 0.615364 0.642877
0.789585 0.613919 0.618475
0.912355 0.663349 0.670924
1.005211 0.756013 0.757433
0.512199 0.711443 0.676827
0.512598 0.711323 0.676012
0.512854 0.710833 0.672723
0.516276 0.710671 0.664871
0.534559 0.710612 0.647135
0.623342 0.709623 0.621809
0.793655 0.709418 0.622674
0.923523 0.727706 0.687635
1.005295 0.769873 0.757552
0.673494 0.728766 0.598209
0.673494 0.728766 0.598209
0.676490 0.728818 0.598557
0.686769 0.727911 0.599037
0.723298 0.725485 0.602220
0.793162 0.727585 0.619576
0.911929 0.738290 0.674890
1.005167 0.760929 0.742516
1.005119 0.754370 0.740573
0.834389 0.807235 0.689334
0.834389 0.807235 0.689334
0.835427 0.807279 0.689593
0.838535 0.807412 0.690369
0.846791 0.807765 0.692431
0.871843 0.810221 0.700859
0.925003 0.812339 0.719968
1.005778 0.822815 0.764722
1.005712 0.817577 0.762518
0.393388 0.195275 0.290332
0.395714 0.195880 0.290748
0.402691 0.197698 0.291995
0.432033 0.207340 0.299397
0.503817 0.237373 0.321499
0.650765 0.336857 0.404510
0.809193 0.478667 0.536431
0.905228 0.651377 0.719681
1.005318 0.753626 0.777402
0.380444 0.207341 0.311612
0.382634 0.206995 0.310861
0.393897 0.205149 0.305888
0.432033 0.207340 0.299397
0.503817 0.237373 0.321499
0.650765 0.336857 0.404510
0.809193 0.478667 0.536431
0.905228 0.651377 0.719681
1.005318 0.753626 0.777402
0.366061 0.318734 0.442434
0.368008 0.318679 0.442480
0.375268 0.315869 0.439198
0.397882 0.305995 0.428339
0.461434 0.271898 0.384543
0.650765 0.336857 0.404510
0.809193 0.478667 0.536431
0.905238 0.652056 0.720379
1.005318 0.753626 0.777402
0.386651 0.432817 0.548608
0.387263 0.432830 0.548615
0.392852 0.431783 0.547474
0.413286 0.429269 0.545291
0.466427 0.426239 0.543747
0.601107 0.413501 0.524591
0.809193 0.478657 0.536430
0.905256 0.653586 0.721268
1.005322 0.754206 0.777513
0.434803 0.526799 0.639022
0.435710 0.526810 0.639028
0.438065 0.526372 0.637903
0.447934 0.526148 0.637953
0.483078 0.524616 0.638136
0.600984 0.523955 0.637143
0.767960 0.529408 0.627311
0.907444 0.659838 0.724746
1.005329 0.755367 0.777736
0.497269 0.624566 0.721659
0.497666 0.624569 0.721661
0.499293 0.624011 0.721618
0.506682 0.625856 0.723916
0.525842 0.624547 0.723916
0.604006 0.620682 0.721231
0.771943 0.616018 0.709756
0.907648 0.676207 0.733842
1.005359 0.760012 0.778626
0.613707 0.777934 0.830095
0.613707 0.777934 0.830095
0.613707 0.777934 0.830095
0.613707 0.777934 0.830095
0.599250 0.757065 0.812940
0.632209 0.751624 0.803822
0.765017 0.743475 0.779341
0.910618 0.741504 0.755320
1.005484 0.776847 0.781454
0.627317 0.817590 0.799546
0.627453 0.817590 0.799547
0.627648 0.817430 0.798688
0.628536 0.817111 0.796976
0.631720 0.815768 0.789442
0.654808 0.814436 0.773643
0.755033 0.817731 0.747853
0.912808 0.815166 0.737712
1.005958 0.828515 0.783712
0.824006 0.806791 0.686740
0.824006 0.806791 0.686740
0.825044 0.806835 0.686999
0.827120 0.806924 0.687518
0.835427 0.807279 0.689593
0.863501 0.809719 0.698167
0.919774 0.811813 0.717611
1.005778 0.822815 0.764722
1.005712 0.817577 0.762518
0.531907 0.266676 0.359140
0.533114 0.267271 0.359534
0.534322 0.267942 0.359935
0.545159 0.273698 0.364228
0.578892 0.292791 0.377775
0.649665 0.342199 0.417206
0.783457 0.456366 0.518118
0.909729 0.576873 0.633559
1.005939 0.765779 0.838694
0.531907 0.266676 0.359140
0.533114 0.267271 0.359534
0.534322 0.267942 0.359935
0.545159 0.273698 0.364228
0.578892 0.292791 0.377775
0.649665 0.342199 0.417206
0.783457 0.456366 0.518118
0.909729 0.576873 0.633559
1.005942 0.766172 0.838741
0.500446 0.282560 0.393994
0.501593 0.281610 0.392307
0.507465 0.280832 0.389613
0.528646 0.278773 0.379893
0.578892 0.292791 0.377775
0.649665 0.342199 0.417206
0.783457 0.456366 0.518118
0.909729 0.576873 0.633559
1.005942 0.766172 0.838741
0.496103 0.477288 0.606399
0.496966 0.477319 0.606413
0.498693 0.477382 0.606441
0.507823 0.476269 0.605432
0.534625 0.469439 0.597847
0.600083 0.431444 0.554318
0.783457 0.456366 0.518118
0.909729 0.576873 0.633559
1.005945 0.766566 0.838789
0.525355 0.577826 0.704434
0.525355 0.577826 0.704434
0.526946 0.577855 0.704448
0.532168 0.577686 0.704479
0.551941 0.577588 0.704654
0.609220 0.572844 0.699781
0.739721 0.562400 0.682059
0.909729 0.576873 0.633559
1.005965 0.768445 0.839683
0.569219 0.660208 0.778203
0.569219 0.660208 0.778203
0.570490 0.660224 0.778211
0.571779 0.658329 0.776011
0.582820 0.658483 0.776092
0.619153 0.658901 0.778479
0.738002 0.656294 0.775433
0.893247 0.660958 0.766767
1.006040 0.774112 0.843030
0.619396 0.746092 0.842110
0.619506 0.746093 0.842110
0.619963 0.746097 0.842113
0.621005 0.744988 0.842017
0.627512 0.746177 0.843147
0.649433 0.744739 0.843145
0.741590 0.743869 0.844100
0.896862 0.740409 0.834624
1.006281 0.791565 0.851505
0.706445 0.870524 0.923338
0.706445 0.870524 0.923338
0.706445 0.870524 0.923338
0.706445 0.870524 0.923338
0.706114 0.869803 0.923240
0.700316 0.855649 0.913004
0.749872 0.855317 0.907783
0.890068 0.853665 0.892991
1.007179 0.849517 0.870568
0.727980 0.909220 0.903834
0.728167 0.909221 0.903835
0.728354 0.909222 0.903837
0.728704 0.909069 0.903018
0.731722 0.909851 0.902472
0.739047 0.908963 0.897605
0.772447 0.908703 0.886216
0.881758 0.911624 0.862767
1.007966 0.909649 0.844223
0.677090 0.370755 0.450144
0.677090 0.370755 0.450144
0.678277 0.371660 0.450861
0.679464 0.372564 0.451577
0.690060 0.380696 0.457978
0.719384 0.404213 0.477428
0.781237 0.457170 0.522946
0.891417 0.560185 0.619071
0.996253 0.662400 0.718383
0.677090 0.370755 0.450144
0.677090 0.370755 0.450144
0.678277 0.371660 0.450861
0.679464 0.372564 0.451577
0.690060 0.380696 0.457978
0.719384 0.404213 0.477428
0.781237 0.457170 0.522946
0.891417 0.560185 0.619071
0.996253 0.662400 0.718383
0.677090 0.370755 0.450144
0.677090 0.370755 0.450144
0.678277 0.371660 0.450861
0.679464 0.372564 0.451577
0.690060 0.380696 0.457978
0.719384 0.404213 0.477428
0.781237 0.457170 0.522946
0.891417 0.560185 0.619071
0.996253 0.662400 0.718383
0.627628 0.429117 0.553594
0.627627 0.429045 0.553589
0.628681 0.427208 0.551523
0.631765 0.417817 0.539503
0.652760 0.381372 0.483881
0.719384 0.404213 0.477428
0.781237 0.457170 0.522946
0.891417 0.560185 0.619071
0.996253 0.662400 0.718383
0.638570 0.617118 0.750935
0.638570 0.617118 0.750935
0.639425 0.617149 0.750949
0.641131 0.617072 0.750969
0.648256 0.616164 0.749989
0.676976 0.612664 0.746181
0.738218 0.585753 0.714826
0.891417 0.560185 0.619071
0.996253 0.662400 0.718383
0.653637 0.697584 0.824574
0.653637 0.697584 0.824574
0.653637 0.697584 0.824574
0.656203 0.697640 0.824600
0.661955 0.697765 0.824659
0.682423 0.697476 0.824849
0.740092 0.697167 0.825711
0.868666 0.691582 0.814512
0.996253 0.662400 0.718383
0.683589 0.770718 0.885201
0.683589 0.770718 0.885201
0.683993 0.770723 0.885203
0.685205 0.770739 0.885212
0.689578 0.770449 0.885220
0.703522 0.770659 0.885334
0.747824 0.772005 0.887833
0.869206 0.772192 0.887690
0.999383 0.774601 0.880697
0.720831 0.848895 0.939820
0.720831 0.848895 0.939820
0.720948 0.848896 0.939820
0.721625 0.848902 0.939824
0.723466 0.848386 0.939787
0.732210 0.849555 0.940905
0.764094 0.850471 0.942166
0.865404 0.849143 0.941535
1.003731 0.850274 0.937735
0.750158 0.931961 0.954744
0.750158 0.931961 0.954744
0.750158 0.931961 0.954744
0.750158 0.931961 0.954744
0.750158 0.931961 0.954744
0.750158 0.931961 0.954744
0.776010 0.935348 0.980179
0.860834 0.943631 0.992081
0.997441 0.944574 0.985676
