Assets/Lutify-Free-LUTs-Pack/Lutify Free LUTs Pack/Cine World Pro Warm - Amy/Lutify.me-Amy-SLog1-to-Rec709.cube
# Created with: fylm.ai - Colour Grading and Collaboration Software in Cloud 
# Website: https://fylm.ai 
# META
# Option: Gamut compress
# Block 1: IDT | Sony S-Log S-Gamut 10-bit
# Block 2: colourMatch | Blending Mode: Normal | {"ColorSpace":0,"CrossCovarianceLimit":50,"ReshapingIterations":1,"PercentSaturationShift":100,"PercentShadingShift":100,"ExtraShading":true,"PercentTint":100,"PercentModified":100}
# Block 3: LUT | Filmic Curve Response: Standard Contrast 1 (100%)
# Block 4: LUT | Illuminant: D60 (100%)
# Block 5: hueSaturation | Blending Mode: Normal | {"hue":0,"saturation":-0.15}
# Block 6: logPrimaries | Blending Mode: Normal | {"wheels":{"shadows":{"Y":"0","R":"1","G":"1","B":"1"},"midtones":{"Y":"0","R":"1","G":"1","B":"1"},"highlights":{"Y":"0","R":"1","G":"1","B":"1"},"offset":{"Y":"0","R":"1","G":"1","B":"1"}},"sliders":{"shadows":{"Y":0,"R":-0.097,"G":0,"B":0.158},"midtones":{"Y":0,"R":0.024,"G":0.024,"B":-0.036},"highlights":{"Y":0,"R":0.154,"G":-0.084,"B":-0.024},"offset":{"Y":0.048,"R":0,"G":0,"B":0}}}
# Block 7: smartCurves | Blending Mode: Average | [[{"x":0,"y":0},{"x":0.11328125,"y":0.085540771484375},{"x":0.21484375,"y":0.218353271484375},{"x":0.37109375,"y":0.382415771484375},{"x":0.62109375,"y":0.589447021484375},{"x":0.8125,"y":0.765228271484375},{"x":1,"y":1}],[{"x":0,"y":0},{"x":1,"y":1}],[{"x":0,"y":0},{"x":1,"y":1}],[{"x":0,"y":0},{"x":1,"y":1}]]
# Block 8: LUT | Neutral Tint: Teal Tint 4 (100%)
# Block 9: contrast | Blending Mode: Normal | {"contrast":0.1}
# Block 10: ODT | Rec709
TITLE "Lutify.me-Amy-SLog1-to-Rec709" 
LUT_3D_SIZE 33
0.000000 0.000000 0.000000
0.000000 0.000000 0.000000
0.000000 0.000000 0.000000
0.000000 0.000000 0.000000
0.062593 0.000000 0.000000
0.138223 0.000000 0.000000
0.202763 0.000000 0.000000
0.266471 0.000000 0.000000
0.328399 0.000000 0.000000
0.384086 0.000000 0.000000
0.441453 0.000000 0.000000
0.497301 0.000000 0.000000
0.550544 0.000000 0.000000
0.606788 0.000000 0.000000
0.648125 0.000000 0.000000
0.698691 0.000000 0.000000
0.754195 0.000000 0.000000
0.822878 0.000000 0.000000
0.895645 0.000000 0.000000
0.948059 0.000000 0.023196
0.996738 0.000000 0.047803
1.000000 0.000000 0.078158
1.000000 0.000000 0.108287
1.000000 0.000000 0.139717
1.000000 0.112563 0.174452
1.000000 0.263229 0.211305
1.000000 0.359331 0.250056
1.000000 0.440819 0.301869
1.000000 0.509634 0.358156
1.000000 0.580356 0.416596
1.000000 0.644421 0.466948
1.000000 0.701138 0.519261
1.000000 0.755428 0.577852
0.000000 0.000000 0.000000
0.000000 0.000000 0.000000
0.000000 0.000000 0.000000
0.000000 0.000000 0.000000
0.054800 0.000000 0.000000
0.131753 0.000000 0.000000
0.191682 0.000000 0.000000
0.256968 0.000000 0.000000
0.323827 0.000000 0.000000
0.375873 0.000000 0.000000
0.425493 0.000000 0.000000
0.479193 0.000000 0.000000
0.538830 0.000000 0.000000
0.606827 0.000000 0.000000
0.656525 0.000000 0.000000
0.698719 0.000000 0.000000
0.758471 0.000000 0.000000
0.818565 0.000000 0.000000
0.895571 0.000000 0.000000
0.951091 0.000000 0.022923
0.999123 0.000000 0.049656
1.000000 0.000000 0.078381
1.000000 0.000000 0.107273
1.000000 0.000000 0.140122
1.000000 0.139529 0.173619
1.000000 0.271718 0.213754
1.000000 0.362849 0.251512
1.000000 0.444052 0.301631
1.000000 0.509634 0.358156
1.000000 0.580356 0.416596
1.000000 0.644421 0.466948
1.000000 0.703396 0.519166
1.000000 0.755428 0.577852
0.000000 0.000000 0.000000
0.000000 0.000000 0.000000
0.000000 0.000000 0.000000
0.000000 0.000000 0.000000
0.048424 0.000000 0.000000
0.125272 0.000000 0.000000
0.181438 0.000000 0.000000
0.249604 0.000000 0.000000
0.308501 0.000000 0.000000
0.365250 0.000000 0.000000
0.416254 0.000000 0.000000
0.461640 0.000000 0.000000
0.531114 0.000000 0.000000
0.606891 0.000000 0.000000
0.648223 0.000000 0.000000
0.698740 0.000000 0.000000
0.758475 0.000000 0.000000
0.822820 0.000000 0.000000
0.895482 0.000000 0.000000
0.950898 0.000000 0.019697
0.998765 0.000000 0.049107
1.000000 0.000000 0.077894
1.000000 0.000000 0.107552
1.000000 0.000000 0.140777
1.000000 0.147284 0.174672
1.000000 0.280083 0.213181
1.000000 0.366372 0.251239
1.000000 0.447295 0.301390
1.000000 0.512661 0.360315
1.000000 0.580356 0.416596
1.000000 0.647009 0.466808
1.000000 0.703396 0.519166
1.000000 0.757289 0.577808
0.000000 0.000000 0.000000
0.000000 0.000000 0.000000
0.000000 0.000000 0.000000
0.000000 0.000000 0.000000
0.034799 0.000000 0.000000
0.117107 0.000000 0.000000
0.170666 0.000000 0.000000
0.238956 0.000000 0.000000
0.302206 0.000000 0.000000
0.357561 0.000000 0.000000
0.407229 0.000000 0.000000
0.465122 0.000000 0.000000
0.527330 0.000000 0.000000
0.598801 0.000000 0.000000
0.644103 0.000000 0.000000
0.698768 0.000000 0.000000
0.754190 0.000000 0.000000
0.822780 0.000000 0.000000
0.895380 0.000000 0.000000
0.953878 0.000000 0.019379
1.000000 0.000000 0.048663
1.000000 0.000000 0.077822
1.000000 0.000000 0.108095
1.000000 0.000000 0.140222
1.000000 0.166345 0.175322
1.000000 0.280075 0.214709
1.000000 0.369882 0.252708
1.000000 0.451982 0.304069
1.000000 0.515705 0.360118
1.000000 0.583199 0.416427
1.000000 0.647009 0.466808
1.000000 0.705650 0.519072
1.000000 0.757289 0.577808
0.000000 0.038779 0.000000
0.000000 0.036490 0.000000
0.000000 0.033476 0.000000
0.000000 0.027985 0.000000
0.000000 0.022103 0.000000
0.108607 0.000000 0.000000
0.161185 0.000000 0.000000
0.228795 0.000000 0.000000
0.290010 0.000000 0.000000
0.347535 0.000000 0.000000
0.407262 0.000000 0.000000
0.454950 0.000000 0.000000
0.523584 0.000000 0.000000
0.586741 0.000000 0.000000
0.644155 0.000000 0.000000
0.698791 0.000000 0.000000
0.754186 0.000000 0.000000
0.827015 0.000000 0.000000
0.898959 0.000000 0.000000
0.953623 0.000000 0.011806
1.000000 0.000000 0.048477
1.000000 0.000000 0.078692
1.000000 0.000000 0.107209
1.000000 0.000000 0.140562
1.000000 0.179163 0.176062
1.000000 0.288316 0.214124
1.000000 0.373397 0.252431
1.000000 0.455216 0.303826
1.000000 0.518755 0.359920
1.000000 0.586049 0.416256
1.000000 0.649594 0.466669
1.000000 0.705650 0.519072
1.000000 0.757289 0.577808
0.000000 0.074394 0.000000
0.000000 0.071944 0.000000
0.000000 0.067881 0.000000
0.000000 0.064208 0.000000
0.000000 0.057899 0.000000
0.091661 0.049465 0.000000
0.157503 0.023041 0.000000
0.229936 0.000000 0.000000
0.289811 0.000000 0.000000
0.347598 0.000000 0.000000
0.407429 0.000000 0.000000
0.461924 0.000000 0.000000
0.527591 0.000000 0.000000
0.586857 0.000000 0.000000
0.648382 0.000000 0.000000
0.698820 0.000000 0.000000
0.758445 0.000000 0.000000
0.835397 0.000000 0.000000
0.895023 0.000000 0.000000
0.953336 0.000000 0.010613
1.000000 0.000000 0.048069
1.000000 0.000000 0.078032
1.000000 0.000000 0.107569
1.000000 0.000000 0.139639
1.000000 0.196993 0.175103
1.000000 0.296447 0.213521
1.000000 0.381885 0.252649
1.000000 0.458453 0.303581
1.000000 0.521802 0.362095
1.000000 0.588908 0.416084
1.000000 0.652178 0.466530
1.000000 0.707899 0.518979
1.000000 0.757289 0.577808
0.000000 0.108001 0.000000
0.000000 0.104513 0.000000
0.000000 0.099504 0.000000
0.000000 0.093984 0.000000
0.000000 0.088808 0.000000
0.075572 0.080671 0.000000
0.152005 0.067676 0.000000
0.231204 0.038323 0.000000
0.295967 0.000000 0.000000
0.355416 0.000000 0.000000
0.410770 0.000000 0.000000
0.469233 0.000000 0.000000
0.527896 0.000000 0.000000
0.591063 0.000000 0.000000
0.644332 0.000000 0.000000
0.694640 0.000000 0.000000
0.758421 0.000000 0.000000
0.826791 0.000000 0.000000
0.894724 0.000000 0.000000
0.949756 0.000000 0.000000
0.999875 0.000000 0.047615
1.000000 0.000000 0.076789
1.000000 0.000000 0.107015
1.000000 0.000000 0.140139
1.000000 0.208167 0.175809
1.000000 0.308461 0.214144
1.000000 0.388849 0.253841
1.000000 0.461687 0.305399
1.000000 0.521802 0.362095
1.000000 0.588908 0.416084
1.000000 0.652178 0.466530
1.000000 0.710144 0.518888
1.000000 0.759144 0.577766
0.000000 0.147773 0.000000
0.000000 0.142945 0.000000
0.000000 0.139428 0.000000
0.000000 0.134902 0.000000
0.000000 0.125315 0.000000
0.029912 0.116948 0.000000
0.141185 0.106367 0.000000
0.230309 0.090184 0.000000
0.298561 0.066977 0.000000
0.361501 0.000000 0.000000
0.417800 0.000000 0.000000
0.480799 0.000000 0.000000
0.540220 0.000000 0.000000
0.603648 0.000000 0.000000
0.644592 0.000000 0.000000
0.703181 0.000000 0.000000
0.758368 0.000000 0.000000
0.826579 0.000000 0.000000
0.894348 0.000000 0.000000
0.949318 0.000000 0.000000
0.996829 0.000000 0.046128
1.000000 0.000000 0.075706
1.000000 0.000000 0.107532
1.000000 0.059174 0.141260
1.000000 0.224131 0.176157
1.000000 0.321777 0.215445
1.000000 0.399287 0.254749
1.000000 0.464932 0.305151
1.000000 0.529320 0.365063
1.000000 0.591774 0.415911
1.000000 0.654748 0.468830
1.000000 0.712384 0.518798
1.000000 0.760991 0.577727
0.000000 0.189764 0.000000
0.000000 0.183566 0.000000
0.000000 0.176058 0.000000
0.000000 0.170239 0.000000
0.000000 0.163311 0.000000
0.000000 0.156040 0.000000
0.114157 0.148067 0.000000
0.219842 0.134810 0.000000
0.298950 0.118793 0.000000
0.365848 0.096710 0.000000
0.426018 0.069246 0.000000
0.489767 0.000000 0.000000
0.549431 0.000000 0.000000
0.608639 0.000000 0.000000
0.657566 0.000000 0.000000
0.716007 0.000000 0.000000
0.762537 0.000000 0.000000
0.826310 0.000000 0.000000
0.893885 0.000000 0.000000
0.945504 0.000000 0.000000
0.993353 0.000000 0.040321
1.000000 0.000000 0.074017
1.000000 0.000000 0.107521
1.000000 0.115028 0.141804
1.000000 0.244143 0.177538
1.000000 0.333438 0.216041
1.000000 0.406238 0.255959
1.000000 0.471427 0.306737
1.000000 0.532371 0.367259
1.000000 0.594637 0.418163
1.000000 0.659903 0.468557
1.000000 0.714606 0.521196
1.000000 0.762830 0.577689
0.000000 0.226869 0.000000
0.000000 0.223463 0.000000
0.000000 0.216418 0.000000
0.000000 0.209442 0.000000
0.000000 0.201048 0.000000
0.000000 0.195867 0.000000
0.000000 0.189429 0.000000
0.189740 0.177758 0.000000
0.291538 0.162362 0.000000
0.364793 0.145028 0.000000
0.431511 0.128879 0.000000
0.495556 0.105327 0.000000
0.555265 0.077353 0.000000
0.614004 0.000000 0.000000
0.662516 0.000000 0.000000
0.720533 0.000000 0.000000
0.766684 0.000000 0.000000
0.834229 0.000000 0.000000
0.893225 0.000000 0.000000
0.944689 0.000000 0.000000
0.992443 0.000000 0.030175
1.000000 0.000000 0.071174
1.000000 0.000000 0.106815
1.000000 0.163849 0.141469
1.000000 0.263054 0.178943
1.000000 0.348802 0.216274
1.000000 0.416665 0.256871
1.000000 0.477947 0.306229
1.000000 0.538503 0.369269
1.000000 0.600408 0.417814
1.000000 0.661258 0.469700
1.000000 0.716835 0.521109
1.000000 0.765587 0.581338
0.000000 0.261868 0.000000
0.000000 0.257933 0.000000
0.000000 0.248349 0.000000
0.000000 0.246463 0.000000
0.000000 0.239083 0.000000
0.000000 0.235188 0.000000
0.000000 0.230383 0.000000
0.126189 0.223270 0.000000
0.263108 0.209015 0.000000
0.348929 0.198529 0.000000
0.427793 0.182954 0.000000
0.498647 0.163917 0.000000
0.565567 0.151479 0.000000
0.623863 0.134273 0.000000
0.671974 0.116111 0.000000
0.721182 0.094936 0.000000
0.775125 0.000000 0.000000
0.841685 0.000000 0.000000
0.895693 0.000000 0.000000
0.946579 0.000000 0.000000
0.993439 0.000000 0.000000
1.000000 0.000000 0.067686
1.000000 0.090569 0.105225
1.000000 0.196281 0.143388
1.000000 0.289970 0.179524
1.000000 0.363994 0.218128
1.000000 0.431830 0.260127
1.000000 0.487750 0.307566
1.000000 0.547770 0.368658
1.000000 0.606198 0.419904
1.000000 0.666351 0.471877
1.000000 0.721263 0.523440
1.000000 0.767393 0.581306
0.000000 0.297914 0.000000
0.000000 0.297912 0.000000
0.000000 0.288971 0.000000
0.000000 0.286767 0.000000
0.000000 0.278137 0.000000
0.000000 0.280071 0.000000
0.000000 0.273159 0.000000
0.000000 0.266834 0.000000
0.211064 0.255261 0.000000
0.312629 0.243378 0.000000
0.413379 0.233506 0.000000
0.494579 0.215521 0.000000
0.572197 0.202240 0.000000
0.630171 0.196129 0.000000
0.677900 0.194983 0.000000
0.726265 0.182495 0.000000
0.767152 0.178729 0.000000
0.844841 0.146654 0.000000
0.897404 0.118502 0.000000
0.949979 0.090580 0.000000
0.991427 0.000000 0.000000
1.000000 0.114816 0.063629
1.000000 0.165730 0.104479
1.000000 0.234517 0.142219
1.000000 0.315733 0.181575
1.000000 0.386547 0.220990
1.000000 0.445722 0.262634
1.000000 0.498826 0.311962
1.000000 0.553986 0.368242
1.000000 0.610473 0.420780
1.000000 0.671444 0.471615
1.000000 0.723472 0.523358
1.000000 0.770970 0.583744
0.000000 0.342117 0.000000
0.000000 0.342116 0.000000
0.000000 0.334286 0.000000
0.000000 0.334273 0.000000
0.000000 0.329115 0.000000
0.000000 0.329010 0.000000
0.000000 0.321197 0.000000
0.000000 0.322638 0.000000
0.095782 0.314460 0.000000
0.259331 0.304260 0.000000
0.376543 0.293025 0.000000
0.462075 0.283883 0.000000
0.563542 0.264627 0.000000
0.632811 0.255698 0.000000
0.683937 0.258403 0.000000
0.731523 0.248190 0.000000
0.767712 0.254034 0.000000
0.843718 0.238598 0.000000
0.898506 0.227486 0.000000
0.949188 0.227759 0.000000
0.992305 0.213021 0.000000
1.000000 0.207892 0.050002
1.000000 0.232651 0.102807
1.000000 0.284618 0.138438
1.000000 0.348799 0.181032
1.000000 0.408922 0.222134
1.000000 0.456156 0.263576
1.000000 0.511945 0.315277
1.000000 0.563346 0.370044
1.000000 0.619197 0.422704
1.000000 0.676511 0.473816
1.000000 0.728908 0.526869
1.000000 0.772750 0.583719
0.000000 0.390366 0.000000
0.000000 0.387334 0.000000
0.000000 0.381341 0.000000
0.000000 0.381330 0.000000
0.000000 0.375404 0.000000
0.000000 0.378265 0.000000
0.000000 0.372257 0.000000
0.000000 0.377658 0.000000
0.000000 0.369966 0.000000
0.153493 0.363730 0.000000
0.312930 0.352048 0.000000
0.428973 0.341280 0.000000
0.527514 0.331869 0.000000
0.625858 0.313297 0.000000
0.685077 0.314726 0.000000
0.736399 0.310175 0.000000
0.775979 0.318309 0.000000
0.842240 0.310770 0.000000
0.898807 0.304912 0.000000
0.947447 0.310190 0.000000
0.989115 0.305532 0.000000
1.000000 0.303856 0.000000
1.000000 0.306932 0.097103
1.000000 0.333717 0.135628
1.000000 0.380898 0.178514
1.000000 0.431222 0.223237
1.000000 0.478126 0.266275
1.000000 0.528449 0.318396
1.000000 0.573968 0.372830
1.000000 0.630904 0.424465
1.000000 0.684069 0.478394
1.000000 0.733232 0.529235
1.000000 0.774522 0.583696
0.000000 0.435050 0.000000
0.000000 0.428424 0.000000
0.000000 0.425170 0.000000
0.000000 0.425162 0.000000
0.000000 0.421899 0.000000
0.000000 0.421838 0.000000
0.000000 0.421739 0.000000
0.000000 0.421500 0.000000
0.000000 0.420507 0.000000
0.000000 0.418737 0.000000
0.188276 0.415758 0.000000
0.346994 0.407272 0.000000
0.478491 0.392304 0.000000
0.591983 0.374968 0.000000
0.675858 0.365431 0.000000
0.728011 0.366261 0.000000
0.779383 0.370855 0.000000
0.844149 0.366004 0.000000
0.901340 0.374549 0.000000
0.945354 0.373847 0.000000
0.985465 0.375063 0.000000
1.000000 0.374352 0.000000
1.000000 0.381419 0.084646
1.000000 0.388813 0.138157
1.000000 0.414974 0.175375
1.000000 0.457143 0.223854
1.000000 0.498020 0.269447
1.000000 0.542826 0.320461
1.000000 0.586546 0.374430
1.000000 0.639644 0.426427
1.000000 0.694084 0.480414
1.000000 0.741795 0.531492
1.000000 0.778025 0.586162
0.000000 0.490197 0.000000
0.000000 0.479684 0.000000
0.000000 0.476196 0.000000
0.000000 0.476191 0.000000
0.000000 0.479664 0.000000
0.000000 0.476141 0.000000
0.000000 0.476079 0.000000
0.000000 0.479432 0.000000
0.000000 0.482491 0.000000
0.000000 0.474494 0.000000
0.000000 0.475773 0.000000
0.232591 0.468938 0.000000
0.392917 0.456414 0.000000
0.525332 0.444751 0.000000
0.624053 0.436477 0.000000
0.716456 0.423481 0.000000
0.777802 0.420485 0.000000
0.845541 0.416702 0.000000
0.897370 0.430980 0.000000
0.940034 0.431368 0.000000
0.981568 0.433184 0.000000
1.000000 0.437072 0.000000
1.000000 0.439674 0.067344
1.000000 0.446369 0.136196
1.000000 0.459118 0.182627
1.000000 0.489620 0.220706
1.000000 0.521700 0.270276
1.000000 0.561822 0.322502
1.000000 0.605579 0.375590
1.000000 0.655219 0.431643
1.000000 0.707475 0.486009
1.000000 0.748120 0.533850
1.000000 0.781490 0.588647
0.000000 0.540178 0.000000
0.000000 0.536563 0.000000
0.000000 0.532950 0.000000
0.000000 0.536552 0.000000
0.000000 0.540150 0.000000
0.000000 0.536499 0.000000
0.000000 0.532835 0.000000
0.000000 0.536339 0.000000
0.000000 0.539679 0.000000
0.000000 0.542673 0.000000
0.000000 0.537671 0.000000
0.000000 0.531864 0.000000
0.275601 0.524279 0.000000
0.452709 0.517781 0.000000
0.570265 0.507088 0.000000
0.669203 0.495628 0.000000
0.755534 0.483899 0.000000
0.834283 0.480124 0.000000
0.892965 0.482770 0.000000
0.933921 0.487846 0.000000
0.972114 0.490193 0.000000
1.000000 0.490112 0.000000
1.000000 0.500531 0.041219
1.000000 0.513990 0.128925
1.000000 0.521174 0.182035
1.000000 0.534067 0.224559
1.000000 0.552769 0.270318
1.000000 0.584494 0.321932
1.000000 0.628000 0.379037
1.000000 0.672236 0.433202
1.000000 0.717152 0.488134
1.000000 0.757267 0.534809
1.000000 0.787428 0.592311
0.000000 0.598730 0.032062
0.000000 0.598736 0.000000
0.000000 0.602423 0.000000
0.000000 0.602410 0.000000
0.000000 0.602389 0.000000
0.000000 0.602356 0.000000
0.000000 0.602306 0.000000
0.000000 0.598521 0.000000
0.000000 0.601987 0.000000
0.000000 0.601553 0.000000
0.000000 0.607940 0.000000
0.000000 0.598995 0.000000
0.000000 0.596451 0.000000
0.345883 0.591460 0.000000
0.494928 0.578363 0.000000
0.615121 0.571494 0.000000
0.717163 0.560217 0.000000
0.814493 0.548148 0.000000
0.876686 0.546970 0.000000
0.921198 0.548023 0.000000
0.965106 0.554258 0.000000
0.998425 0.562182 0.000000
1.000000 0.564307 0.000000
1.000000 0.576400 0.116885
1.000000 0.582574 0.181167
1.000000 0.593813 0.229502
1.000000 0.599794 0.277203
1.000000 0.617759 0.325343
1.000000 0.649357 0.384204
1.000000 0.690768 0.436222
1.000000 0.729040 0.490226
1.000000 0.763315 0.539773
1.000000 0.794226 0.597355
0.000000 0.650653 0.133064
0.000000 0.654375 0.097460
0.000000 0.654366 0.036214
0.000000 0.658075 0.000000
0.000000 0.658057 0.000000
0.000000 0.661746 0.000000
0.000000 0.657972 0.000000
0.000000 0.657886 0.000000
0.000000 0.661406 0.000000
0.000000 0.657345 0.000000
0.000000 0.660433 0.000000
0.000000 0.662811 0.000000
0.000000 0.656971 0.000000
0.176008 0.653417 0.000000
0.406016 0.645076 0.000000
0.540684 0.635969 0.000000
0.668423 0.628754 0.000000
0.773766 0.617433 0.000000
0.864147 0.602742 0.000000
0.914398 0.607366 0.000000
0.950766 0.613776 0.000000
0.989998 0.617520 0.000000
1.000000 0.626752 0.000000
1.000000 0.634279 0.095056
1.000000 0.647026 0.174355
1.000000 0.652920 0.228024
1.000000 0.660385 0.285737
1.000000 0.665617 0.337633
1.000000 0.682582 0.388895
1.000000 0.712435 0.440353
1.000000 0.745201 0.497402
1.000000 0.773171 0.544761
1.000000 0.802640 0.602487
0.000000 0.706423 0.193341
0.000000 0.706422 0.169178
0.000000 0.710102 0.141437
0.000000 0.710081 0.133290
0.000000 0.713717 0.113272
0.000000 0.717316 0.081571
0.000000 0.717258 0.000000
0.000000 0.720773 0.000000
0.000000 0.724180 0.000000
0.000000 0.720287 0.000000
0.000000 0.712500 0.000000
0.000000 0.715186 0.000000
0.000000 0.717063 0.000000
0.000000 0.714196 0.000000
0.297456 0.706617 0.000000
0.477908 0.694502 0.000000
0.599302 0.692946 0.000000
0.739027 0.677400 0.000000
0.830782 0.667238 0.000000
0.897567 0.662811 0.000000
0.940832 0.664580 0.000000
0.975127 0.671543 0.000000
1.000000 0.679850 0.000000
1.000000 0.682170 0.086538
1.000000 0.693023 0.171397
1.000000 0.700657 0.233493
1.000000 0.706536 0.289705
1.000000 0.712923 0.348670
1.000000 0.721044 0.401177
1.000000 0.736399 0.450964
1.000000 0.757071 0.503419
1.000000 0.785209 0.553573
1.000000 0.809914 0.606248
0.000000 0.755607 0.250427
0.000000 0.758924 0.235999
0.000000 0.758913 0.222034
0.000000 0.762182 0.214325
0.000000 0.762156 0.203637
0.000000 0.765377 0.188191
0.000000 0.765303 0.172991
0.000000 0.765186 0.152793
0.000000 0.768257 0.123846
0.000000 0.771195 0.085732
0.000000 0.770726 0.000000
0.000000 0.766811 0.000000
0.000000 0.768844 0.000000
0.000000 0.759854 0.000000
0.000000 0.759492 0.000000
0.389191 0.752170 0.000000
0.543660 0.743941 0.000000
0.675739 0.737720 0.000000
0.798311 0.726986 0.000000
0.871711 0.715326 0.000000
0.927410 0.712105 0.000000
0.962794 0.717657 0.000000
0.994061 0.721146 0.000000
1.000000 0.725944 0.082287
1.000000 0.731330 0.166798
1.000000 0.737786 0.237011
1.000000 0.745219 0.295787
1.000000 0.749945 0.356103
1.000000 0.756021 0.411872
1.000000 0.762920 0.463681
1.000000 0.778145 0.511019
1.000000 0.798098 0.558834
1.000000 0.821282 0.606469
0.000000 0.804968 0.319063
0.000000 0.804962 0.304380
0.000000 0.804951 0.293484
0.000000 0.807753 0.285997
0.000000 0.807723 0.275165
0.000000 0.810458 0.267687
0.000000 0.813118 0.256575
0.000000 0.812990 0.245722
0.000000 0.815532 0.227032
0.000000 0.815300 0.212106
0.000000 0.817575 0.204331
0.000000 0.816944 0.184982
0.000000 0.815937 0.155674
0.000000 0.814193 0.121608
0.000000 0.805615 0.055499
0.261632 0.804536 0.000000
0.454544 0.803192 0.000000
0.622555 0.791634 0.000000
0.743065 0.782713 0.000000
0.829731 0.777451 0.000000
0.898829 0.767380 0.000000
0.945547 0.761971 0.000000
0.979410 0.761114 0.000000
1.000000 0.767274 0.090382
1.000000 0.771391 0.177441
1.000000 0.775893 0.241936
1.000000 0.781484 0.303246
1.000000 0.787165 0.362414
1.000000 0.791316 0.418401
1.000000 0.799181 0.468376
1.000000 0.806938 0.518261
1.000000 0.816416 0.562898
1.000000 0.834340 0.613127
0.000000 0.848282 0.377204
0.000000 0.848263 0.369786
0.000000 0.848234 0.362369
0.000000 0.850494 0.354960
0.000000 0.850449 0.347535
0.000000 0.852640 0.336401
0.000000 0.852551 0.328962
0.000000 0.854655 0.321572
0.000000 0.854450 0.310394
0.000000 0.856441 0.299316
0.000000 0.856070 0.292065
0.000000 0.857642 0.277531
0.000000 0.858947 0.259316
0.000000 0.857652 0.237236
0.000000 0.855222 0.211102
0.000000 0.849729 0.188385
0.367084 0.843526 0.164664
0.546044 0.838592 0.128497
0.692547 0.832413 0.072227
0.790780 0.822613 0.000000
0.863612 0.815876 0.000000
0.921175 0.812293 0.000000
0.965446 0.805410 0.000000
0.995996 0.804841 0.098038
1.000000 0.809939 0.193117
1.000000 0.813181 0.254789
1.000000 0.816989 0.320725
1.000000 0.821500 0.375654
1.000000 0.828592 0.430725
1.000000 0.832560 0.485753
1.000000 0.839165 0.530649
1.000000 0.842266 0.569916
1.000000 0.850693 0.619162
0.000000 0.884282 0.434423
0.000000 0.884251 0.427028
0.000000 0.884205 0.419645
0.000000 0.884152 0.419671
0.000000 0.884101 0.415995
0.000000 0.885969 0.408800
0.000000 0.885867 0.397758
0.000000 0.885688 0.390456
0.000000 0.885472 0.383182
0.000000 0.885213 0.379607
0.000000 0.886761 0.372591
0.000000 0.886158 0.358074
0.000000 0.887282 0.340112
0.000000 0.885958 0.325710
0.000000 0.884097 0.307629
0.000000 0.881511 0.282396
0.250043 0.877793 0.261434
0.480885 0.873299 0.248408
0.644629 0.867521 0.217549
0.755235 0.860316 0.206642
0.834567 0.851957 0.185701
0.897516 0.848106 0.172919
0.945463 0.845256 0.157388
0.983847 0.841592 0.160794
1.000000 0.841342 0.209239
1.000000 0.843744 0.274541
1.000000 0.844704 0.336645
1.000000 0.849666 0.392176
1.000000 0.855366 0.445514
1.000000 0.859795 0.498278
1.000000 0.862913 0.549475
1.000000 0.864793 0.588043
1.000000 0.868200 0.632618
0.000000 0.912539 0.496881
0.000000 0.914107 0.493454
0.000000 0.914046 0.489791
0.000000 0.913997 0.482451
0.000000 0.913940 0.478799
0.000000 0.915433 0.471778
0.000000 0.913714 0.467874
0.000000 0.911940 0.460321
0.000000 0.911712 0.453073
0.000000 0.911408 0.442203
0.000000 0.911083 0.435001
0.000000 0.910465 0.427884
0.000000 0.909698 0.420800
0.000000 0.910075 0.403287
0.000000 0.909906 0.389634
0.000000 0.908040 0.375701
0.000000 0.906719 0.348199
0.410255 0.902282 0.335253
0.600846 0.898213 0.320124
0.716599 0.890192 0.300592
0.801566 0.884228 0.286700
0.869428 0.880300 0.279413
0.925749 0.875254 0.258898
0.966601 0.871273 0.256261
0.994389 0.870163 0.253485
1.000000 0.869987 0.291787
1.000000 0.871919 0.353457
1.000000 0.874167 0.408043
1.000000 0.878068 0.462612
1.000000 0.881419 0.511367
1.000000 0.883574 0.559887
1.000000 0.885821 0.598042
1.000000 0.888871 0.646218
0.000000 0.935310 0.560261
0.000000 0.936548 0.553298
0.000000 0.936506 0.549666
0.000000 0.936430 0.546043
