Assets/Lutify-Free-LUTs-Pack/Lutify Free LUTs Pack/Cine World Pro Warm - Amy/Lutify.me-Amy-RWG-to-RWG.cube
# Created with: fylm.ai - Colour Grading and Collaboration Software in Cloud 
# Website: https://fylm.ai 
# META
# Option: Gamut compress
# Block 1: colourMatch | Blending Mode: Normal | {"ColorSpace":0,"CrossCovarianceLimit":50,"ReshapingIterations":1,"PercentSaturationShift":100,"PercentShadingShift":100,"ExtraShading":true,"PercentTint":100,"PercentModified":100}
# Block 2: LUT | Filmic Curve Response: Standard Contrast 1 (100%)
# Block 3: LUT | Illuminant: D60 (100%)
# Block 4: hueSaturation | Blending Mode: Normal | {"hue":0,"saturation":-0.15}
# Block 5: logPrimaries | Blending Mode: Normal | {"wheels":{"shadows":{"Y":"0","R":"1","G":"1","B":"1"},"midtones":{"Y":"0","R":"1","G":"1","B":"1"},"highlights":{"Y":"0","R":"1","G":"1","B":"1"},"offset":{"Y":"0","R":"1","G":"1","B":"1"}},"sliders":{"shadows":{"Y":0,"R":-0.097,"G":0,"B":0.158},"midtones":{"Y":0,"R":0.024,"G":0.024,"B":-0.036},"highlights":{"Y":0,"R":0.154,"G":-0.084,"B":-0.024},"offset":{"Y":0.048,"R":0,"G":0,"B":0}}}
# Block 6: smartCurves | Blending Mode: Average | [[{"x":0,"y":0},{"x":0.11328125,"y":0.085540771484375},{"x":0.21484375,"y":0.218353271484375},{"x":0.37109375,"y":0.382415771484375},{"x":0.62109375,"y":0.589447021484375},{"x":0.8125,"y":0.765228271484375},{"x":1,"y":1}],[{"x":0,"y":0},{"x":1,"y":1}],[{"x":0,"y":0},{"x":1,"y":1}],[{"x":0,"y":0},{"x":1,"y":1}]]
# Block 7: LUT | Neutral Tint: Teal Tint 4 (100%)
# Block 8: contrast | Blending Mode: Normal | {"contrast":0.1}
TITLE "Lutify.me-Amy-ACEScct-to-ACEScct" 
LUT_3D_SIZE 5
0.057803 0.074463 0.087371
0.285358 0.106806 0.125567
0.530096 0.271794 0.279453
0.802712 0.524000 0.539568
1.005124 0.747156 0.749031
0.097616 0.226733 0.146721
0.300404 0.208924 0.160279
0.550768 0.295960 0.296961
0.803830 0.526131 0.540617
1.005124 0.747156 0.749031
0.245775 0.421662 0.294034
0.321676 0.417558 0.294277
0.634581 0.433095 0.390188
0.809447 0.543726 0.544881
1.005129 0.748293 0.748818
0.530012 0.634799 0.500950
0.540022 0.633734 0.500681
0.641367 0.631256 0.510799
0.917618 0.668756 0.653792
1.005238 0.767035 0.749591
0.839567 0.807456 0.690627
0.839567 0.807456 0.690627
0.849887 0.807897 0.693205
0.926052 0.812463 0.720490
1.005712 0.817577 0.762518
0.079102 0.113095 0.176734
0.243835 0.107090 0.142776
0.514462 0.268523 0.283487
0.802723 0.525359 0.540947
1.005125 0.747184 0.749161
0.142223 0.269998 0.293753
0.218961 0.242250 0.258270
0.514639 0.292174 0.287095
0.802726 0.525860 0.540958
1.005125 0.747184 0.749161
0.238490 0.421621 0.293740
0.316319 0.416308 0.292888
0.633375 0.431062 0.388764
0.808345 0.543531 0.545400
1.005134 0.748966 0.749218
0.529075 0.634788 0.500874
0.539087 0.633723 0.500605
0.641367 0.631256 0.510799
0.917618 0.668756 0.653792
1.005238 0.767048 0.749655
0.839567 0.807456 0.690627
0.839567 0.807456 0.690627
0.849887 0.807897 0.693205
0.926052 0.812463 0.720490
1.005712 0.817577 0.762518
0.139383 0.134559 0.216414
0.221226 0.133357 0.206993
0.538494 0.238123 0.296567
0.794982 0.523930 0.548959
1.005139 0.748211 0.751026
0.174633 0.257149 0.353733
0.209514 0.250124 0.347114
0.487413 0.251979 0.341374
0.796108 0.526019 0.550025
1.005138 0.748179 0.750893
0.354522 0.523047 0.559494
0.335588 0.502973 0.537945
0.482497 0.486071 0.504277
0.799559 0.545048 0.554905
1.005145 0.749377 0.751042
0.516757 0.634662 0.500001
0.526924 0.633578 0.499614
0.633617 0.629858 0.508384
0.917612 0.668003 0.653568
1.005253 0.768062 0.751547
0.838535 0.807412 0.690369
0.838535 0.807412 0.690369
0.848855 0.807853 0.692947
0.926052 0.812463 0.720490
1.005712 0.817577 0.762518
0.393388 0.195275 0.290332
0.402691 0.197698 0.291995
0.503817 0.237373 0.321499
0.809193 0.478667 0.536431
1.005318 0.753626 0.777402
0.366061 0.318734 0.442434
0.375268 0.315869 0.439198
0.461434 0.271898 0.384543
0.809193 0.478667 0.536431
1.005318 0.753626 0.777402
0.434803 0.526799 0.639022
0.438065 0.526372 0.637903
0.483078 0.524616 0.638136
0.767960 0.529408 0.627311
1.005329 0.755367 0.777736
0.613707 0.777934 0.830095
0.613707 0.777934 0.830095
0.599250 0.757065 0.812940
0.765017 0.743475 0.779341
1.005484 0.776847 0.781454
0.824006 0.806791 0.686740
0.825044 0.806835 0.686999
0.835427 0.807279 0.689593
0.919774 0.811813 0.717611
1.005712 0.817577 0.762518
0.677090 0.370755 0.450144
0.678277 0.371660 0.450861
0.690060 0.380696 0.457978
0.781237 0.457170 0.522946
0.996253 0.662400 0.718383
0.677090 0.370755 0.450144
0.678277 0.371660 0.450861
0.690060 0.380696 0.457978
0.781237 0.457170 0.522946
0.996253 0.662400 0.718383
0.638570 0.617118 0.750935
0.639425 0.617149 0.750949
0.648256 0.616164 0.749989
0.738218 0.585753 0.714826
0.996253 0.662400 0.718383
0.683589 0.770718 0.885201
0.683993 0.770723 0.885203
0.689578 0.770449 0.885220
0.747824 0.772005 0.887833
0.999383 0.774601 0.880697
0.750158 0.931961 0.954744
0.750158 0.931961 0.954744
0.750158 0.931961 0.954744
0.776010 0.935348 0.980179
0.997441 0.944574 0.985676
