Assets/Lutify-Free-LUTs-Pack/Lutify Free LUTs Pack/Cine World Pro Warm - Amy/Lutify.me-Amy-FLog2-to-Rec709.cube
# Created with: fylm.ai - Colour Grading and Collaboration Software in Cloud 
# Website: https://fylm.ai 
# META
# Option: Gamut compress
# Block 1: IDT | Fujifilm F-Gamut F-Log2
# Block 2: colourMatch | Blending Mode: Normal | {"ColorSpace":0,"CrossCovarianceLimit":50,"ReshapingIterations":1,"PercentSaturationShift":100,"PercentShadingShift":100,"ExtraShading":true,"PercentTint":100,"PercentModified":100}
# Block 3: LUT | Filmic Curve Response: Standard Contrast 1 (100%)
# Block 4: LUT | Illuminant: D60 (100%)
# Block 5: hueSaturation | Blending Mode: Normal | {"hue":0,"saturation":-0.15}
# Block 6: logPrimaries | Blending Mode: Normal | {"wheels":{"shadows":{"Y":"0","R":"1","G":"1","B":"1"},"midtones":{"Y":"0","R":"1","G":"1","B":"1"},"highlights":{"Y":"0","R":"1","G":"1","B":"1"},"offset":{"Y":"0","R":"1","G":"1","B":"1"}},"sliders":{"shadows":{"Y":0,"R":-0.097,"G":0,"B":0.158},"midtones":{"Y":0,"R":0.024,"G":0.024,"B":-0.036},"highlights":{"Y":0,"R":0.154,"G":-0.084,"B":-0.024},"offset":{"Y":0.048,"R":0,"G":0,"B":0}}}
# Block 7: smartCurves | Blending Mode: Average | [[{"x":0,"y":0},{"x":0.11328125,"y":0.085540771484375},{"x":0.21484375,"y":0.218353271484375},{"x":0.37109375,"y":0.382415771484375},{"x":0.62109375,"y":0.589447021484375},{"x":0.8125,"y":0.765228271484375},{"x":1,"y":1}],[{"x":0,"y":0},{"x":1,"y":1}],[{"x":0,"y":0},{"x":1,"y":1}],[{"x":0,"y":0},{"x":1,"y":1}]]
# Block 8: LUT | Neutral Tint: Teal Tint 4 (100%)
# Block 9: contrast | Blending Mode: Normal | {"contrast":0.1}
# Block 10: ODT | Rec709
TITLE "Lutify.me-Amy-FLog2-to-Rec709" 
LUT_3D_SIZE 9
0.000000 0.000000 0.000000
0.000000 0.000000 0.000000
0.194337 0.000000 0.000000
0.448171 0.000000 0.000000
0.788544 0.000000 0.000000
1.000000 0.000000 0.145549
1.000000 0.585209 0.419037
1.000000 0.859359 0.742885
1.000000 0.957804 0.911757
0.000000 0.000000 0.000000
0.000000 0.000000 0.000000
0.178801 0.000000 0.000000
0.428806 0.000000 0.000000
0.788474 0.000000 0.000000
1.000000 0.000000 0.146503
1.000000 0.591249 0.418676
1.000000 0.860477 0.742903
1.000000 0.958247 0.911767
0.000000 0.108894 0.000000
0.000000 0.101974 0.000000
0.163273 0.079825 0.000000
0.442807 0.000000 0.000000
0.788161 0.000000 0.000000
1.000000 0.104719 0.148033
1.000000 0.597294 0.423469
1.000000 0.860466 0.744915
1.000000 0.958247 0.911767
0.000000 0.288939 0.000000
0.000000 0.284536 0.000000
0.000000 0.278763 0.000000
0.454682 0.241507 0.000000
0.803756 0.214099 0.000000
1.000000 0.278128 0.152371
1.000000 0.621797 0.424596
1.000000 0.863789 0.744974
1.000000 0.958247 0.911767
0.000000 0.576569 0.083789
0.000000 0.569185 0.050939
0.000000 0.579854 0.000000
0.000000 0.578267 0.000000
0.787433 0.542730 0.000000
1.000000 0.574642 0.161654
1.000000 0.694365 0.448246
1.000000 0.873436 0.751199
1.000000 0.959564 0.912566
0.000000 0.869143 0.419155
0.000000 0.868980 0.415503
0.000000 0.870507 0.408376
0.000000 0.871740 0.376172
0.598462 0.853448 0.296173
0.979402 0.831472 0.249450
1.000000 0.855032 0.518131
1.000000 0.900195 0.771950
1.000000 0.963426 0.915719
0.000000 0.981005 0.764996
0.000000 0.980760 0.764993
0.000000 0.981008 0.760096
0.000000 0.978821 0.746821
0.547125 0.972163 0.716411
0.896018 0.957012 0.664973
1.000000 0.950344 0.648064
1.000000 0.959381 0.819219
1.000000 0.974590 0.925311
0.719221 1.000000 0.933784
0.722079 1.000000 0.933777
0.727736 1.000000 0.933763
0.742310 1.000000 0.932094
0.783050 1.000000 0.927627
0.871137 1.000000 0.914623
0.981513 0.995803 0.890996
1.000000 0.993852 0.881500
1.000000 0.995687 0.946874
0.919637 1.000000 0.992680
0.919637 1.000000 0.992680
0.919637 1.000000 0.992680
0.922555 1.000000 0.992416
0.927067 1.000000 0.992136
0.940637 1.000000 0.990732
0.974445 1.000000 0.985927
1.000000 1.000000 0.978743
1.000000 1.000000 0.970853
0.000000 0.000000 0.006596
0.000000 0.000000 0.000000
0.168446 0.000000 0.000000
0.398570 0.000000 0.000000
0.780071 0.000000 0.037909
1.000000 0.000000 0.158168
1.000000 0.586912 0.423088
1.000000 0.858786 0.744015
1.000000 0.957804 0.911757
0.000000 0.000000 0.023771
0.000000 0.000000 0.017047
0.149419 0.000000 0.000000
0.387171 0.000000 0.018421
0.779991 0.000000 0.039038
1.000000 0.000000 0.159578
1.000000 0.589938 0.425510
1.000000 0.859914 0.744031
1.000000 0.958247 0.911767
0.000000 0.112515 0.045850
0.000000 0.106241 0.027840
0.124171 0.095833 0.000000
0.396544 0.000000 0.016420
0.775375 0.000000 0.038266
1.000000 0.125801 0.161679
1.000000 0.597283 0.426065
1.000000 0.860466 0.744915
1.000000 0.958247 0.911767
0.000000 0.297631 0.072799
0.000000 0.295478 0.000000
0.000000 0.296904 0.000000
0.396189 0.273443 0.000000
0.790969 0.225874 0.000000
1.000000 0.287583 0.169655
1.000000 0.621776 0.429843
1.000000 0.863778 0.746977
1.000000 0.958247 0.911767
0.000000 0.583876 0.177916
0.000000 0.583836 0.155501
0.000000 0.583542 0.104619
0.000000 0.585813 0.000000
0.777153 0.551364 0.000000
1.000000 0.578338 0.183314
1.000000 0.694346 0.453747
1.000000 0.873436 0.751199
1.000000 0.959559 0.913330
0.000000 0.869118 0.445171
0.000000 0.868927 0.437798
0.000000 0.870505 0.423201
0.000000 0.871865 0.398238
0.590048 0.855768 0.318309
0.977159 0.833594 0.268503
1.000000 0.855017 0.523916
1.000000 0.900195 0.771950
1.000000 0.963426 0.915719
0.000000 0.981827 0.770289
0.000000 0.981585 0.770284
0.000000 0.980982 0.765235
0.000000 0.978795 0.752197
0.546848 0.972150 0.719318
0.895878 0.957000 0.668052
1.000000 0.950335 0.650725
1.000000 0.959374 0.820681
1.000000 0.974590 0.925311
0.719158 1.000000 0.934626
0.722016 1.000000 0.934619
0.727736 1.000000 0.933763
0.739543 1.000000 0.932955
0.782983 1.000000 0.928516
0.871068 1.000000 0.915602
0.981448 0.995797 0.892068
1.000000 0.993852 0.881500
1.000000 0.995687 0.946874
0.919637 1.000000 0.992680
0.919637 1.000000 0.992680
0.919637 1.000000 0.992680
0.922555 1.000000 0.992416
0.927067 1.000000 0.992136
0.940637 1.000000 0.990732
0.974424 1.000000 0.986245
1.000000 1.000000 0.979105
1.000000 1.000000 0.971228
0.000000 0.000000 0.079670
0.000000 0.000000 0.057810
0.135728 0.000000 0.053140
0.366418 0.000000 0.060495
0.759123 0.000000 0.083430
1.000000 0.000000 0.188428
1.000000 0.586877 0.430921
1.000000 0.858775 0.746037
1.000000 0.957804 0.911757
0.000000 0.000000 0.098691
0.000000 0.000000 0.081073
0.120116 0.000000 0.074556
0.363987 0.000000 0.075399
0.758964 0.000000 0.085843
1.000000 0.052432 0.188879
1.000000 0.589915 0.430746
1.000000 0.859903 0.746052
1.000000 0.958247 0.911767
0.000000 0.145031 0.201297
0.000000 0.130657 0.192672
0.050954 0.116311 0.154508
0.361739 0.047123 0.103827
0.758345 0.000000 0.095018
1.000000 0.151215 0.193309
1.000000 0.595998 0.433029
1.000000 0.861026 0.746068
1.000000 0.958247 0.911767
0.000000 0.319090 0.284026
0.000000 0.314445 0.265797
0.000000 0.315030 0.202140
0.338616 0.303928 0.135370
0.780880 0.236511 0.108801
1.000000 0.296832 0.200365
1.000000 0.621719 0.443154
1.000000 0.864864 0.748994
1.000000 0.958242 0.912534
0.000000 0.594734 0.325308
0.000000 0.594723 0.303503
0.000000 0.594511 0.265001
0.000000 0.604895 0.190411
0.750364 0.568996 0.104260
1.000000 0.581857 0.230137
1.000000 0.697903 0.468391
1.000000 0.873414 0.755137
1.000000 0.959559 0.913330
0.000000 0.871083 0.497548
0.000000 0.870921 0.490096
0.000000 0.872473 0.475354
0.000000 0.873876 0.442686
0.573896 0.858266 0.365686
0.974387 0.835674 0.317166
1.000000 0.854836 0.531926
1.000000 0.899902 0.771225
1.000000 0.963426 0.915719
0.000000 0.981776 0.780064
0.000000 0.981534 0.780059
0.000000 0.980931 0.775210
0.000000 0.979455 0.765462
0.545189 0.972072 0.736337
0.893115 0.957836 0.680641
1.000000 0.950287 0.663996
1.000000 0.959359 0.823596
1.000000 0.974590 0.925311
0.719034 1.000000 0.936287
0.721892 1.000000 0.936280
0.728346 1.000000 0.935501
0.739417 1.000000 0.934641
0.782852 1.000000 0.930272
0.870931 1.000000 0.917540
0.981319 0.995785 0.894198
1.000000 0.993847 0.882422
1.000000 0.995684 0.947418
0.919624 1.000000 0.992936
0.919624 1.000000 0.992936
0.919763 1.000000 0.992941
0.922542 1.000000 0.992675
0.927067 1.000000 0.992136
0.940637 1.000000 0.990732
0.974424 1.000000 0.986245
1.000000 1.000000 0.979105
1.000000 1.000000 0.971228
0.000000 0.020301 0.181858
0.000000 0.011210 0.157818
0.097523 0.000000 0.148377
0.360059 0.000000 0.149012
0.744846 0.000000 0.215809
1.000000 0.000000 0.271851
1.000000 0.590252 0.469714
1.000000 0.859845 0.756074
1.000000 0.958236 0.913300
0.000000 0.053767 0.224686
0.000000 0.048684 0.204932
0.078377 0.034512 0.199972
0.362373 0.000000 0.192924
0.744884 0.000000 0.230127
1.000000 0.084274 0.273774
1.000000 0.594570 0.470332
1.000000 0.859845 0.756074
1.000000 0.958236 0.913300
0.000000 0.159486 0.327436
0.000000 0.145505 0.315272
0.000000 0.134941 0.310723
0.366615 0.064364 0.289725
0.752607 0.000000 0.256961
1.000000 0.163011 0.281372
1.000000 0.600692 0.475644
1.000000 0.860969 0.756083
1.000000 0.958236 0.913300
0.000000 0.366785 0.459506
0.000000 0.352296 0.449702
0.000000 0.340854 0.443410
0.236071 0.333351 0.413111
0.748957 0.276320 0.317072
1.000000 0.304584 0.302458
1.000000 0.625501 0.480032
1.000000 0.864293 0.758099
1.000000 0.958232 0.914063
0.000000 0.619836 0.577271
0.000000 0.619840 0.566003
0.000000 0.619706 0.547316
0.000000 0.620109 0.473622
0.703138 0.598854 0.394168
1.000000 0.588830 0.355295
1.000000 0.701888 0.507027
1.000000 0.873360 0.764868
1.000000 0.959549 0.914852
0.000000 0.874752 0.648390
0.000000 0.876607 0.644657
0.000000 0.876160 0.633415
0.000000 0.877633 0.596070
0.527597 0.865257 0.504511
0.958667 0.840056 0.441467
1.000000 0.854267 0.568927
1.000000 0.900813 0.778557
1.000000 0.963416 0.917221
0.000000 0.982446 0.811550
0.000000 0.982219 0.809412
0.000000 0.981737 0.807250
0.000000 0.979422 0.800653
0.535170 0.972824 0.773154
0.888902 0.958543 0.721687
1.000000 0.950924 0.695236
1.000000 0.959331 0.829380
1.000000 0.974585 0.926011
0.719531 1.000000 0.940361
0.719531 1.000000 0.940361
0.727993 1.000000 0.940338
0.739058 1.000000 0.939522
0.782962 1.000000 0.934603
0.870664 1.000000 0.921335
0.980401 0.995794 0.899397
1.000000 0.994075 0.887112
1.000000 0.995678 0.948502
0.919751 1.000000 0.993193
0.919751 1.000000 0.993193
0.919751 1.000000 0.993193
0.922516 1.000000 0.993182
0.927040 1.000000 0.992658
0.940604 1.000000 0.991283
0.974382 1.000000 0.986872
1.000000 1.000000 0.979822
1.000000 1.000000 0.971921
0.000000 0.130251 0.416827
0.000000 0.125422 0.416950
0.000000 0.118471 0.417059
0.322834 0.056724 0.419079
0.748584 0.000000 0.414237
1.000000 0.120793 0.499746
1.000000 0.599500 0.582314
1.000000 0.859166 0.776831
1.000000 0.958212 0.917104
0.000000 0.151153 0.436488
0.000000 0.145604 0.440055
0.000000 0.138261 0.436803
0.317500 0.096587 0.445887
0.751116 0.000000 0.434046
1.000000 0.147880 0.502976
1.000000 0.602639 0.582176
1.000000 0.860300 0.776824
1.000000 0.958212 0.917104
0.000000 0.200712 0.494295
0.000000 0.200624 0.494309
0.000000 0.193296 0.490979
0.293823 0.168731 0.500957
0.756183 0.000000 0.485033
1.000000 0.209100 0.512801
1.000000 0.612063 0.584945
1.000000 0.861427 0.776818
1.000000 0.958212 0.917104
0.000000 0.386779 0.638383
0.000000 0.386818 0.630865
0.000000 0.380291 0.634932
0.070800 0.371276 0.627375
0.740555 0.304160 0.596708
1.000000 0.343381 0.545478
1.000000 0.632047 0.594214
1.000000 0.864754 0.780597
1.000000 0.958207 0.917860
0.000000 0.667335 0.781292
0.000000 0.663579 0.778587
0.000000 0.667130 0.778369
0.000000 0.656683 0.763602
0.588978 0.637847 0.723761
1.000000 0.618551 0.621852
1.000000 0.710505 0.617283
1.000000 0.873840 0.786780
1.000000 0.959525 0.918632
0.000000 0.891454 0.854679
0.000000 0.891274 0.854669
0.000000 0.890848 0.850738
0.000000 0.888291 0.838395
0.446077 0.873333 0.781940
0.924330 0.852210 0.707444
1.000000 0.858222 0.690357
1.000000 0.900393 0.802392
1.000000 0.963388 0.921683
0.000000 0.983612 0.891054
0.000000 0.983379 0.891037
0.000000 0.982784 0.889659
0.000000 0.980809 0.882652
0.505715 0.975084 0.860732
0.868327 0.962615 0.817354
1.000000 0.952837 0.782397
1.000000 0.959696 0.848502
1.000000 0.974560 0.930164
0.719411 1.000000 0.954170
0.719411 1.000000 0.954170
0.722231 1.000000 0.954162
0.736128 1.000000 0.952764
0.780016 1.000000 0.949196
0.868023 1.000000 0.937048
0.977405 0.996083 0.916247
1.000000 0.994247 0.902254
1.000000 0.995853 0.951774
0.919693 1.000000 0.994415
0.919693 1.000000 0.994415
0.919693 1.000000 0.994415
0.922457 1.000000 0.994404
0.926976 1.000000 0.993906
0.940575 1.000000 0.992869
0.974251 1.000000 0.988405
1.000000 1.000000 0.981572
1.000000 1.000000 0.974105
0.000000 0.351321 0.756789
0.000000 0.348170 0.756890
0.000000 0.344515 0.760260
0.000000 0.333262 0.766539
0.708203 0.265412 0.763651
1.000000 0.161084 0.743840
1.000000 0.613426 0.805290
1.000000 0.866027 0.845835
1.000000 0.958138 0.928204
0.000000 0.363102 0.766150
0.000000 0.359855 0.766257
0.000000 0.356159 0.769548
0.000000 0.345032 0.772512
0.706065 0.276738 0.772902
1.000000 0.181073 0.753397
1.000000 0.619929 0.805002
1.000000 0.867135 0.845796
1.000000 0.958575 0.928921
0.000000 0.384703 0.784111
0.000000 0.384477 0.784090
0.000000 0.383752 0.787062
0.000000 0.369777 0.790047
0.700303 0.311098 0.784342
1.000000 0.237159 0.762264
1.000000 0.622200 0.809409
1.000000 0.867135 0.845796
1.000000 0.958575 0.928921
0.000000 0.462074 0.822643
0.000000 0.461899 0.822624
0.000000 0.464792 0.827431
0.000000 0.454489 0.824926
0.661502 0.418401 0.820017
1.000000 0.361644 0.800589
1.000000 0.647233 0.814916
1.000000 0.868223 0.847337
1.000000 0.959016 0.928918
0.000000 0.707666 0.900177
0.000000 0.707565 0.900165
0.000000 0.703503 0.900360
0.000000 0.704971 0.899888
0.534232 0.680650 0.892386
0.987283 0.645222 0.866390
1.000000 0.720361 0.832993
1.000000 0.877793 0.853228
1.000000 0.960328 0.929628
0.000000 0.911812 0.948965
0.000000 0.913243 0.948833
0.000000 0.911244 0.949806
0.000000 0.908935 0.948690
0.347542 0.896547 0.935033
0.890841 0.868659 0.912645
1.000000 0.869002 0.879074
1.000000 0.906089 0.866223
1.000000 0.963588 0.932247
0.000000 0.990760 0.971069
0.000000 0.990552 0.970457
0.000000 0.990115 0.969817
0.000000 0.987509 0.969082
0.471778 0.980577 0.960729
0.848191 0.966080 0.940619
0.991329 0.958123 0.914333
1.000000 0.960898 0.899455
1.000000 0.974768 0.940600
0.714524 1.000000 0.980388
0.714518 1.000000 0.979966
0.720099 1.000000 0.979947
0.731044 1.000000 0.979483
0.769963 1.000000 0.976686
0.861149 1.000000 0.968912
0.971325 0.997108 0.954158
1.000000 0.995042 0.937258
1.000000 0.995979 0.960938
0.919699 1.000000 0.997849
0.920620 1.000000 0.997845
0.920620 1.000000 0.997845
0.923360 1.000000 0.997639
0.927813 1.000000 0.997225
0.939644 1.000000 0.996565
0.973437 1.000000 0.993044
1.000000 1.000000 0.985839
1.000000 1.000000 0.979511
0.000000 0.650713 0.952219
0.000000 0.650219 0.952163
0.000000 0.645785 0.952306
0.071801 0.646341 0.952768
0.557576 0.631121 0.950778
0.989591 0.580536 0.946675
1.000000 0.623167 0.933559
1.000000 0.868122 0.944772
1.000000 0.959914 0.960508
0.000000 0.654467 0.951999
0.000000 0.653977 0.951943
0.000000 0.649577 0.953126
0.000000 0.650127 0.952551
0.555379 0.635028 0.951608
0.986609 0.584808 0.947560
1.000000 0.626681 0.933397
1.000000 0.869247 0.944703
1.000000 0.960353 0.960488
0.000000 0.662002 0.952593
0.000000 0.661518 0.952538
0.000000 0.660861 0.952464
0.000000 0.657905 0.953163
0.548815 0.646673 0.952010
0.982413 0.601361 0.948893
1.000000 0.636559 0.935180
1.000000 0.870364 0.945459
1.000000 0.960353 0.960488
0.000000 0.688438 0.957993
0.000000 0.687946 0.956974
0.000000 0.687320 0.956903
0.000000 0.684511 0.957557
0.538706 0.673600 0.957385
0.972314 0.638285 0.953131
1.000000 0.659644 0.940575
1.000000 0.873672 0.946072
1.000000 0.960790 0.960469
0.000000 0.777685 0.969492
0.000000 0.777374 0.969458
0.000000 0.773745 0.968828
0.000000 0.774352 0.969139
0.482422 0.761500 0.967586
0.936725 0.724523 0.962872
1.000000 0.733669 0.951337
1.000000 0.882883 0.949553
1.000000 0.961649 0.961537
0.000000 0.927017 0.989123
0.000000 0.926738 0.989096
0.000000 0.926044 0.989028
0.000000 0.921550 0.988135
0.342512 0.915334 0.986382
0.859671 0.891959 0.981010
1.000000 0.882541 0.971925
1.000000 0.910575 0.958666
1.000000 0.965606 0.963610
0.000000 0.997236 0.999503
0.000000 0.997043 0.999485
0.000000 0.996447 0.999164
0.000000 0.994076 0.999048
0.449099 0.987808 0.997669
0.825267 0.973958 0.993548
0.978992 0.964553 0.985620
1.000000 0.965176 0.973155
1.000000 0.976726 0.967826
0.709912 1.000000 1.000000
0.712535 1.000000 1.000000
0.715042 1.000000 1.000000
0.727903 1.000000 1.000000
0.766419 1.000000 1.000000
0.851326 1.000000 1.000000
0.964066 0.998348 0.995212
1.000000 0.996451 0.987063
1.000000 0.996749 0.981181
0.915342 1.000000 1.000000
0.915342 1.000000 1.000000
0.915339 1.000000 1.000000
0.918105 1.000000 1.000000
0.922627 1.000000 1.000000
0.937860 1.000000 1.000000
0.968621 1.000000 1.000000
1.000000 1.000000 0.997680
1.000000 1.000000 0.993439
0.565236 0.881829 1.000000
0.571769 0.881599 1.000000
0.584524 0.881138 1.000000
0.614734 0.879992 1.000000
0.704043 0.872715 1.000000
0.869193 0.865554 1.000000
1.000000 0.851596 1.000000
1.000000 0.872737 0.996931
1.000000 0.962636 0.997169
0.565236 0.881829 1.000000
0.571769 0.881599 1.000000
0.584524 0.881138 1.000000
0.614734 0.879992 1.000000
0.703158 0.874501 1.000000
0.869193 0.865554 1.000000
1.000000 0.853359 1.000000
1.000000 0.872737 0.996931
1.000000 0.962636 0.997169
0.564306 0.883552 1.000000
0.570844 0.883323 1.000000
0.583610 0.882864 1.000000
0.614884 0.880009 1.000000
0.702206 0.876244 1.000000
0.868384 0.867336 1.000000
1.000000 0.855126 1.000000
1.000000 0.873788 0.997190
1.000000 0.962636 0.997169
0.561439 0.888575 1.000000
0.567998 0.888348 1.000000
0.580803 0.887894 1.000000
0.612109 0.885114 1.000000
0.700504 0.879704 1.000000
0.866794 0.870835 1.000000
1.000000 0.860247 1.000000
1.000000 0.877162 0.997293
1.000000 0.963072 0.997376
0.553765 0.902462 1.000000
0.560373 0.902241 1.000000
0.573268 0.901799 1.000000
0.604592 0.899242 1.000000
0.693193 0.894124 1.000000
0.859372 0.886906 1.000000
1.000000 0.874574 1.000000
1.000000 0.886296 0.998558
1.000000 0.964378 0.997520
0.546777 0.937425 1.000000
0.553197 0.937223 1.000000
0.565719 0.936819 1.000000
0.589581 0.936013 1.000000
0.672578 0.930646 1.000000
0.842461 0.923424 1.000000
0.997451 0.911388 1.000000
1.000000 0.913485 1.000000
1.000000 0.968006 0.998195
0.598094 0.990998 1.000000
0.602652 0.990846 1.000000
0.607153 0.990695 1.000000
0.637104 0.989646 1.000000
0.685862 0.987259 1.000000
0.823085 0.981470 1.000000
0.968733 0.970982 1.000000
1.000000 0.969469 1.000000
1.000000 0.978879 0.999687
0.721027 1.000000 1.000000
0.723275 1.000000 1.000000
0.725296 1.000000 1.000000
0.734186 1.000000 1.000000
0.768267 1.000000 1.000000
0.844866 1.000000 1.000000
0.956883 1.000000 1.000000
1.000000 0.998374 1.000000
1.000000 0.998099 1.000000
0.910453 1.000000 1.000000
0.910453 1.000000 1.000000
0.910453 1.000000 1.000000
0.912237 1.000000 1.000000
0.917513 1.000000 1.000000
0.932503 1.000000 1.000000
0.963767 1.000000 1.000000
1.000000 1.000000 1.000000
1.000000 1.000000 1.000000
0.871253 0.968727 1.000000
0.871253 0.968727 1.000000
0.873021 0.968628 1.000000
0.876514 0.968431 1.000000
0.888284 0.967760 1.000000
0.918507 0.964723 1.000000
0.973746 0.961457 1.000000
1.000000 0.958086 1.000000
1.000000 0.964396 1.000000
0.870998 0.969362 1.000000
0.870998 0.969362 1.000000
0.872765 0.969263 1.000000
0.876514 0.968431 1.000000
0.888284 0.967760 1.000000
0.918507 0.964723 1.000000
0.973746 0.961457 1.000000
1.000000 0.958086 1.000000
1.000000 0.964396 1.000000
0.870998 0.969362 1.000000
0.870998 0.969362 1.000000
0.872765 0.969263 1.000000
0.876256 0.969066 1.000000
0.888284 0.967760 1.000000
0.918216 0.965377 1.000000
0.973746 0.961457 1.000000
1.000000 0.958086 1.000000
1.000000 0.964396 1.000000
0.870796 0.969996 1.000000
0.870796 0.969996 1.000000
0.872560 0.969897 1.000000
0.876045 0.969700 1.000000
0.888019 0.968396 1.000000
0.917947 0.966028 1.000000
0.973445 0.962108 1.000000
1.000000 0.958725 1.000000
1.000000 0.964864 1.000000
0.870357 0.971239 1.000000
0.870357 0.971239 1.000000
0.872117 0.971140 1.000000
0.875595 0.970944 1.000000
0.887317 0.970278 1.000000
0.915785 0.968009 1.000000
0.972555 0.964033 1.000000
1.000000 0.960586 1.000000
1.000000 0.965635 1.000000
0.870584 0.975865 1.000000
0.870584 0.975865 1.000000
0.872311 0.975769 1.000000
0.874024 0.975672 1.000000
0.885666 0.975020 1.000000
0.914083 0.972247 1.000000
0.970316 0.968884 1.000000
1.000000 0.965841 1.000000
1.000000 0.969050 1.000000
0.870974 0.988300 1.000000
0.872600 0.988210 1.000000
0.872509 0.988620 1.000000
0.877302 0.988353 1.000000
0.886548 0.987832 1.000000
0.910302 0.986055 1.000000
0.963390 0.982451 1.000000
1.000000 0.979011 1.000000
1.000000 0.979341 1.000000
0.879559 1.000000 1.000000
0.879559 1.000000 1.000000
0.882117 1.000000 1.000000
0.884643 1.000000 1.000000
0.892027 1.000000 1.000000
0.910138 1.000000 1.000000
0.955823 1.000000 1.000000
1.000000 1.000000 1.000000
1.000000 0.999042 1.000000
0.911119 1.000000 1.000000
0.911119 1.000000 1.000000
0.911119 1.000000 1.000000
0.912763 1.000000 1.000000
0.916789 1.000000 1.000000
0.929406 1.000000 1.000000
0.961235 1.000000 1.000000
0.997771 1.000000 1.000000
1.000000 1.000000 1.000000
