Assets/Lutify-Free-LUTs-Pack/Lutify Free LUTs Pack/Cine World Pro Warm - Amy/Lutify.me-Amy-ZLog2-to-Rec709.cube
# Created with: fylm.ai - Colour Grading and Collaboration Software in Cloud 
# Website: https://fylm.ai 
# META
# Option: Gamut compress
# Block 1: IDT | Z-Cam Z-Log2 - BETA
# Block 2: colourMatch | Blending Mode: Normal | {"ColorSpace":0,"CrossCovarianceLimit":50,"ReshapingIterations":1,"PercentSaturationShift":100,"PercentShadingShift":100,"ExtraShading":true,"PercentTint":100,"PercentModified":100}
# Block 3: LUT | Filmic Curve Response: Standard Contrast 1 (100%)
# Block 4: LUT | Illuminant: D60 (100%)
# Block 5: hueSaturation | Blending Mode: Normal | {"hue":0,"saturation":-0.15}
# Block 6: logPrimaries | Blending Mode: Normal | {"wheels":{"shadows":{"Y":"0","R":"1","G":"1","B":"1"},"midtones":{"Y":"0","R":"1","G":"1","B":"1"},"highlights":{"Y":"0","R":"1","G":"1","B":"1"},"offset":{"Y":"0","R":"1","G":"1","B":"1"}},"sliders":{"shadows":{"Y":0,"R":-0.097,"G":0,"B":0.158},"midtones":{"Y":0,"R":0.024,"G":0.024,"B":-0.036},"highlights":{"Y":0,"R":0.154,"G":-0.084,"B":-0.024},"offset":{"Y":0.048,"R":0,"G":0,"B":0}}}
# Block 7: smartCurves | Blending Mode: Average | [[{"x":0,"y":0},{"x":0.11328125,"y":0.085540771484375},{"x":0.21484375,"y":0.218353271484375},{"x":0.37109375,"y":0.382415771484375},{"x":0.62109375,"y":0.589447021484375},{"x":0.8125,"y":0.765228271484375},{"x":1,"y":1}],[{"x":0,"y":0},{"x":1,"y":1}],[{"x":0,"y":0},{"x":1,"y":1}],[{"x":0,"y":0},{"x":1,"y":1}]]
# Block 8: LUT | Neutral Tint: Teal Tint 4 (100%)
# Block 9: contrast | Blending Mode: Normal | {"contrast":0.1}
# Block 10: ODT | Rec709
TITLE "Lutify.me-Amy-ZLog2-to-Rec709" 
LUT_3D_SIZE 9
0.000000 0.000000 0.000000
0.000000 0.000000 0.000000
0.082388 0.000000 0.000000
0.155736 0.000000 0.000000
0.257051 0.000000 0.000000
0.368287 0.000000 0.026123
0.528077 0.000000 0.042049
0.720782 0.000000 0.071526
0.934933 0.000000 0.129190
0.000000 0.000000 0.000000
0.000000 0.000000 0.014337
0.082965 0.000000 0.000000
0.152276 0.000000 0.000000
0.257105 0.000000 0.003453
0.368180 0.000000 0.025374
0.528102 0.000000 0.042616
0.724935 0.000000 0.070156
0.937976 0.000000 0.131099
0.000000 0.068182 0.000000
0.000000 0.063922 0.000000
0.071375 0.056893 0.000000
0.161247 0.036015 0.000000
0.264373 0.000000 0.000000
0.370785 0.000000 0.022726
0.528138 0.000000 0.041636
0.729039 0.000000 0.068869
0.944095 0.000000 0.131743
0.000000 0.132703 0.000000
0.000000 0.126144 0.000000
0.061273 0.119411 0.000000
0.182446 0.109212 0.000000
0.302891 0.079853 0.000000
0.402931 0.000000 0.000000
0.551838 0.000000 0.030876
0.728760 0.000000 0.065439
0.943024 0.000000 0.132286
0.000000 0.204193 0.000000
0.000000 0.200443 0.000000
0.051561 0.197164 0.000000
0.237775 0.184056 0.000000
0.362216 0.164009 0.000000
0.468991 0.144078 0.000000
0.590862 0.111194 0.000000
0.757844 0.000000 0.045620
0.944130 0.000000 0.125604
0.000000 0.284941 0.000000
0.000000 0.281309 0.000000
0.192393 0.272958 0.000000
0.335897 0.258537 0.000000
0.473128 0.233738 0.000000
0.607905 0.219308 0.000000
0.687396 0.241382 0.000000
0.795566 0.243604 0.000000
0.953459 0.179597 0.104426
0.119220 0.384892 0.000000
0.211659 0.383003 0.000000
0.306949 0.376549 0.000000
0.419122 0.370101 0.000000
0.566286 0.350269 0.000000
0.720822 0.326901 0.000000
0.896680 0.288279 0.000000
0.893056 0.359335 0.000000
0.960691 0.401539 0.000000
0.360650 0.514517 0.000000
0.403821 0.509187 0.000000
0.464210 0.506271 0.000000
0.542727 0.501577 0.000000
0.665574 0.492169 0.000000
0.794095 0.472391 0.000000
0.930609 0.451940 0.000000
1.000000 0.445797 0.000000
0.998087 0.545992 0.000000
0.616387 0.628183 0.000000
0.627325 0.627535 0.000000
0.670242 0.624843 0.000000
0.718275 0.617717 0.000000
0.800827 0.611483 0.000000
0.881809 0.609290 0.000000
0.965145 0.597510 0.000000
1.000000 0.605041 0.000000
1.000000 0.608874 0.000000
0.000000 0.000000 0.025469
0.000000 0.000000 0.021737
0.055071 0.000000 0.022420
0.143325 0.000000 0.025290
0.240801 0.000000 0.029988
0.363317 0.000000 0.037468
0.520595 0.000000 0.049794
0.720963 0.000000 0.080006
0.935031 0.000000 0.136345
0.000000 0.000000 0.038697
0.000000 0.000000 0.033761
0.058574 0.000000 0.024138
0.136769 0.000000 0.025378
0.237503 0.000000 0.030955
0.360589 0.000000 0.038611
0.520634 0.000000 0.051675
0.720927 0.000000 0.082017
0.938143 0.000000 0.138528
0.000000 0.064880 0.022293
0.000000 0.061793 0.009777
0.051587 0.057450 0.010247
0.139144 0.042947 0.021079
0.238201 0.000000 0.029127
0.362959 0.000000 0.038740
0.524440 0.000000 0.051059
0.729230 0.000000 0.080273
0.940926 0.000000 0.140333
0.000000 0.131617 0.000000
0.000000 0.129470 0.000000
0.000000 0.123148 0.000000
0.153599 0.114431 0.000000
0.269875 0.094093 0.000000
0.379884 0.000000 0.018254
0.544000 0.000000 0.045329
0.728860 0.000000 0.078444
0.943057 0.000000 0.139943
0.000000 0.212834 0.000000
0.000000 0.209130 0.000000
0.000000 0.208159 0.000000
0.181905 0.197017 0.000000
0.323880 0.179725 0.000000
0.433088 0.164807 0.000000
0.575163 0.126388 0.000000
0.753538 0.000000 0.063036
0.940916 0.000000 0.136150
0.000000 0.296647 0.000000
0.000000 0.293538 0.000000
0.103561 0.286465 0.000000
0.267615 0.277679 0.000000
0.409396 0.262140 0.000000
0.555387 0.243633 0.000000
0.652116 0.255136 0.000000
0.783046 0.246823 0.000000
0.953371 0.179629 0.118848
0.089279 0.385207 0.000000
0.199870 0.380296 0.000000
0.302519 0.376744 0.000000
0.419122 0.370101 0.000000
0.557798 0.351193 0.000000
0.720821 0.323322 0.000000
0.864725 0.306669 0.000000
0.857875 0.383838 0.000000
0.957973 0.401771 0.000000
0.357429 0.511042 0.000000
0.392455 0.509672 0.000000
0.460783 0.502828 0.000000
0.544247 0.497803 0.000000
0.665574 0.492169 0.000000
0.794101 0.472390 0.000000
0.930609 0.451940 0.000000
1.000000 0.441700 0.000000
0.987503 0.549902 0.000000
0.610886 0.628503 0.000000
0.627325 0.627535 0.000000
0.664951 0.625188 0.000000
0.718275 0.617717 0.000000
0.800827 0.611483 0.000000
0.881809 0.609290 0.000000
0.965145 0.597510 0.000000
1.000000 0.601150 0.000000
1.000000 0.608874 0.000000
0.000000 0.000000 0.054238
0.000000 0.000000 0.047966
0.042296 0.000000 0.046842
0.126480 0.000000 0.048637
0.233799 0.000000 0.050333
0.353483 0.000000 0.053870
0.513705 0.000000 0.066193
0.708645 0.000000 0.094128
0.931861 0.000000 0.150119
0.000000 0.000000 0.063810
0.000000 0.000000 0.058776
0.043336 0.000000 0.055704
0.117210 0.000000 0.053601
0.225520 0.000000 0.054356
0.346107 0.000000 0.058231
0.510037 0.000000 0.069230
0.717084 0.000000 0.097337
0.934996 0.000000 0.151241
0.000000 0.067301 0.099584
0.000000 0.060953 0.095745
0.010085 0.055852 0.084700
0.108665 0.044051 0.071307
0.221168 0.000000 0.065841
0.348374 0.000000 0.064117
0.521232 0.000000 0.073083
0.725451 0.000000 0.101328
0.937829 0.000000 0.154706
0.000000 0.132643 0.085635
0.000000 0.130476 0.071438
0.000000 0.127306 0.057920
0.098388 0.122702 0.055519
0.233149 0.106316 0.057109
0.359934 0.034033 0.063042
0.528641 0.000000 0.071351
0.720638 0.000000 0.098670
0.939943 0.000000 0.156043
0.000000 0.218194 0.000000
0.000000 0.219713 0.000000
0.000000 0.220785 0.000000
0.075910 0.214445 0.000000
0.253876 0.199251 0.000000
0.392361 0.179562 0.000000
0.562853 0.138080 0.042460
0.749145 0.000000 0.090300
0.937678 0.000000 0.155698
0.000000 0.313849 0.000000
0.000000 0.315996 0.000000
0.000000 0.312529 0.000000
0.128504 0.306675 0.000000
0.303303 0.299041 0.000000
0.466312 0.280695 0.000000
0.613126 0.274454 0.000000
0.766117 0.251038 0.000000
0.950244 0.180755 0.142684
0.026139 0.385506 0.000000
0.183910 0.380701 0.000000
0.284721 0.377486 0.000000
0.381194 0.375814 0.000000
0.499226 0.366922 0.000000
0.639742 0.359006 0.000000
0.759975 0.365819 0.000000
0.828042 0.403170 0.000000
0.947209 0.402658 0.023431
0.357429 0.511042 0.000000
0.386714 0.509909 0.000000
0.455425 0.503110 0.000000
0.539141 0.498145 0.000000
0.660869 0.492573 0.000000
0.790105 0.472789 0.000000
0.931011 0.447907 0.000000
1.000000 0.445507 0.000000
0.970830 0.561989 0.000000
0.610886 0.628503 0.000000
0.621866 0.627861 0.000000
0.666572 0.621275 0.000000
0.718275 0.617717 0.000000
0.792474 0.612133 0.000000
0.878769 0.609498 0.000000
0.965145 0.597510 0.000000
1.000000 0.601150 0.000000
1.000000 0.608874 0.000000
0.000000 0.000000 0.081649
0.000000 0.000000 0.071513
0.000000 0.000000 0.063272
0.105747 0.000000 0.063084
0.227465 0.000000 0.065510
0.353417 0.000000 0.075751
0.507094 0.000000 0.093418
0.701627 0.000000 0.126102
0.925490 0.000000 0.176349
0.000000 0.000000 0.091607
0.000000 0.000000 0.082339
0.000000 0.000000 0.075221
0.104435 0.000000 0.075777
0.221387 0.000000 0.078099
0.336568 0.000000 0.087461
0.511021 0.000000 0.102431
0.701651 0.000000 0.130360
0.928658 0.000000 0.176244
0.000000 0.058257 0.143193
0.000000 0.053654 0.136284
0.000000 0.046617 0.132001
0.095029 0.030753 0.123249
0.212826 0.000000 0.113106
0.334623 0.000000 0.106479
0.511366 0.000000 0.115112
0.718433 0.000000 0.138213
0.931497 0.000000 0.178823
0.000000 0.142877 0.196656
0.000000 0.130741 0.191150
0.000000 0.126376 0.178868
0.048332 0.119387 0.162746
0.203706 0.099983 0.142688
0.339580 0.022430 0.132960
0.519311 0.000000 0.125549
0.717608 0.000000 0.141022
0.936990 0.000000 0.182498
0.000000 0.229525 0.186673
0.000000 0.226301 0.171171
0.000000 0.228204 0.151591
0.000000 0.228465 0.134555
0.189323 0.219161 0.121131
0.357767 0.197257 0.118841
0.532727 0.143814 0.123400
0.732192 0.000000 0.140996
0.931349 0.000000 0.184790
0.000000 0.336627 0.000000
0.000000 0.331357 0.000000
0.000000 0.331035 0.000000
0.000000 0.334922 0.000000
0.170539 0.325471 0.000000
0.385577 0.310606 0.000000
0.576355 0.292246 0.000000
0.756004 0.253657 0.111791
0.943924 0.182999 0.177356
0.000000 0.447928 0.000000
0.000000 0.444192 0.000000
0.000000 0.443509 0.000000
0.000000 0.445273 0.000000
0.233889 0.441509 0.000000
0.444344 0.432630 0.000000
0.631381 0.421166 0.000000
0.792359 0.418976 0.000000
0.939830 0.415598 0.128179
0.345352 0.511472 0.000000
0.377693 0.506684 0.000000
0.444644 0.503664 0.000000
0.535561 0.494719 0.000000
0.657130 0.489139 0.000000
0.768599 0.482611 0.000000
0.843852 0.494804 0.000000
0.909490 0.520978 0.000000
0.950788 0.574417 0.000000
0.605364 0.628820 0.000000
0.621866 0.627861 0.000000
0.650638 0.622302 0.000000
0.714608 0.614146 0.000000
0.789313 0.608505 0.000000
0.879559 0.605532 0.000000
0.963713 0.593596 0.000000
1.000000 0.600950 0.000000
1.000000 0.608874 0.000000
0.000000 0.000000 0.118069
0.000000 0.000000 0.101808
0.000000 0.000000 0.087898
0.087536 0.000000 0.083097
0.212179 0.000000 0.082671
0.348660 0.000000 0.085778
0.503466 0.000000 0.115368
0.693472 0.000000 0.165545
0.923001 0.000000 0.214689
0.000000 0.000000 0.130418
0.000000 0.000000 0.117165
0.000000 0.000000 0.101032
0.084164 0.000000 0.098027
0.203333 0.000000 0.095876
0.332893 0.000000 0.102287
0.500486 0.000000 0.131853
0.697842 0.000000 0.174100
0.919377 0.000000 0.219723
0.000000 0.036457 0.164245
0.000000 0.033238 0.153692
0.000000 0.027272 0.143910
0.078174 0.000000 0.141238
0.195399 0.000000 0.135828
0.329808 0.000000 0.138920
0.501956 0.000000 0.157156
0.698033 0.000000 0.186006
0.922309 0.000000 0.226679
0.000000 0.128927 0.255838
0.000000 0.121737 0.250192
0.000000 0.113952 0.244734
0.000000 0.103335 0.241133
0.184222 0.083087 0.229450
0.341579 0.000000 0.211323
0.515145 0.000000 0.191964
0.710766 0.000000 0.201776
0.927772 0.000000 0.231671
0.000000 0.238843 0.313818
0.000000 0.229489 0.309289
0.000000 0.225877 0.302170
0.000000 0.225598 0.290298
0.125829 0.218016 0.273861
0.322866 0.194951 0.256238
0.525528 0.136727 0.225862
0.721878 0.000000 0.215755
0.935085 0.000000 0.236086
0.000000 0.342262 0.304778
0.000000 0.345139 0.294395
0.000000 0.348014 0.279447
0.000000 0.347609 0.265472
0.000000 0.342708 0.243449
0.301521 0.335180 0.228845
0.530832 0.310346 0.215422
0.738928 0.268313 0.220756
0.934090 0.186177 0.241059
0.000000 0.475922 0.107548
0.000000 0.479301 0.097787
0.000000 0.482475 0.083976
0.000000 0.478304 0.056083
0.000000 0.476139 0.047583
0.313096 0.470113 0.008066
0.559379 0.452883 0.075443
0.767438 0.441031 0.144339
0.932246 0.420505 0.211690
0.000000 0.615548 0.000000
0.000000 0.615261 0.000000
0.000000 0.610969 0.000000
0.000000 0.606158 0.000000
0.000000 0.607675 0.000000
0.383940 0.601351 0.000000
0.588855 0.595777 0.000000
0.811156 0.583465 0.000000
0.935168 0.590911 0.000000
0.590605 0.625874 0.000000
0.612729 0.624614 0.000000
0.639912 0.622976 0.000000
0.704444 0.614872 0.000000
0.785026 0.608839 0.000000
0.870188 0.606193 0.000000
0.959403 0.593697 0.000000
0.976164 0.644529 0.000000
0.978155 0.693288 0.000000
0.000000 0.000000 0.159071
0.000000 0.000000 0.140416
0.000000 0.000000 0.121032
0.057472 0.000000 0.109323
0.183394 0.000000 0.106717
0.333126 0.000000 0.103926
0.525795 0.000000 0.111431
0.685763 0.000000 0.192342
0.908956 0.000000 0.274552
0.000000 0.000000 0.174472
0.000000 0.000000 0.159134
0.000000 0.000000 0.141646
0.052008 0.000000 0.130193
0.178263 0.000000 0.129248
0.328229 0.000000 0.121744
0.507866 0.000000 0.132880
0.686744 0.000000 0.212266
0.912441 0.000000 0.283417
0.000000 0.033491 0.211591
0.000000 0.031976 0.199009
0.000000 0.027212 0.181793
0.025488 0.016703 0.178718
0.170779 0.000000 0.174821
0.319526 0.000000 0.165712
0.494161 0.000000 0.176891
0.692369 0.000000 0.237774
0.912136 0.000000 0.290113
0.000000 0.088122 0.279950
0.000000 0.083991 0.269470
0.000000 0.078476 0.263472
0.000000 0.072077 0.257559
0.157331 0.044815 0.254889
0.320480 0.000000 0.246635
0.507089 0.000000 0.247564
0.690649 0.000000 0.272489
0.907728 0.000000 0.306345
0.000000 0.227704 0.378180
0.000000 0.220329 0.375366
0.000000 0.211321 0.375759
0.000000 0.204004 0.376108
0.000000 0.195977 0.370361
0.308078 0.168182 0.355603
0.529160 0.061388 0.332724
0.714617 0.000000 0.314362
0.923177 0.000000 0.326206
0.000000 0.349478 0.446365
0.000000 0.343852 0.446647
0.000000 0.346580 0.446564
0.000000 0.346372 0.429418
0.000000 0.339307 0.416267
0.231836 0.328027 0.409997
0.496554 0.300807 0.377881
0.714409 0.254650 0.354224
0.919964 0.154254 0.345536
0.000000 0.496430 0.441899
0.000000 0.496390 0.438407
0.000000 0.496272 0.431452
0.000000 0.495842 0.410762
0.000000 0.497931 0.397112
0.120471 0.497579 0.363922
0.469353 0.479876 0.358806
0.720447 0.453704 0.341894
0.913445 0.422416 0.348414
0.000000 0.642225 0.242739
0.000000 0.642076 0.242817
0.000000 0.645432 0.239329
0.000000 0.644697 0.236648
0.000000 0.646997 0.218499
0.100797 0.646378 0.203778
0.482894 0.630864 0.201269
0.739222 0.619789 0.215929
0.910922 0.596218 0.263984
0.000000 0.764880 0.000000
0.000000 0.764647 0.000000
0.000000 0.764139 0.000000
0.000000 0.766030 0.000000
0.000000 0.763683 0.000000
0.328805 0.766153 0.000000
0.558731 0.749829 0.000000
0.784348 0.741077 0.000000
0.915798 0.735923 0.000000
0.000000 0.000000 0.200709
0.000000 0.000000 0.183398
0.000000 0.000000 0.164476
0.031935 0.000000 0.149971
0.134299 0.000000 0.141898
0.306901 0.000000 0.134911
0.511138 0.000000 0.125320
0.722566 0.000000 0.142392
0.902476 0.000000 0.301891
0.000000 0.000000 0.223491
0.000000 0.000000 0.205419
0.000000 0.000000 0.186550
0.000000 0.000000 0.177354
0.127311 0.000000 0.167903
0.300135 0.000000 0.160785
0.494540 0.000000 0.147031
0.697500 0.000000 0.168406
0.899099 0.000000 0.319102
0.000000 0.036185 0.266213
0.000000 0.034580 0.246600
0.000000 0.031316 0.233782
0.000000 0.026107 0.223266
0.115235 0.000000 0.220813
0.289242 0.000000 0.212621
0.477447 0.000000 0.195612
0.683178 0.000000 0.217496
0.899420 0.000000 0.340074
0.000000 0.080700 0.324591
0.000000 0.076103 0.312297
0.000000 0.073746 0.302801
0.000000 0.068513 0.298238
0.085503 0.055085 0.295674
0.288487 0.000000 0.291368
0.486622 0.000000 0.286229
0.688275 0.000000 0.297704
0.903152 0.000000 0.371290
0.000000 0.161598 0.402709
0.000000 0.156090 0.399610
0.000000 0.154788 0.396442
0.000000 0.146641 0.393488
0.000000 0.135234 0.393674
0.274873 0.103232 0.393012
0.503814 0.000000 0.376391
0.706646 0.000000 0.375991
0.912153 0.000000 0.411690
0.000000 0.337625 0.532551
0.000000 0.334874 0.532678
0.000000 0.334846 0.532696
0.000000 0.329312 0.532955
0.000000 0.325639 0.529479
0.182164 0.309317 0.518894
0.481989 0.277091 0.504327
0.714787 0.208860 0.472796
0.915910 0.048757 0.450070
0.000000 0.495589 0.618107
0.000000 0.499143 0.614164
0.000000 0.502669 0.610232
0.000000 0.498907 0.602940
0.000000 0.497915 0.595509
0.000000 0.494680 0.580619
0.390361 0.485769 0.569424
0.668818 0.449122 0.529884
0.898145 0.406230 0.502914
0.000000 0.660240 0.608955
0.000000 0.660142 0.608972
0.000000 0.663688 0.604988
0.000000 0.663340 0.582341
0.000000 0.665896 0.570925
0.000000 0.655003 0.545338
0.342755 0.652710 0.530476
0.648621 0.636151 0.513070
0.868792 0.610579 0.493845
0.000000 0.793586 0.398530
0.000000 0.793398 0.394886
0.000000 0.796009 0.391107
0.000000 0.794957 0.384003
0.000000 0.793198 0.377025
0.000000 0.784151 0.367035
0.407849 0.778834 0.349922
0.692673 0.767667 0.345684
0.870945 0.756809 0.369447
0.000000 0.000000 0.244923
0.000000 0.000000 0.230407
0.000000 0.000000 0.213423
0.000000 0.000000 0.200573
0.099950 0.000000 0.193818
0.244595 0.000000 0.179023
0.463050 0.000000 0.168529
0.722598 0.000000 0.152324
0.944531 0.000000 0.182531
0.000000 0.000000 0.274643
0.000000 0.000000 0.262343
0.000000 0.000000 0.241206
0.000000 0.000000 0.233888
0.090281 0.000000 0.222854
0.235366 0.000000 0.212022
0.455496 0.000000 0.195913
0.697673 0.000000 0.175602
0.927270 0.000000 0.213657
0.000000 0.039530 0.325162
0.000000 0.037996 0.308011
0.000000 0.035920 0.296364
0.000000 0.031279 0.287401
0.054682 0.000000 0.280591
0.224073 0.000000 0.270424
0.453335 0.000000 0.258387
0.672507 0.000000 0.232000
0.898650 0.000000 0.274444
0.000000 0.082323 0.385516
0.000000 0.079407 0.379552
0.000000 0.079788 0.373652
0.000000 0.073457 0.365053
0.000000 0.064936 0.362159
0.203016 0.000000 0.358343
0.452341 0.000000 0.353136
0.666467 0.000000 0.333191
0.890398 0.000000 0.362367
0.000000 0.149170 0.464075
0.000000 0.144070 0.457266
0.000000 0.145431 0.453790
0.000000 0.138770 0.453968
0.000000 0.132614 0.454070
0.182708 0.109746 0.453699
0.463514 0.000000 0.451941
0.682760 0.000000 0.440883
0.901896 0.000000 0.451593
0.000000 0.268100 0.564715
0.000000 0.263689 0.564881
0.000000 0.265785 0.568514
0.000000 0.261427 0.561289
0.000000 0.254276 0.568920
0.000000 0.243526 0.565231
0.449289 0.192427 0.560733
0.695331 0.000000 0.537970
0.907583 0.000000 0.541548
0.000000 0.484403 0.705187
0.000000 0.484391 0.705190
0.000000 0.487894 0.705020
0.000000 0.487794 0.705032
0.000000 0.476812 0.705565
0.000000 0.470832 0.705661
0.346463 0.454204 0.686954
0.663313 0.420490 0.671688
0.900233 0.353150 0.642997
0.000000 0.667212 0.775404
0.000000 0.667182 0.772410
0.000000 0.667105 0.769386
0.000000 0.663116 0.769609
0.000000 0.666050 0.763230
0.000000 0.659633 0.753918
0.196443 0.649946 0.730883
0.575264 0.630999 0.724177
0.838452 0.603284 0.678480
0.000000 0.804703 0.760949
0.000000 0.804659 0.757921
0.000000 0.807243 0.754705
0.000000 0.806637 0.748495
0.000000 0.802266 0.739095
0.000000 0.799665 0.722606
0.179677 0.797569 0.698325
0.582078 0.788274 0.684231
0.817814 0.770458 0.652510
0.000000 0.000000 0.298799
0.000000 0.000000 0.289766
0.000000 0.000000 0.276793
0.000000 0.000000 0.268372
0.081954 0.000000 0.259879
0.204445 0.000000 0.244710
0.388972 0.000000 0.221005
0.649519 0.000000 0.200233
0.963275 0.000000 0.170476
0.000000 0.012141 0.335509
0.000000 0.012912 0.325263
0.000000 0.008428 0.312950
0.000000 0.000000 0.301032
0.059718 0.000000 0.291609
0.193395 0.000000 0.281539
0.382240 0.000000 0.263666
0.636996 0.000000 0.231900
0.937727 0.000000 0.194410
0.000000 0.047047 0.385941
0.000000 0.045625 0.379953
0.000000 0.043731 0.371167
0.000000 0.042125 0.359710
0.000000 0.028932 0.351268
0.171744 0.000000 0.344976
0.371800 0.000000 0.329261
0.630301 0.000000 0.297614
0.902120 0.000000 0.251653
0.000000 0.090087 0.458389
0.000000 0.088249 0.458427
0.000000 0.087596 0.451554
0.000000 0.084041 0.441326
0.000000 0.076717 0.434534
0.132290 0.048922 0.434149
0.360289 0.000000 0.422411
0.634540 0.000000 0.407734
0.873022 0.000000 0.367957
0.000000 0.156859 0.538844
0.000000 0.156937 0.535201
0.000000 0.153986 0.535279
0.000000 0.148416 0.528146
0.000000 0.140876 0.524657
0.000000 0.128489 0.524508
0.351298 0.062106 0.526727
0.645945 0.000000 0.521070
0.879165 0.000000 0.496146
0.000000 0.251905 0.628686
0.000000 0.251886 0.628689
0.000000 0.251849 0.628693
0.000000 0.247587 0.625088
0.000000 0.242911 0.628973
0.000000 0.236516 0.628975
0.329572 0.203647 0.628287
0.637478 0.057006 0.626456
0.891804 0.000000 0.599988
0.000000 0.402055 0.730668
0.000000 0.398755 0.730817
0.000000 0.395494 0.727428
0.000000 0.392088 0.734619
0.000000 0.385424 0.727847
0.000000 0.383896 0.734794
0.280532 0.361709 0.727584
0.621461 0.311457 0.719528
0.893490 0.215809 0.704644
0.000000 0.640886 0.843709
0.000000 0.644587 0.843482
0.000000 0.644535 0.843478
0.000000 0.640694 0.843695
0.000000 0.632887 0.844112
0.000000 0.635263 0.839278
0.000000 0.622317 0.836966
0.537888 0.594187 0.820378
0.835043 0.564802 0.801977
0.000000 0.813485 0.881641
0.000000 0.813399 0.881634
0.000000 0.810544 0.880098
0.000000 0.810204 0.878338
0.000000 0.812197 0.876342
0.000000 0.804234 0.871130
0.000000 0.799208 0.859406
0.470777 0.790876 0.848839
0.763618 0.772258 0.833781
