Assets/Lutify-Free-LUTs-Pack/Lutify Free LUTs Pack/Cine World Pro Warm - Amy/Lutify.me-Amy-ProTune-to-Rec709.cube
# Created with: fylm.ai - Colour Grading and Collaboration Software in Cloud 
# Website: https://fylm.ai 
# META
# Option: Gamut compress
# Block 1: IDT | GoPro ProTune Native ProTune Flat
# Block 2: colourMatch | Blending Mode: Normal | {"ColorSpace":0,"CrossCovarianceLimit":50,"ReshapingIterations":1,"PercentSaturationShift":100,"PercentShadingShift":100,"ExtraShading":true,"PercentTint":100,"PercentModified":100}
# Block 3: LUT | Filmic Curve Response: Standard Contrast 1 (100%)
# Block 4: LUT | Illuminant: D60 (100%)
# Block 5: hueSaturation | Blending Mode: Normal | {"hue":0,"saturation":-0.15}
# Block 6: logPrimaries | Blending Mode: Normal | {"wheels":{"shadows":{"Y":"0","R":"1","G":"1","B":"1"},"midtones":{"Y":"0","R":"1","G":"1","B":"1"},"highlights":{"Y":"0","R":"1","G":"1","B":"1"},"offset":{"Y":"0","R":"1","G":"1","B":"1"}},"sliders":{"shadows":{"Y":0,"R":-0.097,"G":0,"B":0.158},"midtones":{"Y":0,"R":0.024,"G":0.024,"B":-0.036},"highlights":{"Y":0,"R":0.154,"G":-0.084,"B":-0.024},"offset":{"Y":0.048,"R":0,"G":0,"B":0}}}
# Block 7: smartCurves | Blending Mode: Average | [[{"x":0,"y":0},{"x":0.11328125,"y":0.085540771484375},{"x":0.21484375,"y":0.218353271484375},{"x":0.37109375,"y":0.382415771484375},{"x":0.62109375,"y":0.589447021484375},{"x":0.8125,"y":0.765228271484375},{"x":1,"y":1}],[{"x":0,"y":0},{"x":1,"y":1}],[{"x":0,"y":0},{"x":1,"y":1}],[{"x":0,"y":0},{"x":1,"y":1}]]
# Block 8: LUT | Neutral Tint: Teal Tint 4 (100%)
# Block 9: contrast | Blending Mode: Normal | {"contrast":0.1}
# Block 10: ODT | Rec709
TITLE "Lutify.me-Amy-ProTune-to-Rec709" 
LUT_3D_SIZE 5
0.000000 0.000000 0.000000
0.070922 0.000000 0.000000
0.253363 0.000000 0.000000
0.523961 0.000000 0.031714
0.907825 0.000000 0.096382
0.000000 0.071082 0.000000
0.076921 0.056912 0.000000
0.253009 0.000000 0.000000
0.509111 0.000000 0.038946
0.907674 0.000000 0.111876
0.000000 0.203132 0.000000
0.161354 0.193600 0.000000
0.378886 0.160672 0.000000
0.578159 0.065173 0.000000
0.923399 0.000000 0.120727
0.395157 0.384699 0.000000
0.470329 0.376029 0.000000
0.636429 0.348889 0.000000
0.906506 0.290644 0.000000
0.950906 0.369239 0.000000
0.851608 0.630935 0.000000
0.861732 0.630205 0.000000
0.911966 0.623093 0.000000
1.000000 0.617474 0.000000
1.000000 0.609917 0.000000
0.000000 0.000000 0.056920
0.037026 0.000000 0.048562
0.225462 0.000000 0.049154
0.513332 0.000000 0.052685
0.904376 0.000000 0.110500
0.000000 0.072519 0.106313
0.024885 0.059853 0.087230
0.213407 0.000000 0.066587
0.495384 0.000000 0.068307
0.907978 0.000000 0.128953
0.000000 0.229749 0.000000
0.000000 0.226758 0.000000
0.272251 0.204451 0.000000
0.542604 0.109677 0.049025
0.920145 0.000000 0.146704
0.390497 0.384985 0.000000
0.466854 0.372992 0.000000
0.632568 0.345905 0.000000
0.811514 0.347124 0.000000
0.941825 0.374383 0.000000
0.848134 0.631189 0.000000
0.861732 0.630205 0.000000
0.911966 0.623093 0.000000
1.000000 0.613485 0.000000
1.000000 0.609917 0.000000
0.000000 0.000000 0.122085
0.000000 0.000000 0.096202
0.201445 0.000000 0.086860
0.514038 0.000000 0.084345
0.901800 0.000000 0.158539
0.000000 0.052442 0.182914
0.000000 0.042417 0.166943
0.193082 0.000000 0.147644
0.482867 0.000000 0.137661
0.894677 0.000000 0.191414
0.000000 0.252560 0.318291
0.000000 0.248541 0.308436
0.145444 0.230164 0.282157
0.514880 0.120857 0.231957
0.907561 0.000000 0.231482
0.000000 0.495867 0.000000
0.000000 0.495120 0.000000
0.047975 0.491753 0.000000
0.584812 0.461786 0.032874
0.923354 0.393032 0.214543
0.842030 0.627753 0.000000
0.862654 0.626245 0.000000
0.909371 0.623234 0.000000
1.000000 0.613485 0.000000
1.000000 0.662774 0.000000
0.000000 0.029787 0.241054
0.000000 0.023027 0.223376
0.135579 0.000000 0.199420
0.493422 0.000000 0.133006
0.943780 0.000000 0.144841
0.000000 0.067645 0.300566
0.000000 0.063978 0.291512
0.119206 0.027264 0.277952
0.472170 0.000000 0.216012
0.898256 0.000000 0.226921
0.000000 0.217378 0.455078
0.000000 0.213619 0.455226
0.000000 0.178175 0.452718
0.502273 0.000000 0.401511
0.885490 0.000000 0.377007
0.000000 0.534574 0.616127
0.000000 0.530502 0.616358
0.000000 0.528534 0.605141
0.407002 0.502882 0.583403
0.890171 0.390742 0.514017
0.000000 0.804672 0.332657
0.000000 0.803916 0.332839
0.259851 0.798751 0.329898
0.556292 0.791245 0.320940
0.880658 0.762208 0.355778
0.000000 0.115698 0.496543
0.000000 0.110943 0.493067
0.000000 0.094071 0.478979
0.382079 0.000000 0.435678
0.927380 0.000000 0.195611
0.000000 0.146852 0.531815
0.000000 0.141233 0.528302
0.000000 0.128012 0.524771
0.378251 0.000000 0.494540
0.872963 0.000000 0.298962
0.000000 0.237103 0.629187
0.000000 0.232885 0.629313
0.000000 0.219898 0.622108
0.382880 0.156311 0.613737
0.872946 0.000000 0.524334
0.000000 0.494037 0.793802
0.000000 0.493875 0.793790
0.000000 0.489305 0.793889
0.328581 0.442929 0.782865
0.894177 0.249216 0.721932
0.000000 0.827037 0.876599
0.000000 0.826544 0.876559
0.000000 0.827052 0.872726
0.291290 0.818158 0.861375
0.771928 0.788298 0.841288
