Assets/Lutify-Free-LUTs-Pack/Lutify Free LUTs Pack/Film Tone Pro - Film Tone 3/Lutify.me-FilmTone3-BolexLog-to-Rec709.cube
# Created with: fylm.ai - Colour Grading and Collaboration Software in Cloud 
# Website: https://fylm.ai 
# META
# Option: Gamut compress
# Block 1: IDT | Bolex Wide Gamut RGB Bolex Log
# Block 2: colourMatch | Blending Mode: Normal | {"ColorSpace":0,"CrossCovarianceLimit":50,"ReshapingIterations":1,"PercentSaturationShift":100,"PercentShadingShift":100,"ExtraShading":true,"PercentTint":100,"PercentModified":100}
# Block 3: subtractiveColour | Blending Mode: Normal | {"sliders":{"gainY":0.6,"C":0.3,"M":0.3,"Y":0.3}}
# Block 4: LUT | Filmic Curve Response: Low Contrast 2 (100%)
# Block 5: logPrimaries | Blending Mode: Normal | {"wheels":{"shadows":{"Y":"0","R":"1","G":"1","B":"1"},"midtones":{"Y":"0","R":"1","G":"1","B":"1"},"highlights":{"Y":"0","R":"1","G":"1","B":"1"},"offset":{"Y":"0","R":"1","G":"1","B":"1"}},"sliders":{"shadows":{"Y":0,"R":-0.026,"G":0.03,"B":0.1},"midtones":{"Y":0,"R":0.024,"G":-0.036,"B":0.036},"highlights":{"Y":0,"R":0,"G":0.044,"B":-0.128},"offset":{"Y":0,"R":0,"G":0,"B":0}}}
# Block 6: hueSaturation | Blending Mode: Normal | {"hue":0,"saturation":-0.1}
# Block 7: ODT | Rec709
TITLE "Lutify.me-FilmTone3-BolexLog-to-Rec709" 
LUT_3D_SIZE 5
0.000000 0.000000 0.000000
0.124843 0.000000 0.000000
0.448120 0.000000 0.000000
0.991185 0.000000 0.154810
1.000000 0.721871 0.592700
0.000000 0.122741 0.000000
0.183377 0.135302 0.000000
0.507583 0.000000 0.000000
0.995319 0.000000 0.163837
1.000000 0.729101 0.595627
0.000000 0.508235 0.000000
0.000000 0.534291 0.000000
0.624817 0.527306 0.000000
1.000000 0.401357 0.192469
1.000000 0.750456 0.605123
0.000000 0.910566 0.424412
0.000000 0.909875 0.425628
0.525848 0.910104 0.417227
0.934264 0.900147 0.421467
1.000000 0.858608 0.660606
0.831102 1.000000 0.851126
0.833262 1.000000 0.852033
0.842884 1.000000 0.852447
0.901584 1.000000 0.851675
1.000000 0.999455 0.867941
0.000000 0.000000 0.070483
0.106115 0.000000 0.050280
0.452069 0.000000 0.057592
0.990446 0.000000 0.183582
1.000000 0.722052 0.598354
0.000000 0.106358 0.182249
0.124965 0.150138 0.170915
0.511891 0.000000 0.085542
0.994312 0.000000 0.192749
1.000000 0.724446 0.598386
0.000000 0.527796 0.161478
0.000000 0.546258 0.148842
0.616087 0.559544 0.107952
1.000000 0.407392 0.226889
1.000000 0.750537 0.607959
0.000000 0.912321 0.456312
0.000000 0.911723 0.457346
0.526327 0.910403 0.448285
0.933872 0.900537 0.455898
1.000000 0.858741 0.668783
0.831084 1.000000 0.852353
0.833244 1.000000 0.853247
0.842865 1.000000 0.853656
0.901553 1.000000 0.852861
1.000000 0.999455 0.867941
0.000000 0.000000 0.225537
0.000000 0.000000 0.211901
0.416677 0.000000 0.139153
0.995921 0.000000 0.343444
1.000000 0.719269 0.625789
0.000000 0.022227 0.359700
0.000000 0.039751 0.350463
0.519754 0.000000 0.313480
0.997481 0.000000 0.359359
1.000000 0.721690 0.625817
0.000000 0.486625 0.567411
0.000000 0.533305 0.573724
0.564348 0.579106 0.575106
0.996311 0.398368 0.416048
1.000000 0.746455 0.638776
0.000000 0.914227 0.615833
0.000000 0.914711 0.614072
0.490935 0.916133 0.612731
0.924707 0.905772 0.616988
1.000000 0.857791 0.695243
0.830981 1.000000 0.859570
0.832624 1.000000 0.859633
0.841175 1.000000 0.860700
0.901347 1.000000 0.860980
1.000000 0.999090 0.873625
0.000000 0.000000 0.649586
0.000000 0.000000 0.654270
0.318845 0.000000 0.656761
0.953842 0.000000 0.562745
1.000000 0.710836 0.772683
0.000000 0.068089 0.698246
0.000000 0.074283 0.696786
0.321265 0.000000 0.702532
0.974874 0.000000 0.628354
1.000000 0.715825 0.772623
0.000000 0.277558 0.790416
0.000000 0.283291 0.793202
0.265383 0.307907 0.794829
1.000000 0.111838 0.763716
1.000000 0.742894 0.779368
0.000000 0.904112 0.884551
0.000000 0.905043 0.882205
0.216030 0.910827 0.884124
0.893227 0.908660 0.880265
1.000000 0.854756 0.811876
0.825728 1.000000 0.906537
0.827381 1.000000 0.906575
0.835524 1.000000 0.906767
0.895864 1.000000 0.905343
1.000000 0.999797 0.909796
0.344225 0.355780 0.950974
0.365632 0.354940 0.950984
0.464780 0.349726 0.950968
0.877389 0.311738 0.945727
1.000000 0.283223 0.914676
0.339133 0.367845 0.952754
0.360994 0.367071 0.952763
0.461604 0.362246 0.952747
0.874795 0.339519 0.946365
1.000000 0.318542 0.915768
0.314927 0.455136 0.959084
0.340350 0.454638 0.959095
0.443035 0.448602 0.959199
0.866213 0.434731 0.954284
1.000000 0.435940 0.927288
0.091258 0.764549 0.969302
0.157022 0.764414 0.969305
0.354363 0.768506 0.969007
0.780979 0.773403 0.966604
1.000000 0.774331 0.953728
0.760959 1.000000 0.988713
0.763131 1.000000 0.988715
0.779929 1.000000 0.988738
0.862493 1.000000 0.987733
0.990272 1.000000 0.985951
