Assets/Lutify-Free-LUTs-Pack/Lutify Free LUTs Pack/Film Tone Pro - Film Tone 3/Lutify.me-FilmTone3-FLog-to-Rec709.cube
# Created with: fylm.ai - Colour Grading and Collaboration Software in Cloud 
# Website: https://fylm.ai 
# META
# Option: Gamut compress
# Block 1: IDT | Fujifilm F-Gamut F-Log
# Block 2: colourMatch | Blending Mode: Normal | {"ColorSpace":0,"CrossCovarianceLimit":50,"ReshapingIterations":1,"PercentSaturationShift":100,"PercentShadingShift":100,"ExtraShading":true,"PercentTint":100,"PercentModified":100}
# Block 3: subtractiveColour | Blending Mode: Normal | {"sliders":{"gainY":0.6,"C":0.3,"M":0.3,"Y":0.3}}
# Block 4: LUT | Filmic Curve Response: Low Contrast 2 (100%)
# Block 5: logPrimaries | Blending Mode: Normal | {"wheels":{"shadows":{"Y":"0","R":"1","G":"1","B":"1"},"midtones":{"Y":"0","R":"1","G":"1","B":"1"},"highlights":{"Y":"0","R":"1","G":"1","B":"1"},"offset":{"Y":"0","R":"1","G":"1","B":"1"}},"sliders":{"shadows":{"Y":0,"R":-0.026,"G":0.03,"B":0.1},"midtones":{"Y":0,"R":0.024,"G":-0.036,"B":0.036},"highlights":{"Y":0,"R":0,"G":0.044,"B":-0.128},"offset":{"Y":0,"R":0,"G":0,"B":0}}}
# Block 6: hueSaturation | Blending Mode: Normal | {"hue":0,"saturation":-0.1}
# Block 7: ODT | Rec709
TITLE "Lutify.me-FilmTone3-FLog-to-Rec709" 
LUT_3D_SIZE 33
0.000000 0.000000 0.000000
0.000000 0.000000 0.000000
0.000000 0.000000 0.000000
0.000000 0.000000 0.000000
0.000000 0.000000 0.000000
0.019164 0.000000 0.000000
0.060903 0.000000 0.000000
0.086873 0.000000 0.000000
0.112646 0.000000 0.000000
0.133902 0.000000 0.000000
0.160698 0.000000 0.000000
0.191562 0.000000 0.000000
0.221792 0.000000 0.000000
0.259160 0.000000 0.000000
0.290871 0.000000 0.000000
0.331802 0.000000 0.000000
0.377831 0.000000 0.000000
0.421492 0.000000 0.000000
0.475011 0.000000 0.000000
0.534814 0.000000 0.000000
0.599187 0.000000 0.000000
0.659012 0.000000 0.015656
0.717335 0.000000 0.038443
0.775520 0.000000 0.053353
0.837199 0.000000 0.070536
0.894270 0.000000 0.091497
0.940478 0.000000 0.115866
0.976577 0.000000 0.143134
1.000000 0.060677 0.170376
1.000000 0.210164 0.209270
1.000000 0.286528 0.249420
1.000000 0.365920 0.289150
1.000000 0.427473 0.334441
0.000000 0.000000 0.000000
0.000000 0.000000 0.000000
0.000000 0.000000 0.000000
0.000000 0.000000 0.000000
0.000000 0.000000 0.000000
0.022486 0.000000 0.000000
0.063091 0.000000 0.000000
0.088699 0.000000 0.000000
0.113999 0.000000 0.000000
0.135549 0.000000 0.000000
0.162736 0.000000 0.000000
0.194116 0.000000 0.000000
0.224899 0.000000 0.000000
0.261092 0.000000 0.000000
0.293139 0.000000 0.000000
0.334321 0.000000 0.000000
0.380946 0.000000 0.000000
0.427795 0.000000 0.000000
0.479063 0.000000 0.000000
0.542499 0.000000 0.000000
0.603383 0.000000 0.000000
0.666698 0.000000 0.015506
0.717989 0.000000 0.038722
0.775766 0.000000 0.053049
0.837519 0.000000 0.070068
0.897511 0.000000 0.091580
0.940506 0.000000 0.115723
0.976577 0.000000 0.143134
1.000000 0.061864 0.173275
1.000000 0.210335 0.210925
1.000000 0.286528 0.249420
1.000000 0.365920 0.289150
1.000000 0.430993 0.334330
0.000000 0.000000 0.000000
0.000000 0.000000 0.000000
0.000000 0.000000 0.000000
0.000000 0.000000 0.000000
0.000000 0.000000 0.000000
0.025573 0.000000 0.000000
0.065142 0.000000 0.000000
0.090844 0.000000 0.000000
0.115521 0.000000 0.000000
0.138125 0.000000 0.000000
0.166710 0.000000 0.000000
0.195487 0.000000 0.000000
0.229480 0.000000 0.000000
0.264990 0.000000 0.000000
0.299020 0.000000 0.000000
0.339183 0.000000 0.000000
0.384191 0.000000 0.000000
0.431508 0.000000 0.000000
0.479994 0.000000 0.000000
0.543129 0.000000 0.000000
0.604164 0.000000 0.000000
0.667225 0.000000 0.013770
0.718378 0.000000 0.038215
0.776012 0.000000 0.052728
0.837730 0.000000 0.069737
0.897580 0.000000 0.091427
0.940703 0.000000 0.117996
0.976548 0.000000 0.142994
1.000000 0.091446 0.172943
1.000000 0.210335 0.210925
1.000000 0.286528 0.249420
1.000000 0.365920 0.289150
1.000000 0.430993 0.334330
0.000000 0.000000 0.000000
0.000000 0.000000 0.000000
0.000000 0.000000 0.000000
0.000000 0.000000 0.000000
0.000000 0.000000 0.000000
0.030996 0.000000 0.000000
0.066418 0.000000 0.000000
0.092962 0.000000 0.000000
0.118156 0.000000 0.000000
0.141309 0.000000 0.000000
0.171879 0.000000 0.000000
0.200769 0.000000 0.000000
0.231427 0.000000 0.000000
0.270850 0.000000 0.000000
0.301443 0.000000 0.000000
0.342075 0.000000 0.000000
0.389766 0.000000 0.000000
0.432551 0.000000 0.000000
0.487354 0.000000 0.000000
0.547436 0.000000 0.000000
0.604947 0.000000 0.000000
0.668150 0.000000 0.013089
0.719030 0.000000 0.038421
0.776909 0.000000 0.054709
0.838203 0.000000 0.071264
0.897716 0.000000 0.091110
0.940754 0.000000 0.117713
0.978860 0.000000 0.142900
1.000000 0.091446 0.172943
1.000000 0.210335 0.210925
1.000000 0.294842 0.249095
1.000000 0.365920 0.289150
1.000000 0.430993 0.334330
0.000000 0.000000 0.000000
0.000000 0.000000 0.000000
0.000000 0.000000 0.000000
0.000000 0.000000 0.000000
0.000000 0.000000 0.000000
0.038007 0.000000 0.000000
0.072433 0.000000 0.000000
0.100655 0.000000 0.000000
0.121669 0.000000 0.000000
0.144522 0.000000 0.000000
0.174237 0.000000 0.000000
0.205088 0.000000 0.000000
0.238046 0.000000 0.000000
0.275002 0.000000 0.000000
0.305857 0.000000 0.000000
0.344936 0.000000 0.000000
0.393297 0.000000 0.000000
0.436522 0.000000 0.000000
0.488180 0.000000 0.000000
0.548327 0.000000 0.000000
0.609420 0.000000 0.000000
0.672598 0.000000 0.014909
0.726559 0.000000 0.037890
0.780876 0.000000 0.054294
0.838412 0.000000 0.070918
0.897850 0.000000 0.090779
0.940777 0.000000 0.117567
0.979015 0.000000 0.145504
1.000000 0.102389 0.172770
1.000000 0.220232 0.210578
1.000000 0.294842 0.249095
1.000000 0.369643 0.289005
1.000000 0.430993 0.334330
0.000000 0.024453 0.000000
0.000000 0.025450 0.000000
0.000000 0.026561 0.000000
0.000000 0.028716 0.000000
0.000000 0.033179 0.000000
0.036714 0.029814 0.000000
0.068619 0.015409 0.000000
0.102756 0.000000 0.000000
0.128666 0.000000 0.000000
0.155003 0.000000 0.000000
0.182736 0.000000 0.000000
0.212678 0.000000 0.000000
0.243688 0.000000 0.000000
0.281210 0.000000 0.000000
0.314323 0.000000 0.000000
0.352551 0.000000 0.000000
0.397343 0.000000 0.000000
0.443621 0.000000 0.000000
0.492658 0.000000 0.000000
0.549737 0.000000 0.000000
0.610605 0.000000 0.000000
0.673658 0.000000 0.016036
0.727331 0.000000 0.036595
0.781239 0.000000 0.053740
0.838880 0.000000 0.072453
0.898145 0.000000 0.092666
0.940822 0.000000 0.117264
0.978902 0.000000 0.145054
1.000000 0.111721 0.174300
1.000000 0.220411 0.210846
1.000000 0.294842 0.249095
1.000000 0.369643 0.289005
1.000000 0.434509 0.334217
0.000000 0.049907 0.000000
0.000000 0.050058 0.000000
0.000000 0.050563 0.000000
0.000000 0.051244 0.000000
0.000000 0.052804 0.000000
0.000000 0.055810 0.000000
0.065478 0.051909 0.000000
0.102729 0.041600 0.000000
0.133318 0.027113 0.000000
0.163000 0.000000 0.000000
0.196992 0.000000 0.000000
0.225887 0.000000 0.000000
0.255165 0.000000 0.000000
0.285836 0.000000 0.000000
0.321712 0.000000 0.000000
0.365737 0.000000 0.000000
0.406719 0.000000 0.000000
0.447930 0.000000 0.000000
0.497045 0.000000 0.000000
0.554718 0.000000 0.000000
0.618662 0.000000 0.000000
0.674586 0.000000 0.014638
0.727987 0.000000 0.037908
0.781989 0.000000 0.054781
0.842895 0.000000 0.071720
0.898337 0.000000 0.092150
0.943856 0.000000 0.119426
0.978860 0.000000 0.144897
1.000000 0.128624 0.173940
1.000000 0.225250 0.210665
1.000000 0.303435 0.249062
1.000000 0.373353 0.288858
1.000000 0.434509 0.334217
0.000000 0.068724 0.000000
0.000000 0.068942 0.000000
0.000000 0.069032 0.000000
0.000000 0.070281 0.000000
0.000000 0.075229 0.000000
0.000000 0.077260 0.000000
0.052388 0.078777 0.000000
0.103516 0.071676 0.000000
0.137415 0.062329 0.000000
0.172353 0.044394 0.000000
0.206392 0.000000 0.000000
0.237335 0.000000 0.000000
0.272229 0.000000 0.000000
0.299642 0.000000 0.000000
0.332428 0.000000 0.000000
0.372538 0.000000 0.000000
0.413799 0.000000 0.000000
0.452524 0.000000 0.000000
0.502189 0.000000 0.000000
0.559988 0.000000 0.000000
0.620255 0.000000 0.000000
0.675781 0.000000 0.014404
0.732586 0.000000 0.035882
0.782838 0.000000 0.054416
0.843579 0.000000 0.074046
0.898748 0.000000 0.093702
0.943899 0.000000 0.118943
0.983549 0.000000 0.147467
1.000000 0.136186 0.173753
1.000000 0.225250 0.210665
1.000000 0.307774 0.252709
1.000000 0.373490 0.291020
1.000000 0.441526 0.333986
0.000000 0.088390 0.000000
0.000000 0.088516 0.000000
0.000000 0.088641 0.000000
0.000000 0.091627 0.000000
0.000000 0.094781 0.000000
0.000000 0.098085 0.000000
0.000000 0.102158 0.000000
0.097006 0.102481 0.000000
0.139153 0.095277 0.000000
0.180884 0.080174 0.000000
0.219238 0.061881 0.000000
0.251061 0.042234 0.000000
0.285029 0.000000 0.000000
0.314240 0.000000 0.000000
0.344599 0.000000 0.000000
0.387846 0.000000 0.000000
0.427390 0.000000 0.000000
0.466955 0.000000 0.000000
0.511005 0.000000 0.000000
0.569293 0.000000 0.000000
0.629159 0.000000 0.000000
0.677113 0.000000 0.006215
0.733614 0.000000 0.034749
0.787414 0.000000 0.055069
0.844416 0.000000 0.074793
0.905499 0.000000 0.095456
0.944112 0.000000 0.120980
0.983442 0.000000 0.147129
1.000000 0.150491 0.176352
1.000000 0.230185 0.212154
1.000000 0.315788 0.252368
1.000000 0.378162 0.291573
1.000000 0.441526 0.333986
0.000000 0.109422 0.000000
0.000000 0.111181 0.000000
0.000000 0.111361 0.000000
0.000000 0.113334 0.000000
0.000000 0.119040 0.000000
0.000000 0.121222 0.000000
0.000000 0.130382 0.000000
0.069112 0.131309 0.000000
0.136717 0.130096 0.000000
0.180540 0.118023 0.000000
0.226004 0.102103 0.000000
0.263725 0.090015 0.000000
0.295321 0.074213 0.000000
0.331939 0.041560 0.000000
0.362061 0.000000 0.000000
0.397873 0.000000 0.000000
0.440473 0.000000 0.000000
0.483275 0.000000 0.000000
0.527620 0.000000 0.000000
0.582560 0.000000 0.000000
0.638510 0.000000 0.000000
0.686023 0.000000 0.000000
0.738596 0.000000 0.033844
0.788728 0.000000 0.054622
0.848701 0.000000 0.075723
0.905709 0.000000 0.094670
0.944135 0.000000 0.120460
0.983339 0.000000 0.147942
1.000000 0.169106 0.175756
1.000000 0.234896 0.211968
1.000000 0.319759 0.252192
1.000000 0.385510 0.291275
1.000000 0.442074 0.334390
0.000000 0.137209 0.000000
0.000000 0.139435 0.000000
0.000000 0.139660 0.000000
0.000000 0.142154 0.000000
0.000000 0.149327 0.000000
0.000000 0.152032 0.000000
0.000000 0.162335 0.000000
0.000000 0.169251 0.000000
0.097943 0.169780 0.000000
0.175948 0.165570 0.000000
0.230274 0.148565 0.000000
0.274648 0.134699 0.000000
0.307847 0.123131 0.000000
0.340460 0.106284 0.000000
0.376471 0.088603 0.000000
0.421513 0.039056 0.000000
0.451958 0.000000 0.000000
0.495331 0.000000 0.000000
0.545441 0.000000 0.000000
0.592796 0.000000 0.000000
0.652190 0.000000 0.000000
0.695736 0.000000 0.000000
0.743945 0.000000 0.030731
0.793755 0.000000 0.055173
0.849401 0.000000 0.076590
0.906539 0.000000 0.098911
0.946986 0.000000 0.121082
0.985298 0.000000 0.147178
1.000000 0.174679 0.177545
1.000000 0.249026 0.214776
1.000000 0.323708 0.252014
1.000000 0.389169 0.291123
1.000000 0.445701 0.336719
0.000000 0.165767 0.000000
0.000000 0.167247 0.000000
0.000000 0.168877 0.000000
0.000000 0.169378 0.000000
0.000000 0.176621 0.000000
0.000000 0.183479 0.000000
0.000000 0.190141 0.000000
0.000000 0.196594 0.000000
0.000000 0.198015 0.000000
0.156437 0.199696 0.000000
0.223446 0.193423 0.000000
0.278761 0.173575 0.000000
0.314161 0.164543 0.000000
0.350596 0.154160 0.000000
0.391251 0.139359 0.000000
0.433012 0.120572 0.000000
0.473343 0.092659 0.000000
0.511187 0.052363 0.000000
0.561903 0.000000 0.000000
0.607829 0.000000 0.000000
0.659166 0.000000 0.000000
0.709652 0.000000 0.000000
0.753367 0.000000 0.030775
0.798629 0.000000 0.054409
0.857551 0.000000 0.077456
0.909960 0.000000 0.099031
0.947020 0.000000 0.120860
0.985032 0.100105 0.148872
1.000000 0.191529 0.179966
1.000000 0.262671 0.214433
1.000000 0.331683 0.253593
1.000000 0.392954 0.293157
1.000000 0.449193 0.336603
0.000000 0.192881 0.000000
0.000000 0.198930 0.000000
0.000000 0.200929 0.000000
0.000000 0.201464 0.000000
0.000000 0.206979 0.000000
0.000000 0.214616 0.000000
0.000000 0.217168 0.000000
0.000000 0.228276 0.000000
0.000000 0.232968 0.000000
0.101469 0.233120 0.000000
0.206000 0.232628 0.000000
0.267711 0.227773 0.000000
0.324376 0.203888 0.000000
0.362995 0.195985 0.000000
0.402943 0.185119 0.000000
0.450055 0.169114 0.000000
0.492239 0.153456 0.000000
0.530211 0.130805 0.000000
0.574242 0.103473 0.000000
0.620324 0.056229 0.000000
0.670823 0.000000 0.000000
0.716404 0.000000 0.000000
0.763000 0.000000 0.020575
0.811463 0.000000 0.054208
0.862099 0.000000 0.079533
0.913468 0.000000 0.099725
0.949655 0.000000 0.120607
0.986994 0.132876 0.149559
1.000000 0.206919 0.179297
1.000000 0.271409 0.214004
1.000000 0.343813 0.255310
1.000000 0.400227 0.292847
1.000000 0.456164 0.336365
0.000000 0.225221 0.000000
0.000000 0.231797 0.000000
0.000000 0.237074 0.000000
0.000000 0.237686 0.000000
0.000000 0.242110 0.000000
0.000000 0.250117 0.000000
0.000000 0.255555 0.000000
0.000000 0.259832 0.000000
0.000000 0.267186 0.000000
0.000000 0.268511 0.000000
0.161635 0.269932 0.000000
0.240428 0.273966 0.000000
0.316919 0.262125 0.000000
0.369289 0.243922 0.000000
0.411680 0.235819 0.000000
0.464163 0.218964 0.000000
0.508344 0.206194 0.000000
0.550539 0.192239 0.000000
0.587077 0.170039 0.000000
0.632937 0.151420 0.000000
0.686943 0.117751 0.000000
0.727947 0.076548 0.000000
0.776894 0.000000 0.000000
0.820835 0.000000 0.053652
0.869929 0.000000 0.079685
0.917102 0.000000 0.101513
0.955022 0.084728 0.125368
0.988647 0.170295 0.149660
1.000000 0.226364 0.180139
1.000000 0.288686 0.216587
1.000000 0.351459 0.254930
1.000000 0.407601 0.294742
1.000000 0.464309 0.339423
0.000000 0.262256 0.000000
0.000000 0.264576 0.000000
0.000000 0.270582 0.000000
0.000000 0.271706 0.000000
0.000000 0.274544 0.000000
0.000000 0.281821 0.000000
0.000000 0.287543 0.000000
0.000000 0.294222 0.000000
0.000000 0.298449 0.000000
0.000000 0.302249 0.000000
0.000000 0.305238 0.000000
0.191476 0.311238 0.000000
0.281096 0.309131 0.000000
0.360567 0.298323 0.000000
0.415988 0.282634 0.000000
0.471819 0.266337 0.000000
0.516362 0.257459 0.000000
0.566817 0.246804 0.000000
0.607522 0.231605 0.000000
0.649486 0.219632 0.000000
0.695989 0.199060 0.000000
0.743663 0.176677 0.000000
0.785147 0.158780 0.000000
0.830731 0.083620 0.050274
0.881119 0.064698 0.077888
0.923343 0.106749 0.102323
0.959620 0.158442 0.125361
0.990068 0.206548 0.150766
1.000000 0.249811 0.185223
1.000000 0.309918 0.219514
1.000000 0.366852 0.258137
1.000000 0.418858 0.294615
1.000000 0.474682 0.339057
0.000000 0.299683 0.000000
0.000000 0.304623 0.000000
0.000000 0.305552 0.000000
0.000000 0.308639 0.000000
0.000000 0.316312 0.000000
0.000000 0.322139 0.000000
0.000000 0.330694 0.000000
0.000000 0.339991 0.000000
0.000000 0.342992 0.000000
0.000000 0.352655 0.000000
0.000000 0.356871 0.000000
0.030456 0.357372 0.000000
0.223894 0.356984 0.000000
0.323747 0.360152 0.000000
0.408393 0.351542 0.000000
0.476605 0.328152 0.000000
0.529618 0.316853 0.000000
0.584176 0.301970 0.000000
0.620079 0.296578 0.000000
0.662608 0.284569 0.000000
0.708496 0.267841 0.000000
0.755433 0.255087 0.000000
0.796111 0.238874 0.000000
0.843900 0.211727 0.006200
0.888642 0.184041 0.076400
0.926150 0.183013 0.102205
0.961414 0.209177 0.127585
0.989431 0.235097 0.156398
1.000000 0.276114 0.185415
1.000000 0.329880 0.220084
1.000000 0.382779 0.262038
1.000000 0.433734 0.296552
1.000000 0.482098 0.339228
0.000000 0.351429 0.000000
0.000000 0.352693 0.000000
0.000000 0.353623 0.000000
0.000000 0.359595 0.000000
0.000000 0.363354 0.000000
0.000000 0.367412 0.000000
0.000000 0.376979 0.000000
0.000000 0.384489 0.000000
0.000000 0.387343 0.000000
0.000000 0.395727 0.000000
0.000000 0.402973 0.000000
0.000000 0.413392 0.000000
0.105726 0.414457 0.000000
0.251298 0.414285 0.000000
0.362545 0.412436 0.000000
0.461000 0.402743 0.000000
0.529221 0.380493 0.000000
0.585443 0.368852 0.000000
0.631728 0.360617 0.000000
0.673424 0.356150 0.000000
0.723399 0.340051 0.000000
0.766298 0.327274 0.000000
0.806528 0.314674 0.000000
0.849026 0.297718 0.000000
0.891776 0.267568 0.064428
0.928213 0.251793 0.100609
0.962667 0.257280 0.130518
0.989706 0.282580 0.158922
1.000000 0.313337 0.185929
1.000000 0.357622 0.225931
1.000000 0.397638 0.263277
1.000000 0.448195 0.300419
1.000000 0.496096 0.343761
0.000000 0.399532 0.000000
0.000000 0.403155 0.000000
0.000000 0.404815 0.000000
0.000000 0.406477 0.000000
0.000000 0.407550 0.000000
0.000000 0.414529 0.000000
0.000000 0.418905 0.000000
0.000000 0.423874 0.000000
0.000000 0.435156 0.000000
0.000000 0.443225 0.000000
0.000000 0.446078 0.000000
0.000000 0.454299 0.000000
0.000000 0.461544 0.000000
0.162289 0.462087 0.000000
0.294937 0.461608 0.000000
0.425603 0.458762 0.000000
0.513679 0.452160 0.000000
0.575664 0.432715 0.000000
0.630761 0.421654 0.000000
0.682984 0.413924 0.000000
0.732113 0.402117 0.000000
0.775743 0.390382 0.000000
0.818180 0.381977 0.000000
0.855648 0.371317 0.000000
0.896432 0.356048 0.044759
0.933677 0.332551 0.091813
0.964533 0.321589 0.130242
0.989212 0.330992 0.162377
1.000000 0.352952 0.191424
1.000000 0.380561 0.230027
1.000000 0.419873 0.268309
1.000000 0.466511 0.304558
1.000000 0.513693 0.343545
0.000000 0.452284 0.000000
0.000000 0.456446 0.000000
0.000000 0.457931 0.000000
0.000000 0.458882 0.000000
0.000000 0.460147 0.000000
0.000000 0.464099 0.000000
0.000000 0.468797 0.000000
0.000000 0.479587 0.000000
0.000000 0.484793 0.000000
0.000000 0.496429 0.000000
0.000000 0.504702 0.000000
0.000000 0.506911 0.000000
0.000000 0.511872 0.000000
0.000000 0.515553 0.000000
0.196913 0.521962 0.000000
0.357808 0.520838 0.000000
0.480092 0.518212 0.000000
0.568330 0.508301 0.000000
0.626842 0.491377 0.000000
0.683722 0.480286 0.000000
0.737756 0.458836 0.000000
0.786830 0.447371 0.000000
0.825350 0.440363 0.000000
0.864149 0.430166 0.000000
0.902414 0.423410 0.000000
0.934879 0.409943 0.091730
0.964095 0.396366 0.123552
0.991222 0.387896 0.162858
1.000000 0.394818 0.196697
1.000000 0.414440 0.235663
1.000000 0.445569 0.275458
1.000000 0.488718 0.311375
1.000000 0.531575 0.351091
0.000000 0.514313 0.000000
0.000000 0.515409 0.000000
0.000000 0.516174 0.000000
0.000000 0.517156 0.000000
0.000000 0.518349 0.000000
0.000000 0.519325 0.000000
0.000000 0.523744 0.000000
0.000000 0.528357 0.000000
0.000000 0.529906 0.000000
0.000000 0.538027 0.000000
0.000000 0.546466 0.000000
0.000000 0.551586 0.000000
0.000000 0.553486 0.000000
0.000000 0.563925 0.000000
0.000000 0.567336 0.000000
0.285289 0.570072 0.000000
0.418933 0.568321 0.000000
0.526303 0.569089 0.000000
0.624304 0.562035 0.000000
0.684266 0.541151 0.000000
0.737320 0.530169 0.000000
0.789983 0.515599 0.000000
0.829481 0.509378 0.000000
0.867599 0.500035 0.000000
0.903512 0.493435 0.000000
0.933757 0.484552 0.070281
0.960510 0.465713 0.130462
0.988921 0.453764 0.162584
1.000000 0.453726 0.200276
1.000000 0.458442 0.240591
1.000000 0.481790 0.280273
1.000000 0.517378 0.320138
1.000000 0.552036 0.352956
0.000000 0.567994 0.000000
0.000000 0.572085 0.000000
0.000000 0.572860 0.000000
0.000000 0.573631 0.000000
0.000000 0.574515 0.000000
0.000000 0.575394 0.000000
0.000000 0.576691 0.000000
0.000000 0.577861 0.000000
0.000000 0.582654 0.000000
0.000000 0.587385 0.000000
0.000000 0.595546 0.000000
0.000000 0.603444 0.000000
0.000000 0.605153 0.000000
0.000000 0.609699 0.000000
0.000000 0.616765 0.000000
0.166086 0.626419 0.000000
0.346746 0.625396 0.000000
0.467775 0.623413 0.000000
0.578377 0.620488 0.000000
0.670593 0.620582 0.000000
0.736531 0.595710 0.000000
0.784666 0.581905 0.000000
0.829539 0.571949 0.000000
0.870554 0.566093 0.000000
0.902791 0.560406 0.000000
0.931718 0.547725 0.013168
0.958899 0.536748 0.125604
0.981417 0.532880 0.172077
1.000000 0.529080 0.201671
1.000000 0.526753 0.248162
1.000000 0.531485 0.284269
1.000000 0.548599 0.323602
1.000000 0.569735 0.360800
0.000000 0.622506 0.000000
0.000000 0.623399 0.000000
0.000000 0.623836 0.000000
0.000000 0.624500 0.000000
0.000000 0.625484 0.000000
0.000000 0.626248 0.000000
0.000000 0.626990 0.000000
0.000000 0.631173 0.000000
0.000000 0.632530 0.000000
0.000000 0.636965 0.000000
0.000000 0.645117 0.000000
0.000000 0.652808 0.000000
0.000000 0.657072 0.000000
0.000000 0.658792 0.000000
0.000000 0.662949 0.000000
0.000000 0.672400 0.000000
0.263895 0.675064 0.000000
0.403006 0.674045 0.000000
0.527763 0.672031 0.000000
0.624849 0.675706 0.000000
0.717035 0.675637 0.000000
0.777795 0.648871 0.000000
0.827628 0.638476 0.000000
0.867503 0.625442 0.000000
0.900293 0.616444 0.000000
0.928565 0.608032 0.057394
0.953747 0.603216 0.117474
0.976826 0.589106 0.170886
0.998180 0.585957 0.214603
1.000000 0.583431 0.253028
1.000000 0.581311 0.294122
1.000000 0.583346 0.327394
1.000000 0.597560 0.363397
0.000000 0.677854 0.000000
0.000000 0.681420 0.000000
0.000000 0.682073 0.000000
0.000000 0.682506 0.000000
0.000000 0.682929 0.000000
0.000000 0.683676 0.000000
0.000000 0.684395 0.000000
0.000000 0.685006 0.000000
0.000000 0.686127 0.000000
0.000000 0.690237 0.000000
0.000000 0.695006 0.000000
0.000000 0.699419 0.000000
0.000000 0.703409 0.000000
0.000000 0.707698 0.000000
0.000000 0.715071 0.000000
0.000000 0.715154 0.000000
0.122846 0.720721 0.000000
0.340315 0.722764 0.000000
0.467584 0.721292 0.000000
0.582175 0.721913 0.000000
0.680289 0.721640 0.000000
0.763030 0.718685 0.000000
0.815377 0.700332 0.000000
0.857070 0.687655 0.000000
0.889354 0.675316 0.000000
0.923013 0.666870 0.043665
0.947825 0.662746 0.136364
0.970631 0.654989 0.170772
0.991143 0.641670 0.219827
1.000000 0.639322 0.267931
1.000000 0.636788 0.306237
1.000000 0.631673 0.333779
1.000000 0.631643 0.370811
0.000000 0.728313 0.073355
0.000000 0.728397 0.056841
0.000000 0.728895 0.058018
0.000000 0.729290 0.058950
0.000000 0.729779 0.060102
0.000000 0.730058 0.050498
0.000000 0.730727 0.052486
0.000000 0.731259 0.017444
0.000000 0.731863 0.000000
0.000000 0.732740 0.000000
0.000000 0.736537 0.000000
0.000000 0.740492 0.000000
0.000000 0.744320 0.000000
0.000000 0.748001 0.000000
0.000000 0.753975 0.000000
0.000000 0.757176 0.000000
0.000000 0.756922 0.000000
0.260874 0.758398 0.000000
0.412766 0.762262 0.000000
0.537137 0.760339 0.000000
0.642423 0.760069 0.000000
0.728338 0.762354 0.000000
0.798251 0.759823 0.000000
0.845335 0.741042 0.000000
0.878802 0.729649 0.000000
0.916501 0.718185 0.051376
0.943279 0.714058 0.142558
0.963059 0.710103 0.186656
0.982705 0.703719 0.226308
0.999588 0.695167 0.277425
1.000000 0.692582 0.317615
1.000000 0.687870 0.349493
1.000000 0.680498 0.383691
0.000000 0.773579 0.147482
0.000000 0.773830 0.147843
0.000000 0.773996 0.148084
0.000000 0.774326 0.148569
0.000000 0.774650 0.149056
0.000000 0.774890 0.149423
0.000000 0.775439 0.150286
0.000000 0.775631 0.143056
0.000000 0.776150 0.143963
0.000000 0.776529 0.136873
0.000000 0.776973 0.133777
0.000000 0.780263 0.130031
0.000000 0.783527 0.130709
0.000000 0.786550 0.122708
0.000000 0.792117 0.118878
0.000000 0.796834 0.092122
0.000000 0.796283 0.083820
0.147241 0.795450 0.089743
0.349661 0.798887 0.069661
0.477788 0.799087 0.000000
0.606729 0.796296 0.063071
0.695120 0.795745 0.054913
0.768470 0.795151 0.000000
0.829201 0.792918 0.054265
0.867710 0.784282 0.024019
0.905890 0.769092 0.109616
0.934734 0.759479 0.160885
0.956192 0.755692 0.205523
0.975001 0.749916 0.248684
0.991700 0.744835 0.298904
1.000000 0.739453 0.335005
1.000000 0.737109 0.363507
1.000000 0.733365 0.401586
0.000000 0.813032 0.210356
0.000000 0.815368 0.203563
0.000000 0.815556 0.203937
0.000000 0.815678 0.204187
0.000000 0.815860 0.204564
0.000000 0.815979 0.204816
0.000000 0.816212 0.205322
0.000000 0.816438 0.205830
0.000000 0.816603 0.199756
0.000000 0.816859 0.200410
0.000000 0.817204 0.198150
0.000000 0.817457 0.195760
0.000000 0.820026 0.193388
0.000000 0.822540 0.194580
0.000000 0.827049 0.192571
0.000000 0.828941 0.187739
0.000000 0.830265 0.171744
0.000000 0.831422 0.170964
0.283325 0.830040 0.174613
0.442232 0.831980 0.167175
