Assets/Lutify-Free-LUTs-Pack/Lutify Free LUTs Pack/Film Tone Pro - Film Tone 3/Lutify.me-FilmTone3-DJIDLog-to-Rec709.cube
# Created with: fylm.ai - Colour Grading and Collaboration Software in Cloud 
# Website: https://fylm.ai 
# META
# Option: Gamut compress
# Block 1: IDT | DJI D-Gamut D-Log
# Block 2: colourMatch | Blending Mode: Normal | {"ColorSpace":0,"CrossCovarianceLimit":50,"ReshapingIterations":1,"PercentSaturationShift":100,"PercentShadingShift":100,"ExtraShading":true,"PercentTint":100,"PercentModified":100}
# Block 3: subtractiveColour | Blending Mode: Normal | {"sliders":{"gainY":0.6,"C":0.3,"M":0.3,"Y":0.3}}
# Block 4: LUT | Filmic Curve Response: Low Contrast 2 (100%)
# Block 5: logPrimaries | Blending Mode: Normal | {"wheels":{"shadows":{"Y":"0","R":"1","G":"1","B":"1"},"midtones":{"Y":"0","R":"1","G":"1","B":"1"},"highlights":{"Y":"0","R":"1","G":"1","B":"1"},"offset":{"Y":"0","R":"1","G":"1","B":"1"}},"sliders":{"shadows":{"Y":0,"R":-0.026,"G":0.03,"B":0.1},"midtones":{"Y":0,"R":0.024,"G":-0.036,"B":0.036},"highlights":{"Y":0,"R":0,"G":0.044,"B":-0.128},"offset":{"Y":0,"R":0,"G":0,"B":0}}}
# Block 6: hueSaturation | Blending Mode: Normal | {"hue":0,"saturation":-0.1}
# Block 7: ODT | Rec709
TITLE "Lutify.me-FilmTone3-DJIDLog-to-Rec709" 
LUT_3D_SIZE 5
0.000000 0.000000 0.000000
0.148117 0.000000 0.000000
0.547158 0.000000 0.000000
1.000000 0.309595 0.197000
1.000000 0.856079 0.707135
0.000000 0.144538 0.000000
0.234563 0.154556 0.000000
0.605141 0.000000 0.000000
1.000000 0.341971 0.198594
1.000000 0.856079 0.707135
0.000000 0.537867 0.000000
0.000000 0.557045 0.000000
0.741030 0.521328 0.000000
1.000000 0.549425 0.181928
1.000000 0.862744 0.710887
0.000000 0.934420 0.000000
0.245760 0.933291 0.000000
0.589504 0.931183 0.000000
0.972117 0.911543 0.000000
1.000000 0.918647 0.738028
0.880782 1.000000 0.812785
0.881998 1.000000 0.812887
0.887990 1.000000 0.812408
0.936008 1.000000 0.817393
1.000000 1.000000 0.838733
0.000000 0.000000 0.085675
0.131000 0.000000 0.051837
0.544286 0.000000 0.069552
1.000000 0.304456 0.232493
1.000000 0.856169 0.711807
0.000000 0.116171 0.209198
0.149004 0.179824 0.189387
0.600728 0.000000 0.085434
1.000000 0.345085 0.238398
1.000000 0.857450 0.711951
0.000000 0.568097 0.000000
0.000000 0.590520 0.000000
0.686704 0.599983 0.000000
1.000000 0.542180 0.236368
1.000000 0.862829 0.715499
0.000000 0.936977 0.201975
0.213588 0.936041 0.197239
0.579913 0.933005 0.194565
0.970802 0.917001 0.160273
1.000000 0.918698 0.742065
0.880764 1.000000 0.814787
0.881980 1.000000 0.814888
0.887959 1.000000 0.815398
0.934234 1.000000 0.819841
1.000000 1.000000 0.841416
0.000000 0.000000 0.236376
0.028066 0.000000 0.196388
0.470181 0.000000 0.155886
1.000000 0.292841 0.410881
1.000000 0.856569 0.732378
0.000000 0.000000 0.401649
0.000000 0.033884 0.385107
0.598758 0.000000 0.367265
1.000000 0.337647 0.413808
1.000000 0.856569 0.732378
0.000000 0.515108 0.608626
0.000000 0.573539 0.612696
0.626316 0.634583 0.605495
1.000000 0.541058 0.442233
1.000000 0.863207 0.735795
0.000000 0.942095 0.532271
0.000000 0.943193 0.531534
0.554524 0.937667 0.530255
0.958447 0.930069 0.513554
1.000000 0.917258 0.763176
0.876932 1.000000 0.830583
0.878163 1.000000 0.830672
0.883498 1.000000 0.831733
0.931221 1.000000 0.835030
1.000000 1.000000 0.853010
0.000000 0.000000 0.587344
0.000000 0.000000 0.592325
0.349131 0.000000 0.631690
1.000000 0.000000 0.669432
1.000000 0.851840 0.823946
0.000000 0.000000 0.692922
0.000000 0.000000 0.699618
0.332110 0.000000 0.719800
1.000000 0.000000 0.717876
1.000000 0.851840 0.823946
0.000000 0.256814 0.827889
0.000000 0.271975 0.829753
0.261851 0.306119 0.832828
1.000000 0.251970 0.811714
1.000000 0.859679 0.825779
0.000000 0.933142 0.908481
0.000000 0.935026 0.908796
0.000000 0.936533 0.907288
0.921524 0.934681 0.905038
1.000000 0.913541 0.846142
0.869336 1.000000 0.903205
0.870557 1.000000 0.903248
0.876578 1.000000 0.902672
0.925772 1.000000 0.903432
1.000000 1.000000 0.912981
0.296694 0.168663 0.958392
0.325222 0.165091 0.958388
0.469331 0.140275 0.958121
0.938488 0.000000 0.957924
1.000000 0.549486 0.950710
0.292057 0.197626 0.964324
0.321485 0.194841 0.964314
0.459022 0.181771 0.964027
0.937108 0.000000 0.962438
1.000000 0.562999 0.951268
0.255972 0.346203 0.978109
0.293758 0.345023 0.977284
0.433458 0.350154 0.976008
0.916581 0.343688 0.973046
1.000000 0.637039 0.957231
0.000000 0.782693 0.989235
0.000000 0.784944 0.988569
0.218749 0.786049 0.987839
0.804556 0.799010 0.984127
1.000000 0.842531 0.972964
0.781515 1.000000 0.999050
0.783190 1.000000 0.999049
0.798757 1.000000 0.998670
0.876111 1.000000 0.997781
0.999694 1.000000 0.995865
