Assets/Lutify-Free-LUTs-Pack/Lutify Free LUTs Pack/Film Tone Pro - Film Tone 3/Lutify.me-FilmTone3-DragonColor2RLF-to-Rec709.cube
# Created with: fylm.ai - Colour Grading and Collaboration Software in Cloud 
# Website: https://fylm.ai 
# META
# Option: Gamut compress
# Block 1: IDT | RED DragonColor2 REDLogFilm
# Block 2: colourMatch | Blending Mode: Normal | {"ColorSpace":0,"CrossCovarianceLimit":50,"ReshapingIterations":1,"PercentSaturationShift":100,"PercentShadingShift":100,"ExtraShading":true,"PercentTint":100,"PercentModified":100}
# Block 3: subtractiveColour | Blending Mode: Normal | {"sliders":{"gainY":0.6,"C":0.3,"M":0.3,"Y":0.3}}
# Block 4: LUT | Filmic Curve Response: Low Contrast 2 (100%)
# Block 5: logPrimaries | Blending Mode: Normal | {"wheels":{"shadows":{"Y":"0","R":"1","G":"1","B":"1"},"midtones":{"Y":"0","R":"1","G":"1","B":"1"},"highlights":{"Y":"0","R":"1","G":"1","B":"1"},"offset":{"Y":"0","R":"1","G":"1","B":"1"}},"sliders":{"shadows":{"Y":0,"R":-0.026,"G":0.03,"B":0.1},"midtones":{"Y":0,"R":0.024,"G":-0.036,"B":0.036},"highlights":{"Y":0,"R":0,"G":0.044,"B":-0.128},"offset":{"Y":0,"R":0,"G":0,"B":0}}}
# Block 6: hueSaturation | Blending Mode: Normal | {"hue":0,"saturation":-0.1}
# Block 7: ODT | Rec709
TITLE "Lutify.me-FilmTone3-DragonColor2RLF-to-Rec709" 
LUT_3D_SIZE 5
0.000000 0.000000 0.000000
0.071428 0.000000 0.000000
0.332551 0.000000 0.000000
0.830496 0.000000 0.000000
1.000000 0.526151 0.131036
0.000000 0.081374 0.000000
0.113442 0.083232 0.000000
0.382015 0.000000 0.000000
0.839953 0.000000 0.000000
1.000000 0.529751 0.134135
0.000000 0.414761 0.000000
0.000000 0.415839 0.000000
0.556102 0.375004 0.000000
0.897350 0.286788 0.000000
1.000000 0.564722 0.136959
0.478490 0.841952 0.060166
0.509440 0.843122 0.030051
0.627866 0.843313 0.000000
0.910372 0.814895 0.000000
1.000000 0.788390 0.198483
0.884754 0.981864 0.694277
0.884754 0.981864 0.694277
0.890877 0.981573 0.695115
0.917601 0.981182 0.682875
1.000000 0.974730 0.596487
0.000000 0.000000 0.061352
0.061365 0.000000 0.054190
0.327345 0.000000 0.031304
0.833606 0.000000 0.000000
1.000000 0.528038 0.158418
0.000000 0.087012 0.124671
0.090264 0.104768 0.112358
0.377084 0.000000 0.037835
0.846647 0.000000 0.000000
1.000000 0.531366 0.157690
0.000000 0.438142 0.000000
0.000000 0.439103 0.000000
0.525187 0.426258 0.000000
0.893630 0.309565 0.000000
1.000000 0.566579 0.165832
0.466289 0.845491 0.179913
0.499401 0.844717 0.173566
0.625045 0.844704 0.138901
0.905571 0.820625 0.000000
1.000000 0.792973 0.220199
0.884629 0.981872 0.698876
0.884629 0.981872 0.698876
0.890814 0.981577 0.697410
0.917473 0.981191 0.687429
1.000000 0.974811 0.604687
0.000000 0.029311 0.296177
0.000000 0.033733 0.296052
0.397937 0.000000 0.280156
0.858294 0.000000 0.227082
1.000000 0.549576 0.279686
0.000000 0.073832 0.343658
0.000000 0.079701 0.345585
0.440891 0.000000 0.338713
0.863023 0.000000 0.235828
1.000000 0.552888 0.279436
0.000000 0.475007 0.504844
0.000000 0.489085 0.501601
0.480590 0.503892 0.487263
0.902467 0.363014 0.278164
1.000000 0.590912 0.289149
0.466972 0.856110 0.475406
0.486309 0.857536 0.476057
0.607184 0.856022 0.456985
0.893646 0.846352 0.385659
1.000000 0.800604 0.357461
0.880496 0.982538 0.730445
0.882063 0.982464 0.730618
0.886760 0.982240 0.728984
0.916489 0.981258 0.720749
1.000000 0.975503 0.653579
0.000000 0.244644 0.720532
0.000000 0.246321 0.721723
0.306199 0.248497 0.728610
0.925425 0.099295 0.714998
1.000000 0.590170 0.644660
0.000000 0.262482 0.730895
0.000000 0.266435 0.731990
0.311256 0.270286 0.732451
0.929398 0.169622 0.721990
1.000000 0.596817 0.644614
0.000000 0.413962 0.772462
0.000000 0.417219 0.773545
0.338202 0.439022 0.775028
0.923320 0.432887 0.769340
1.000000 0.631154 0.654238
0.454110 0.872114 0.838321
0.483518 0.871539 0.838526
0.582916 0.874024 0.839288
0.854134 0.870883 0.834786
1.000000 0.823203 0.707714
0.872145 0.984361 0.842761
0.872145 0.984361 0.842761
0.878461 0.984063 0.841604
0.905446 0.984045 0.841051
0.990622 0.980495 0.817849
0.521299 0.690855 0.941857
0.531022 0.693850 0.941712
0.568889 0.696144 0.941587
0.791288 0.704275 0.938179
1.000000 0.719489 0.929775
0.519336 0.694103 0.941702
0.529112 0.697080 0.941557
0.567160 0.699356 0.941434
0.792536 0.710393 0.937903
1.000000 0.722292 0.929658
0.525703 0.722025 0.941303
0.531655 0.721897 0.941308
0.570380 0.723988 0.941193
0.792765 0.728531 0.938997
1.000000 0.741502 0.930862
0.598044 0.838090 0.949383
0.598044 0.838090 0.949383
0.634981 0.837028 0.949420
0.806319 0.842206 0.946004
1.000000 0.856526 0.943909
0.870332 0.989570 0.968009
0.870332 0.989570 0.968009
0.876299 0.989289 0.968062
0.901980 0.989138 0.967847
0.975291 0.987978 0.962229
