Assets/Lutify-Free-LUTs-Pack/Lutify Free LUTs Pack/Film Tone Pro - Film Tone 3/Lutify.me-FilmTone3-BMDFilmGen5-to-Rec709.cube
# Created with: fylm.ai - Colour Grading and Collaboration Software in Cloud 
# Website: https://fylm.ai 
# META
# Option: Gamut compress
# Block 1: IDT | BMD Wide Gamut BMDFilm Gen 5
# Block 2: colourMatch | Blending Mode: Normal | {"ColorSpace":0,"CrossCovarianceLimit":50,"ReshapingIterations":1,"PercentSaturationShift":100,"PercentShadingShift":100,"ExtraShading":true,"PercentTint":100,"PercentModified":100}
# Block 3: subtractiveColour | Blending Mode: Normal | {"sliders":{"gainY":0.6,"C":0.3,"M":0.3,"Y":0.3}}
# Block 4: LUT | Filmic Curve Response: Low Contrast 2 (100%)
# Block 5: logPrimaries | Blending Mode: Normal | {"wheels":{"shadows":{"Y":"0","R":"1","G":"1","B":"1"},"midtones":{"Y":"0","R":"1","G":"1","B":"1"},"highlights":{"Y":"0","R":"1","G":"1","B":"1"},"offset":{"Y":"0","R":"1","G":"1","B":"1"}},"sliders":{"shadows":{"Y":0,"R":-0.026,"G":0.03,"B":0.1},"midtones":{"Y":0,"R":0.024,"G":-0.036,"B":0.036},"highlights":{"Y":0,"R":0,"G":0.044,"B":-0.128},"offset":{"Y":0,"R":0,"G":0,"B":0}}}
# Block 6: hueSaturation | Blending Mode: Normal | {"hue":0,"saturation":-0.1}
# Block 7: ODT | Rec709
TITLE "Lutify.me-FilmTone3-BMDFilmGen5-to-Rec709" 
LUT_3D_SIZE 5
0.000000 0.000000 0.000000
0.114934 0.000000 0.000000
0.655676 0.000000 0.000000
1.000000 0.622986 0.369231
1.000000 0.974465 0.915097
0.000000 0.111138 0.000000
0.164656 0.126565 0.000000
0.681715 0.000000 0.000000
1.000000 0.629374 0.368997
1.000000 0.974465 0.915097
0.000000 0.648302 0.000000
0.000000 0.660375 0.000000
0.828776 0.612158 0.000000
1.000000 0.720028 0.379874
1.000000 0.975371 0.915299
0.756019 0.987231 0.494219
0.758832 0.987117 0.494452
0.810089 0.985846 0.492471
1.000000 0.974932 0.439904
1.000000 0.986728 0.922389
0.985774 1.000000 0.966807
0.985774 1.000000 0.966807
0.985990 1.000000 0.966834
0.991435 1.000000 0.968356
1.000000 1.000000 0.976028
0.000000 0.000000 0.065667
0.093196 0.000000 0.047328
0.654992 0.000000 0.056481
1.000000 0.623736 0.384901
1.000000 0.974465 0.915097
0.000000 0.092293 0.153615
0.113909 0.130162 0.138549
0.682648 0.000000 0.057171
1.000000 0.626930 0.384796
1.000000 0.974465 0.915097
0.000000 0.674424 0.000000
0.000000 0.683084 0.000000
0.778369 0.677078 0.000000
1.000000 0.720632 0.395936
1.000000 0.975371 0.915299
0.753558 0.987885 0.519221
0.759177 0.987658 0.519668
0.810176 0.985904 0.508969
1.000000 0.975787 0.462789
1.000000 0.986728 0.922389
0.985772 1.000000 0.966963
0.985772 1.000000 0.966963
0.985989 1.000000 0.966990
0.991432 1.000000 0.968501
1.000000 1.000000 0.976028
0.000000 0.000000 0.224210
0.000000 0.000000 0.225390
0.574319 0.000000 0.197785
1.000000 0.616522 0.526834
1.000000 0.974500 0.916837
0.000000 0.000000 0.386120
0.000000 0.000000 0.387794
0.654639 0.000000 0.372865
1.000000 0.622924 0.526758
1.000000 0.974500 0.916837
0.000000 0.652872 0.698501
0.000000 0.677964 0.700774
0.718072 0.733320 0.691768
1.000000 0.715371 0.552004
1.000000 0.975405 0.917032
0.738362 0.989185 0.693362
0.741260 0.989070 0.693512
0.794556 0.988206 0.689813
0.998453 0.981139 0.673850
1.000000 0.986750 0.923941
0.985774 1.000000 0.968244
0.985774 1.000000 0.968244
0.985989 1.000000 0.968270
0.991414 1.000000 0.969384
1.000000 1.000000 0.976752
0.412603 0.000000 0.473277
0.435392 0.000000 0.473834
0.630905 0.000000 0.481441
1.000000 0.000000 0.829794
1.000000 0.974156 0.938820
0.302522 0.000000 0.641163
0.319904 0.000000 0.648338
0.552930 0.000000 0.704944
1.000000 0.000000 0.841257
1.000000 0.974156 0.938820
0.000000 0.327861 0.917994
0.083830 0.327395 0.918156
0.508944 0.333758 0.917525
1.000000 0.404962 0.900582
1.000000 0.974464 0.938855
0.581626 0.989902 0.965312
0.592111 0.990562 0.965313
0.691050 0.988778 0.965509
0.972486 0.986047 0.959179
1.000000 0.985737 0.944719
0.983544 1.000000 0.980951
0.983544 1.000000 0.980951
0.983979 1.000000 0.980810
0.989294 1.000000 0.981190
1.000000 1.000000 0.986177
1.000000 0.000000 0.743109
1.000000 0.000000 0.743235
1.000000 0.000000 0.740694
1.000000 0.000000 0.710536
1.000000 0.887359 0.997340
1.000000 0.000000 0.743235
1.000000 0.000000 0.743235
1.000000 0.000000 0.740694
1.000000 0.000000 0.710536
1.000000 0.887876 0.997864
1.000000 0.000000 1.000000
1.000000 0.000000 1.000000
1.000000 0.000000 1.000000
1.000000 0.000000 1.000000
1.000000 0.895865 0.999073
0.856245 0.884023 1.000000
0.856245 0.884023 1.000000
0.866550 0.883659 1.000000
0.945946 0.889803 1.000000
1.000000 0.948299 1.000000
0.973740 1.000000 1.000000
0.973740 1.000000 1.000000
0.974181 1.000000 1.000000
0.980945 1.000000 1.000000
1.000000 1.000000 1.000000
