Assets/Lutify-Free-LUTs-Pack/Lutify Free LUTs Pack/Film Tone Pro - Film Tone 3/Lutify.me-FilmTone3-ACEScct-to-ACEScct.cube
# Created with: fylm.ai - Colour Grading and Collaboration Software in Cloud 
# Website: https://fylm.ai 
# META
# Option: Gamut compress
# Block 1: subtractiveColour | Blending Mode: Normal | {"sliders":{"gainY":0.6,"C":0.3,"M":0.3,"Y":0.3}}
# Block 2: LUT | Filmic Curve Response: Low Contrast 2 (100%)
# Block 3: logPrimaries | Blending Mode: Normal | {"wheels":{"shadows":{"Y":"0","R":"1","G":"1","B":"1"},"midtones":{"Y":"0","R":"1","G":"1","B":"1"},"highlights":{"Y":"0","R":"1","G":"1","B":"1"},"offset":{"Y":"0","R":"1","G":"1","B":"1"}},"sliders":{"shadows":{"Y":0,"R":-0.026,"G":0.03,"B":0.1},"midtones":{"Y":0,"R":0.024,"G":-0.036,"B":0.036},"highlights":{"Y":0,"R":0,"G":0.044,"B":-0.128},"offset":{"Y":0,"R":0,"G":0,"B":0}}}
# Block 4: hueSaturation | Blending Mode: Normal | {"hue":0,"saturation":-0.1}
TITLE "Lutify.me-FilmTone3-ACEScct-to-ACEScct" 
LUT_3D_SIZE 9
0.033790 0.046106 0.062822
0.079016 0.057902 0.069339
0.191724 0.054480 0.068557
0.335321 0.069632 0.074031
0.454904 0.183056 0.129391
0.558390 0.342848 0.278625
0.666569 0.466862 0.414956
0.791691 0.567351 0.511926
0.945683 0.672955 0.596416
0.045813 0.091561 0.075725
0.086836 0.094754 0.074519
0.202639 0.079472 0.069795
0.343467 0.093614 0.075138
0.456566 0.202313 0.131932
0.559400 0.345617 0.278755
0.666634 0.468687 0.415021
0.791691 0.567351 0.511926
0.945683 0.672955 0.596416
0.044998 0.200717 0.074910
0.077061 0.209026 0.072662
0.239231 0.211079 0.075595
0.358423 0.180710 0.078658
0.460280 0.228022 0.134767
0.560541 0.350277 0.280776
0.666667 0.469599 0.415054
0.791691 0.567351 0.511926
0.945683 0.672955 0.596416
0.055327 0.330694 0.086119
0.095569 0.337504 0.085011
0.208961 0.350603 0.087553
0.388270 0.350440 0.088270
0.474487 0.333724 0.150733
0.564386 0.374356 0.289019
0.667742 0.472434 0.417009
0.791724 0.568263 0.511958
0.945683 0.672955 0.596416
0.164190 0.450994 0.219616
0.194982 0.451874 0.214337
0.238612 0.455034 0.209580
0.360639 0.465331 0.201401
0.493842 0.467449 0.182405
0.577126 0.454839 0.314076
0.671131 0.486380 0.422157
0.793679 0.571098 0.513034
0.945748 0.673900 0.597361
0.336298 0.557120 0.380287
0.342685 0.557348 0.380515
0.350896 0.557641 0.380808
0.386315 0.559629 0.376637
0.475595 0.569730 0.369143
0.594233 0.570479 0.351417
0.682405 0.556598 0.441349
0.795243 0.585859 0.517237
0.945943 0.679374 0.597556
0.461095 0.666080 0.485728
0.462007 0.666113 0.485761
0.463832 0.666178 0.485826
0.472108 0.668296 0.486184
0.497654 0.670968 0.485337
0.575073 0.679765 0.478299
0.699544 0.681069 0.470805
0.810329 0.662529 0.534963
0.949528 0.698794 0.602900
0.562496 0.799153 0.574813
0.563408 0.799185 0.574845
0.563408 0.799185 0.574845
0.564321 0.799218 0.574878
0.569795 0.800293 0.574194
0.591789 0.805572 0.573314
0.675725 0.815608 0.569273
0.827827 0.825187 0.563017
0.963408 0.791854 0.622059
0.661258 0.955099 0.670055
0.661258 0.955099 0.670055
0.661258 0.955099 0.670055
0.661193 0.955034 0.668231
0.662170 0.956892 0.668328
0.668557 0.957120 0.668557
0.695992 0.962561 0.666960
0.794526 0.974878 0.661681
0.984848 0.984848 0.654936
0.041773 0.058488 0.097198
0.079928 0.060573 0.093125
0.192180 0.056696 0.079570
0.333073 0.072662 0.084979
0.455556 0.188107 0.143239
0.558618 0.343956 0.284132
0.666634 0.466927 0.416781
0.791691 0.567351 0.511926
0.945683 0.672955 0.596416
0.046204 0.091072 0.113946
0.083708 0.100424 0.110101
0.203389 0.081981 0.089019
0.341447 0.097752 0.091593
0.457217 0.206484 0.146660
0.559694 0.346790 0.286087
0.666699 0.468752 0.416846
0.791691 0.567351 0.511926
0.945683 0.672955 0.596416
0.044803 0.204040 0.118703
0.076605 0.210329 0.110916
0.234278 0.222841 0.104953
0.358586 0.188791 0.101694
0.460997 0.230499 0.153079
0.560867 0.352362 0.288139
0.666732 0.469664 0.416878
0.791691 0.567351 0.511926
0.945683 0.672955 0.596416
0.057185 0.332551 0.138123
0.091789 0.341642 0.129619
0.207722 0.354643 0.126784
0.382437 0.360443 0.120267
0.475497 0.336494 0.177256
0.564549 0.374519 0.293581
0.667774 0.472467 0.417921
0.791756 0.568296 0.512871
0.945683 0.672955 0.596416
0.165298 0.452102 0.250635
0.194428 0.454839 0.248094
0.236201 0.456142 0.244119
0.361812 0.466504 0.234246
0.493939 0.470186 0.208895
0.577322 0.455034 0.319550
0.671163 0.486412 0.423069
0.793679 0.571098 0.513034
0.945748 0.673900 0.597361
0.336461 0.557283 0.384848
0.341023 0.557445 0.385011
0.351059 0.557804 0.385370
0.386575 0.559889 0.383936
0.475758 0.569892 0.373705
0.594493 0.571619 0.357836
0.682437 0.556631 0.442261
0.795243 0.585859 0.517237
0.945976 0.679407 0.598469
0.461127 0.666113 0.486641
0.462040 0.666145 0.486673
0.463864 0.666211 0.486738
0.472141 0.668328 0.487097
0.497687 0.671000 0.486250
0.575106 0.679798 0.479211
0.699576 0.681101 0.471717
0.810329 0.662529 0.534963
0.949528 0.698794 0.602900
0.562496 0.799153 0.574813
0.563408 0.799185 0.574845
0.563408 0.799185 0.574845
0.564321 0.799218 0.574878
0.569827 0.800326 0.575106
0.591789 0.805572 0.573314
0.675725 0.815608 0.569273
0.827859 0.825220 0.563930
0.963408 0.791854 0.622059
0.661258 0.955099 0.670055
0.661258 0.955099 0.670055
0.661258 0.955099 0.670055
0.661258 0.955099 0.670055
0.662170 0.956892 0.668328
0.668557 0.957120 0.668557
0.695992 0.962561 0.666960
0.794526 0.974878 0.661681
0.984848 0.984848 0.654936
0.037830 0.056305 0.169795
0.064125 0.059726 0.163539
0.194526 0.062561 0.141740
0.334865 0.077094 0.132519
0.456631 0.189182 0.173346
0.558977 0.346074 0.292408
0.666667 0.466960 0.417693
0.791724 0.567384 0.512838
0.945683 0.672955 0.596416
0.039655 0.079244 0.199772
0.066048 0.085402 0.193614
0.206810 0.089801 0.180417
0.343793 0.107136 0.150244
0.458358 0.207625 0.178592
0.559987 0.347964 0.293418
0.666732 0.468785 0.417758
0.791724 0.567384 0.512838
0.945683 0.672955 0.596416
0.046725 0.199804 0.257869
0.074324 0.213327 0.252916
0.229000 0.242196 0.249234
0.359075 0.200717 0.183122
0.462300 0.235321 0.186054
0.561225 0.355360 0.295536
0.666764 0.469697 0.417791
0.791724 0.567384 0.512838
0.945683 0.672955 0.596416
0.060215 0.340860 0.270479
0.096514 0.348126 0.260150
0.206712 0.359791 0.250701
0.382991 0.370674 0.231672
0.476800 0.337797 0.213750
0.564972 0.377582 0.302802
0.667807 0.472499 0.418833
0.791756 0.568296 0.512871
0.945683 0.672955 0.596416
0.166830 0.453633 0.293516
0.192278 0.456207 0.289932
0.234181 0.461160 0.286087
0.360574 0.470544 0.273477
0.494917 0.474682 0.259140
0.577778 0.457250 0.330564
0.671196 0.486445 0.423982
0.793679 0.571098 0.513034
0.945748 0.673900 0.597361
0.336722 0.557543 0.392147
0.341284 0.557706 0.392310
0.350375 0.558879 0.390844
0.384946 0.560020 0.389345
0.476083 0.571098 0.381949
0.593939 0.572825 0.366960
0.682470 0.556663 0.443174
0.795243 0.585859 0.517237
0.945976 0.679407 0.598469
0.461193 0.666178 0.488465
0.462105 0.666211 0.488498
0.463930 0.666276 0.488563
0.472173 0.668361 0.488009
0.497687 0.671000 0.486250
0.575204 0.679896 0.481949
0.699642 0.682046 0.472662
0.810329 0.662529 0.534963
0.949528 0.698794 0.602900
0.562496 0.799153 0.574813
0.562496 0.799153 0.574813
0.563408 0.799185 0.574845
0.564321 0.799218 0.574878
0.569827 0.800326 0.575106
0.591821 0.805604 0.574226
0.675758 0.815640 0.570186
0.827859 0.825220 0.563930
0.963408 0.791854 0.622059
0.661258 0.955099 0.670055
0.661258 0.955099 0.670055
0.661258 0.955099 0.670055
0.661258 0.955099 0.670055
0.662235 0.956957 0.670153
0.668557 0.957120 0.668557
0.695992 0.962561 0.666960
0.794526 0.974878 0.661681
0.984848 0.984848 0.654936
0.042717 0.073509 0.294330
0.069143 0.079700 0.289084
0.179472 0.087097 0.287683
0.339785 0.088172 0.264125
0.460997 0.200587 0.288563
0.560378 0.349234 0.329879
0.666927 0.467221 0.424992
0.791724 0.567384 0.512838
0.945715 0.672988 0.597328
0.045226 0.098892 0.315314
0.070023 0.108732 0.311958
0.175921 0.119616 0.310525
0.349137 0.117758 0.294591
0.462724 0.219029 0.293809
0.561421 0.352037 0.330922
0.666992 0.469045 0.425057
0.791724 0.567384 0.512838
0.945715 0.672988 0.597328
0.050114 0.178560 0.350994
0.076800 0.191170 0.346888
0.176768 0.212838 0.347442
0.364972 0.217172 0.337700
0.466797 0.246856 0.304920
0.561714 0.359368 0.332095
0.667025 0.469958 0.425090
0.791724 0.567384 0.512838
0.945715 0.672988 0.597328
0.058781 0.336787 0.391333
0.087325 0.349495 0.388205
0.194428 0.366862 0.388856
0.378006 0.385044 0.389443
0.478690 0.348485 0.337048
0.565461 0.381590 0.339361
0.668068 0.472760 0.426132
0.791756 0.568296 0.512871
0.945715 0.672988 0.597328
0.163311 0.459791 0.396448
0.190714 0.463441 0.395699
0.234474 0.465852 0.395471
0.357478 0.477126 0.388270
0.495797 0.485240 0.379668
0.578983 0.460215 0.362561
0.671457 0.486706 0.431281
0.793679 0.571098 0.513034
0.945748 0.673900 0.597361
0.337765 0.558586 0.421342
0.342326 0.558749 0.421505
0.351450 0.559954 0.420951
0.385142 0.562854 0.418573
0.477191 0.573086 0.412089
0.594298 0.576702 0.399870
0.682763 0.557836 0.450505
0.795308 0.585924 0.519062
0.945976 0.679407 0.598469
0.461421 0.666406 0.494852
0.462333 0.666439 0.494884
0.464158 0.666504 0.494950
0.472434 0.668622 0.495308
0.497947 0.671261 0.493548
0.573672 0.681004 0.489215
0.699967 0.684132 0.480026
0.810362 0.662561 0.535875
0.949528 0.698794 0.602900
0.562561 0.799218 0.576637
0.562561 0.799218 0.576637
0.562561 0.799218 0.576637
0.564386 0.799283 0.576702
0.569860 0.800358 0.576018
0.591821 0.805604 0.574226
0.675790 0.815673 0.571098
0.827892 0.825253 0.564842
0.963408 0.791854 0.622059
0.661258 0.955099 0.670055
0.661258 0.955099 0.670055
0.661258 0.955099 0.670055
0.661258 0.955099 0.670055
0.662235 0.956957 0.670153
0.668622 0.957185 0.670381
0.695992 0.962561 0.666960
0.794526 0.974878 0.661681
0.984914 0.984914 0.656761
0.120723 0.202542 0.421603
0.147312 0.207136 0.422678
0.186673 0.213946 0.422450
0.335516 0.226426 0.424373
0.464060 0.221245 0.409514
0.563832 0.359726 0.419550
0.666960 0.471652 0.447898
0.791919 0.567579 0.518312
0.945748 0.673021 0.598240
0.121375 0.217269 0.425774
0.149756 0.221896 0.426002
0.185370 0.226719 0.424666
0.336364 0.244868 0.430499
0.465657 0.236038 0.414630
0.564842 0.362496 0.419681
0.666960 0.471652 0.447898
0.791919 0.567579 0.518312
0.945748 0.673021 0.598240
0.122450 0.241219 0.433007
0.150831 0.246725 0.432356
0.190192 0.252656 0.433007
0.337341 0.268719 0.434995
0.469599 0.263734 0.422092
0.565103 0.368035 0.421701
0.666992 0.472564 0.447931
0.791919 0.567579 0.518312
0.945748 0.673021 0.598240
0.130042 0.335028 0.453796
0.157511 0.338742 0.454871
0.199609 0.345650 0.454741
0.335093 0.365005 0.458260
0.483252 0.365363 0.452460
0.567840 0.390127 0.426197
0.668068 0.475399 0.449886
0.791952 0.568491 0.518345
0.945748 0.673021 0.598240
0.149137 0.459694 0.486966
0.178364 0.462528 0.487162
0.218573 0.466667 0.487781
0.353796 0.480482 0.489280
0.493483 0.495243 0.487325
0.579668 0.469697 0.452102
0.672304 0.489312 0.453242
0.793907 0.571326 0.519420
0.945780 0.673933 0.598273
0.335940 0.562919 0.496057
0.340534 0.563995 0.496253
0.349690 0.565233 0.496611
0.382502 0.569013 0.494233
0.475529 0.578462 0.490486
0.594852 0.586934 0.484881
0.683675 0.561388 0.473412
0.795471 0.586087 0.523623
0.946008 0.679440 0.599381
0.462235 0.668980 0.515901
0.463148 0.669013 0.515934
0.464060 0.669045 0.515966
0.473151 0.669339 0.515380
0.498729 0.672043 0.515445
0.572564 0.681655 0.509221
0.698208 0.688530 0.503780
0.810622 0.663702 0.542294
0.949560 0.698827 0.603812
0.561844 0.800261 0.581199
0.561844 0.800261 0.581199
0.562757 0.800293 0.581232
0.563669 0.800326 0.581264
0.570055 0.800554 0.581492
0.592017 0.805800 0.579700
0.676051 0.817693 0.576637
0.828087 0.825448 0.570316
0.963539 0.793744 0.623949
0.661355 0.956957 0.671033
0.661355 0.956957 0.671033
0.661355 0.956957 0.671033
0.661355 0.956957 0.671033
0.662268 0.956989 0.671066
0.668654 0.957217 0.671294
0.696057 0.962626 0.668785
0.794624 0.974976 0.664418
0.984946 0.984946 0.657673
0.287781 0.359042 0.517400
0.294233 0.361095 0.517693
0.304268 0.362333 0.517172
0.346465 0.371098 0.518019
0.460606 0.378788 0.521310
0.567384 0.374715 0.507559
0.666862 0.480352 0.515543
0.792701 0.570121 0.538449
0.945911 0.673183 0.602802
0.287944 0.361844 0.519322
0.294396 0.363897 0.519616
0.304431 0.366015 0.518214
0.346595 0.373868 0.519029
0.460704 0.381525 0.521408
0.568426 0.377517 0.508602
0.667775 0.480384 0.515575
0.792701 0.570121 0.538449
0.945911 0.673183 0.602802
0.288205 0.368263 0.520463
0.294624 0.369404 0.520723
0.306517 0.371619 0.520300
0.346758 0.377550 0.520072
0.459107 0.386966 0.522450
0.568622 0.382111 0.509677
0.667807 0.481297 0.515608
0.792701 0.570121 0.538449
0.945911 0.673183 0.602802
0.288987 0.386641 0.524764
0.295438 0.388693 0.525057
0.307299 0.389997 0.524601
0.347573 0.395960 0.525285
0.458195 0.408048 0.527696
0.571391 0.401597 0.517726
0.667970 0.484979 0.516650
0.792734 0.571033 0.538482
0.945911 0.673183 0.602802
0.300391 0.460508 0.544086
0.307722 0.461681 0.544379
0.315966 0.462887 0.544705
0.355230 0.466080 0.545259
0.461323 0.479798 0.546660
0.580384 0.481851 0.539915
0.671359 0.499804 0.520919
0.794689 0.573868 0.539557
0.945943 0.674096 0.602835
0.318605 0.564060 0.572858
0.324992 0.564288 0.573086
0.335940 0.564679 0.573477
0.374291 0.566960 0.574878
0.473151 0.584001 0.574324
0.588172 0.595210 0.573216
0.682600 0.568231 0.540958
0.796155 0.588530 0.541023
0.946171 0.679603 0.603943
0.461942 0.674845 0.580710
0.461942 0.674845 0.580710
0.464679 0.674943 0.580808
0.471033 0.675138 0.580124
0.496579 0.677810 0.579277
0.574063 0.687553 0.573183
0.695503 0.700782 0.571456
0.808602 0.666080 0.560508
0.949723 0.698990 0.608374
0.561714 0.802770 0.601303
0.562626 0.802802 0.601336
0.562724 0.805539 0.601434
0.563636 0.805572 0.601466
0.569990 0.805767 0.600782
0.592799 0.806582 0.601597
0.675790 0.818312 0.594852
0.828837 0.826197 0.591300
0.963767 0.794852 0.629456
0.660639 0.957120 0.676474
0.660639 0.957120 0.676474
0.660639 0.957120 0.676474
0.661551 0.957152 0.676507
0.662463 0.957185 0.676540
0.667937 0.957380 0.676735
0.696285 0.962854 0.675171
0.793972 0.976963 0.669925
0.985174 0.985174 0.664060
0.426132 0.480678 0.607364
0.427045 0.480710 0.607397
0.429814 0.481720 0.607527
0.438058 0.482926 0.607853
0.465526 0.486641 0.608928
0.558651 0.493548 0.610557
0.670088 0.491496 0.597947
0.790518 0.577615 0.599609
0.944933 0.676605 0.623819
0.426165 0.481590 0.607397
0.427077 0.481623 0.607429
0.429814 0.481720 0.607527
0.438058 0.482926 0.607853
0.465526 0.486641 0.608928
0.558684 0.494461 0.610590
0.671000 0.491528 0.597980
0.790518 0.577615 0.599609
0.944933 0.676605 0.623819
0.426165 0.481590 0.607397
0.427110 0.482535 0.607462
0.429847 0.482633 0.607559
0.438091 0.483838 0.607885
0.465559 0.487553 0.608961
0.558716 0.495373 0.610622
0.671033 0.492441 0.598012
0.790551 0.578527 0.599642
0.944933 0.676605 0.623819
0.426295 0.484360 0.608407
0.427240 0.485305 0.608472
0.429977 0.485402 0.608570
0.438221 0.486608 0.608895
0.467546 0.491300 0.610068
0.558879 0.499055 0.611665
0.671163 0.495210 0.599023
0.792408 0.578625 0.600619
0.944966 0.677517 0.623851
0.427892 0.498273 0.614402
0.428804 0.498306 0.614435
0.430629 0.498371 0.614500
0.439818 0.501401 0.614011
0.469990 0.505181 0.614272
0.558651 0.516422 0.614076
0.674585 0.510948 0.603324
0.792571 0.582307 0.601662
0.944966 0.677517 0.623851
0.436266 0.561193 0.635973
0.438123 0.562170 0.636070
0.439036 0.562203 0.636103
0.446367 0.563376 0.636396
0.475725 0.569860 0.636722
0.561584 0.580059 0.635484
0.683350 0.581297 0.628804
0.796025 0.598078 0.606875
0.945161 0.682111 0.624927
0.449528 0.673868 0.670349
0.451352 0.673933 0.670414
0.453177 0.673998 0.670479
0.461421 0.675204 0.670805
0.490648 0.679798 0.669241
0.571391 0.698957 0.669045
0.690844 0.711958 0.662691
0.808537 0.676572 0.627305
0.948778 0.703324 0.629423
0.563636 0.810850 0.675367
0.563636 0.810850 0.675367
0.564549 0.810883 0.675399
0.565461 0.810916 0.675432
0.571880 0.812936 0.674813
0.594624 0.813685 0.673803
0.672206 0.825285 0.668687
0.823558 0.839394 0.662561
0.962854 0.798338 0.652297
0.659954 0.961714 0.704822
0.659954 0.961714 0.704822
0.659954 0.961714 0.704822
0.661779 0.961779 0.704888
0.662626 0.961747 0.703095
0.668100 0.962822 0.702411
0.693711 0.965559 0.703389
0.793027 0.977778 0.694493
0.984327 0.988726 0.688726
0.531574 0.582600 0.712806
0.531574 0.582600 0.712806
0.531574 0.582600 0.712806
0.533399 0.582665 0.712871
0.539785 0.582893 0.713099
0.565396 0.585630 0.714076
0.656598 0.592375 0.712903
0.794396 0.591170 0.698501
0.944086 0.684555 0.696872
0.531574 0.582600 0.712806
0.531574 0.582600 0.712806
0.531574 0.582600 0.712806
0.533399 0.582665 0.712871
0.539785 0.582893 0.713099
0.565396 0.585630 0.714076
0.656598 0.592375 0.712903
0.794396 0.591170 0.698501
0.944119 0.685468 0.696905
0.531574 0.582600 0.712806
0.531574 0.582600 0.712806
0.531574 0.582600 0.712806
0.533399 0.582665 0.712871
0.539785 0.582893 0.713099
0.565396 0.585630 0.714076
0.656631 0.593288 0.712936
0.794396 0.591170 0.698501
0.944119 0.685468 0.696905
0.531606 0.583513 0.712838
0.531606 0.583513 0.712838
0.531606 0.583513 0.712838
0.533431 0.583578 0.712903
0.539818 0.583806 0.713131
0.565428 0.586543 0.714109
0.656631 0.593288 0.712936
0.794428 0.592082 0.698534
0.944151 0.685500 0.697817
0.531737 0.586282 0.713848
0.531737 0.586282 0.713848
0.531737 0.586282 0.713848
0.532649 0.586315 0.713881
0.539035 0.586543 0.714109
0.566504 0.590257 0.715184
0.656826 0.597002 0.714891
0.794559 0.594852 0.699544
0.944216 0.687325 0.697882
0.532454 0.599316 0.721603
0.532454 0.599316 0.721603
0.533366 0.599348 0.721636
0.534278 0.599381 0.721668
0.540632 0.600456 0.720104
0.567155 0.604106 0.720235
0.656696 0.615347 0.719159
0.795373 0.611502 0.706517
0.946204 0.691952 0.698110
0.543108 0.672434 0.746334
0.543108 0.672434 0.746334
0.543108 0.672434 0.746334
0.544933 0.672499 0.746399
0.551287 0.673574 0.744835
0.574194 0.677126 0.745748
0.660182 0.690094 0.745520
0.808374 0.692245 0.738873
0.949006 0.714109 0.704431
0.554708 0.807201 0.789606
0.554708 0.807201 0.789606
0.554708 0.807201 0.789606
0.557511 0.809124 0.789769
0.563050 0.812023 0.789150
0.587814 0.818312 0.788400
0.671261 0.836657 0.788270
0.813490 0.853079 0.779179
0.963311 0.811991 0.731053
0.659661 0.969339 0.794265
0.659661 0.969339 0.794265
0.659661 0.969339 0.794265
0.659661 0.969339 0.794265
0.661486 0.969404 0.794330
0.667025 0.971424 0.794591
0.696123 0.975888 0.789378
0.795471 0.985500 0.784034
0.977452 0.991528 0.776865
0.629065 0.691528 0.844607
0.629065 0.691528 0.844607
0.629065 0.691528 0.844607
0.629065 0.691528 0.844607
0.630010 0.692473 0.844673
0.637374 0.694559 0.844998
0.664744 0.697296 0.844216
0.771652 0.709189 0.844673
0.944542 0.702607 0.824014
0.629065 0.691528 0.844607
0.629065 0.691528 0.844607
0.629065 0.691528 0.844607
0.629065 0.691528 0.844607
0.630010 0.692473 0.844673
0.637374 0.694559 0.844998
0.664744 0.697296 0.844216
0.771652 0.709189 0.844673
0.944542 0.702607 0.824014
0.629065 0.691528 0.844607
0.629065 0.691528 0.844607
0.629065 0.691528 0.844607
0.629065 0.691528 0.844607
0.630010 0.692473 0.844673
0.637374 0.694559 0.844998
0.664744 0.697296 0.844216
0.771652 0.709189 0.844673
0.944542 0.702607 0.824014
0.629065 0.691528 0.844607
0.629065 0.691528 0.844607
0.629065 0.691528 0.844607
0.629097 0.692441 0.844640
0.630010 0.692473 0.844673
0.637374 0.694559 0.844998
0.664809 0.699120 0.844282
0.771652 0.709189 0.844673
0.944542 0.702607 0.824014
0.629163 0.692506 0.846465
0.629163 0.692506 0.846465
0.629163 0.692506 0.846465
0.629163 0.692506 0.846465
0.631900 0.692603 0.846562
0.637439 0.694624 0.846823
0.664875 0.699185 0.846106
0.771750 0.711926 0.844770
0.944607 0.704431 0.824080
0.629358 0.697980 0.846660
0.629358 0.697980 0.846660
0.629358 0.697980 0.846660
0.629358 0.697980 0.846660
0.632095 0.698078 0.846758
0.637602 0.699185 0.846986
0.665103 0.703812 0.848094
0.771945 0.714760 0.847605
0.945780 0.709123 0.827012
0.631183 0.718280 0.852884
0.631183 0.718280 0.852884
0.631183 0.718280 0.852884
0.631183 0.718280 0.852884
0.633920 0.718377 0.852981
0.639394 0.718573 0.853177
0.666895 0.723200 0.854285
0.772043 0.736852 0.854741
0.950603 0.732421 0.837993
0.638905 0.806061 0.883480
0.638905 0.806061 0.883480
0.638905 0.806061 0.883480
0.639818 0.806093 0.883513
0.640795 0.807950 0.883610
0.647247 0.810003 0.883904
0.675562 0.813685 0.883187
0.776181 0.829847 0.881753
0.961616 0.833170 0.871880
0.656240 0.973835 0.928087
0.656240 0.973835 0.928087
0.656240 0.973835 0.928087
0.656240 0.973835 0.928087
0.658064 0.973900 0.928153
0.665363 0.974161 0.928413
0.692929 0.980613 0.929586
0.790583 0.990290 0.927827
0.972662 0.996416 0.923395
