Assets/Lutify-Free-LUTs-Pack/Lutify Free LUTs Pack/Film Tone Pro - Film Tone 3/Lutify.me-FilmTone3-DragonColor2RLF-to-Rec709.cube
# Created with: fylm.ai - Colour Grading and Collaboration Software in Cloud 
# Website: https://fylm.ai 
# META
# Option: Gamut compress
# Block 1: IDT | RED DragonColor2 REDLogFilm
# Block 2: colourMatch | Blending Mode: Normal | {"ColorSpace":0,"CrossCovarianceLimit":50,"ReshapingIterations":1,"PercentSaturationShift":100,"PercentShadingShift":100,"ExtraShading":true,"PercentTint":100,"PercentModified":100}
# Block 3: subtractiveColour | Blending Mode: Normal | {"sliders":{"gainY":0.6,"C":0.3,"M":0.3,"Y":0.3}}
# Block 4: LUT | Filmic Curve Response: Low Contrast 2 (100%)
# Block 5: logPrimaries | Blending Mode: Normal | {"wheels":{"shadows":{"Y":"0","R":"1","G":"1","B":"1"},"midtones":{"Y":"0","R":"1","G":"1","B":"1"},"highlights":{"Y":"0","R":"1","G":"1","B":"1"},"offset":{"Y":"0","R":"1","G":"1","B":"1"}},"sliders":{"shadows":{"Y":0,"R":-0.026,"G":0.03,"B":0.1},"midtones":{"Y":0,"R":0.024,"G":-0.036,"B":0.036},"highlights":{"Y":0,"R":0,"G":0.044,"B":-0.128},"offset":{"Y":0,"R":0,"G":0,"B":0}}}
# Block 6: hueSaturation | Blending Mode: Normal | {"hue":0,"saturation":-0.1}
# Block 7: ODT | Rec709
TITLE "Lutify.me-FilmTone3-DragonColor2RLF-to-Rec709" 
LUT_3D_SIZE 9
0.000000 0.000000 0.000000
0.000000 0.000000 0.000000
0.071428 0.000000 0.000000
0.171750 0.000000 0.000000
0.332551 0.000000 0.000000
0.566577 0.000000 0.000000
0.830496 0.000000 0.000000
1.000000 0.171977 0.000000
1.000000 0.526151 0.131036
0.000000 0.000000 0.000000
0.000000 0.000000 0.000000
0.086640 0.000000 0.000000
0.188864 0.000000 0.000000
0.342700 0.000000 0.000000
0.571765 0.000000 0.000000
0.831092 0.000000 0.000000
1.000000 0.183266 0.000000
1.000000 0.526420 0.135073
0.000000 0.081374 0.000000
0.000000 0.086217 0.000000
0.113442 0.083232 0.000000
0.238769 0.023469 0.000000
0.382015 0.000000 0.000000
0.594422 0.000000 0.000000
0.839953 0.000000 0.000000
1.000000 0.194429 0.000000
1.000000 0.529751 0.134135
0.000000 0.214062 0.000000
0.000000 0.219724 0.000000
0.112630 0.220233 0.000000
0.305848 0.199056 0.000000
0.460849 0.139701 0.000000
0.643416 0.000000 0.000000
0.854358 0.000000 0.000000
1.000000 0.238561 0.000000
1.000000 0.540440 0.134296
0.000000 0.414761 0.000000
0.000000 0.415326 0.000000
0.000000 0.415839 0.000000
0.295812 0.414794 0.000000
0.556102 0.375004 0.000000
0.723745 0.329864 0.000000
0.897350 0.286788 0.000000
1.000000 0.340177 0.000000
1.000000 0.564722 0.136959
0.000000 0.655013 0.000000
0.000000 0.658288 0.000000
0.121042 0.657751 0.000000
0.316703 0.656158 0.000000
0.532560 0.650410 0.000000
0.771121 0.613970 0.000000
0.915590 0.571843 0.000000
1.000000 0.562096 0.000000
1.000000 0.629838 0.141919
0.478490 0.841952 0.060166
0.483714 0.843778 0.060709
0.509440 0.843122 0.030051
0.552147 0.841949 0.000000
0.627866 0.843313 0.000000
0.765682 0.839337 0.000000
0.910372 0.814895 0.000000
0.986699 0.792889 0.000000
1.000000 0.788390 0.198483
0.761919 0.932069 0.436940
0.761919 0.932069 0.436940
0.765073 0.931946 0.437186
0.771288 0.931679 0.434794
0.791812 0.931765 0.428764
0.829670 0.930056 0.415685
0.896835 0.928752 0.384788
0.971034 0.918369 0.262668
1.000000 0.903708 0.351809
0.884754 0.981864 0.694277
0.884754 0.981864 0.694277
0.884754 0.981864 0.694277
0.886302 0.981790 0.694485
0.890877 0.981573 0.695115
0.898248 0.981674 0.692436
0.917601 0.981182 0.682875
0.959550 0.979145 0.667070
1.000000 0.974730 0.596487
0.000000 0.000000 0.000000
0.000000 0.000000 0.000000
0.073013 0.000000 0.000000
0.169759 0.000000 0.000000
0.322716 0.000000 0.000000
0.568249 0.000000 0.000000
0.832554 0.000000 0.000000
1.000000 0.173351 0.000000
1.000000 0.526555 0.137071
0.000000 0.000000 0.011167
0.000000 0.000000 0.004551
0.088768 0.000000 0.000000
0.181052 0.000000 0.000000
0.334744 0.000000 0.000000
0.573698 0.000000 0.000000
0.833255 0.000000 0.000000
1.000000 0.185129 0.000000
1.000000 0.526825 0.141030
0.000000 0.081997 0.000000
0.000000 0.090889 0.000000
0.108325 0.088389 0.000000
0.232808 0.034856 0.000000
0.375319 0.000000 0.000000
0.593504 0.000000 0.000000
0.841966 0.000000 0.000000
1.000000 0.201220 0.000000
1.000000 0.530155 0.140153
0.000000 0.220135 0.000000
0.000000 0.224213 0.000000
0.057450 0.229708 0.000000
0.295786 0.207459 0.000000
0.457497 0.155567 0.000000
0.643070 0.000000 0.000000
0.856165 0.000000 0.000000
1.000000 0.244705 0.000000
1.000000 0.540842 0.140423
0.000000 0.418452 0.000000
0.000000 0.421929 0.000000
0.000000 0.428210 0.000000
0.260050 0.427495 0.000000
0.536339 0.393980 0.000000
0.719055 0.335664 0.000000
0.898669 0.288410 0.000000
1.000000 0.345270 0.000000
1.000000 0.565386 0.147506
0.000000 0.657272 0.000000
0.000000 0.660319 0.000000
0.125639 0.660004 0.000000
0.303663 0.665277 0.000000
0.529410 0.662903 0.000000
0.771737 0.623542 0.000000
0.916589 0.574011 0.000000
1.000000 0.566711 0.000000
1.000000 0.630355 0.151331
0.479427 0.842381 0.114086
0.484651 0.844202 0.114423
0.503974 0.843682 0.103849
0.547061 0.842517 0.086713
0.628338 0.843550 0.000000
0.762585 0.839893 0.000000
0.906880 0.816106 0.000000
0.986776 0.793420 0.000000
1.000000 0.790594 0.203647
0.761938 0.932139 0.445638
0.761938 0.932139 0.445638
0.765079 0.931970 0.440081
0.771294 0.931702 0.437683
0.791817 0.931789 0.431627
0.829671 0.930105 0.421328
0.896804 0.928830 0.392834
0.971024 0.918527 0.274580
1.000000 0.903815 0.358465
0.884691 0.981868 0.696580
0.884691 0.981868 0.696580
0.884691 0.981868 0.696580
0.886239 0.981794 0.696786
0.890877 0.981573 0.695115
0.898248 0.981674 0.692436
0.917601 0.981182 0.682875
0.959483 0.979151 0.669291
1.000000 0.974740 0.598382
0.000000 0.000000 0.061352
0.000000 0.000000 0.058756
0.061365 0.000000 0.054190
0.171310 0.000000 0.040175
0.327345 0.000000 0.031304
0.561596 0.000000 0.013783
0.833606 0.000000 0.000000
1.000000 0.188641 0.000000
1.000000 0.528038 0.158418
0.000000 0.000000 0.072135
0.000000 0.000000 0.069249
0.074438 0.000000 0.064183
0.184991 0.000000 0.048346
0.339713 0.000000 0.034414
0.567385 0.000000 0.000000
0.837788 0.000000 0.000000
1.000000 0.199144 0.000000
1.000000 0.528038 0.158418
0.000000 0.087012 0.124671
0.000000 0.096254 0.120549
0.090264 0.104768 0.112358
0.231736 0.063045 0.075010
0.377084 0.000000 0.037835
0.590271 0.000000 0.000000
0.846647 0.000000 0.000000
1.000000 0.214508 0.000000
1.000000 0.531366 0.157690
0.000000 0.240930 0.106709
0.000000 0.242206 0.106532
0.000000 0.254012 0.089937
0.278941 0.247836 0.063472
0.455039 0.178094 0.000000
0.646821 0.050588 0.000000
0.860724 0.000000 0.000000
1.000000 0.261182 0.000000
1.000000 0.542182 0.160183
0.000000 0.438142 0.000000
0.000000 0.438594 0.000000
0.000000 0.439103 0.000000
0.218484 0.450317 0.000000
0.525187 0.426258 0.000000
0.720148 0.362613 0.000000
0.893630 0.309565 0.000000
1.000000 0.359858 0.000000
1.000000 0.566579 0.165832
0.000000 0.663130 0.000000
0.000000 0.666187 0.000000
0.000000 0.665898 0.000000
0.304952 0.674287 0.000000
0.514794 0.670020 0.000000
0.765436 0.634686 0.000000
0.917897 0.586114 0.000000
1.000000 0.576351 0.000000
1.000000 0.631516 0.171689
0.466289 0.845491 0.179913
0.472877 0.845244 0.172535
0.499401 0.844717 0.173566
0.542634 0.843440 0.155523
0.625045 0.844704 0.138901
0.752810 0.841377 0.059409
0.905571 0.820625 0.000000
0.986931 0.794705 0.000000
1.000000 0.792973 0.220199
0.761948 0.932232 0.457281
0.761948 0.932209 0.454365
0.765097 0.932086 0.454603
0.771312 0.931819 0.452176
0.791829 0.931930 0.448873
0.827129 0.930333 0.435207
0.896723 0.928985 0.409024
0.970989 0.918777 0.293727
1.000000 0.903992 0.369669
0.884629 0.981872 0.698876
0.884629 0.981872 0.698876
0.884629 0.981872 0.698876
0.886177 0.981799 0.699080
0.890814 0.981577 0.697410
0.898121 0.981682 0.697003
0.917473 0.981191 0.687429
0.959350 0.979162 0.673723
1.000000 0.974811 0.604687
0.000000 0.000000 0.141253
0.000000 0.000000 0.137721
0.049425 0.000000 0.134579
0.185566 0.000000 0.117564
0.341264 0.000000 0.115662
0.578402 0.000000 0.093111
0.837726 0.000000 0.082384
1.000000 0.208058 0.104621
1.000000 0.531128 0.201820
0.000000 0.000000 0.160418
0.000000 0.000000 0.155393
0.049018 0.000000 0.155454
0.194523 0.000000 0.147672
0.357204 0.000000 0.125331
0.590883 0.000000 0.096304
0.841978 0.000000 0.083683
1.000000 0.213087 0.104718
1.000000 0.531128 0.201820
0.000000 0.073588 0.227727
0.000000 0.080628 0.225205
0.000000 0.087897 0.224762
0.240435 0.075117 0.223147
0.395973 0.000000 0.159011
0.608056 0.000000 0.107939
0.846975 0.000000 0.085850
1.000000 0.223128 0.106533
1.000000 0.534452 0.201339
0.000000 0.244266 0.288139
0.000000 0.247450 0.290109
0.000000 0.266465 0.288138
0.241289 0.276332 0.286645
0.453162 0.214794 0.207264
0.652147 0.115438 0.122984
0.867453 0.000000 0.089095
1.000000 0.277388 0.101526
1.000000 0.548566 0.203948
0.000000 0.464039 0.280898
0.000000 0.458473 0.277544
0.000000 0.465401 0.269608
0.160123 0.471936 0.256505
0.505965 0.477440 0.230398
0.720960 0.396935 0.123329
0.900545 0.331229 0.077614
1.000000 0.370091 0.099820
1.000000 0.569488 0.209683
0.000000 0.684821 0.224772
0.000000 0.687999 0.221703
0.000000 0.687634 0.214267
0.241562 0.693287 0.200505
0.494553 0.689892 0.178780
0.750530 0.679193 0.082391
0.913823 0.616581 0.000000
1.000000 0.584944 0.085530
1.000000 0.634347 0.219708
0.462472 0.847378 0.281320
0.469380 0.847250 0.281511
0.489426 0.846742 0.275610
0.525329 0.849666 0.273950
0.611483 0.849001 0.261174
0.755435 0.843586 0.233931
0.903975 0.828168 0.108065
0.984156 0.799588 0.144138
1.000000 0.796276 0.273452
0.761896 0.932480 0.489571
0.761906 0.932458 0.486619
0.765050 0.932335 0.486845
0.771254 0.932092 0.487299
0.791762 0.932180 0.480817
0.827008 0.930639 0.472487
0.896385 0.929385 0.452905
0.969229 0.920552 0.352104
1.000000 0.906567 0.402848
0.884377 0.981889 0.707982
0.884377 0.981889 0.707982
0.884377 0.981889 0.707982
0.885925 0.981815 0.708178
0.890560 0.981594 0.706514
0.897931 0.981695 0.703801
0.917148 0.981214 0.698712
0.957167 0.979277 0.684099
1.000000 0.974866 0.616453
0.000000 0.029311 0.296177
0.000000 0.034039 0.292060
0.000000 0.033733 0.296052
0.164929 0.000000 0.297374
0.397937 0.000000 0.280156
0.612135 0.000000 0.264375
0.858294 0.000000 0.227082
1.000000 0.234667 0.217204
1.000000 0.549576 0.279686
0.000000 0.043682 0.309014
0.000000 0.044436 0.310573
0.000000 0.045688 0.312618
0.172336 0.000000 0.316248
0.408561 0.000000 0.293855
0.620576 0.000000 0.269082
0.858822 0.000000 0.230505
1.000000 0.239291 0.217025
1.000000 0.549576 0.279686
0.000000 0.073832 0.343658
0.000000 0.073943 0.345418
0.000000 0.079701 0.345585
0.187473 0.074173 0.351256
0.440891 0.000000 0.338713
0.638976 0.000000 0.297963
0.863023 0.000000 0.235828
1.000000 0.262317 0.220045
1.000000 0.552888 0.279436
0.000000 0.214339 0.434138
0.000000 0.218514 0.427529
0.000000 0.225579 0.430670
0.167726 0.244625 0.435978
0.480048 0.236695 0.433892
0.678997 0.134116 0.344944
0.877578 0.000000 0.248579
1.000000 0.300979 0.223736
1.000000 0.563499 0.281472
0.000000 0.475007 0.504844
0.000000 0.478691 0.502725
0.000000 0.489085 0.501601
0.046978 0.496350 0.502643
0.480590 0.503892 0.487263
0.710207 0.443102 0.412240
0.902467 0.363014 0.278164
1.000000 0.391465 0.237877
1.000000 0.590912 0.289149
0.000000 0.707460 0.499736
0.000000 0.710438 0.493510
0.000000 0.710362 0.494343
0.196450 0.715865 0.483028
0.462589 0.713308 0.474176
0.740862 0.711123 0.453221
0.904127 0.649945 0.324406
1.000000 0.604282 0.267125
1.000000 0.654958 0.303321
0.466972 0.856110 0.475406
0.465582 0.857940 0.475596
0.486309 0.857536 0.476057
0.525631 0.856589 0.470546
0.607184 0.856022 0.456985
0.739854 0.853174 0.443489
0.893646 0.846352 0.385659
0.980541 0.814127 0.331480
1.000000 0.800604 0.357461
0.754703 0.934170 0.555422
0.754703 0.934170 0.555422
0.761056 0.933925 0.555823
0.770372 0.933561 0.556432
0.791200 0.932693 0.551888
0.825594 0.933125 0.547005
0.888359 0.930304 0.528198
0.965004 0.923831 0.464849
1.000000 0.907463 0.468081
0.880496 0.982538 0.730445
0.880496 0.982538 0.730445
0.882063 0.982464 0.730618
0.883620 0.982390 0.730792
0.886760 0.982240 0.728984
0.897288 0.981737 0.725932
0.916489 0.981258 0.720749
0.955011 0.980278 0.711425
1.000000 0.975503 0.653579
0.000000 0.100932 0.514236
0.000000 0.102892 0.515754
0.000000 0.104771 0.512514
0.060149 0.105555 0.516568
0.381405 0.000000 0.520925
0.683461 0.000000 0.497910
0.882333 0.000000 0.482228
1.000000 0.277776 0.433262
1.000000 0.560295 0.425858
0.000000 0.109832 0.522169
0.000000 0.111924 0.523355
0.000000 0.112744 0.523374
0.039489 0.115736 0.526992
0.384284 0.062040 0.525268
0.691947 0.000000 0.508314
0.885039 0.000000 0.482798
1.000000 0.282084 0.433265
1.000000 0.560295 0.425858
0.000000 0.134070 0.531955
0.000000 0.134123 0.532844
0.000000 0.136431 0.535780
0.035092 0.142808 0.539135
0.388201 0.121531 0.546877
0.701032 0.000000 0.523187
0.887410 0.000000 0.483695
1.000000 0.307435 0.436380
1.000000 0.563724 0.428564
0.000000 0.200631 0.571115
0.000000 0.204043 0.572260
0.000000 0.209231 0.574468
0.000000 0.222128 0.580672
0.413617 0.210391 0.583728
0.720328 0.153617 0.572653
0.899625 0.113145 0.513970
1.000000 0.339767 0.442356
1.000000 0.571007 0.431648
0.000000 0.429560 0.649818
0.000000 0.436161 0.650782
0.000000 0.440015 0.649153
0.000000 0.456714 0.653226
0.382616 0.469461 0.652849
0.734890 0.464339 0.651287
0.904171 0.404407 0.567580
1.000000 0.423821 0.460224
1.000000 0.598230 0.439930
0.000000 0.719694 0.702142
0.000000 0.719677 0.702452
0.000000 0.722690 0.703108
0.000000 0.728333 0.701329
0.422550 0.729297 0.704478
0.713788 0.733389 0.688523
0.879213 0.688326 0.621278
1.000000 0.627971 0.498968
1.000000 0.667887 0.456983
0.424103 0.866944 0.701213
0.431958 0.866812 0.701325
0.454871 0.866367 0.698673
0.497431 0.865521 0.699355
0.577592 0.866899 0.695080
0.710186 0.862694 0.689426
0.870687 0.863084 0.673851
0.967831 0.830199 0.556553
1.000000 0.810032 0.503056
0.741304 0.938231 0.697146
0.741304 0.938231 0.697146
0.744570 0.938108 0.697291
0.751083 0.937847 0.694785
0.772718 0.937006 0.695827
0.808629 0.937373 0.695759
0.880139 0.934253 0.676266
0.954530 0.932843 0.644104
1.000000 0.913007 0.599155
0.872861 0.983365 0.769348
0.872861 0.983365 0.769348
0.874278 0.984181 0.770466
0.874278 0.984181 0.770466
0.879082 0.983954 0.768960
0.889808 0.983444 0.768021
0.912305 0.982361 0.762744
0.952533 0.980430 0.755866
0.997211 0.977142 0.728056
0.000000 0.244644 0.720532
0.000000 0.244586 0.720844
0.000000 0.246321 0.721723
0.000000 0.251319 0.723903
0.306199 0.248497 0.728610
0.663991 0.207211 0.729691
0.925425 0.099295 0.714998
1.000000 0.327460 0.690278
1.000000 0.590170 0.644660
0.000000 0.250483 0.723950
0.000000 0.250414 0.724363
0.000000 0.252251 0.725028
0.000000 0.259463 0.727332
0.304290 0.255109 0.728768
0.663275 0.216855 0.735932
0.927811 0.124030 0.718391
1.000000 0.331546 0.690305
1.000000 0.593495 0.644637
0.000000 0.262482 0.730895
0.000000 0.266565 0.731286
0.000000 0.266435 0.731990
0.000000 0.271931 0.731100
0.311256 0.270286 0.732451
0.666196 0.234922 0.736341
0.929398 0.169622 0.721990
1.000000 0.343674 0.690383
1.000000 0.596817 0.644614
0.000000 0.301625 0.747514
0.000000 0.306263 0.747850
0.000000 0.306224 0.748615
0.000000 0.310323 0.747752
0.324747 0.310290 0.748685
0.664725 0.294364 0.749030
0.934138 0.242968 0.732083
1.000000 0.379304 0.693870
1.000000 0.606869 0.647654
0.000000 0.413962 0.772462
0.000000 0.414090 0.772895
0.000000 0.417219 0.773545
0.000000 0.423098 0.772255
0.338202 0.439022 0.775028
0.662451 0.432979 0.777102
0.923320 0.432887 0.769340
1.000000 0.459261 0.713025
1.000000 0.631154 0.654238
0.000000 0.675320 0.812354
0.000000 0.675321 0.812416
0.000000 0.681873 0.812550
0.000000 0.688102 0.810996
0.358253 0.690006 0.812474
0.642790 0.709493 0.808011
0.884787 0.710648 0.809986
0.988670 0.663579 0.757032
1.000000 0.692098 0.670257
0.454110 0.872114 0.838321
0.461630 0.871972 0.838372
0.483518 0.871539 0.838526
0.509294 0.874242 0.838688
0.582916 0.874024 0.839288
0.706849 0.873312 0.838883
0.854134 0.870883 0.834786
0.949967 0.850799 0.794773
1.000000 0.823203 0.707714
0.736861 0.942944 0.840515
0.736861 0.942944 0.840515
0.740106 0.942823 0.840578
0.752845 0.942308 0.837461
0.767754 0.942601 0.837880
0.806251 0.941889 0.835538
0.863700 0.941134 0.830875
0.940064 0.939572 0.821978
1.000000 0.921282 0.759460
0.872145 0.984361 0.842761
0.872145 0.984361 0.842761
0.872145 0.984361 0.842761
0.875304 0.984213 0.842922
0.878461 0.984063 0.841604
0.887421 0.984068 0.842353
0.905446 0.984045 0.841051
0.944240 0.982586 0.832927
0.990622 0.980495 0.817849
0.177977 0.460216 0.864711
0.183757 0.463303 0.864677
0.212945 0.463107 0.864804
0.280724 0.465529 0.865095
0.381484 0.469981 0.865593
0.595048 0.464593 0.865137
0.873767 0.456388 0.863421
1.000000 0.446385 0.852818
1.000000 0.623233 0.829624
0.182155 0.463519 0.868315
0.182155 0.463519 0.868315
0.216830 0.466411 0.868400
0.279935 0.465744 0.868718
0.381484 0.469981 0.865593
0.594100 0.467949 0.865065
0.873146 0.460052 0.863355
1.000000 0.450221 0.852762
1.000000 0.623233 0.829624
0.166241 0.472993 0.868073
0.188841 0.472875 0.868156
0.208805 0.472744 0.868239
0.274423 0.472108 0.868558
0.383547 0.476300 0.865473
0.592166 0.474666 0.864918
0.872484 0.463835 0.865059
1.000000 0.457844 0.854477
1.000000 0.627576 0.829714
0.178711 0.485635 0.869652
0.184833 0.488766 0.869606
0.215832 0.488572 0.869727
0.271144 0.491246 0.869916
0.385094 0.492582 0.870494
0.590681 0.494729 0.866272
0.867831 0.489471 0.866313
1.000000 0.484611 0.854095
1.000000 0.637537 0.831375
0.187854 0.540310 0.873647
0.187854 0.540310 0.873647
0.210940 0.540196 0.873725
0.268365 0.546281 0.873782
0.378974 0.548150 0.874252
0.587578 0.545407 0.873686
0.870267 0.550343 0.871873
1.000000 0.547913 0.861723
1.000000 0.660603 0.834646
0.235499 0.659042 0.886271
0.247000 0.658986 0.886302
0.268321 0.658868 0.886365
0.314840 0.658543 0.886519
0.413823 0.663826 0.883606
0.614164 0.672647 0.882529
0.851014 0.674201 0.883826
0.989574 0.696189 0.877069
1.000000 0.723907 0.842420
0.417595 0.852331 0.903904
0.425696 0.852199 0.903925
0.433646 0.852066 0.903948
0.462664 0.853308 0.902776
0.529607 0.855478 0.902835
0.656307 0.853774 0.903267
0.826210 0.858038 0.900685
0.945708 0.862709 0.900499
1.000000 0.840855 0.864868
0.739688 0.945694 0.918572
0.742858 0.945575 0.918598
0.742858 0.945575 0.918598
0.751947 0.946068 0.918672
0.766879 0.945472 0.917821
0.801605 0.946526 0.917197
0.854542 0.945855 0.913976
0.931831 0.943464 0.914859
0.988375 0.932192 0.889913
0.865489 0.986621 0.918153
0.865489 0.986621 0.918153
0.865489 0.986621 0.918153
0.867081 0.986547 0.918188
0.870231 0.986400 0.918258
0.877801 0.986837 0.917674
0.897623 0.986282 0.917364
0.935260 0.986698 0.912872
0.982206 0.984526 0.908842
0.521299 0.690855 0.941857
0.519336 0.694103 0.941702
0.531022 0.693850 0.941712
0.542531 0.693591 0.941720
0.568889 0.696144 0.941587
0.639023 0.703498 0.940219
0.791288 0.704275 0.938179
0.960674 0.709855 0.937735
1.000000 0.719489 0.929775
0.519336 0.694103 0.941702
0.519336 0.694103 0.941702
0.531022 0.693850 0.941712
0.542531 0.693591 0.941720
0.568889 0.696144 0.941587
0.639023 0.703498 0.940219
0.791288 0.704275 0.938179
0.960674 0.709855 0.937735
1.000000 0.719489 0.929775
0.519336 0.694103 0.941702
0.531022 0.693850 0.941712
0.529112 0.697080 0.941557
0.540679 0.696821 0.941566
0.567160 0.699356 0.941434
0.637612 0.706775 0.941028
0.792536 0.710393 0.937903
0.959751 0.712874 0.937604
1.000000 0.722292 0.929658
0.527196 0.700288 0.941403
0.527196 0.700288 0.941403
0.533030 0.700161 0.941407
0.540890 0.706258 0.941110
0.569293 0.705579 0.941133
0.641279 0.709752 0.940883
0.791408 0.713479 0.937762
0.958786 0.715988 0.938417
1.000000 0.728126 0.930444
0.525703 0.722025 0.941303
0.531655 0.721897 0.941308
0.531655 0.721897 0.941308
0.549229 0.721500 0.941324
0.570380 0.723988 0.941193
0.649375 0.724742 0.941106
0.792765 0.728531 0.938997
0.954871 0.733545 0.938600
1.000000 0.741502 0.930862
0.546203 0.756452 0.943320
0.544512 0.759206 0.943179
0.550489 0.759067 0.943184
0.568133 0.758641 0.943199
0.589552 0.760780 0.943078
0.662963 0.758661 0.943142
0.799863 0.761944 0.942085
0.944908 0.768342 0.939803
1.000000 0.774056 0.933411
0.598044 0.838090 0.949383
0.598044 0.838090 0.949383
0.598044 0.838090 0.949383
0.608937 0.837785 0.949393
0.634981 0.837028 0.949420
0.694454 0.836853 0.946969
0.806319 0.842206 0.946004
0.928373 0.843775 0.945824
1.000000 0.856526 0.943909
0.733081 0.933690 0.957643
0.733081 0.933690 0.957643
0.736352 0.933570 0.957652
0.742803 0.933332 0.957672
0.757741 0.934654 0.957639
0.786359 0.934477 0.957704
0.838069 0.937704 0.955796
0.913255 0.936405 0.955789
0.983378 0.939480 0.954614
0.870332 0.989570 0.968009
0.870332 0.989570 0.968009
0.870332 0.989570 0.968009
0.873338 0.989429 0.968036
0.876299 0.989289 0.968062
0.883503 0.988948 0.968129
0.901980 0.989138 0.967847
0.933579 0.988623 0.965268
0.975291 0.987978 0.962229
