Assets/Lutify-Free-LUTs-Pack/Lutify Free LUTs Pack/Film Tone Pro - Film Tone 3/Lutify.me-FilmTone3-SLog3CineVenice-to-Rec709.cube
# Created with: fylm.ai - Colour Grading and Collaboration Software in Cloud 
# Website: https://fylm.ai 
# META
# Option: Gamut compress
# Block 1: IDT | Sony Venice S-Log3 S-Gamut3.Cine
# Block 2: colourMatch | Blending Mode: Normal | {"ColorSpace":0,"CrossCovarianceLimit":50,"ReshapingIterations":1,"PercentSaturationShift":100,"PercentShadingShift":100,"ExtraShading":true,"PercentTint":100,"PercentModified":100}
# Block 3: subtractiveColour | Blending Mode: Normal | {"sliders":{"gainY":0.6,"C":0.3,"M":0.3,"Y":0.3}}
# Block 4: LUT | Filmic Curve Response: Low Contrast 2 (100%)
# Block 5: logPrimaries | Blending Mode: Normal | {"wheels":{"shadows":{"Y":"0","R":"1","G":"1","B":"1"},"midtones":{"Y":"0","R":"1","G":"1","B":"1"},"highlights":{"Y":"0","R":"1","G":"1","B":"1"},"offset":{"Y":"0","R":"1","G":"1","B":"1"}},"sliders":{"shadows":{"Y":0,"R":-0.026,"G":0.03,"B":0.1},"midtones":{"Y":0,"R":0.024,"G":-0.036,"B":0.036},"highlights":{"Y":0,"R":0,"G":0.044,"B":-0.128},"offset":{"Y":0,"R":0,"G":0,"B":0}}}
# Block 6: hueSaturation | Blending Mode: Normal | {"hue":0,"saturation":-0.1}
# Block 7: ODT | Rec709
TITLE "Lutify.me-FilmTone3-SLog3CineVenice-to-Rec709" 
LUT_3D_SIZE 33
0.000000 0.000000 0.000000
0.000000 0.000000 0.000000
0.000000 0.000000 0.000000
0.000000 0.000000 0.000000
0.000000 0.000000 0.000000
0.022765 0.000000 0.000000
0.062917 0.000000 0.000000
0.092507 0.000000 0.000000
0.120977 0.000000 0.000000
0.146434 0.000000 0.000000
0.180051 0.000000 0.000000
0.214587 0.000000 0.000000
0.258557 0.000000 0.000000
0.302485 0.000000 0.000000
0.360301 0.000000 0.000000
0.415844 0.000000 0.000000
0.478956 0.000000 0.000000
0.559757 0.000000 0.000000
0.640868 0.000000 0.000000
0.713292 0.000000 0.000000
0.792647 0.000000 0.000000
0.880150 0.000000 0.018217
0.940355 0.000000 0.056531
0.991002 0.000000 0.086556
1.000000 0.000000 0.124794
1.000000 0.089009 0.161292
1.000000 0.252811 0.206109
1.000000 0.368019 0.259815
1.000000 0.459317 0.319799
1.000000 0.553605 0.392326
1.000000 0.635878 0.461864
1.000000 0.705387 0.528264
1.000000 0.770540 0.597388
0.000000 0.000000 0.000000
0.000000 0.000000 0.000000
0.000000 0.000000 0.000000
0.000000 0.000000 0.000000
0.000000 0.000000 0.000000
0.032536 0.000000 0.000000
0.065447 0.000000 0.000000
0.096080 0.000000 0.000000
0.123534 0.000000 0.000000
0.150693 0.000000 0.000000
0.183383 0.000000 0.000000
0.218739 0.000000 0.000000
0.263867 0.000000 0.000000
0.310433 0.000000 0.000000
0.367917 0.000000 0.000000
0.424976 0.000000 0.000000
0.486554 0.000000 0.000000
0.564761 0.000000 0.000000
0.642053 0.000000 0.000000
0.718199 0.000000 0.000000
0.793423 0.000000 0.000000
0.880816 0.000000 0.020775
0.940618 0.000000 0.055566
0.991207 0.000000 0.088031
1.000000 0.000000 0.124612
1.000000 0.100937 0.161078
1.000000 0.252811 0.206109
1.000000 0.371580 0.259632
1.000000 0.459317 0.319799
1.000000 0.553605 0.392326
1.000000 0.641537 0.461785
1.000000 0.710100 0.528309
1.000000 0.770540 0.597388
0.000000 0.000000 0.000000
0.000000 0.000000 0.000000
0.000000 0.000000 0.000000
0.000000 0.000000 0.000000
0.000000 0.000000 0.000000
0.039549 0.000000 0.000000
0.068632 0.000000 0.000000
0.099657 0.000000 0.000000
0.126439 0.000000 0.000000
0.156254 0.000000 0.000000
0.189264 0.000000 0.000000
0.226148 0.000000 0.000000
0.272941 0.000000 0.000000
0.316796 0.000000 0.000000
0.375956 0.000000 0.000000
0.434339 0.000000 0.000000
0.497416 0.000000 0.000000
0.569520 0.000000 0.000000
0.646470 0.000000 0.000000
0.719535 0.000000 0.000000
0.798206 0.000000 0.000000
0.881232 0.000000 0.018053
0.940952 0.000000 0.057202
0.991220 0.000000 0.087826
1.000000 0.000000 0.124612
1.000000 0.111311 0.160859
1.000000 0.257234 0.205893
1.000000 0.371580 0.259632
1.000000 0.459317 0.319799
1.000000 0.553605 0.392326
1.000000 0.641537 0.461785
1.000000 0.710100 0.528309
1.000000 0.770540 0.597388
0.000000 0.000000 0.000000
0.000000 0.000000 0.000000
0.000000 0.000000 0.000000
0.000000 0.000000 0.000000
0.000000 0.000000 0.000000
0.050761 0.000000 0.000000
0.076233 0.000000 0.000000
0.104380 0.000000 0.000000
0.130339 0.000000 0.000000
0.159165 0.000000 0.000000
0.194339 0.000000 0.000000
0.234006 0.000000 0.000000
0.279086 0.000000 0.000000
0.325552 0.000000 0.000000
0.381556 0.000000 0.000000
0.438535 0.000000 0.000000
0.501823 0.000000 0.000000
0.574292 0.000000 0.000000
0.654933 0.000000 0.000000
0.724442 0.000000 0.000000
0.798975 0.000000 0.000000
0.881642 0.000000 0.014257
0.941200 0.000000 0.056145
0.991241 0.000000 0.087405
1.000000 0.000000 0.124424
1.000000 0.112325 0.161226
1.000000 0.257234 0.205893
1.000000 0.371580 0.259632
1.000000 0.465826 0.319539
1.000000 0.553605 0.392326
1.000000 0.641537 0.461785
1.000000 0.710100 0.528309
1.000000 0.770540 0.597388
0.000000 0.031154 0.000000
0.000000 0.031243 0.000000
0.000000 0.031500 0.000000
0.000000 0.032134 0.000000
0.000000 0.034842 0.000000
0.046869 0.026129 0.000000
0.078161 0.000000 0.000000
0.111732 0.000000 0.000000
0.136508 0.000000 0.000000
0.167278 0.000000 0.000000
0.202587 0.000000 0.000000
0.239522 0.000000 0.000000
0.286715 0.000000 0.000000
0.332551 0.000000 0.000000
0.387711 0.000000 0.000000
0.442574 0.000000 0.000000
0.509724 0.000000 0.000000
0.582453 0.000000 0.000000
0.655729 0.000000 0.000000
0.725640 0.000000 0.000000
0.799749 0.000000 0.000000
0.885404 0.000000 0.006031
0.944224 0.000000 0.055425
0.993718 0.000000 0.089327
1.000000 0.000000 0.124348
1.000000 0.130004 0.160773
1.000000 0.266753 0.205861
1.000000 0.375133 0.259446
1.000000 0.465826 0.319539
1.000000 0.556659 0.392249
1.000000 0.641537 0.461785
1.000000 0.710100 0.528309
1.000000 0.770540 0.597388
0.000000 0.052548 0.000000
0.000000 0.051878 0.000000
0.000000 0.052067 0.000000
0.000000 0.053278 0.000000
0.000000 0.054846 0.000000
0.041676 0.055436 0.000000
0.077569 0.047753 0.000000
0.116844 0.031903 0.000000
0.147149 0.000000 0.000000
0.183100 0.000000 0.000000
0.217395 0.000000 0.000000
0.255085 0.000000 0.000000
0.293031 0.000000 0.000000
0.335819 0.000000 0.000000
0.394001 0.000000 0.000000
0.446769 0.000000 0.000000
0.517562 0.000000 0.000000
0.587005 0.000000 0.000000
0.660571 0.000000 0.000000
0.729881 0.000000 0.000000
0.803991 0.000000 0.000000
0.885700 0.000000 0.000000
0.944281 0.000000 0.055122
0.993732 0.000000 0.088657
1.000000 0.000000 0.126542
1.000000 0.130304 0.162142
1.000000 0.266753 0.205861
1.000000 0.375133 0.259446
1.000000 0.465826 0.319539
1.000000 0.556659 0.392249
1.000000 0.641537 0.461785
1.000000 0.710100 0.528309
1.000000 0.770540 0.597388
0.000000 0.070771 0.000000
0.000000 0.069837 0.000000
0.000000 0.071147 0.000000
0.000000 0.073710 0.000000
0.000000 0.075775 0.000000
0.000000 0.077454 0.000000
0.074597 0.077072 0.000000
0.115892 0.065307 0.000000
0.154918 0.045293 0.000000
0.195287 0.000000 0.000000
0.231562 0.000000 0.000000
0.269788 0.000000 0.000000
0.304069 0.000000 0.000000
0.350254 0.000000 0.000000
0.403393 0.000000 0.000000
0.457823 0.000000 0.000000
0.522753 0.000000 0.000000
0.595364 0.000000 0.000000
0.661906 0.000000 0.000000
0.735053 0.000000 0.000000
0.804758 0.000000 0.000000
0.886328 0.000000 0.000000
0.944448 0.000000 0.054165
0.993735 0.000000 0.088185
1.000000 0.000000 0.126142
1.000000 0.138154 0.161911
1.000000 0.271519 0.210406
1.000000 0.375952 0.259932
1.000000 0.465826 0.319539
1.000000 0.556659 0.392249
1.000000 0.641537 0.461785
1.000000 0.710100 0.528309
1.000000 0.770540 0.597388
0.000000 0.093824 0.000000
0.000000 0.093982 0.000000
0.000000 0.094168 0.000000
0.000000 0.096696 0.000000
0.000000 0.100680 0.000000
0.000000 0.105568 0.000000
0.051650 0.104722 0.000000
0.118281 0.100804 0.000000
0.165955 0.080772 0.000000
0.210139 0.062614 0.000000
0.250175 0.000000 0.000000
0.290438 0.000000 0.000000
0.327473 0.000000 0.000000
0.367330 0.000000 0.000000
0.417044 0.000000 0.000000
0.463332 0.000000 0.000000
0.528666 0.000000 0.000000
0.600484 0.000000 0.000000
0.667430 0.000000 0.000000
0.740223 0.000000 0.000000
0.809501 0.000000 0.000000
0.886896 0.000000 0.000000
0.944659 0.000000 0.052760
0.993732 0.000000 0.087434
1.000000 0.000000 0.125285
1.000000 0.152531 0.161432
1.000000 0.271519 0.210406
1.000000 0.383155 0.261448
1.000000 0.465826 0.319539
1.000000 0.556659 0.392249
1.000000 0.644352 0.461747
1.000000 0.712440 0.528334
1.000000 0.770540 0.597388
0.000000 0.120549 0.000000
0.000000 0.122584 0.000000
0.000000 0.122888 0.000000
0.000000 0.127172 0.000000
0.000000 0.132233 0.000000
0.000000 0.136635 0.000000
0.000000 0.140448 0.000000
0.106472 0.138385 0.000000
0.166644 0.130765 0.000000
0.222368 0.109150 0.000000
0.265253 0.084771 0.000000
0.305676 0.052002 0.000000
0.344760 0.000000 0.000000
0.384468 0.000000 0.000000
0.434771 0.000000 0.000000
0.478869 0.000000 0.000000
0.542093 0.000000 0.000000
0.614215 0.000000 0.000000
0.680689 0.000000 0.000000
0.752820 0.000000 0.000000
0.814099 0.000000 0.000000
0.894132 0.000000 0.000000
0.947802 0.000000 0.052207
0.993717 0.000000 0.086630
1.000000 0.000000 0.127387
1.000000 0.159206 0.161184
1.000000 0.279913 0.209961
1.000000 0.386672 0.261258
1.000000 0.469346 0.323857
1.000000 0.562770 0.392092
1.000000 0.644352 0.461747
1.000000 0.712440 0.528334
1.000000 0.772338 0.597479
0.000000 0.155781 0.000000
0.000000 0.156074 0.000000
0.000000 0.157761 0.000000
0.000000 0.163300 0.000000
0.000000 0.168444 0.000000
0.000000 0.172921 0.000000
0.000000 0.180527 0.000000
0.015688 0.179203 0.000000
0.145757 0.181631 0.000000
0.226499 0.164733 0.000000
0.281985 0.142972 0.000000
0.321918 0.117144 0.000000
0.366594 0.088860 0.000000
0.414145 0.000000 0.000000
0.459525 0.000000 0.000000
0.503864 0.000000 0.000000
0.553563 0.000000 0.000000
0.621734 0.000000 0.000000
0.690728 0.000000 0.000000
0.758369 0.000000 0.000000
0.823022 0.000000 0.000000
0.898461 0.000000 0.000000
0.948062 0.000000 0.049507
0.998180 0.000000 0.085676
1.000000 0.000000 0.126416
1.000000 0.178630 0.162179
1.000000 0.289722 0.210337
1.000000 0.390182 0.261066
1.000000 0.472597 0.323729
1.000000 0.566715 0.392699
1.000000 0.644352 0.461747
1.000000 0.712440 0.528334
1.000000 0.772338 0.597479
0.000000 0.190997 0.000000
0.000000 0.188681 0.000000
0.000000 0.193645 0.000000
0.000000 0.201997 0.000000
0.000000 0.203576 0.000000
0.000000 0.210126 0.000000
0.000000 0.218648 0.000000
0.000000 0.220117 0.000000
0.108844 0.218555 0.000000
0.214320 0.215644 0.000000
0.287210 0.199225 0.000000
0.341295 0.173363 0.000000
0.386951 0.152129 0.000000
0.433006 0.127840 0.000000
0.483472 0.078489 0.000000
0.531362 0.000000 0.000000
0.583774 0.000000 0.000000
0.637004 0.000000 0.000000
0.701341 0.000000 0.000000
0.765070 0.000000 0.000000
0.832151 0.000000 0.000000
0.899473 0.000000 0.000000
0.954005 0.000000 0.048448
1.000000 0.000000 0.086311
1.000000 0.000000 0.126396
1.000000 0.195867 0.164195
1.000000 0.298109 0.213117
1.000000 0.394471 0.261364
1.000000 0.479944 0.324059
1.000000 0.566715 0.392699
1.000000 0.647157 0.461710
1.000000 0.714769 0.528361
1.000000 0.772338 0.597479
0.000000 0.232323 0.000000
0.000000 0.233080 0.000000
0.000000 0.240386 0.000000
0.000000 0.246620 0.000000
0.000000 0.249746 0.000000
0.000000 0.251703 0.000000
0.000000 0.259068 0.000000
0.000000 0.262910 0.000000
0.000000 0.264308 0.000000
0.169033 0.267401 0.000000
0.277016 0.264006 0.000000
0.345006 0.236199 0.000000
0.402967 0.210771 0.000000
0.454285 0.189163 0.000000
0.507612 0.163105 0.000000
0.563878 0.122340 0.000000
0.605515 0.000000 0.000000
0.658150 0.000000 0.000000
0.712956 0.000000 0.000000
0.775541 0.000000 0.000000
0.845129 0.000000 0.000000
0.906934 0.000000 0.000000
0.959731 0.000000 0.045416
1.000000 0.000000 0.084385
1.000000 0.080878 0.124884
1.000000 0.211547 0.163343
1.000000 0.314647 0.212581
1.000000 0.405054 0.262688
1.000000 0.483183 0.323926
1.000000 0.572818 0.392538
1.000000 0.649953 0.461674
1.000000 0.714769 0.528361
1.000000 0.774123 0.597572
0.000000 0.275913 0.000000
0.000000 0.280821 0.000000
0.000000 0.286082 0.000000
0.000000 0.291177 0.000000
0.000000 0.292999 0.000000
0.000000 0.294804 0.000000
0.000000 0.300926 0.000000
0.000000 0.307463 0.000000
0.000000 0.309645 0.000000
0.100257 0.310525 0.000000
0.241009 0.311366 0.000000
0.334294 0.305654 0.000000
0.416002 0.275016 0.000000
0.480080 0.254830 0.000000
0.538231 0.231053 0.000000
0.586029 0.208260 0.000000
0.634870 0.175653 0.000000
0.686529 0.120454 0.000000
0.733339 0.000000 0.000000
0.786199 0.000000 0.000000
0.854684 0.000000 0.000000
0.917039 0.000000 0.000000
0.965293 0.000000 0.042782
1.000000 0.000000 0.086062
1.000000 0.147057 0.125793
1.000000 0.237074 0.166556
1.000000 0.330348 0.214897
1.000000 0.416951 0.263083
1.000000 0.489925 0.328193
1.000000 0.575997 0.394949
1.000000 0.652855 0.464201
1.000000 0.717183 0.530973
1.000000 0.774123 0.597572
0.000000 0.331767 0.000000
0.000000 0.339731 0.000000
0.000000 0.346109 0.000000
0.000000 0.347998 0.000000
0.000000 0.349713 0.000000
0.000000 0.353490 0.000000
0.000000 0.357853 0.000000
0.000000 0.367815 0.000000
0.000000 0.373010 0.000000
0.000000 0.375167 0.000000
0.143787 0.375856 0.000000
0.272929 0.377695 0.000000
0.399215 0.368819 0.000000
0.487316 0.336193 0.000000
0.561568 0.310833 0.000000
0.606548 0.292315 0.000000
0.656609 0.266455 0.000000
0.708692 0.244487 0.000000
0.754619 0.204652 0.000000
0.806079 0.142657 0.000000
0.867238 0.000000 0.000000
0.921172 0.000000 0.000000
0.969872 0.000000 0.000000
1.000000 0.111715 0.081201
1.000000 0.201138 0.126672
1.000000 0.269344 0.170249
1.000000 0.353858 0.217140
1.000000 0.434368 0.265945
1.000000 0.504480 0.328869
1.000000 0.585164 0.394705
1.000000 0.655630 0.464169
1.000000 0.719488 0.531004
1.000000 0.775968 0.600206
0.000000 0.395522 0.000000
0.000000 0.400161 0.000000
0.000000 0.407046 0.000000
0.000000 0.408696 0.000000
0.000000 0.413044 0.000000
0.000000 0.414188 0.000000
0.000000 0.415970 0.000000
0.000000 0.418146 0.000000
0.000000 0.429156 0.000000
0.000000 0.431986 0.000000
0.000000 0.436730 0.000000
0.157937 0.440173 0.000000
0.334953 0.435761 0.000000
0.465666 0.431782 0.000000
0.562357 0.401958 0.000000
0.630369 0.368858 0.000000
0.674064 0.355760 0.000000
0.727424 0.332726 0.000000
0.780676 0.308725 0.000000
0.834584 0.266236 0.000000
0.879985 0.227334 0.000000
0.930225 0.172665 0.000000
0.971340 0.170166 0.000000
1.000000 0.195193 0.075094
1.000000 0.240761 0.126144
1.000000 0.312094 0.170513
1.000000 0.373658 0.218367
1.000000 0.448848 0.267584
1.000000 0.518142 0.328936
1.000000 0.594340 0.394454
1.000000 0.662940 0.468175
1.000000 0.726334 0.531110
1.000000 0.777727 0.600304
0.000000 0.465979 0.000000
0.000000 0.470387 0.000000
0.000000 0.474479 0.000000
0.000000 0.475422 0.000000
0.000000 0.482682 0.000000
0.000000 0.486575 0.000000
0.000000 0.485044 0.000000
0.000000 0.486938 0.000000
0.000000 0.492491 0.000000
0.000000 0.500797 0.000000
0.000000 0.505518 0.000000
0.000000 0.506729 0.000000
0.212835 0.512944 0.000000
0.408316 0.504101 0.000000
0.537472 0.496254 0.000000
0.619833 0.468648 0.000000
0.687581 0.434971 0.000000
0.745155 0.415687 0.000000
0.793007 0.397411 0.000000
0.845224 0.375851 0.000000
0.896705 0.350349 0.000000
0.935869 0.309743 0.000000
0.975936 0.271336 0.000000
1.000000 0.282535 0.061522
1.000000 0.305607 0.117390
1.000000 0.355124 0.166287
1.000000 0.406119 0.217426
1.000000 0.471349 0.269850
1.000000 0.543945 0.330111
1.000000 0.605137 0.395594
1.000000 0.668369 0.468125
1.000000 0.730132 0.535353
1.000000 0.782930 0.600612
0.000000 0.542265 0.000000
0.000000 0.543020 0.000000
0.000000 0.547051 0.000000
0.000000 0.548233 0.000000
0.000000 0.552359 0.000000
0.000000 0.553083 0.000000
0.000000 0.557299 0.000000
0.000000 0.558697 0.000000
0.000000 0.560088 0.000000
0.000000 0.561559 0.000000
0.000000 0.569560 0.000000
0.000000 0.577207 0.000000
0.000000 0.577464 0.000000
0.298236 0.576030 0.000000
0.450180 0.573250 0.000000
0.585211 0.565080 0.000000
0.679979 0.532714 0.000000
0.752125 0.508457 0.000000
0.802801 0.497681 0.000000
0.854720 0.477878 0.000000
0.903469 0.448323 0.000000
0.937729 0.419764 0.000000
0.975444 0.390882 0.000000
1.000000 0.362291 0.035132
1.000000 0.368745 0.115867
1.000000 0.396595 0.164707
1.000000 0.442748 0.218690
1.000000 0.501754 0.271853
1.000000 0.567091 0.329690
1.000000 0.620637 0.400198
1.000000 0.679202 0.470620
1.000000 0.738943 0.535544
1.000000 0.785975 0.607554
0.000000 0.613654 0.000000
0.000000 0.617412 0.000000
0.000000 0.618035 0.000000
0.000000 0.622000 0.000000
0.000000 0.622394 0.000000
0.000000 0.622767 0.000000
0.000000 0.626485 0.000000
0.000000 0.627280 0.000000
0.000000 0.634695 0.000000
0.000000 0.635663 0.000000
0.000000 0.636668 0.000000
0.000000 0.644148 0.000000
0.000000 0.647620 0.000000
0.102925 0.650310 0.000000
0.360473 0.644735 0.000000
0.523147 0.641051 0.000000
0.648197 0.635771 0.000000
0.743453 0.602389 0.000000
0.808582 0.578860 0.000000
0.858676 0.563487 0.000000
0.900359 0.553017 0.000000
0.942759 0.532037 0.000000
0.975764 0.513524 0.000000
1.000000 0.483398 0.000000
1.000000 0.446912 0.110445
1.000000 0.458892 0.163158
1.000000 0.492886 0.224192
1.000000 0.539369 0.276070
1.000000 0.586926 0.340848
1.000000 0.636727 0.403014
1.000000 0.693272 0.476496
1.000000 0.747716 0.540952
1.000000 0.791045 0.607886
0.000000 0.687102 0.000000
0.000000 0.687511 0.000000
0.000000 0.687816 0.000000
0.000000 0.691436 0.000000
0.000000 0.691833 0.000000
0.000000 0.691897 0.000000
0.000000 0.695822 0.000000
0.000000 0.696369 0.000000
0.000000 0.703132 0.000000
0.000000 0.706970 0.000000
0.000000 0.707793 0.000000
0.000000 0.708565 0.000000
0.000000 0.712112 0.000000
0.000000 0.714408 0.000000
0.230557 0.716568 0.000000
0.446974 0.713552 0.000000
0.589634 0.709442 0.000000
0.705793 0.700722 0.000000
0.792034 0.674841 0.000000
0.850718 0.652503 0.000000
0.898047 0.632174 0.000000
0.939915 0.615809 0.000000
0.969132 0.600740 0.000000
0.999275 0.582790 0.000000
1.000000 0.564716 0.082563
1.000000 0.537403 0.159700
1.000000 0.548394 0.226622
1.000000 0.574205 0.285798
1.000000 0.614112 0.348502
1.000000 0.659215 0.411581
1.000000 0.708645 0.479112
1.000000 0.755322 0.545375
1.000000 0.796126 0.610775
0.000000 0.747649 0.000000
0.000000 0.750847 0.000000
0.000000 0.751094 0.000000
0.000000 0.751213 0.000000
0.000000 0.751453 0.000000
0.000000 0.757497 0.000000
0.000000 0.757874 0.000000
0.000000 0.758036 0.000000
0.000000 0.761119 0.000000
0.000000 0.761304 0.000000
0.000000 0.764629 0.000000
0.000000 0.767453 0.000000
0.000000 0.767849 0.000000
0.000000 0.767249 0.000000
0.000000 0.771061 0.000000
0.373994 0.769075 0.000000
0.528390 0.765575 0.000000
0.654983 0.760889 0.000000
0.765528 0.753252 0.000000
0.839426 0.735986 0.000000
0.886129 0.713948 0.000000
0.929991 0.699008 0.000000
0.962655 0.685967 0.000000
0.988074 0.674908 0.000000
1.000000 0.655134 0.023863
1.000000 0.635603 0.168762
1.000000 0.607476 0.232175
1.000000 0.618270 0.290726
1.000000 0.650194 0.353475
1.000000 0.685600 0.416993
1.000000 0.728903 0.482656
1.000000 0.767483 0.548455
1.000000 0.801612 0.612021
0.000000 0.809969 0.000000
0.000000 0.809909 0.000000
0.000000 0.810067 0.000000
0.000000 0.810086 0.000000
0.000000 0.812675 0.000000
0.000000 0.812604 0.000000
0.000000 0.812739 0.000000
0.000000 0.812786 0.000000
0.000000 0.815255 0.000000
0.000000 0.815261 0.000000
0.000000 0.817750 0.000000
0.000000 0.817546 0.000000
0.000000 0.821758 0.000000
0.000000 0.821003 0.000000
0.000000 0.822176 0.000000
0.304671 0.822593 0.000000
0.476824 0.819627 0.000000
0.615683 0.817558 0.000000
0.715006 0.813190 0.000000
0.811608 0.806106 0.000000
0.873284 0.790275 0.000000
0.916616 0.774385 0.000000
0.951339 0.758096 0.000000
0.975321 0.751796 0.000000
0.998880 0.737940 0.000000
1.000000 0.723513 0.161047
1.000000 0.701215 0.232554
1.000000 0.679804 0.300011
1.000000 0.689885 0.356158
1.000000 0.721026 0.425311
1.000000 0.750936 0.492486
1.000000 0.781574 0.557784
1.000000 0.811479 0.620432
0.000000 0.854059 0.086361
0.000000 0.854095 0.087052
0.000000 0.856065 0.087513
0.000000 0.855949 0.070125
0.000000 0.855976 0.071035
0.000000 0.856008 0.072381
0.000000 0.855888 0.047688
0.000000 0.855917 0.051395
0.000000 0.857711 0.000000
0.000000 0.857623 0.000000
0.000000 0.857540 0.000000
0.000000 0.859122 0.000000
0.000000 0.860628 0.000000
0.000000 0.861785 0.000000
0.000000 0.860632 0.000000
0.284703 0.858791 0.000000
0.454203 0.859795 0.000000
0.580319 0.856510 0.000000
0.686671 0.852816 0.000000
0.775509 0.852436 0.000000
0.851172 0.845066 0.000000
0.906786 0.833468 0.000000
0.938720 0.821133 0.000000
0.967898 0.807507 0.000000
0.987131 0.800082 0.000000
1.000000 0.791063 0.174558
1.000000 0.777881 0.248840
1.000000 0.759699 0.313763
1.000000 0.749305 0.372883
1.000000 0.757759 0.431919
1.000000 0.778859 0.502335
1.000000 0.798822 0.565746
1.000000 0.824892 0.625888
0.000000 0.887769 0.211684
0.000000 0.889349 0.212455
0.000000 0.889273 0.209079
0.000000 0.889248 0.209256
0.000000 0.889194 0.209612
0.000000 0.889165 0.209790
0.000000 0.889054 0.206578
0.000000 0.889022 0.206759
0.000000 0.888869 0.203713
0.000000 0.890322 0.204915
0.000000 0.890101 0.202061
0.000000 0.891397 0.196030
0.000000 0.890967 0.193745
0.000000 0.892091 0.195720
0.000000 0.892782 0.183267
0.243592 0.890940 0.172053
0.439238 0.888346 0.157241
0.556821 0.890086 0.148514
0.652820 0.886945 0.117709
0.749036 0.883178 0.074670
0.821181 0.881502 0.000000
0.886151 0.876732 0.000000
0.926978 0.866454 0.000000
0.954861 0.855915 0.000000
0.978989 0.847659 0.046496
0.998917 0.839615 0.191899
1.000000 0.830537 0.279979
1.000000 0.821093 0.346563
1.000000 0.806090 0.390063
1.000000 0.794794 0.450194
1.000000 0.802839 0.516888
1.000000 0.821361 0.573789
1.000000 0.837246 0.633158
0.000000 0.917156 0.310128
0.000000 0.917156 0.310128
0.000000 0.917061 0.307081
0.000000 0.917061 0.307081
0.000000 0.917003 0.307251
0.000000 0.916943 0.307420
0.000000 0.916820 0.307760
0.000000 0.916682 0.301490
0.000000 0.916618 0.301662
0.000000 0.917719 0.299480
0.000000 0.917581 0.299831
0.000000 0.917218 0.294083
0.000000 0.919277 0.293243
0.000000 0.918762 0.294354
0.000000 0.919149 0.290221
0.294710 0.918655 0.290804
0.434243 0.916570 0.281248
0.550075 0.913820 0.266171
0.640818 0.913372 0.256731
0.722803 0.910408 0.250081
0.804766 0.906882 0.228517
0.859035 0.905555 0.218393
0.910248 0.901718 0.184106
0.944762 0.895987 0.116070
0.968399 0.885258 0.108494
0.990187 0.877093 0.215485
1.000000 0.869233 0.295897
1.000000 0.862984 0.368420
1.000000 0.855167 0.420577
1.000000 0.843638 0.470976
1.000000 0.834650 0.530669
1.000000 0.841422 0.582030
1.000000 0.857236 0.642703
0.000000 0.939438 0.401806
0.000000 0.939438 0.401806
0.000000 0.939351 0.401965
0.000000 0.939351 0.401965
0.000000 0.939325 0.398943
0.000000 0.939147 0.399264
0.000000 0.939147 0.399264
0.000000 0.939056 0.399425
0.000000 0.939984 0.397308
0.000000 0.939891 0.397470
0.000000 0.939675 0.394787
0.000000 0.939280 0.395444
0.000000 0.939957 0.390705
0.192989 0.939052 0.389071
0.297668 0.940264 0.391868
0.388327 0.939070 0.390505
0.474493 0.938440 0.384514
0.557646 0.937349 0.373313
0.641287 0.934837 0.368080
0.709163 0.933441 0.364247
0.791307 0.931046 0.346918
0.846486 0.928590 0.337656
0.889720 0.928459 0.324627
0.930123 0.924446 0.296544
0.960473 0.918724 0.257015
0.983990 0.908499 0.249538
1.000000 0.901808 0.327222
1.000000 0.895326 0.393447
1.000000 0.890153 0.452725
1.000000 0.883088 0.498281
1.000000 0.873050 0.552696
1.000000 0.867166 0.596747
1.000000 0.872917 0.653131
0.195043 0.958507 0.484462
0.195043 0.958507 0.484462
0.195043 0.958507 0.484462
0.214187 0.958389 0.484619
0.214815 0.959239 0.485406
0.231837 0.959102 0.482646
0.231837 0.959102 0.482646
0.247426 0.958981 0.482804
0.247426 0.958981 0.482804
0.288097 0.958610 0.483281
0.300066 0.958450 0.477620
0.322626 0.958194 0.477943
0.353626 0.958627 0.476350
0.381510 0.958207 0.473951
0.423722 0.957509 0.474783
0.476218 0.957290 0.471063
0.522469 0.957895 0.474014
0.579958 0.957999 0.474758
0.643513 0.956018 0.466011
