Assets/Lutify-Free-LUTs-Pack/Lutify Free LUTs Pack/Film Tone Pro - Film Tone 3/Lutify.me-FilmTone3-LogC4-to-Rec709.cube
# Created with: fylm.ai - Colour Grading and Collaboration Software in Cloud 
# Website: https://fylm.ai 
# META
# Option: Gamut compress
# Block 1: IDT | Arri Alexa 35 - LogC4
# Block 2: colourMatch | Blending Mode: Normal | {"ColorSpace":0,"CrossCovarianceLimit":50,"ReshapingIterations":1,"PercentSaturationShift":100,"PercentShadingShift":100,"ExtraShading":true,"PercentTint":100,"PercentModified":100}
# Block 3: subtractiveColour | Blending Mode: Normal | {"sliders":{"gainY":0.6,"C":0.3,"M":0.3,"Y":0.3}}
# Block 4: LUT | Filmic Curve Response: Low Contrast 2 (100%)
# Block 5: logPrimaries | Blending Mode: Normal | {"wheels":{"shadows":{"Y":"0","R":"1","G":"1","B":"1"},"midtones":{"Y":"0","R":"1","G":"1","B":"1"},"highlights":{"Y":"0","R":"1","G":"1","B":"1"},"offset":{"Y":"0","R":"1","G":"1","B":"1"}},"sliders":{"shadows":{"Y":0,"R":-0.026,"G":0.03,"B":0.1},"midtones":{"Y":0,"R":0.024,"G":-0.036,"B":0.036},"highlights":{"Y":0,"R":0,"G":0.044,"B":-0.128},"offset":{"Y":0,"R":0,"G":0,"B":0}}}
# Block 6: hueSaturation | Blending Mode: Normal | {"hue":0,"saturation":-0.1}
# Block 7: ODT | Rec709
TITLE "Lutify.me-FilmTone3-LogC4-to-Rec709" 
LUT_3D_SIZE 5
0.000000 0.000000 0.000000
0.268790 0.000000 0.000000
0.961601 0.000000 0.122112
1.000000 0.773271 0.681201
1.000000 0.988392 0.965770
0.000000 0.244241 0.000000
0.409021 0.256130 0.000000
0.973586 0.000000 0.135547
1.000000 0.781620 0.682722
1.000000 0.988392 0.965770
0.000000 0.863130 0.243693
0.000000 0.872879 0.228638
0.928037 0.856899 0.180186
1.000000 0.836686 0.711989
1.000000 0.989726 0.966333
0.712432 1.000000 0.860067
0.723717 1.000000 0.859220
0.815190 1.000000 0.859714
1.000000 1.000000 0.875169
1.000000 0.998046 0.972046
0.974446 1.000000 0.993625
0.974446 1.000000 0.993625
0.975883 1.000000 0.993662
0.988369 1.000000 0.993615
1.000000 1.000000 0.995894
0.000000 0.000000 0.147684
0.258139 0.000000 0.063080
0.965480 0.000000 0.206405
1.000000 0.773408 0.686461
1.000000 0.988400 0.966177
0.000000 0.215384 0.372967
0.306419 0.333160 0.338962
0.976003 0.000000 0.224002
1.000000 0.779992 0.687865
1.000000 0.988400 0.966177
0.000000 0.867523 0.407083
0.000000 0.879179 0.396277
0.918135 0.868173 0.363661
1.000000 0.835321 0.716709
1.000000 0.989726 0.966333
0.710228 1.000000 0.863344
0.721579 1.000000 0.863606
0.815183 1.000000 0.862934
1.000000 1.000000 0.878184
1.000000 0.998046 0.972046
0.974446 1.000000 0.993625
0.974446 1.000000 0.993625
0.975886 1.000000 0.993809
0.988369 1.000000 0.993615
1.000000 1.000000 0.995894
0.000000 0.060988 0.645698
0.000000 0.075556 0.650799
0.908851 0.000000 0.448839
1.000000 0.772376 0.759244
1.000000 0.988414 0.966986
0.000000 0.159722 0.716008
0.000000 0.194999 0.714281
0.976876 0.000000 0.631834
1.000000 0.780837 0.762322
1.000000 0.988414 0.966986
0.000000 0.792508 0.860743
0.000000 0.863584 0.854302
0.870814 0.883445 0.847667
1.000000 0.837626 0.784471
1.000000 0.989311 0.967484
0.700002 1.000000 0.896096
0.711483 1.000000 0.896282
0.812529 1.000000 0.894320
1.000000 1.000000 0.901807
1.000000 0.998060 0.973425
0.973959 1.000000 0.993905
0.974452 1.000000 0.993920
0.975891 1.000000 0.994098
0.988364 1.000000 0.993894
1.000000 1.000000 0.996281
0.000000 0.608797 0.976001
0.000000 0.618209 0.975565
0.735163 0.618446 0.970834
1.000000 0.438085 0.927083
1.000000 0.987707 0.979640
0.000000 0.625119 0.975220
0.000000 0.631325 0.974937
0.730692 0.632337 0.970950
1.000000 0.476369 0.931852
1.000000 0.987707 0.979640
0.000000 0.781504 0.980474
0.000000 0.781287 0.980516
0.666717 0.793236 0.976603
1.000000 0.747269 0.955852
1.000000 0.988680 0.980060
0.000000 1.000000 0.997321
0.000000 1.000000 0.997094
0.691423 1.000000 0.995590
0.996623 1.000000 0.991183
1.000000 0.998439 0.984720
0.972955 1.000000 1.000000
0.972955 1.000000 1.000000
0.974896 1.000000 1.000000
0.987137 1.000000 0.999918
1.000000 1.000000 1.000000
0.872268 0.961409 1.000000
0.873429 0.962597 1.000000
0.888233 0.962520 1.000000
0.981452 0.961321 1.000000
1.000000 0.939072 1.000000
0.871848 0.962665 1.000000
0.873429 0.962597 1.000000
0.888020 0.963135 1.000000
0.981452 0.961321 1.000000
1.000000 0.939465 1.000000
0.871034 0.965761 1.000000
0.872606 0.965694 1.000000
0.887490 0.965640 1.000000
0.980255 0.964190 1.000000
1.000000 0.944957 1.000000
0.865462 0.994842 1.000000
0.866889 0.994775 1.000000
0.880640 0.994433 1.000000
0.969031 0.993273 1.000000
1.000000 0.983154 1.000000
0.931272 1.000000 1.000000
0.932059 1.000000 1.000000
0.936269 1.000000 1.000000
0.974252 1.000000 1.000000
1.000000 1.000000 1.000000
