Assets/Lutify-Free-LUTs-Pack/Lutify Free LUTs Pack/Film Tone Pro - Film Tone 3/Lutify.me-FilmTone3-BMDFilmGen5-to-Rec709.cube
# Created with: fylm.ai - Colour Grading and Collaboration Software in Cloud 
# Website: https://fylm.ai 
# META
# Option: Gamut compress
# Block 1: IDT | BMD Wide Gamut BMDFilm Gen 5
# Block 2: colourMatch | Blending Mode: Normal | {"ColorSpace":0,"CrossCovarianceLimit":50,"ReshapingIterations":1,"PercentSaturationShift":100,"PercentShadingShift":100,"ExtraShading":true,"PercentTint":100,"PercentModified":100}
# Block 3: subtractiveColour | Blending Mode: Normal | {"sliders":{"gainY":0.6,"C":0.3,"M":0.3,"Y":0.3}}
# Block 4: LUT | Filmic Curve Response: Low Contrast 2 (100%)
# Block 5: logPrimaries | Blending Mode: Normal | {"wheels":{"shadows":{"Y":"0","R":"1","G":"1","B":"1"},"midtones":{"Y":"0","R":"1","G":"1","B":"1"},"highlights":{"Y":"0","R":"1","G":"1","B":"1"},"offset":{"Y":"0","R":"1","G":"1","B":"1"}},"sliders":{"shadows":{"Y":0,"R":-0.026,"G":0.03,"B":0.1},"midtones":{"Y":0,"R":0.024,"G":-0.036,"B":0.036},"highlights":{"Y":0,"R":0,"G":0.044,"B":-0.128},"offset":{"Y":0,"R":0,"G":0,"B":0}}}
# Block 6: hueSaturation | Blending Mode: Normal | {"hue":0,"saturation":-0.1}
# Block 7: ODT | Rec709
TITLE "Lutify.me-FilmTone3-BMDFilmGen5-to-Rec709" 
LUT_3D_SIZE 33
0.000000 0.000000 0.000000
0.000000 0.000000 0.000000
0.000000 0.000000 0.000000
0.000000 0.000000 0.000000
0.000000 0.000000 0.000000
0.000000 0.000000 0.000000
0.050665 0.000000 0.000000
0.081377 0.000000 0.000000
0.114934 0.000000 0.000000
0.146434 0.000000 0.000000
0.191597 0.000000 0.000000
0.238296 0.000000 0.000000
0.298604 0.000000 0.000000
0.373119 0.000000 0.000000
0.457150 0.000000 0.000000
0.551233 0.000000 0.000000
0.655676 0.000000 0.000000
0.750010 0.000000 0.000000
0.851647 0.000000 0.000000
0.935816 0.000000 0.051217
1.000000 0.127076 0.102341
1.000000 0.283643 0.152262
1.000000 0.406200 0.214422
1.000000 0.528583 0.287191
1.000000 0.622986 0.369231
1.000000 0.712639 0.463056
1.000000 0.783342 0.553549
1.000000 0.835980 0.639542
1.000000 0.876740 0.725347
1.000000 0.909015 0.791654
1.000000 0.936599 0.839621
1.000000 0.957539 0.880224
1.000000 0.974465 0.915097
0.000000 0.000000 0.000000
0.000000 0.000000 0.000000
0.000000 0.000000 0.000000
0.000000 0.000000 0.000000
0.000000 0.000000 0.000000
0.004732 0.000000 0.000000
0.055360 0.000000 0.000000
0.084984 0.000000 0.000000
0.117685 0.000000 0.000000
0.151009 0.000000 0.000000
0.195449 0.000000 0.000000
0.246520 0.000000 0.000000
0.304739 0.000000 0.000000
0.381185 0.000000 0.000000
0.461047 0.000000 0.000000
0.552267 0.000000 0.000000
0.656486 0.000000 0.000000
0.750269 0.000000 0.000000
0.851945 0.000000 0.000000
0.935841 0.000000 0.050517
0.999798 0.141622 0.101363
1.000000 0.291989 0.151378
1.000000 0.406200 0.214422
1.000000 0.531946 0.286962
1.000000 0.622986 0.369231
1.000000 0.715225 0.463066
1.000000 0.783342 0.553549
1.000000 0.835980 0.639542
1.000000 0.876740 0.725347
1.000000 0.909015 0.791654
1.000000 0.936599 0.839621
1.000000 0.957539 0.880224
1.000000 0.974465 0.915097
0.000000 0.000000 0.000000
0.000000 0.000000 0.000000
0.000000 0.000000 0.000000
0.000000 0.000000 0.000000
0.000000 0.000000 0.000000
0.016785 0.000000 0.000000
0.059819 0.000000 0.000000
0.089959 0.000000 0.000000
0.122994 0.000000 0.000000
0.156387 0.000000 0.000000
0.200728 0.000000 0.000000
0.252092 0.000000 0.000000
0.313024 0.000000 0.000000
0.384441 0.000000 0.000000
0.462182 0.000000 0.000000
0.556489 0.000000 0.000000
0.664572 0.000000 0.000000
0.757946 0.000000 0.000000
0.852141 0.000000 0.000000
0.938724 0.000000 0.049218
0.999687 0.148321 0.100855
1.000000 0.291989 0.151378
1.000000 0.406200 0.214422
1.000000 0.531946 0.286962
1.000000 0.622986 0.369231
1.000000 0.715225 0.463066
1.000000 0.783342 0.553549
1.000000 0.835980 0.639542
1.000000 0.876740 0.725347
1.000000 0.909015 0.791654
1.000000 0.936599 0.839621
1.000000 0.957539 0.880224
1.000000 0.974465 0.915097
0.000000 0.000000 0.000000
0.000000 0.000000 0.000000
0.000000 0.000000 0.000000
0.000000 0.000000 0.000000
0.000000 0.000000 0.000000
0.030744 0.000000 0.000000
0.066767 0.000000 0.000000
0.098187 0.000000 0.000000
0.126894 0.000000 0.000000
0.161215 0.000000 0.000000
0.205191 0.000000 0.000000
0.261175 0.000000 0.000000
0.315840 0.000000 0.000000
0.393004 0.000000 0.000000
0.466478 0.000000 0.000000
0.560990 0.000000 0.000000
0.668757 0.000000 0.000000
0.758460 0.000000 0.000000
0.855853 0.000000 0.000000
0.938724 0.000000 0.049218
0.999687 0.148321 0.100855
1.000000 0.291686 0.148229
1.000000 0.413406 0.213747
1.000000 0.531946 0.286962
1.000000 0.622986 0.369231
1.000000 0.715225 0.463066
1.000000 0.785231 0.553668
1.000000 0.835980 0.639542
1.000000 0.876740 0.725347
1.000000 0.909015 0.791654
1.000000 0.936599 0.839621
1.000000 0.957539 0.880224
1.000000 0.974465 0.915097
0.000000 0.011576 0.000000
0.000000 0.011617 0.000000
0.000000 0.015233 0.000000
0.000000 0.017223 0.000000
0.000000 0.021626 0.000000
0.034737 0.016944 0.000000
0.067724 0.000000 0.000000
0.103654 0.000000 0.000000
0.132334 0.000000 0.000000
0.169668 0.000000 0.000000
0.214091 0.000000 0.000000
0.267280 0.000000 0.000000
0.322663 0.000000 0.000000
0.396869 0.000000 0.000000
0.473681 0.000000 0.000000
0.561786 0.000000 0.000000
0.669438 0.000000 0.000000
0.762428 0.000000 0.000000
0.855948 0.000000 0.000000
0.938743 0.000000 0.048436
0.999456 0.160866 0.099797
1.000000 0.295812 0.147758
1.000000 0.413406 0.213747
1.000000 0.531946 0.286962
1.000000 0.622986 0.369231
1.000000 0.715225 0.463066
1.000000 0.785231 0.553668
1.000000 0.835980 0.639542
1.000000 0.876740 0.725347
1.000000 0.909015 0.791654
1.000000 0.938374 0.839957
1.000000 0.957539 0.880224
1.000000 0.974465 0.915097
0.000000 0.039850 0.000000
0.000000 0.040447 0.000000
0.000000 0.042658 0.000000
0.000000 0.044517 0.000000
0.000000 0.046302 0.000000
0.028948 0.047932 0.000000
0.064498 0.042723 0.000000
0.104344 0.029617 0.000000
0.140548 0.000000 0.000000
0.182023 0.000000 0.000000
0.228364 0.000000 0.000000
0.279106 0.000000 0.000000
0.332449 0.000000 0.000000
0.400880 0.000000 0.000000
0.477875 0.000000 0.000000
0.570051 0.000000 0.000000
0.670122 0.000000 0.000000
0.762939 0.000000 0.000000
0.856137 0.000000 0.000000
0.938952 0.000000 0.050984
1.000000 0.160440 0.100078
1.000000 0.295812 0.147758
1.000000 0.413406 0.213747
1.000000 0.531946 0.286962
1.000000 0.626181 0.369114
1.000000 0.715225 0.463066
1.000000 0.785231 0.553668
1.000000 0.835980 0.639542
1.000000 0.876740 0.725347
1.000000 0.909015 0.791654
1.000000 0.938374 0.839957
1.000000 0.957539 0.880224
1.000000 0.974465 0.915097
0.000000 0.058547 0.000000
0.000000 0.059643 0.000000
0.000000 0.061763 0.000000
0.000000 0.063969 0.000000
0.000000 0.066663 0.000000
0.000000 0.070276 0.000000
0.063805 0.071223 0.000000
0.108491 0.059938 0.000000
0.147229 0.046079 0.000000
0.195340 0.000000 0.000000
0.243115 0.000000 0.000000
0.292262 0.000000 0.000000
0.345438 0.000000 0.000000
0.408172 0.000000 0.000000
0.482866 0.000000 0.000000
0.574761 0.000000 0.000000
0.671222 0.000000 0.000000
0.763707 0.000000 0.000000
0.859811 0.000000 0.000000
0.941793 0.000000 0.048782
1.000000 0.166397 0.099530
1.000000 0.303976 0.146792
1.000000 0.417452 0.213805
1.000000 0.535833 0.287240
1.000000 0.626181 0.369114
1.000000 0.715225 0.463066
1.000000 0.785231 0.553668
1.000000 0.835980 0.639542
1.000000 0.876740 0.725347
1.000000 0.909015 0.791654
1.000000 0.938374 0.839957
1.000000 0.957539 0.880224
1.000000 0.974465 0.915097
0.000000 0.080563 0.000000
0.000000 0.081942 0.000000
0.000000 0.084686 0.000000
0.000000 0.089036 0.000000
0.000000 0.091251 0.000000
0.000000 0.096232 0.000000
0.043013 0.096840 0.000000
0.110247 0.093931 0.000000
0.158271 0.080205 0.000000
0.210139 0.062614 0.000000
0.260873 0.012649 0.000000
0.306425 0.000000 0.000000
0.360284 0.000000 0.000000
0.427779 0.000000 0.000000
0.491995 0.000000 0.000000
0.580628 0.000000 0.000000
0.675973 0.000000 0.000000
0.768427 0.000000 0.000000
0.867152 0.000000 0.000000
0.941825 0.000000 0.044027
1.000000 0.183194 0.097792
1.000000 0.308017 0.146296
1.000000 0.421034 0.213457
1.000000 0.535964 0.289498
1.000000 0.626181 0.369114
1.000000 0.717795 0.463078
1.000000 0.785231 0.553668
1.000000 0.835980 0.639542
1.000000 0.877803 0.725515
1.000000 0.909015 0.791654
1.000000 0.938374 0.839957
1.000000 0.957539 0.880224
1.000000 0.974465 0.915097
0.000000 0.111138 0.000000
0.000000 0.111323 0.000000
0.000000 0.115099 0.000000
0.000000 0.120045 0.000000
0.000000 0.124742 0.000000
0.000000 0.129657 0.000000
0.000000 0.133062 0.000000
0.103836 0.133083 0.000000
0.164656 0.126565 0.000000
0.225786 0.108674 0.000000
0.277637 0.087210 0.000000
0.328350 0.056978 0.000000
0.381828 0.000000 0.000000
0.444897 0.000000 0.000000
0.516457 0.000000 0.000000
0.590809 0.000000 0.000000
0.681715 0.000000 0.000000
0.769695 0.000000 0.000000
0.867737 0.000000 0.000000
0.944574 0.000000 0.039494
1.000000 0.198439 0.092796
1.000000 0.312031 0.145791
1.000000 0.428180 0.212746
1.000000 0.539319 0.289272
1.000000 0.629374 0.368997
1.000000 0.717894 0.465773
1.000000 0.785231 0.553668
1.000000 0.835980 0.639542
1.000000 0.877803 0.725515
1.000000 0.909526 0.792844
1.000000 0.938374 0.839957
1.000000 0.957539 0.880224
1.000000 0.974465 0.915097
0.000000 0.151612 0.000000
0.000000 0.154364 0.000000
0.000000 0.158365 0.000000
0.000000 0.164268 0.000000
0.000000 0.166783 0.000000
0.000000 0.173383 0.000000
0.000000 0.178057 0.000000
0.040769 0.179238 0.000000
0.153666 0.181474 0.000000
0.233988 0.165381 0.000000
0.295739 0.149331 0.000000
0.348961 0.128928 0.000000
0.405627 0.101677 0.000000
0.469130 0.047971 0.000000
0.539091 0.000000 0.000000
0.609585 0.000000 0.000000
0.695503 0.000000 0.000000
0.778725 0.000000 0.000000
0.871987 0.000000 0.000000
0.947197 0.000000 0.027184
1.000000 0.208123 0.091686
1.000000 0.324196 0.144574
1.000000 0.428180 0.212746
1.000000 0.546024 0.288812
1.000000 0.629374 0.368997
1.000000 0.717894 0.465773
1.000000 0.787517 0.554520
1.000000 0.837454 0.639717
1.000000 0.877803 0.725515
1.000000 0.909526 0.792844
1.000000 0.938374 0.839957
1.000000 0.957539 0.880224
1.000000 0.974465 0.915097
0.000000 0.196426 0.000000
0.000000 0.201525 0.000000
0.000000 0.207172 0.000000
0.000000 0.208366 0.000000
0.000000 0.211410 0.000000
0.000000 0.217798 0.000000
0.000000 0.226888 0.000000
0.000000 0.228114 0.000000
0.122913 0.227879 0.000000
0.233342 0.229618 0.000000
0.309514 0.205402 0.000000
0.368203 0.182910 0.000000
0.426243 0.171295 0.000000
0.498793 0.143295 0.000000
0.563202 0.113730 0.000000
0.633193 0.075119 0.000000
0.706997 0.000000 0.000000
0.784548 0.000000 0.000000
0.876165 0.000000 0.000000
0.947067 0.117502 0.000000
1.000000 0.227358 0.091927
1.000000 0.339775 0.142349
1.000000 0.442403 0.211270
1.000000 0.549374 0.288580
1.000000 0.632815 0.374091
1.000000 0.722982 0.465809
1.000000 0.787517 0.554520
1.000000 0.837454 0.639717
1.000000 0.877803 0.725515
1.000000 0.909526 0.792844
1.000000 0.938374 0.839957
1.000000 0.957539 0.880224
1.000000 0.974465 0.915097
0.000000 0.252992 0.000000
0.000000 0.259019 0.000000
0.000000 0.260316 0.000000
0.000000 0.261724 0.000000
0.000000 0.268465 0.000000
0.000000 0.271814 0.000000
0.000000 0.277164 0.000000
0.000000 0.278610 0.000000
0.049678 0.279529 0.000000
0.206468 0.282342 0.000000
0.311590 0.276297 0.000000
0.388233 0.251920 0.000000
0.457175 0.235707 0.000000
0.530151 0.216265 0.000000
0.595256 0.198842 0.000000
0.653445 0.179189 0.000000
0.723347 0.164430 0.000000
0.803067 0.140609 0.000000
0.880701 0.134627 0.000000
0.949185 0.187302 0.000000
1.000000 0.258377 0.086175
1.000000 0.359151 0.142813
1.000000 0.453713 0.214373
1.000000 0.556068 0.288110
1.000000 0.642304 0.373763
1.000000 0.725500 0.465831
1.000000 0.789382 0.554646
1.000000 0.838919 0.639895
1.000000 0.877803 0.725515
1.000000 0.910340 0.792967
1.000000 0.938374 0.839957
1.000000 0.957539 0.880224
1.000000 0.974465 0.915097
0.000000 0.315499 0.000000
0.000000 0.316967 0.000000
0.000000 0.322553 0.000000
0.000000 0.327859 0.000000
0.000000 0.331130 0.000000
0.000000 0.336994 0.000000
0.000000 0.338735 0.000000
0.000000 0.343009 0.000000
0.000000 0.347234 0.000000
0.152356 0.347596 0.000000
0.282211 0.345971 0.000000
0.389528 0.342026 0.000000
0.479905 0.312900 0.000000
0.565126 0.286516 0.000000
0.622628 0.273969 0.000000
0.688124 0.270131 0.000000
0.753370 0.261527 0.000000
0.824293 0.251388 0.000000
0.890890 0.246169 0.000000
0.955273 0.252201 0.000000
1.000000 0.312412 0.075340
1.000000 0.385581 0.138678
1.000000 0.474799 0.212017
1.000000 0.566588 0.287915
1.000000 0.645980 0.374267
1.000000 0.730485 0.465887
1.000000 0.793220 0.560275
1.000000 0.838919 0.639895
1.000000 0.878858 0.725685
1.000000 0.910340 0.792967
1.000000 0.938374 0.839957
1.000000 0.957539 0.880224
1.000000 0.974769 0.915164
0.000000 0.392601 0.000000
0.000000 0.393416 0.000000
0.000000 0.399767 0.000000
0.000000 0.403794 0.000000
0.000000 0.404598 0.000000
0.000000 0.408537 0.000000
0.000000 0.410217 0.000000
0.000000 0.412185 0.000000
0.000000 0.413837 0.000000
0.000000 0.415254 0.000000
0.217940 0.421597 0.000000
0.359232 0.422969 0.000000
0.489474 0.409167 0.000000
0.580028 0.388330 0.000000
0.652164 0.367001 0.000000
0.708901 0.352176 0.000000
0.766754 0.355112 0.000000
0.838494 0.351925 0.000000
0.903142 0.350899 0.000000
0.955220 0.353106 0.000000
0.999590 0.373877 0.049919
1.000000 0.419193 0.138249
1.000000 0.503471 0.209504
1.000000 0.576589 0.287186
1.000000 0.655263 0.373966
1.000000 0.736303 0.467299
1.000000 0.796883 0.560543
1.000000 0.840375 0.640076
1.000000 0.879903 0.725858
1.000000 0.911151 0.793092
1.000000 0.938959 0.840072
1.000000 0.957984 0.880307
1.000000 0.974769 0.915164
0.000000 0.475517 0.000000
0.000000 0.476420 0.000000
0.000000 0.483329 0.000000
0.000000 0.484306 0.000000
0.000000 0.488049 0.000000
0.000000 0.488984 0.000000
0.000000 0.490062 0.000000
0.000000 0.491494 0.000000
0.000000 0.492849 0.000000
0.000000 0.500640 0.000000
0.093141 0.501511 0.000000
0.318028 0.500859 0.000000
0.460123 0.498063 0.000000
0.582118 0.486889 0.000000
0.670664 0.449211 0.000000
0.739433 0.431166 0.000000
0.793330 0.431211 0.000000
0.851619 0.441816 0.000000
0.909148 0.441252 0.000000
0.957076 0.446923 0.000000
0.999144 0.457999 0.000000
1.000000 0.484842 0.132756
1.000000 0.542066 0.209069
1.000000 0.601036 0.291245
1.000000 0.671394 0.374768
1.000000 0.745940 0.470189
1.000000 0.800508 0.560823
1.000000 0.844684 0.640636
1.000000 0.882513 0.727623
1.000000 0.911151 0.793092
1.000000 0.938959 0.840072
1.000000 0.957984 0.880307
1.000000 0.974769 0.915164
0.000000 0.562287 0.000000
0.000000 0.566060 0.000000
0.000000 0.566231 0.000000
0.000000 0.566884 0.000000
0.000000 0.570543 0.000000
0.000000 0.570989 0.000000
0.000000 0.571396 0.000000
0.000000 0.572225 0.000000
0.000000 0.573430 0.000000
0.000000 0.577664 0.000000
0.000000 0.581529 0.000000
0.191851 0.581727 0.000000
0.398304 0.580242 0.000000
0.555208 0.573316 0.000000
0.664136 0.569047 0.000000
0.749333 0.541118 0.000000
0.813400 0.523932 0.000000
0.864349 0.534928 0.000000
0.909512 0.543708 0.000000
0.958339 0.544096 0.000000
0.993664 0.553255 0.000000
1.000000 0.566146 0.118831
1.000000 0.583885 0.206299
1.000000 0.628019 0.292253
1.000000 0.689053 0.376978
1.000000 0.757451 0.470526
1.000000 0.806576 0.562730
1.000000 0.848191 0.645204
1.000000 0.883538 0.727800
1.000000 0.911958 0.793218
1.000000 0.939540 0.840188
1.000000 0.957984 0.880307
1.000000 0.974769 0.915164
0.000000 0.648302 0.000000
0.000000 0.651614 0.000000
0.000000 0.651874 0.000000
0.000000 0.652129 0.000000
0.000000 0.652182 0.000000
0.000000 0.658824 0.000000
0.000000 0.659227 0.000000
0.000000 0.659575 0.000000
0.000000 0.660375 0.000000
0.000000 0.661078 0.000000
0.000000 0.664844 0.000000
0.000000 0.668242 0.000000
0.314407 0.667259 0.000000
0.488444 0.664990 0.000000
0.604257 0.665007 0.000000
0.737503 0.649971 0.000000
0.828776 0.612158 0.000000
0.874729 0.603683 0.000000
0.905092 0.627258 0.000000
0.952713 0.628823 0.000000
0.987643 0.635594 0.000000
1.000000 0.645162 0.061089
1.000000 0.655553 0.201410
1.000000 0.673254 0.292151
1.000000 0.720028 0.379874
1.000000 0.771124 0.477168
1.000000 0.815262 0.563538
1.000000 0.853674 0.646017
1.000000 0.886555 0.726244
1.000000 0.914357 0.793605
1.000000 0.939540 0.840188
1.000000 0.958427 0.880391
1.000000 0.975371 0.915299
0.000000 0.728399 0.000000
0.000000 0.728463 0.000000
0.000000 0.728589 0.000000
0.000000 0.731672 0.000000
0.000000 0.731790 0.000000
0.000000 0.731848 0.000000
0.000000 0.731907 0.000000
0.000000 0.735162 0.000000
0.000000 0.735357 0.000000
0.000000 0.738447 0.000000
0.000000 0.738412 0.000000
0.000000 0.738265 0.000000
0.192738 0.743209 0.000000
0.408380 0.744173 0.000000
0.559598 0.738246 0.000000
0.688977 0.736656 0.000000
0.798497 0.722737 0.000000
0.865311 0.695068 0.000000
0.905628 0.696047 0.000000
0.943836 0.704769 0.000000
0.978396 0.714814 0.000000
1.000000 0.720053 0.000000
1.000000 0.728184 0.185143
1.000000 0.736985 0.291824
1.000000 0.756376 0.387602
1.000000 0.789813 0.481729
1.000000 0.823992 0.565176
1.000000 0.859594 0.651045
1.000000 0.890597 0.729093
1.000000 0.915966 0.795379
1.000000 0.940695 0.840423
1.000000 0.959186 0.881375
1.000000 0.975670 0.915367
0.000000 0.806275 0.000000
0.000000 0.806128 0.000000
0.000000 0.806136 0.000000
0.000000 0.805975 0.000000
0.000000 0.805986 0.000000
0.000000 0.805989 0.000000
0.000000 0.805905 0.000000
0.000000 0.810521 0.000000
0.000000 0.810294 0.000000
0.000000 0.810206 0.000000
0.000000 0.809837 0.000000
0.000000 0.809329 0.000000
0.154249 0.810388 0.000000
0.348130 0.810755 0.000000
0.509243 0.810082 0.000000
0.637948 0.806173 0.000000
0.753548 0.801186 0.000000
0.843048 0.796890 0.000000
0.905312 0.769265 0.000000
0.938625 0.771632 0.000000
0.964909 0.782763 0.000000
0.991388 0.785574 0.000000
1.000000 0.789472 0.173720
1.000000 0.793513 0.299169
1.000000 0.801575 0.392071
1.000000 0.813211 0.485947
1.000000 0.838694 0.567780
1.000000 0.867153 0.649884
1.000000 0.894020 0.731091
1.000000 0.919296 0.796508
1.000000 0.942766 0.841884
1.000000 0.960053 0.881544
1.000000 0.976264 0.915507
0.000000 0.857885 0.000000
0.000000 0.857809 0.000000
0.000000 0.857769 0.000000
0.000000 0.857769 0.000000
0.000000 0.857664 0.000000
0.000000 0.857664 0.000000
0.000000 0.861326 0.000000
0.000000 0.861109 0.000000
0.000000 0.860837 0.000000
0.000000 0.860621 0.000000
0.000000 0.862047 0.000000
0.000000 0.861447 0.000000
0.196504 0.860497 0.000000
0.370248 0.858707 0.000000
0.512093 0.859446 0.000000
0.622056 0.856187 0.000000
0.714062 0.854258 0.000000
0.812682 0.849545 0.000000
0.883372 0.845632 0.000000
0.933330 0.823150 0.000000
0.961007 0.826007 0.000000
0.983222 0.835661 0.000000
1.000000 0.835778 0.156050
1.000000 0.840680 0.308330
1.000000 0.843452 0.404466
1.000000 0.848908 0.493592
1.000000 0.858264 0.572581
1.000000 0.878032 0.653018
1.000000 0.900934 0.733224
1.000000 0.923829 0.797366
1.000000 0.943890 0.842128
1.000000 0.961341 0.881803
1.000000 0.976850 0.915649
0.000000 0.899538 0.000000
0.000000 0.899369 0.000000
0.000000 0.899369 0.000000
0.000000 0.899283 0.000000
0.000000 0.899283 0.000000
0.000000 0.899283 0.000000
0.000000 0.899195 0.000000
0.000000 0.899105 0.000000
0.000000 0.898829 0.000000
0.000000 0.898642 0.000000
0.212514 0.900935 0.000000
0.283564 0.900308 0.000000
0.364479 0.900618 0.000000
0.459196 0.900239 0.000000
0.530546 0.901009 0.000000
0.631845 0.898044 0.000000
0.712352 0.894900 0.000000
0.792327 0.891213 0.000000
0.864773 0.887585 0.000000
0.917393 0.884403 0.000000
0.953781 0.868167 0.000000
0.977619 0.869390 0.000000
1.000000 0.875221 0.079889
1.000000 0.876490 0.294541
1.000000 0.877315 0.416101
1.000000 0.879826 0.505907
1.000000 0.883114 0.585270
1.000000 0.892672 0.661711
1.000000 0.911355 0.739048
1.000000 0.929304 0.801059
1.000000 0.947005 0.844965
1.000000 0.963450 0.882252
1.000000 0.977650 0.916575
0.386994 0.930395 0.000000
0.386994 0.930395 0.000000
0.395621 0.930261 0.000000
0.395621 0.930261 0.000000
0.395621 0.930261 0.000000
0.403656 0.931213 0.000000
0.403656 0.931213 0.000000
0.411922 0.931077 0.000000
0.420022 0.930939 0.000000
0.443426 0.930519 0.000000
0.457958 0.930170 0.000000
0.485859 0.930599 0.000000
0.512923 0.929992 0.000000
0.543803 0.930237 0.000000
0.593517 0.930761 0.000000
0.657482 0.928655 0.000000
0.711856 0.926603 0.000000
0.785456 0.924537 0.000000
0.849444 0.921484 0.000000
0.902685 0.918740 0.000000
0.942544 0.917110 0.000000
0.970201 0.906735 0.000000
0.995756 0.903418 0.000000
1.000000 0.907466 0.273010
1.000000 0.909188 0.417512
1.000000 0.910751 0.517431
1.000000 0.912927 0.608298
1.000000 0.917282 0.679855
1.000000 0.926663 0.748703
1.000000 0.937740 0.802801
1.000000 0.950760 0.845875
1.000000 0.964955 0.883415
1.000000 0.978787 0.916868
0.560034 0.955006 0.229445
0.560034 0.955006 0.229445
0.560034 0.955006 0.229445
0.560034 0.955006 0.229445
0.560034 0.955006 0.229445
0.565652 0.954856 0.229753
0.565366 0.954813 0.224204
0.565366 0.954813 0.224204
0.570979 0.956330 0.228624
0.576432 0.956180 0.228939
0.581536 0.955988 0.223791
0.591957 0.955668 0.221703
0.612014 0.955029 0.217564
0.631043 0.955218 0.215705
0.662083 0.955763 0.214757
0.698351 0.955260 0.215358
0.750396 0.953271 0.216672
0.794761 0.951344 0.208839
0.837276 0.950818 0.194396
0.886541 0.948510 0.197981
0.926349 0.946330 0.182389
0.959582 0.945161 0.176330
0.989284 0.936916 0.099763
1.000000 0.933550 0.233167
1.000000 0.936302 0.414911
1.000000 0.936522 0.524863
1.000000 0.937105 0.628858
1.000000 0.938622 0.699161
1.000000 0.941567 0.760610
1.000000 0.947401 0.808777
1.000000 0.957676 0.849843
1.000000 0.968390 0.885818
1.000000 0.980938 0.919274
0.659131 0.973782 0.364998
0.659131 0.973782 0.364998
0.659131 0.973782 0.364998
0.659131 0.973782 0.364998
0.659131 0.973782 0.364998
0.659131 0.973782 0.364998
0.663220 0.973644 0.365248
0.663220 0.973644 0.365248
0.663220 0.973644 0.365248
0.667259 0.973507 0.365499
0.671088 0.973344 0.361258
0.678924 0.973073 0.361773
0.690490 0.973925 0.366130
0.701257 0.973506 0.362523
0.721711 0.972720 0.359805
0.750102 0.972217 0.359960
0.779100 0.971630 0.360698
0.810290 0.971448 0.358284
0.846777 0.969774 0.356302
0.878710 0.968799 0.350345
0.916883 0.966306 0.346183
0.948072 0.964703 0.344679
0.982489 0.963368 0.338838
1.000000 0.957361 0.292372
1.000000 0.955155 0.374763
1.000000 0.957012 0.532857
1.000000 0.956531 0.634268
1.000000 0.956917 0.715716
1.000000 0.958214 0.773255
1.000000 0.960978 0.818936
1.000000 0.965520 0.856902
1.000000 0.973331 0.888346
1.000000 0.983585 0.920075
0.756019 0.987231 0.494219
0.756019 0.987231 0.494219
0.756019 0.987231 0.494219
0.756019 0.987231 0.494219
0.756019 0.987231 0.494219
0.756019 0.987231 0.494219
0.758832 0.987117 0.494452
0.758832 0.987117 0.494452
0.758832 0.987117 0.494452
0.761619 0.987004 0.494687
0.764383 0.986891 0.494924
0.767125 0.986778 0.495161
0.769842 0.986666 0.495400
0.777930 0.986802 0.497788
0.785675 0.986459 0.494357
0.793234 0.986128 0.493041
0.810089 0.985846 0.492471
0.830001 0.985846 0.490430
0.851811 0.985267 0.487690
0.879469 0.983946 0.487187
0.909452 0.983335 0.487340
0.942491 0.980710 0.472997
0.969196 0.979335 0.474145
0.993374 0.979279 0.471203
1.000000 0.974932 0.439904
1.000000 0.973108 0.509592
1.000000 0.974194 0.644487
1.000000 0.973345 0.728834
1.000000 0.974511 0.788123
1.000000 0.974829 0.832012
1.000000 0.977016 0.865653
1.000000 0.979810 0.892178
1.000000 0.986728 0.922389
0.812968 0.998692 0.610650
0.812968 0.998692 0.610650
0.812968 0.998692 0.610650
0.812968 0.998692 0.610650
0.812968 0.998692 0.610650
0.812968 0.998692 0.610650
0.812968 0.998692 0.610650
0.812968 0.998692 0.610650
0.815051 0.998598 0.610868
0.815051 0.998598 0.610868
0.817114 0.998504 0.611087
0.817114 0.998504 0.611087
0.819157 0.998411 0.611307
0.825165 0.998136 0.611974
0.829082 0.997954 0.610499
0.832909 0.997777 0.610956
0.842193 0.997665 0.611931
0.854357 0.997721 0.613351
0.869039 0.997322 0.613706
0.885875 0.996484 0.607666
