Assets/Lutify-Free-LUTs-Pack/Lutify Free LUTs Pack/Film Tone Pro - Film Tone 3/Lutify.me-FilmTone3-LogC3-to-Rec709.cube
# Created with: fylm.ai - Colour Grading and Collaboration Software in Cloud 
# Website: https://fylm.ai 
# META
# Option: Gamut compress
# Block 1: IDT | Arri Alexa - LogC3
# Block 2: colourMatch | Blending Mode: Normal | {"ColorSpace":0,"CrossCovarianceLimit":50,"ReshapingIterations":1,"PercentSaturationShift":100,"PercentShadingShift":100,"ExtraShading":true,"PercentTint":100,"PercentModified":100}
# Block 3: subtractiveColour | Blending Mode: Normal | {"sliders":{"gainY":0.6,"C":0.3,"M":0.3,"Y":0.3}}
# Block 4: LUT | Filmic Curve Response: Low Contrast 2 (100%)
# Block 5: logPrimaries | Blending Mode: Normal | {"wheels":{"shadows":{"Y":"0","R":"1","G":"1","B":"1"},"midtones":{"Y":"0","R":"1","G":"1","B":"1"},"highlights":{"Y":"0","R":"1","G":"1","B":"1"},"offset":{"Y":"0","R":"1","G":"1","B":"1"}},"sliders":{"shadows":{"Y":0,"R":-0.026,"G":0.03,"B":0.1},"midtones":{"Y":0,"R":0.024,"G":-0.036,"B":0.036},"highlights":{"Y":0,"R":0,"G":0.044,"B":-0.128},"offset":{"Y":0,"R":0,"G":0,"B":0}}}
# Block 6: hueSaturation | Blending Mode: Normal | {"hue":0,"saturation":-0.1}
# Block 7: ODT | Rec709
TITLE "Lutify.me-FilmTone3-LogC3-to-Rec709" 
LUT_3D_SIZE 33
0.000000 0.000000 0.000000
0.000000 0.000000 0.000000
0.000000 0.000000 0.000000
0.000000 0.000000 0.000000
0.000000 0.000000 0.000000
0.040809 0.000000 0.000000
0.072953 0.000000 0.000000
0.105619 0.000000 0.000000
0.132445 0.000000 0.000000
0.164566 0.000000 0.000000
0.201360 0.000000 0.000000
0.245876 0.000000 0.000000
0.292641 0.000000 0.000000
0.356100 0.000000 0.000000
0.418248 0.000000 0.000000
0.489345 0.000000 0.000000
0.573677 0.000000 0.000000
0.661128 0.000000 0.000000
0.740358 0.000000 0.029657
0.820048 0.000000 0.059666
0.905688 0.000000 0.091606
0.963029 0.000000 0.127730
1.000000 0.206911 0.173711
1.000000 0.326494 0.224247
1.000000 0.419476 0.285678
1.000000 0.513208 0.343115
1.000000 0.589779 0.409040
1.000000 0.667904 0.482701
1.000000 0.735603 0.546642
1.000000 0.792345 0.614265
1.000000 0.831339 0.683747
1.000000 0.868002 0.748807
1.000000 0.894255 0.790581
0.000000 0.000000 0.000000
0.000000 0.000000 0.000000
0.000000 0.000000 0.000000
0.000000 0.000000 0.000000
0.000000 0.000000 0.000000
0.048633 0.000000 0.000000
0.077908 0.000000 0.000000
0.110172 0.000000 0.000000
0.135382 0.000000 0.000000
0.169606 0.000000 0.000000
0.206833 0.000000 0.000000
0.252911 0.000000 0.000000
0.300914 0.000000 0.000000
0.364225 0.000000 0.000000
0.430979 0.000000 0.000000
0.493833 0.000000 0.000000
0.578606 0.000000 0.000000
0.669481 0.000000 0.000000
0.740995 0.000000 0.027209
0.820745 0.000000 0.060570
0.906088 0.000000 0.092868
0.962838 0.000000 0.126728
1.000000 0.216630 0.173210
1.000000 0.326494 0.224247
1.000000 0.419476 0.285678
1.000000 0.513208 0.343115
1.000000 0.589779 0.409040
1.000000 0.667904 0.482701
1.000000 0.735603 0.546642
1.000000 0.792345 0.614265
1.000000 0.831339 0.683747
1.000000 0.868002 0.748807
1.000000 0.894255 0.790581
0.000000 0.000000 0.000000
0.000000 0.000000 0.000000
0.000000 0.000000 0.000000
0.000000 0.000000 0.000000
0.000000 0.000000 0.000000
0.054847 0.000000 0.000000
0.084408 0.000000 0.000000
0.115604 0.000000 0.000000
0.141292 0.000000 0.000000
0.176076 0.000000 0.000000
0.212785 0.000000 0.000000
0.265704 0.000000 0.000000
0.309484 0.000000 0.000000
0.372601 0.000000 0.000000
0.435586 0.000000 0.000000
0.498468 0.000000 0.000000
0.583301 0.000000 0.000000
0.673934 0.000000 0.000000
0.745205 0.000000 0.024435
0.821068 0.000000 0.059630
0.906216 0.000000 0.092102
0.965438 0.031648 0.129325
1.000000 0.221268 0.173188
1.000000 0.330411 0.224005
1.000000 0.423076 0.285495
1.000000 0.516623 0.342982
1.000000 0.590308 0.409509
1.000000 0.667904 0.482701
1.000000 0.738027 0.546686
1.000000 0.792345 0.614265
1.000000 0.831339 0.683747
1.000000 0.868002 0.748807
1.000000 0.894255 0.790581
0.000000 0.000000 0.000000
0.000000 0.000000 0.000000
0.000000 0.000000 0.000000
0.000000 0.000000 0.000000
0.020704 0.000000 0.000000
0.066849 0.000000 0.000000
0.097410 0.000000 0.000000
0.122656 0.000000 0.000000
0.148735 0.000000 0.000000
0.189123 0.000000 0.000000
0.228004 0.000000 0.000000
0.275837 0.000000 0.000000
0.320462 0.000000 0.000000
0.381594 0.000000 0.000000
0.443019 0.000000 0.000000
0.509839 0.000000 0.000000
0.588418 0.000000 0.000000
0.674882 0.000000 0.000000
0.749540 0.000000 0.019873
0.825075 0.000000 0.058584
0.906296 0.000000 0.091562
0.965319 0.075198 0.128796
1.000000 0.225964 0.172923
1.000000 0.338191 0.223509
1.000000 0.430258 0.285122
1.000000 0.516623 0.342982
1.000000 0.596874 0.409335
1.000000 0.667904 0.482701
1.000000 0.738027 0.546686
1.000000 0.792345 0.614265
1.000000 0.831339 0.683747
1.000000 0.868002 0.748807
1.000000 0.894255 0.790581
0.000000 0.030878 0.000000
0.000000 0.033097 0.000000
0.000000 0.036519 0.000000
0.000000 0.041117 0.000000
0.004407 0.045138 0.000000
0.060324 0.040148 0.000000
0.099482 0.024367 0.000000
0.132747 0.000000 0.000000
0.165423 0.000000 0.000000
0.207072 0.000000 0.000000
0.245178 0.000000 0.000000
0.289907 0.000000 0.000000
0.332997 0.000000 0.000000
0.388745 0.000000 0.000000
0.447472 0.000000 0.000000
0.521092 0.000000 0.000000
0.600343 0.000000 0.000000
0.679475 0.000000 0.000000
0.750294 0.000000 0.010546
0.825516 0.000000 0.058614
0.909822 0.000000 0.094306
0.965257 0.087744 0.128522
1.000000 0.230601 0.172652
1.000000 0.338191 0.223509
1.000000 0.430258 0.285122
1.000000 0.516623 0.342982
1.000000 0.597122 0.414842
1.000000 0.667904 0.482701
1.000000 0.738027 0.546686
1.000000 0.792345 0.614265
1.000000 0.832883 0.683879
1.000000 0.868002 0.748807
1.000000 0.894255 0.790581
0.000000 0.054262 0.000000
0.000000 0.054895 0.000000
0.000000 0.056962 0.000000
0.000000 0.061090 0.000000
0.000000 0.065890 0.000000
0.061316 0.066661 0.000000
0.099702 0.058617 0.000000
0.136712 0.046799 0.000000
0.175104 0.026959 0.000000
0.220206 0.000000 0.000000
0.259524 0.000000 0.000000
0.299711 0.000000 0.000000
0.346030 0.000000 0.000000
0.398240 0.000000 0.000000
0.455429 0.000000 0.000000
0.529678 0.000000 0.000000
0.604995 0.000000 0.000000
0.684215 0.000000 0.000000
0.754497 0.000000 0.000000
0.829482 0.000000 0.057425
0.909855 0.000000 0.094025
0.967505 0.114762 0.127855
1.000000 0.235184 0.172374
1.000000 0.342054 0.223255
1.000000 0.430258 0.285122
1.000000 0.523445 0.342712
1.000000 0.597122 0.414842
1.000000 0.670876 0.482670
1.000000 0.738027 0.546686
1.000000 0.792345 0.614265
1.000000 0.832883 0.683879
1.000000 0.868002 0.748807
1.000000 0.895211 0.790686
0.000000 0.074240 0.000000
0.000000 0.075674 0.000000
0.000000 0.077055 0.000000
0.000000 0.081241 0.000000
0.000000 0.087593 0.000000
0.044344 0.089520 0.000000
0.104623 0.088146 0.000000
0.148122 0.073793 0.000000
0.191378 0.062113 0.000000
0.232636 0.037994 0.000000
0.277305 0.000000 0.000000
0.313752 0.000000 0.000000
0.358022 0.000000 0.000000
0.414671 0.000000 0.000000
0.464127 0.000000 0.000000
0.535417 0.000000 0.000000
0.610494 0.000000 0.000000
0.692609 0.000000 0.000000
0.759078 0.000000 0.000000
0.829983 0.000000 0.055253
0.909946 0.000000 0.093141
0.967430 0.122683 0.127553
1.000000 0.244203 0.171798
1.000000 0.345900 0.222996
1.000000 0.430258 0.285122
1.000000 0.523445 0.342712
1.000000 0.600403 0.414758
1.000000 0.670876 0.482670
1.000000 0.738027 0.546686
1.000000 0.792345 0.614265
1.000000 0.832883 0.683879
1.000000 0.868002 0.748807
1.000000 0.895211 0.790686
0.000000 0.097493 0.000000
0.000000 0.099153 0.000000
0.000000 0.101751 0.000000
0.000000 0.107977 0.000000
0.000000 0.113708 0.000000
0.000000 0.116723 0.000000
0.102621 0.118215 0.000000
0.153358 0.107421 0.000000
0.201903 0.097417 0.000000
0.247730 0.081271 0.000000
0.287249 0.062900 0.000000
0.331414 0.021087 0.000000
0.375907 0.000000 0.000000
0.430100 0.000000 0.000000
0.487358 0.000000 0.000000
0.542465 0.000000 0.000000
0.616191 0.000000 0.000000
0.694375 0.000000 0.000000
0.767346 0.000000 0.000000
0.837693 0.000000 0.052677
0.913083 0.000000 0.092303
0.967337 0.143964 0.129399
1.000000 0.248648 0.171500
1.000000 0.354076 0.226480
1.000000 0.433840 0.284931
1.000000 0.526852 0.342575
1.000000 0.600403 0.414758
1.000000 0.670876 0.482670
1.000000 0.740434 0.546732
1.000000 0.794206 0.614381
1.000000 0.832883 0.683879
1.000000 0.868002 0.748807
1.000000 0.895211 0.790686
0.000000 0.130056 0.000000
0.000000 0.130342 0.000000
0.000000 0.135889 0.000000
0.000000 0.141198 0.000000
0.000000 0.149581 0.000000
0.000000 0.154991 0.000000
0.068849 0.158283 0.000000
0.146095 0.159992 0.000000
0.208799 0.146774 0.000000
0.260159 0.126842 0.000000
0.303455 0.114436 0.000000
0.344422 0.100365 0.000000
0.398045 0.073089 0.000000
0.446539 0.000000 0.000000
0.505146 0.000000 0.000000
0.560721 0.000000 0.000000
0.630281 0.000000 0.000000
0.703887 0.000000 0.000000
0.772411 0.000000 0.000000
0.842059 0.000000 0.051922
0.916424 0.000000 0.092435
0.969276 0.172461 0.127925
1.000000 0.261762 0.170564
1.000000 0.357875 0.226219
1.000000 0.437808 0.285086
1.000000 0.530257 0.342437
1.000000 0.603683 0.414673
1.000000 0.673832 0.482641
1.000000 0.740434 0.546732
1.000000 0.794206 0.614381
1.000000 0.833214 0.684465
1.000000 0.868002 0.748807
1.000000 0.895211 0.790686
0.000000 0.161930 0.000000
0.000000 0.166123 0.000000
0.000000 0.172054 0.000000
0.000000 0.176415 0.000000
0.000000 0.186913 0.000000
0.000000 0.191969 0.000000
0.000000 0.194799 0.000000
0.124066 0.194783 0.000000
0.209820 0.191343 0.000000
0.278266 0.176634 0.000000
0.323178 0.160131 0.000000
0.366862 0.149382 0.000000
0.414257 0.135086 0.000000
0.467559 0.115918 0.000000
0.517390 0.094958 0.000000
0.586093 0.039135 0.000000
0.641328 0.000000 0.000000
0.710562 0.000000 0.000000
0.777954 0.000000 0.000000
0.849872 0.000000 0.045290
0.919422 0.077680 0.088784
0.971224 0.197783 0.129170
1.000000 0.274761 0.171410
1.000000 0.365432 0.225687
1.000000 0.445071 0.286928
1.000000 0.534119 0.342732
1.000000 0.603683 0.414673
1.000000 0.673832 0.482641
1.000000 0.742822 0.546781
1.000000 0.794206 0.614381
1.000000 0.833214 0.684465
1.000000 0.869188 0.748930
1.000000 0.895455 0.791147
0.000000 0.200082 0.000000
0.000000 0.205460 0.000000
0.000000 0.211608 0.000000
0.000000 0.218346 0.000000
0.000000 0.229674 0.000000
0.000000 0.231581 0.000000
0.000000 0.234432 0.000000
0.083934 0.234680 0.000000
0.189497 0.239897 0.000000
0.279464 0.228617 0.000000
0.336322 0.207823 0.000000
0.383819 0.196635 0.000000
0.433380 0.187040 0.000000
0.489142 0.169688 0.000000
0.543715 0.160484 0.000000
0.598386 0.144141 0.000000
0.653182 0.126345 0.000000
0.721324 0.101171 0.000000
0.788156 0.092381 0.000000
0.858170 0.085654 0.028552
0.925160 0.149945 0.085138
0.970587 0.221142 0.127125
1.000000 0.303945 0.172190
1.000000 0.376811 0.226760
1.000000 0.452180 0.286533
1.000000 0.537644 0.345180
1.000000 0.606961 0.414587
1.000000 0.676771 0.482614
1.000000 0.742908 0.549643
1.000000 0.796058 0.614499
1.000000 0.834795 0.687193
1.000000 0.869188 0.748930
1.000000 0.895455 0.791147
0.000000 0.246247 0.000000
0.000000 0.252820 0.000000
0.000000 0.256320 0.000000
0.000000 0.263664 0.000000
0.000000 0.271369 0.000000
0.000000 0.278745 0.000000
0.000000 0.280249 0.000000
0.000000 0.281406 0.000000
0.163724 0.283029 0.000000
0.264076 0.280624 0.000000
0.334413 0.268665 0.000000
0.396836 0.255233 0.000000
0.454001 0.242514 0.000000
0.514892 0.227713 0.000000
0.563685 0.219777 0.000000
0.618704 0.215243 0.000000
0.679513 0.203465 0.000000
0.733276 0.198778 0.000000
0.799132 0.203783 0.000000
0.865942 0.195242 0.000000
0.924752 0.213039 0.079009
0.971885 0.255981 0.128205
1.000000 0.323899 0.170756
1.000000 0.395585 0.225620
1.000000 0.466475 0.287986
1.000000 0.547819 0.344764
1.000000 0.613512 0.414416
1.000000 0.680676 0.483591
1.000000 0.747627 0.549751
1.000000 0.796058 0.614499
1.000000 0.834795 0.687193
1.000000 0.869188 0.748930
1.000000 0.895455 0.791147
0.000000 0.297963 0.000000
0.000000 0.300054 0.000000
0.000000 0.308271 0.000000
0.000000 0.314471 0.000000
0.000000 0.320597 0.000000
0.000000 0.326889 0.000000
0.000000 0.328420 0.000000
0.000000 0.334832 0.000000
0.090128 0.335583 0.000000
0.231295 0.334756 0.000000
0.316334 0.339930 0.000000
0.405885 0.323113 0.000000
0.473685 0.305746 0.000000
0.541063 0.289191 0.000000
0.585720 0.286735 0.000000
0.644448 0.279950 0.000000
0.695499 0.280827 0.000000
0.751560 0.275736 0.000000
0.812481 0.276114 0.000000
0.876451 0.284363 0.000000
0.931490 0.280311 0.059213
0.971852 0.304719 0.121459
1.000000 0.355172 0.172835
1.000000 0.414149 0.228010
1.000000 0.484438 0.287292
1.000000 0.558230 0.349602
1.000000 0.621174 0.417957
1.000000 0.689297 0.483535
1.000000 0.750773 0.550901
1.000000 0.797899 0.614620
1.000000 0.836312 0.687328
1.000000 0.870365 0.749055
1.000000 0.896403 0.791253
0.000000 0.360060 0.000000
0.000000 0.364492 0.000000
0.000000 0.374037 0.000000
0.000000 0.378238 0.000000
0.000000 0.382693 0.000000
0.000000 0.384146 0.000000
0.000000 0.386020 0.000000
0.000000 0.388113 0.000000
0.000000 0.394608 0.000000
0.162894 0.395137 0.000000
0.268581 0.400630 0.000000
0.382181 0.401401 0.000000
0.475494 0.388598 0.000000
0.557008 0.365432 0.000000
0.613122 0.354875 0.000000
0.656489 0.354373 0.000000
0.711962 0.351806 0.000000
0.771494 0.353092 0.000000
0.823886 0.352534 0.000000
0.881272 0.362717 0.000000
0.933418 0.363222 0.000000
0.974704 0.365778 0.113557
1.000000 0.392830 0.172075
1.000000 0.443570 0.229779
1.000000 0.512518 0.287835
1.000000 0.568794 0.349635
1.000000 0.630951 0.417703
1.000000 0.694960 0.483509
1.000000 0.755347 0.551031
1.000000 0.799731 0.614744
1.000000 0.836312 0.687328
1.000000 0.870365 0.749055
1.000000 0.896403 0.791253
0.000000 0.423329 0.000000
0.000000 0.427923 0.000000
0.000000 0.432640 0.000000
0.000000 0.439817 0.000000
0.000000 0.444125 0.000000
0.000000 0.445781 0.000000
0.000000 0.447497 0.000000
0.000000 0.449111 0.000000
0.000000 0.450456 0.000000
0.000000 0.454588 0.000000
0.204738 0.464084 0.000000
0.345019 0.462966 0.000000
0.453247 0.463404 0.000000
0.551985 0.446601 0.000000
0.619510 0.429898 0.000000
0.674143 0.419664 0.000000
0.724477 0.418229 0.000000
0.785297 0.417572 0.000000
0.839320 0.422259 0.000000
0.884675 0.424614 0.000000
0.934210 0.431565 0.000000
0.973205 0.435091 0.097948
1.000000 0.454633 0.163171
1.000000 0.493858 0.229374
1.000000 0.540713 0.288704
1.000000 0.585625 0.348940
1.000000 0.643878 0.417373
1.000000 0.706276 0.489196
1.000000 0.759926 0.554032
1.000000 0.802240 0.616064
1.000000 0.837820 0.687465
1.000000 0.871531 0.749181
1.000000 0.897346 0.791361
0.000000 0.499689 0.000000
0.000000 0.501024 0.000000
0.000000 0.505438 0.000000
0.000000 0.509732 0.000000
0.000000 0.513906 0.000000
0.000000 0.514922 0.000000
0.000000 0.516153 0.000000
0.000000 0.517372 0.000000
0.000000 0.521941 0.000000
0.000000 0.523043 0.000000
0.000000 0.530090 0.000000
0.274126 0.529829 0.000000
0.404543 0.531469 0.000000
0.523837 0.528359 0.000000
0.611920 0.514927 0.000000
0.679987 0.508079 0.000000
0.737866 0.499005 0.000000
0.790581 0.500293 0.000000
0.850411 0.506350 0.000000
0.893100 0.506701 0.000000
0.931150 0.515181 0.000000
0.968062 0.520376 0.062392
0.997910 0.529342 0.155034
1.000000 0.547044 0.224449
1.000000 0.575977 0.291913
1.000000 0.606145 0.348542
1.000000 0.660098 0.417487
1.000000 0.720143 0.489756
1.000000 0.766523 0.554274
1.000000 0.805893 0.619133
1.000000 0.842282 0.687890
1.000000 0.872687 0.749310
1.000000 0.898286 0.791470
0.000000 0.568022 0.000000
0.000000 0.571916 0.000000
0.000000 0.572787 0.000000
0.000000 0.576843 0.000000
0.000000 0.577482 0.000000
0.000000 0.584447 0.000000
0.000000 0.585135 0.000000
0.000000 0.586219 0.000000
0.000000 0.587303 0.000000
0.000000 0.591438 0.000000
0.000000 0.598584 0.000000
0.100443 0.598873 0.000000
0.336317 0.601457 0.000000
0.465919 0.599737 0.000000
0.576291 0.603610 0.000000
0.659780 0.600678 0.000000
0.738487 0.580212 0.000000
0.800050 0.569144 0.000000
0.850797 0.573504 0.000000
0.895665 0.574782 0.000000
0.931966 0.581118 0.000000
0.964208 0.589787 0.000000
0.995341 0.589591 0.154595
1.000000 0.599499 0.223225
1.000000 0.620781 0.289479
1.000000 0.640314 0.350772
1.000000 0.681819 0.417571
1.000000 0.733199 0.492753
1.000000 0.775442 0.558059
1.000000 0.812949 0.619687
1.000000 0.845204 0.688186
1.000000 0.874088 0.749955
1.000000 0.899222 0.791580
0.000000 0.638065 0.000000
0.000000 0.645024 0.000000
0.000000 0.645476 0.000000
0.000000 0.649053 0.000000
0.000000 0.649482 0.000000
0.000000 0.649734 0.000000
0.000000 0.653397 0.000000
0.000000 0.654095 0.000000
0.000000 0.654870 0.000000
0.000000 0.655704 0.000000
0.000000 0.663077 0.000000
0.000000 0.666555 0.000000
0.229074 0.669668 0.000000
0.385630 0.668824 0.000000
0.515856 0.670372 0.000000
0.632044 0.667720 0.000000
0.722204 0.671210 0.000000
0.787501 0.655268 0.000000
0.845064 0.653266 0.000000
0.886378 0.652522 0.000000
0.927828 0.645987 0.000000
0.958082 0.658404 0.000000
0.983817 0.667671 0.125944
1.000000 0.664419 0.222840
1.000000 0.678013 0.299908
1.000000 0.691650 0.361050
1.000000 0.716936 0.421071
1.000000 0.753290 0.496552
1.000000 0.785584 0.558619
1.000000 0.818548 0.626337
1.000000 0.850060 0.689815
1.000000 0.876338 0.750223
1.000000 0.901110 0.793482
0.000000 0.709170 0.000000
0.000000 0.712675 0.000000
0.000000 0.712904 0.000000
0.000000 0.713273 0.000000
0.000000 0.713555 0.000000
0.000000 0.716920 0.000000
0.000000 0.717179 0.000000
0.000000 0.720676 0.000000
0.000000 0.721051 0.000000
0.000000 0.724640 0.000000
0.000000 0.727993 0.000000
0.000000 0.731010 0.000000
0.113455 0.730808 0.000000
0.316178 0.733233 0.000000
0.451078 0.731921 0.000000
0.579743 0.732484 0.000000
0.693594 0.732461 0.000000
0.785622 0.729454 0.000000
0.840387 0.715657 0.000000
0.881669 0.714977 0.000000
0.922604 0.715258 0.000000
0.951788 0.715130 0.000000
0.974985 0.723311 0.114861
0.995731 0.728165 0.213552
1.000000 0.731535 0.309684
1.000000 0.740178 0.370513
1.000000 0.756420 0.433935
1.000000 0.778798 0.507239
1.000000 0.797749 0.568523
1.000000 0.825335 0.629770
1.000000 0.855606 0.690468
1.000000 0.880715 0.750785
1.000000 0.902980 0.795376
0.000000 0.778085 0.000000
0.000000 0.777941 0.000000
0.000000 0.778072 0.000000
0.000000 0.778195 0.000000
0.000000 0.780925 0.000000
0.000000 0.781069 0.000000
0.000000 0.781223 0.000000
0.000000 0.781141 0.000000
0.000000 0.783915 0.000000
0.000000 0.783990 0.000000
0.000000 0.786576 0.000000
0.000000 0.788996 0.000000
0.000000 0.788334 0.000000
0.298261 0.787373 0.000000
0.422840 0.791072 0.000000
0.539569 0.793849 0.000000
0.653874 0.791022 0.000000
0.747446 0.790572 0.000000
0.828838 0.788000 0.000000
0.872774 0.779009 0.000000
0.915784 0.772952 0.000000
0.942691 0.778415 0.000000
0.967521 0.777965 0.070526
0.985915 0.783922 0.212483
1.000000 0.784092 0.321466
1.000000 0.787934 0.382053
1.000000 0.794447 0.445694
1.000000 0.805400 0.515982
1.000000 0.818494 0.571376
1.000000 0.837234 0.634967
1.000000 0.862569 0.694442
1.000000 0.884400 0.754328
1.000000 0.906152 0.798260
0.000000 0.832849 0.000000
0.000000 0.832840 0.000000
0.000000 0.832826 0.000000
0.000000 0.832816 0.000000
0.000000 0.832794 0.000000
0.000000 0.832752 0.000000
0.000000 0.832880 0.000000
0.000000 0.832802 0.000000
0.000000 0.832731 0.000000
0.000000 0.834530 0.000000
0.000000 0.834272 0.000000
0.000000 0.835872 0.000000
0.000000 0.837205 0.000000
0.276220 0.838045 0.000000
0.412973 0.836521 0.000000
0.530921 0.838117 0.000000
0.630921 0.839339 0.000000
0.715818 0.836695 0.000000
0.798353 0.833808 0.000000
0.856418 0.834163 0.000000
0.905058 0.828198 0.000000
0.935951 0.822523 0.000000
0.959826 0.825756 0.000000
0.980715 0.822981 0.209830
0.998908 0.824351 0.319362
1.000000 0.827376 0.385959
1.000000 0.827403 0.456825
1.000000 0.834925 0.529547
1.000000 0.842804 0.587248
1.000000 0.855429 0.638039
1.000000 0.870646 0.699203
1.000000 0.889623 0.755080
1.000000 0.910568 0.798851
0.000000 0.872157 0.000000
0.000000 0.872116 0.000000
0.000000 0.872029 0.000000
0.000000 0.871984 0.000000
0.000000 0.871937 0.000000
0.000000 0.871841 0.000000
0.000000 0.871739 0.000000
0.000000 0.871686 0.000000
0.000000 0.871521 0.000000
0.000000 0.871281 0.000000
0.000000 0.870952 0.000000
0.000000 0.872263 0.000000
0.133842 0.873328 0.000000
0.315933 0.875566 0.000000
0.435497 0.875501 0.000000
0.543022 0.873180 0.000000
0.612218 0.871333 0.000000
0.697862 0.871982 0.000000
0.777711 0.870694 0.000000
0.840485 0.868412 0.000000
0.898210 0.866603 0.000000
0.927107 0.864033 0.000000
0.954067 0.860004 0.000000
0.974029 0.862558 0.204013
0.994065 0.856952 0.313702
1.000000 0.859498 0.401424
1.000000 0.861843 0.463071
1.000000 0.861956 0.544113
1.000000 0.866865 0.598808
1.000000 0.873405 0.648636
1.000000 0.883842 0.707472
1.000000 0.896911 0.756714
1.000000 0.916753 0.801795
0.000000 0.904703 0.000000
0.000000 0.904703 0.000000
0.000000 0.904623 0.000000
0.000000 0.904458 0.000000
0.000000 0.904373 0.000000
0.000000 0.904373 0.000000
0.000000 0.904288 0.000000
0.000000 0.904023 0.000000
0.000000 0.903932 0.000000
0.000000 0.903562 0.000000
0.148859 0.903169 0.000000
0.245395 0.902647 0.000000
0.317762 0.903368 0.000000
0.409841 0.902134 0.000000
0.483640 0.902132 0.000000
0.564264 0.903971 0.000000
0.629456 0.902017 0.000000
0.699056 0.899803 0.000000
0.765333 0.901142 0.000000
0.828531 0.898826 0.000000
0.879694 0.896710 0.000000
0.921111 0.896379 0.000000
0.948828 0.891770 0.000000
0.969347 0.887284 0.176509
0.987629 0.888869 0.310501
1.000000 0.884302 0.402155
1.000000 0.886146 0.481765
1.000000 0.889194 0.548760
1.000000 0.888303 0.611892
1.000000 0.892425 0.665878
1.000000 0.900017 0.720848
1.000000 0.908846 0.765714
1.000000 0.923604 0.805344
0.258405 0.928534 0.100551
0.258405 0.928534 0.100551
0.271933 0.928416 0.101096
0.284679 0.928298 0.101643
0.284679 0.928298 0.101643
0.296769 0.928177 0.102187
0.308297 0.928056 0.102733
0.319338 0.927933 0.103276
0.339681 0.927618 0.091088
0.359202 0.927364 0.092373
0.395109 0.926838 0.094915
0.419925 0.926430 0.096804
0.458292 0.925723 0.099921
0.500616 0.924832 0.103630
0.538362 0.927227 0.115457
0.590177 0.926924 0.123148
0.654820 0.925951 0.123653
0.709908 0.925118 0.134367
0.769578 0.922841 0.141504
0.816228 0.922022 0.155123
0.864843 0.922164 0.183661
0.905775 0.920468 0.199771
0.938952 0.919170 0.217686
0.963698 0.916246 0.231524
0.984292 0.913336 0.296846
0.999276 0.913498 0.404452
1.000000 0.909656 0.489401
1.000000 0.912154 0.562801
1.000000 0.913908 0.622223
1.000000 0.914203 0.685036
1.000000 0.918479 0.729716
1.000000 0.925750 0.774584
1.000000 0.932866 0.810667
0.459295 0.949869 0.254273
0.459295 0.949869 0.254273
0.466588 0.949722 0.254528
0.466588 0.949722 0.254528
0.466588 0.949722 0.254528
0.473758 0.949574 0.254786
0.473758 0.949574 0.254786
0.480795 0.949426 0.255044
0.494498 0.949128 0.255566
0.501174 0.948978 0.255827
0.514493 0.948725 0.262099
0.533252 0.948272 0.262893
0.545291 0.947970 0.263429
0.568015 0.948227 0.260380
0.595101 0.947470 0.261795
0.634319 0.947997 0.258957
0.674225 0.947544 0.260687
0.724412 0.946629 0.266777
0.772960 0.945651 0.276686
0.815182 0.943892 0.280189
0.855646 0.942960 0.284517
0.892802 0.941403 0.299244
0.925790 0.941688 0.316842
0.952773 0.940692 0.341071
0.976907 0.939736 0.350774
0.996329 0.935665 0.409780
1.000000 0.936458 0.505383
1.000000 0.933982 0.575184
1.000000 0.935193 0.645509
1.000000 0.935742 0.692772
1.000000 0.936029 0.742613
1.000000 0.939596 0.783509
1.000000 0.943324 0.815556
0.567365 0.966665 0.365148
0.572746 0.966518 0.365370
0.572746 0.966518 0.365370
0.572746 0.966518 0.365370
0.572746 0.966518 0.365370
0.578054 0.966370 0.365592
0.578054 0.966370 0.365592
0.583292 0.966223 0.365816
0.583292 0.966223 0.365816
0.588462 0.966075 0.366040
0.593563 0.965928 0.366266
0.603569 0.965634 0.366721
0.618105 0.965195 0.367412
0.632098 0.964759 0.368114
0.654326 0.964753 0.370762
0.675039 0.964034 0.369508
0.705518 0.964339 0.372063
0.742494 0.963625 0.374132
0.781387 0.962756 0.379438
0.815615 0.962684 0.388896
