Assets/Lutify-Free-LUTs-Pack/Lutify Free LUTs Pack/Film Tone Pro - Film Tone 3/Lutify.me-FilmTone3-SLog1-to-Rec709.cube
# Created with: fylm.ai - Colour Grading and Collaboration Software in Cloud 
# Website: https://fylm.ai 
# META
# Option: Gamut compress
# Block 1: IDT | Sony S-Log S-Gamut 10-bit
# Block 2: colourMatch | Blending Mode: Normal | {"ColorSpace":0,"CrossCovarianceLimit":50,"ReshapingIterations":1,"PercentSaturationShift":100,"PercentShadingShift":100,"ExtraShading":true,"PercentTint":100,"PercentModified":100}
# Block 3: subtractiveColour | Blending Mode: Normal | {"sliders":{"gainY":0.6,"C":0.3,"M":0.3,"Y":0.3}}
# Block 4: LUT | Filmic Curve Response: Low Contrast 2 (100%)
# Block 5: logPrimaries | Blending Mode: Normal | {"wheels":{"shadows":{"Y":"0","R":"1","G":"1","B":"1"},"midtones":{"Y":"0","R":"1","G":"1","B":"1"},"highlights":{"Y":"0","R":"1","G":"1","B":"1"},"offset":{"Y":"0","R":"1","G":"1","B":"1"}},"sliders":{"shadows":{"Y":0,"R":-0.026,"G":0.03,"B":0.1},"midtones":{"Y":0,"R":0.024,"G":-0.036,"B":0.036},"highlights":{"Y":0,"R":0,"G":0.044,"B":-0.128},"offset":{"Y":0,"R":0,"G":0,"B":0}}}
# Block 6: hueSaturation | Blending Mode: Normal | {"hue":0,"saturation":-0.1}
# Block 7: ODT | Rec709
TITLE "Lutify.me-FilmTone3-SLog1-to-Rec709" 
LUT_3D_SIZE 5
0.000000 0.000000 0.000000
0.175736 0.000000 0.000000
0.503177 0.000000 0.000000
0.949751 0.000000 0.104714
1.000000 0.492929 0.389748
0.000000 0.155614 0.000000
0.259253 0.166970 0.000000
0.581330 0.000000 0.000000
0.959183 0.000000 0.108280
1.000000 0.514228 0.392930
0.000000 0.464995 0.000000
0.000000 0.532420 0.000000
0.661938 0.524099 0.000000
0.973187 0.409260 0.094328
1.000000 0.574917 0.405792
0.000000 0.845277 0.238270
0.000000 0.859972 0.212771
0.000000 0.873540 0.184561
0.919089 0.851425 0.126451
1.000000 0.802090 0.466931
0.000000 0.988234 0.670668
0.000000 0.987505 0.671887
0.175064 0.986228 0.659886
0.768165 0.978459 0.654379
0.992523 0.968453 0.655239
0.000000 0.000000 0.093193
0.167885 0.000000 0.046360
0.509831 0.000000 0.065046
0.951401 0.000000 0.153184
1.000000 0.493688 0.405595
0.000000 0.133546 0.242592
0.175680 0.205334 0.216261
0.580463 0.000000 0.105881
0.957514 0.000000 0.156860
1.000000 0.510411 0.410622
0.000000 0.486183 0.238257
0.000000 0.556840 0.163836
0.643986 0.581957 0.104110
0.974632 0.418871 0.187490
1.000000 0.575787 0.424785
0.000000 0.852467 0.329464
0.000000 0.859949 0.319001
0.000000 0.875425 0.300210
0.911565 0.860499 0.263405
1.000000 0.804453 0.484224
0.000000 0.989583 0.685314
0.000000 0.988792 0.686602
0.173649 0.986261 0.678962
0.765107 0.978602 0.669883
0.991585 0.969579 0.670550
0.000000 0.000000 0.244604
0.105802 0.000000 0.211059
0.459558 0.000000 0.117916
0.956198 0.000000 0.324118
1.000000 0.485465 0.476496
0.000000 0.037388 0.418327
0.000000 0.073878 0.395510
0.594371 0.000000 0.338761
0.965337 0.000000 0.347923
1.000000 0.509342 0.476678
0.000000 0.396761 0.618412
0.000000 0.533994 0.583066
0.588174 0.601614 0.575505
0.966628 0.420453 0.424709
1.000000 0.578202 0.494767
0.000000 0.855541 0.604573
0.000000 0.865898 0.595383
0.000000 0.881575 0.574819
0.898267 0.873092 0.562124
1.000000 0.808249 0.566212
0.000000 0.990099 0.735909
0.000000 0.989938 0.737424
0.000000 0.986691 0.727480
0.758482 0.980007 0.725328
0.988208 0.971868 0.723132
0.000000 0.000000 0.598333
0.000000 0.000000 0.602296
0.473662 0.000000 0.594162
0.904168 0.000000 0.452153
1.000000 0.469312 0.679865
0.000000 0.094410 0.659152
0.000000 0.109274 0.662416
0.465968 0.000000 0.662303
0.947998 0.000000 0.573265
1.000000 0.487000 0.686310
0.000000 0.305407 0.758925
0.000000 0.332831 0.764361
0.369037 0.380038 0.767291
0.984668 0.227188 0.722721
1.000000 0.579067 0.704812
0.000000 0.750433 0.857123
0.000000 0.828531 0.844039
0.000000 0.877491 0.844981
0.862386 0.878085 0.842201
1.000000 0.807860 0.759733
0.000000 0.992220 0.858777
0.000000 0.991960 0.859648
0.000000 0.989356 0.856205
0.742139 0.981417 0.848223
0.976481 0.975540 0.844307
0.000000 0.252005 0.884220
0.000000 0.252910 0.883410
0.365753 0.251141 0.882243
0.914159 0.000000 0.875884
1.000000 0.000000 0.806560
0.000000 0.289118 0.892552
0.000000 0.288664 0.893404
0.340093 0.294438 0.888867
0.911816 0.171988 0.882841
1.000000 0.000000 0.821911
0.000000 0.393080 0.906475
0.000000 0.402620 0.906997
0.246290 0.422203 0.906887
0.884153 0.385033 0.901542
1.000000 0.288658 0.861406
0.000000 0.695598 0.931452
0.000000 0.710568 0.930459
0.000000 0.728581 0.929003
0.765894 0.750654 0.924855
1.000000 0.719579 0.904870
0.000000 0.963706 0.958111
0.000000 0.976929 0.956945
0.000000 0.985681 0.957115
0.656365 0.981755 0.954116
0.962721 0.977789 0.948379
