Assets/Lutify-Free-LUTs-Pack/Lutify Free LUTs Pack/Film Tone Pro - Film Tone 3/Lutify.me-FilmTone3-DWG-to-DWG.cube
# Created with: fylm.ai - Colour Grading and Collaboration Software in Cloud 
# Website: https://fylm.ai 
# META
# Option: Gamut compress
# Block 2: colourMatch | Blending Mode: Normal | {"ColorSpace":0,"CrossCovarianceLimit":50,"ReshapingIterations":1,"PercentSaturationShift":100,"PercentShadingShift":100,"ExtraShading":true,"PercentTint":100,"PercentModified":100}
# Block 3: subtractiveColour | Blending Mode: Normal | {"sliders":{"gainY":0.6,"C":0.3,"M":0.3,"Y":0.3}}
# Block 4: LUT | Filmic Curve Response: Low Contrast 2 (100%)
# Block 5: logPrimaries | Blending Mode: Normal | {"wheels":{"shadows":{"Y":"0","R":"1","G":"1","B":"1"},"midtones":{"Y":"0","R":"1","G":"1","B":"1"},"highlights":{"Y":"0","R":"1","G":"1","B":"1"},"offset":{"Y":"0","R":"1","G":"1","B":"1"}},"sliders":{"shadows":{"Y":0,"R":-0.026,"G":0.03,"B":0.1},"midtones":{"Y":0,"R":0.024,"G":-0.036,"B":0.036},"highlights":{"Y":0,"R":0,"G":0.044,"B":-0.128},"offset":{"Y":0,"R":0,"G":0,"B":0}}}
# Block 6: hueSaturation | Blending Mode: Normal | {"hue":0,"saturation":-0.1}
TITLE "dwg" 
LUT_3D_SIZE 5
-0.016000 -0.002293 0.006450
0.206157 0.014391 0.035436
0.430813 0.170744 0.183250
0.635040 0.393139 0.379916
0.905585 0.622559 0.643568
0.006218 0.205368 0.053320
0.272874 0.226597 0.106559
0.441278 0.211658 0.194362
0.635087 0.397567 0.380151
0.907883 0.623683 0.645533
0.187394 0.412988 0.201130
0.264144 0.420253 0.213935
0.498372 0.417958 0.282608
0.646907 0.428857 0.390374
0.907968 0.626468 0.645639
0.428129 0.608213 0.387652
0.442796 0.607737 0.388922
0.510377 0.609808 0.400989
0.721282 0.599083 0.483244
0.918639 0.658834 0.655276
0.664820 0.857333 0.632995
0.665873 0.857380 0.633137
0.675347 0.857807 0.634413
0.751333 0.867132 0.653038
1.027754 0.845962 0.772635
-0.009417 0.031057 0.133483
0.193805 0.028743 0.105011
0.429042 0.175420 0.205265
0.636790 0.394974 0.386074
0.905670 0.622685 0.643804
0.065502 0.223057 0.269025
0.253203 0.264916 0.269325
0.439397 0.222961 0.217653
0.637006 0.400276 0.386659
0.905670 0.622685 0.643804
0.174593 0.426732 0.257472
0.242796 0.432814 0.257307
0.485333 0.430715 0.281327
0.647576 0.434238 0.395564
0.908095 0.626657 0.645994
0.409306 0.621898 0.401658
0.416036 0.622872 0.402570
0.483251 0.614242 0.399864
0.721282 0.599083 0.483244
0.918892 0.659144 0.655834
0.629201 0.875412 0.646833
0.635607 0.872229 0.644318
0.675347 0.857807 0.634413
0.751333 0.867132 0.653038
1.027754 0.845962 0.772635
0.039175 0.093755 0.225838
0.145305 0.095418 0.221212
0.394749 0.114371 0.204963
0.637228 0.402684 0.427130
0.903440 0.624572 0.645029
0.122819 0.208376 0.349908
0.164767 0.207369 0.344108
0.408821 0.179923 0.298620
0.638744 0.407619 0.429364
0.903440 0.624572 0.645029
0.224232 0.415055 0.461589
0.244587 0.445073 0.461512
0.478464 0.480007 0.469492
0.650394 0.448291 0.442080
0.905907 0.628552 0.647205
0.410098 0.641287 0.481842
0.415476 0.642575 0.481857
0.468466 0.649100 0.483944
0.687533 0.649354 0.490574
0.920712 0.661528 0.660381
0.619518 0.907353 0.681998
0.620381 0.907397 0.682072
0.627608 0.909777 0.684100
0.678294 0.900530 0.673899
1.027754 0.845962 0.772635
0.188848 0.188530 0.335423
0.220633 0.190733 0.336933
0.376390 0.206547 0.345467
0.564322 0.245116 0.344343
0.904502 0.626397 0.662166
0.187706 0.188412 0.335322
0.220633 0.190733 0.336933
0.374256 0.206134 0.345195
0.564322 0.245116 0.344343
0.904502 0.626397 0.662166
0.295081 0.397832 0.529212
0.303553 0.400928 0.529740
0.390250 0.410342 0.532966
0.609516 0.386473 0.506541
0.904844 0.630516 0.663079
0.409098 0.588496 0.655659
0.400077 0.612044 0.643051
0.455078 0.650449 0.645927
0.674821 0.693267 0.652258
0.917795 0.668652 0.677199
0.621377 0.924390 0.723735
0.622110 0.924433 0.723794
0.628576 0.925836 0.724432
0.677210 0.935925 0.731832
0.966884 0.940284 0.773767
0.398208 0.288014 0.438492
0.402191 0.288549 0.438848
0.432976 0.293200 0.441885
0.540177 0.299415 0.434485
0.769756 0.426159 0.518019
0.398208 0.288014 0.438492
0.402191 0.288549 0.438848
0.432976 0.293200 0.441885
0.540177 0.299415 0.434485
0.769756 0.426159 0.518019
0.398208 0.288014 0.438492
0.402191 0.288549 0.438848
0.432976 0.293200 0.441885
0.540177 0.299415 0.434485
0.769756 0.426159 0.518019
0.520989 0.617816 0.750082
0.521994 0.618333 0.750307
0.530786 0.618950 0.749719
0.595645 0.623830 0.748680
0.867271 0.610720 0.720868
0.678779 0.821828 0.928306
0.659680 0.834346 0.908224
0.658407 0.886296 0.900508
0.693725 0.928385 0.900787
0.936948 0.979853 0.905487
