Assets/Lutify-Free-LUTs-Pack/Lutify Free LUTs Pack/Film Tone Pro - Film Tone 3/Lutify.me-FilmTone3-SLog3-to-Rec709.cube
# Created with: fylm.ai - Colour Grading and Collaboration Software in Cloud 
# Website: https://fylm.ai 
# META
# Option: Gamut compress
# Block 1: IDT | Sony S-Log3 S-Gamut3
# Block 2: colourMatch | Blending Mode: Normal | {"ColorSpace":0,"CrossCovarianceLimit":50,"ReshapingIterations":1,"PercentSaturationShift":100,"PercentShadingShift":100,"ExtraShading":true,"PercentTint":100,"PercentModified":100}
# Block 3: subtractiveColour | Blending Mode: Normal | {"sliders":{"gainY":0.6,"C":0.3,"M":0.3,"Y":0.3}}
# Block 4: LUT | Filmic Curve Response: Low Contrast 2 (100%)
# Block 5: logPrimaries | Blending Mode: Normal | {"wheels":{"shadows":{"Y":"0","R":"1","G":"1","B":"1"},"midtones":{"Y":"0","R":"1","G":"1","B":"1"},"highlights":{"Y":"0","R":"1","G":"1","B":"1"},"offset":{"Y":"0","R":"1","G":"1","B":"1"}},"sliders":{"shadows":{"Y":0,"R":-0.026,"G":0.03,"B":0.1},"midtones":{"Y":0,"R":0.024,"G":-0.036,"B":0.036},"highlights":{"Y":0,"R":0,"G":0.044,"B":-0.128},"offset":{"Y":0,"R":0,"G":0,"B":0}}}
# Block 6: hueSaturation | Blending Mode: Normal | {"hue":0,"saturation":-0.1}
# Block 7: ODT | Rec709
TITLE "Lutify.me-FilmTone3-SLog3-to-Rec709" 
LUT_3D_SIZE 9
0.000000 0.000000 0.000000
0.000000 0.000000 0.000000
0.129601 0.000000 0.000000
0.277903 0.000000 0.000000
0.522159 0.000000 0.000000
0.840424 0.000000 0.061819
1.000000 0.161378 0.212594
1.000000 0.577438 0.457195
1.000000 0.823341 0.707765
0.000000 0.019379 0.000000
0.000000 0.025587 0.000000
0.141301 0.000000 0.000000
0.298050 0.000000 0.000000
0.540709 0.000000 0.000000
0.849329 0.000000 0.061733
1.000000 0.185809 0.213944
1.000000 0.577438 0.457195
1.000000 0.823341 0.707765
0.000000 0.108366 0.000000
0.000000 0.119107 0.000000
0.166956 0.117069 0.000000
0.350895 0.000000 0.000000
0.562233 0.000000 0.000000
0.859145 0.000000 0.061113
1.000000 0.212498 0.214809
1.000000 0.580594 0.457142
1.000000 0.823341 0.707765
0.000000 0.248067 0.000000
0.000000 0.268367 0.000000
0.000000 0.297682 0.000000
0.402921 0.276185 0.000000
0.642454 0.177077 0.000000
0.884865 0.000000 0.063330
1.000000 0.269731 0.219935
1.000000 0.594174 0.462956
1.000000 0.824883 0.710253
0.000000 0.488829 0.000000
0.000000 0.510430 0.000000
0.000000 0.531121 0.000000
0.000000 0.564690 0.000000
0.668831 0.539049 0.000000
0.911067 0.472914 0.000000
1.000000 0.424213 0.237895
1.000000 0.629826 0.471209
1.000000 0.833183 0.716739
0.000000 0.775073 0.085660
0.000000 0.785515 0.046574
0.000000 0.790099 0.000000
0.000000 0.801954 0.000000
0.368901 0.812992 0.000000
0.872925 0.790468 0.000000
0.999846 0.747200 0.268286
1.000000 0.732247 0.486810
1.000000 0.847602 0.725363
0.000000 0.930317 0.449418
0.000000 0.930271 0.447360
0.000000 0.931303 0.446244
0.000000 0.933861 0.439302
0.000000 0.932815 0.429053
0.733722 0.928026 0.419348
0.957759 0.916590 0.407227
1.000000 0.894381 0.575134
1.000000 0.888125 0.752221
0.000000 0.996244 0.722732
0.000000 0.997091 0.724015
0.000000 0.996666 0.719686
0.259622 0.997042 0.720140
0.463153 0.995050 0.721569
0.673813 0.990656 0.717159
0.886609 0.984871 0.713782
0.997337 0.978830 0.719857
1.000000 0.967306 0.810928
0.750999 1.000000 0.880705
0.750999 1.000000 0.880705
0.752898 1.000000 0.880750
0.758546 1.000000 0.880882
0.773217 1.000000 0.880324
0.804719 1.000000 0.879714
0.866167 1.000000 0.879287
0.960114 1.000000 0.882833
1.000000 1.000000 0.893637
0.000000 0.000000 0.000000
0.000000 0.000000 0.000000
0.123836 0.000000 0.000000
0.268043 0.000000 0.000000
0.522164 0.000000 0.020851
0.843108 0.000000 0.079043
1.000000 0.174520 0.218886
1.000000 0.574524 0.462748
1.000000 0.823396 0.710156
0.000000 0.000000 0.027350
0.000000 0.011044 0.021326
0.133143 0.000000 0.000000
0.288614 0.000000 0.000000
0.538005 0.000000 0.023893
0.851944 0.000000 0.079706
1.000000 0.186424 0.221955
1.000000 0.577681 0.462698
1.000000 0.823396 0.710156
0.000000 0.104377 0.008188
0.000000 0.113224 0.000000
0.140734 0.126798 0.000000
0.339917 0.000000 0.000000
0.563690 0.000000 0.022483
0.858413 0.000000 0.082565
1.000000 0.213197 0.221515
1.000000 0.580837 0.462647
1.000000 0.823396 0.710156
0.000000 0.254893 0.000000
0.000000 0.273994 0.000000
0.000000 0.301167 0.000000
0.373948 0.297702 0.000000
0.639063 0.196861 0.000000
0.883581 0.000000 0.085398
1.000000 0.270508 0.228672
1.000000 0.594295 0.465719
1.000000 0.824883 0.710253
0.000000 0.504935 0.000000
0.000000 0.520693 0.000000
0.000000 0.534967 0.000000
0.000000 0.571471 0.000000
0.664244 0.556222 0.000000
0.911876 0.478862 0.000000
1.000000 0.424752 0.245997
1.000000 0.629946 0.474000
1.000000 0.833183 0.716739
0.000000 0.776232 0.152593
0.000000 0.784159 0.142631
0.000000 0.793831 0.116488
0.000000 0.803324 0.100064
0.363320 0.814408 0.000000
0.870535 0.794369 0.000000
1.000000 0.745160 0.284985
1.000000 0.732434 0.492482
1.000000 0.847602 0.725363
0.000000 0.930446 0.462023
0.000000 0.930404 0.459816
0.000000 0.931398 0.455660
0.000000 0.934019 0.451608
0.000000 0.934111 0.441792
0.733793 0.928125 0.431070
0.957261 0.917718 0.415954
1.000000 0.893358 0.582904
1.000000 0.888125 0.752221
0.000000 0.996246 0.725111
0.000000 0.997093 0.726374
0.000000 0.996670 0.724435
0.259580 0.997044 0.722495
0.463147 0.995050 0.723892
0.673782 0.990657 0.719458
0.886488 0.984878 0.718128
0.997266 0.978836 0.721774
1.000000 0.967306 0.810928
0.750999 1.000000 0.880705
0.750999 1.000000 0.880705
0.752898 1.000000 0.880750
0.758546 1.000000 0.880882
0.773240 1.000000 0.881239
0.804719 1.000000 0.879714
0.866167 1.000000 0.879287
0.960114 1.000000 0.882833
1.000000 1.000000 0.893637
0.000000 0.000000 0.063147
0.000000 0.000000 0.053915
0.116208 0.000000 0.040434
0.264287 0.000000 0.036586
0.520526 0.000000 0.049075
0.846583 0.000000 0.100234
1.000000 0.175973 0.233871
1.000000 0.574646 0.465508
1.000000 0.821901 0.710060
0.000000 0.000000 0.084699
0.000000 0.000000 0.075276
0.117996 0.000000 0.059780
0.288199 0.000000 0.053477
0.540797 0.000000 0.054698
0.855846 0.000000 0.105370
1.000000 0.187603 0.235385
1.000000 0.577802 0.465459
1.000000 0.823396 0.710156
0.000000 0.092363 0.160859
0.000000 0.106404 0.150973
0.115798 0.132215 0.139665
0.332782 0.000000 0.082468
0.566167 0.000000 0.060732
0.861811 0.000000 0.107924
1.000000 0.214581 0.238585
1.000000 0.581080 0.468179
1.000000 0.823396 0.710156
0.000000 0.265746 0.174014
0.000000 0.284024 0.149308
0.000000 0.314243 0.121942
0.363230 0.322927 0.093151
0.641849 0.194749 0.061468
0.883043 0.000000 0.112847
1.000000 0.276198 0.244815
1.000000 0.594536 0.471266
1.000000 0.824992 0.715003
0.000000 0.502464 0.134819
0.000000 0.524589 0.099667
0.000000 0.548094 0.058987
0.000000 0.585958 0.000000
0.652380 0.576005 0.000000
0.910836 0.478684 0.091811
1.000000 0.425691 0.260526
1.000000 0.630186 0.479601
1.000000 0.833235 0.719072
0.000000 0.777670 0.223173
0.000000 0.785577 0.215963
0.000000 0.792878 0.195542
0.000000 0.802361 0.182771
0.349091 0.816116 0.145089
0.864055 0.802971 0.086653
0.998786 0.745987 0.312779
1.000000 0.732620 0.498175
1.000000 0.847602 0.725363
0.000000 0.930573 0.474521
0.000000 0.930531 0.472435
0.000000 0.931598 0.474403
0.000000 0.934195 0.470336
0.000000 0.934218 0.454098
0.733868 0.928271 0.448738
0.957018 0.917947 0.437283
1.000000 0.893358 0.582904
1.000000 0.888125 0.752221
0.000000 0.997299 0.728514
0.000000 0.997095 0.728720
0.000000 0.996674 0.729132
0.259502 0.997046 0.727168
0.463147 0.995050 0.723892
0.673721 0.990660 0.724025
0.886366 0.984884 0.722442
0.997050 0.978854 0.727494
1.000000 0.967318 0.812345
0.749126 1.000000 0.881577
0.752119 1.000000 0.881993
0.754001 1.000000 0.882036
0.757710 1.000000 0.881214
0.773240 1.000000 0.881239
0.804719 1.000000 0.879714
0.866164 1.000000 0.880158
0.960114 1.000000 0.882833
1.000000 1.000000 0.893637
0.000000 0.000000 0.135971
0.000000 0.000000 0.109689
0.093277 0.000000 0.106096
0.263871 0.000000 0.067280
0.518729 0.000000 0.117820
0.850165 0.000000 0.158626
1.000000 0.167064 0.266683
1.000000 0.575249 0.479407
1.000000 0.822068 0.717181
0.000000 0.000000 0.182865
0.000000 0.000000 0.155706
0.080429 0.000000 0.149799
0.276706 0.000000 0.109592
0.548153 0.000000 0.142290
0.855627 0.000000 0.163941
1.000000 0.185131 0.270359
1.000000 0.575249 0.479407
1.000000 0.823561 0.717272
0.000000 0.042211 0.270263
0.000000 0.051636 0.247259
0.000000 0.064615 0.242095
0.332536 0.000000 0.208441
0.577173 0.000000 0.176306
0.864983 0.000000 0.170743
1.000000 0.217232 0.272131
1.000000 0.581681 0.482120
1.000000 0.823561 0.717272
0.000000 0.220208 0.373057
0.000000 0.249723 0.358615
0.000000 0.304792 0.346382
0.312397 0.335579 0.341623
0.634005 0.203483 0.242482
0.886421 0.000000 0.192884
1.000000 0.274021 0.281646
1.000000 0.588837 0.485332
1.000000 0.825047 0.717363
0.000000 0.508999 0.393865
0.000000 0.533226 0.369129
0.000000 0.558722 0.348564
0.000000 0.602081 0.325833
0.637351 0.600953 0.306609
0.910621 0.475858 0.227549
1.000000 0.431371 0.299789
1.000000 0.630781 0.493709
1.000000 0.833287 0.721396
0.000000 0.785531 0.353438
0.000000 0.793612 0.353742
0.000000 0.796423 0.345137
0.000000 0.810635 0.327819
0.296862 0.826379 0.308126
0.861609 0.811083 0.288870
0.996838 0.752576 0.356396
1.000000 0.733267 0.518255
1.000000 0.847697 0.729901
0.000000 0.929897 0.524499
0.000000 0.931037 0.522643
0.000000 0.932046 0.518424
0.000000 0.934668 0.514021
0.000000 0.938966 0.502515
0.729275 0.931834 0.498007
0.954716 0.922467 0.486296
1.000000 0.893458 0.601324
1.000000 0.888159 0.754272
0.000000 0.997310 0.740052
0.000000 0.997208 0.740150
0.000000 0.996788 0.738267
0.232964 0.995786 0.736878
0.448560 0.994865 0.734536
0.670520 0.991232 0.731306
0.884499 0.985396 0.731493
0.995827 0.979741 0.736074
1.000000 0.967341 0.815167
0.749158 1.000000 0.882491
0.751063 1.000000 0.882534
0.752152 1.000000 0.882900
0.757770 1.000000 0.883030
0.774163 1.000000 0.882520
0.804755 1.000000 0.882432
0.866158 1.000000 0.881889
0.960064 1.000000 0.884416
1.000000 1.000000 0.894900
0.000000 0.000000 0.248007
0.000000 0.000000 0.227339
0.000000 0.000000 0.220642
0.259950 0.000000 0.199165
0.463025 0.000000 0.120627
0.848044 0.000000 0.312256
1.000000 0.148293 0.369436
1.000000 0.567435 0.519243
1.000000 0.822344 0.728853
0.000000 0.000000 0.305576
0.000000 0.000000 0.285951
0.000000 0.000000 0.282903
0.267196 0.000000 0.283123
0.491877 0.000000 0.190317
0.858248 0.000000 0.327585
1.000000 0.174749 0.372372
1.000000 0.570592 0.519214
1.000000 0.822344 0.728853
0.000000 0.000000 0.377721
0.000000 0.025306 0.361190
0.000000 0.035455 0.362564
0.252973 0.000000 0.357487
0.554992 0.000000 0.292524
0.867990 0.000000 0.341437
1.000000 0.208167 0.375058
1.000000 0.576905 0.519152
1.000000 0.822344 0.728853
0.000000 0.136822 0.505494
0.000000 0.161347 0.487524
0.000000 0.184664 0.485775
0.187291 0.218901 0.490496
0.654675 0.000000 0.450524
0.889546 0.000000 0.384974
1.000000 0.274944 0.388770
1.000000 0.590371 0.522357
1.000000 0.825318 0.729016
0.000000 0.414086 0.618315
0.000000 0.455913 0.599108
0.000000 0.521113 0.592386
0.000000 0.586891 0.592614
0.594801 0.608253 0.582115
0.900884 0.484897 0.489080
1.000000 0.432188 0.416563
1.000000 0.625909 0.528215
1.000000 0.831230 0.731652
0.000000 0.783157 0.613928
0.000000 0.794147 0.608184
0.000000 0.803433 0.607569
0.000000 0.818295 0.597524
0.199422 0.833971 0.576940
0.841483 0.823223 0.568014
0.992463 0.756600 0.490630
1.000000 0.729569 0.561967
1.000000 0.846639 0.743166
0.000000 0.933124 0.629675
0.000000 0.935436 0.631315
0.000000 0.936536 0.633020
0.000000 0.938099 0.621404
0.000000 0.939004 0.614299
0.706302 0.933352 0.603073
0.946554 0.925541 0.596305
1.000000 0.895010 0.643535
1.000000 0.888225 0.758339
0.000000 0.999109 0.767200
0.000000 0.998910 0.765296
0.000000 0.998503 0.765641
0.197796 0.997526 0.764339
0.448581 0.994876 0.762834
0.667098 0.991809 0.757574
0.878995 0.986489 0.756727
0.992905 0.981493 0.764922
1.000000 0.967308 0.820092
0.749323 1.000000 0.887024
0.749323 1.000000 0.887024
0.751225 1.000000 0.887065
0.756028 1.000000 0.886596
0.770675 1.000000 0.886039
0.803179 1.000000 0.885082
0.866149 1.000000 0.884475
0.959303 1.000000 0.887497
1.000000 1.000000 0.898061
0.000000 0.000000 0.463995
0.000000 0.000000 0.465185
0.000000 0.000000 0.462343
0.115328 0.000000 0.463588
0.534487 0.000000 0.439916
0.750544 0.000000 0.268118
1.000000 0.000000 0.564576
1.000000 0.566585 0.614658
1.000000 0.820062 0.757762
0.000000 0.000000 0.507199
0.000000 0.000000 0.502514
0.000000 0.000000 0.505938
0.081422 0.000000 0.507861
0.539119 0.000000 0.496373
0.787553 0.000000 0.356818
1.000000 0.000000 0.571114
1.000000 0.569789 0.614644
1.000000 0.820062 0.757762
0.000000 0.000000 0.546369
0.000000 0.022857 0.544753
0.000000 0.035380 0.548002
0.000000 0.000000 0.550470
0.543945 0.000000 0.542830
0.826563 0.000000 0.438031
1.000000 0.028404 0.578021
1.000000 0.576195 0.614612
1.000000 0.821562 0.757816
0.000000 0.110139 0.616712
0.000000 0.118078 0.618553
0.000000 0.132850 0.623034
0.000000 0.147991 0.621097
0.544992 0.000000 0.627925
0.885852 0.000000 0.556502
1.000000 0.215132 0.595515
1.000000 0.590477 0.618264
1.000000 0.823055 0.757871
0.000000 0.349931 0.722245
0.000000 0.372090 0.726777
0.000000 0.391239 0.723607
0.000000 0.438310 0.724497
0.440844 0.469578 0.727801
0.916215 0.388700 0.696006
1.000000 0.412774 0.629297
1.000000 0.631533 0.628513
1.000000 0.830462 0.760301
0.000000 0.658908 0.806876
0.000000 0.699860 0.795452
0.000000 0.741667 0.790259
0.000000 0.786770 0.791606
0.000000 0.824818 0.794250
0.808260 0.824229 0.786972
0.979241 0.754822 0.710532
1.000000 0.731607 0.657251
1.000000 0.845865 0.768544
0.000000 0.934446 0.808469
0.000000 0.934666 0.809315
0.000000 0.937060 0.806496
0.000000 0.939124 0.803271
0.000000 0.941238 0.798221
0.682488 0.936213 0.789881
0.929586 0.931073 0.782991
1.000000 0.896020 0.735811
1.000000 0.886625 0.785180
0.000000 0.999845 0.822431
0.000000 0.999565 0.822619
0.000000 0.999274 0.821109
0.000000 0.998688 0.820301
0.411286 0.996572 0.820720
0.644142 0.992166 0.817746
0.872590 0.986815 0.814930
0.989611 0.982852 0.818504
1.000000 0.967855 0.839896
0.742083 1.000000 0.897501
0.742083 1.000000 0.897501
0.744007 1.000000 0.897539
0.749698 1.000000 0.896782
0.763752 1.000000 0.896482
0.801497 1.000000 0.897064
0.864842 1.000000 0.894617
0.958342 1.000000 0.897543
1.000000 1.000000 0.906312
0.000000 0.072491 0.730313
0.000000 0.074677 0.732380
0.000000 0.078991 0.732476
0.000000 0.066294 0.738130
0.368782 0.000000 0.732144
0.842316 0.000000 0.718195
1.000000 0.000000 0.568366
1.000000 0.503560 0.785205
1.000000 0.817578 0.809100
0.000000 0.086950 0.743874
0.000000 0.086707 0.745685
0.000000 0.091512 0.742719
0.000000 0.088318 0.745399
0.367551 0.000000 0.745954
0.854840 0.000000 0.729596
1.000000 0.000000 0.597184
1.000000 0.510004 0.785154
1.000000 0.818555 0.809663
0.000000 0.109373 0.754571
0.000000 0.109420 0.756334
0.000000 0.111860 0.756213
0.000000 0.115179 0.759044
0.366200 0.041076 0.756788
0.860046 0.000000 0.755752
1.000000 0.000000 0.633303
1.000000 0.516447 0.785100
1.000000 0.820074 0.809673
0.000000 0.170116 0.780697
0.000000 0.170673 0.782326
0.000000 0.171324 0.784966
0.000000 0.182182 0.785028
0.326430 0.169295 0.784896
0.858052 0.000000 0.781605
1.000000 0.000000 0.700983
1.000000 0.539178 0.789553
1.000000 0.821694 0.813244
0.000000 0.300807 0.825402
0.000000 0.304374 0.826789
0.000000 0.315681 0.826778
0.000000 0.331088 0.828663
0.253434 0.350584 0.830562
0.847746 0.297994 0.825441
1.000000 0.134333 0.779746
1.000000 0.595707 0.800268
1.000000 0.827716 0.815047
0.000000 0.636779 0.875951
0.000000 0.642744 0.875459
0.000000 0.655743 0.876548
0.000000 0.668868 0.876272
0.000000 0.717571 0.872750
0.718696 0.736862 0.868010
0.991376 0.693894 0.852854
1.000000 0.714000 0.815013
1.000000 0.845312 0.818983
0.000000 0.879477 0.904406
0.000000 0.891511 0.904060
0.000000 0.901821 0.903161
0.000000 0.919521 0.904621
0.000000 0.934907 0.904312
0.626829 0.935610 0.902091
0.916550 0.930299 0.898206
1.000000 0.896880 0.856640
1.000000 0.886990 0.835181
0.000000 1.000000 0.914635
0.000000 1.000000 0.914719
0.000000 1.000000 0.914830
0.000000 1.000000 0.912317
0.234969 0.999057 0.909252
0.610741 0.993478 0.905904
0.862422 0.987864 0.899982
0.980740 0.984898 0.899190
1.000000 0.968227 0.876284
0.731320 1.000000 0.923130
0.733293 1.000000 0.923158
0.735258 1.000000 0.923187
0.739118 1.000000 0.922480
0.756503 1.000000 0.922319
0.794061 1.000000 0.922729
0.860118 1.000000 0.923106
0.956318 1.000000 0.920779
1.000000 1.000000 0.925701
0.000000 0.254688 0.899321
0.000000 0.254542 0.899496
0.000000 0.258428 0.899778
0.000000 0.256665 0.899047
0.345111 0.250969 0.900445
0.697416 0.188667 0.896579
1.000000 0.000000 0.887776
1.000000 0.000000 0.812759
1.000000 0.795391 0.898859
0.000000 0.263309 0.904040
0.000000 0.265176 0.901047
0.000000 0.264909 0.901341
0.000000 0.267889 0.900519
0.332512 0.263665 0.901929
0.696673 0.206879 0.898158
1.000000 0.000000 0.889436
1.000000 0.000000 0.817958
1.000000 0.795391 0.898859
0.000000 0.276439 0.907030
0.000000 0.280710 0.905624
0.000000 0.280526 0.905906
0.000000 0.281654 0.905109
0.328317 0.278389 0.903392
0.691429 0.228831 0.898142
1.000000 0.000000 0.891100
1.000000 0.000000 0.827422
1.000000 0.797040 0.898808
0.000000 0.313703 0.912526
0.000000 0.316146 0.912604
0.000000 0.316030 0.911455
0.000000 0.320309 0.909165
0.301365 0.323062 0.910345
0.682911 0.287148 0.906869
1.000000 0.163088 0.900199
1.000000 0.000000 0.841552
1.000000 0.799846 0.900039
0.000000 0.394316 0.920464
0.000000 0.394450 0.920568
0.000000 0.400649 0.920676
0.000000 0.410060 0.921057
0.227826 0.414617 0.921972
0.662389 0.403954 0.917453
1.000000 0.362125 0.913823
1.000000 0.274069 0.870953
1.000000 0.809602 0.901963
0.000000 0.582937 0.935127
0.000000 0.583319 0.935265
0.000000 0.583825 0.935455
0.000000 0.591392 0.934598
0.000000 0.605291 0.933830
0.567537 0.621816 0.931613
0.982135 0.613748 0.926229
1.000000 0.574386 0.904312
1.000000 0.833998 0.906913
0.000000 0.863604 0.952778
0.000000 0.864044 0.952990
0.000000 0.866283 0.953091
0.000000 0.872456 0.953293
0.000000 0.882280 0.950486
0.387437 0.886842 0.948421
0.875203 0.885205 0.945154
1.000000 0.868752 0.936419
1.000000 0.881265 0.916169
0.000000 0.986183 0.968955
0.000000 0.987189 0.968733
0.000000 0.989449 0.968485
0.000000 0.990512 0.969424
0.000000 0.996576 0.967690
0.410094 0.993809 0.966769
0.837441 0.989532 0.964019
0.972624 0.985693 0.959158
1.000000 0.968489 0.940580
0.691755 1.000000 0.971147
0.691755 1.000000 0.971147
0.693783 1.000000 0.971158
0.701851 1.000000 0.971201
0.724187 1.000000 0.970492
0.777920 1.000000 0.969671
0.849383 1.000000 0.967860
0.948464 1.000000 0.964566
1.000000 1.000000 0.964953
0.347600 0.515800 0.978506
0.351874 0.518935 0.978375
0.358228 0.518485 0.976918
0.397598 0.524171 0.976631
0.482100 0.521827 0.975795
0.658691 0.517599 0.975264
0.925495 0.496265 0.972371
1.000000 0.480563 0.967601
1.000000 0.433669 0.927426
0.345277 0.519044 0.978379
0.351874 0.518935 0.978375
0.353839 0.525328 0.978114
0.397598 0.524171 0.976631
0.480684 0.525298 0.976400
0.657723 0.521004 0.975143
0.924822 0.499915 0.972262
1.000000 0.480761 0.968344
1.000000 0.439988 0.928432
0.338027 0.528792 0.977994
0.344821 0.528689 0.977989
0.351506 0.528583 0.977985
0.393773 0.531049 0.977820
0.479165 0.528602 0.976274
0.656828 0.524578 0.975741
0.923454 0.507203 0.972041
1.000000 0.488014 0.968155
1.000000 0.446366 0.929423
0.322278 0.548687 0.978614
0.329540 0.548595 0.978611
0.336664 0.548500 0.978607
0.381058 0.550887 0.977734
0.469746 0.548793 0.976928
0.649797 0.548739 0.976275
0.918441 0.532949 0.972666
1.000000 0.514233 0.969643
1.000000 0.472845 0.932261
0.283643 0.588655 0.979679
0.292307 0.588581 0.979676
0.300610 0.588341 0.978990
0.351322 0.591043 0.978817
0.442300 0.589395 0.978054
0.636165 0.589863 0.976040
0.901419 0.577149 0.974641
1.000000 0.579040 0.970425
1.000000 0.537604 0.941048
0.000000 0.672639 0.982857
0.123050 0.672553 0.982852
0.168497 0.672458 0.982847
0.229849 0.678758 0.982492
0.376156 0.680781 0.981629
0.600551 0.679446 0.979911
0.866889 0.676550 0.977123
1.000000 0.684868 0.973560
1.000000 0.679705 0.952689
0.000000 0.822646 0.986317
0.000000 0.822593 0.986317
0.000000 0.822540 0.986316
0.000000 0.822123 0.986311
0.078587 0.822925 0.985643
0.512793 0.828552 0.983825
0.809428 0.829188 0.981900
1.000000 0.831734 0.978517
1.000000 0.826183 0.964386
0.000000 0.965533 0.993316
0.000000 0.965318 0.993316
0.000000 0.965094 0.993316
0.000000 0.965326 0.993257
0.000000 0.966167 0.993073
0.452107 0.966689 0.991193
0.764491 0.964143 0.989239
0.949106 0.961993 0.987995
1.000000 0.954095 0.983463
0.000000 1.000000 1.000000
0.000000 1.000000 1.000000
0.000000 1.000000 1.000000
0.000000 1.000000 1.000000
0.345921 1.000000 0.999456
0.617728 1.000000 0.998349
0.799790 1.000000 0.997712
0.939649 1.000000 0.996847
0.998895 1.000000 0.994971
