Assets/Lutify-Free-LUTs-Pack/Lutify Free LUTs Pack/Film Tone Pro - Film Tone 3/Lutify.me-FilmTone3-CanonLog3-to-Rec709.cube
# Created with: fylm.ai - Colour Grading and Collaboration Software in Cloud 
# Website: https://fylm.ai 
# META
# Option: Gamut compress
# Block 1: IDT | CanonLog3 Cinema Gamut Daylight
# Block 2: colourMatch | Blending Mode: Normal | {"ColorSpace":0,"CrossCovarianceLimit":50,"ReshapingIterations":1,"PercentSaturationShift":100,"PercentShadingShift":100,"ExtraShading":true,"PercentTint":100,"PercentModified":100}
# Block 3: subtractiveColour | Blending Mode: Normal | {"sliders":{"gainY":0.6,"C":0.3,"M":0.3,"Y":0.3}}
# Block 4: LUT | Filmic Curve Response: Low Contrast 2 (100%)
# Block 5: logPrimaries | Blending Mode: Normal | {"wheels":{"shadows":{"Y":"0","R":"1","G":"1","B":"1"},"midtones":{"Y":"0","R":"1","G":"1","B":"1"},"highlights":{"Y":"0","R":"1","G":"1","B":"1"},"offset":{"Y":"0","R":"1","G":"1","B":"1"}},"sliders":{"shadows":{"Y":0,"R":-0.026,"G":0.03,"B":0.1},"midtones":{"Y":0,"R":0.024,"G":-0.036,"B":0.036},"highlights":{"Y":0,"R":0,"G":0.044,"B":-0.128},"offset":{"Y":0,"R":0,"G":0,"B":0}}}
# Block 6: hueSaturation | Blending Mode: Normal | {"hue":0,"saturation":-0.1}
# Block 7: ODT | Rec709
TITLE "Lutify.me-FilmTone3-CanonLog3-to-Rec709" 
LUT_3D_SIZE 9
0.000000 0.000000 0.000000
0.000000 0.000000 0.000000
0.210522 0.000000 0.000000
0.368721 0.000000 0.000000
0.588114 0.000000 0.000000
0.822089 0.000000 0.000000
1.000000 0.000000 0.124458
1.000000 0.292647 0.280431
1.000000 0.579092 0.478008
0.000000 0.065258 0.000000
0.000000 0.065890 0.000000
0.264751 0.000000 0.000000
0.455023 0.000000 0.000000
0.682885 0.000000 0.000000
0.854731 0.000000 0.000000
1.000000 0.000000 0.121482
1.000000 0.335956 0.275463
1.000000 0.592169 0.478404
0.000000 0.208219 0.000000
0.000000 0.231393 0.000000
0.340033 0.218131 0.000000
0.550826 0.083602 0.000000
0.730694 0.000000 0.000000
0.874617 0.000000 0.000000
1.000000 0.000000 0.110945
1.000000 0.366355 0.274657
1.000000 0.598283 0.478320
0.000000 0.349113 0.000000
0.000000 0.407672 0.000000
0.231453 0.427535 0.000000
0.625974 0.378635 0.000000
0.807258 0.270682 0.000000
0.925118 0.168266 0.000000
1.000000 0.251278 0.053624
1.000000 0.425911 0.271398
1.000000 0.624308 0.479103
0.000000 0.530163 0.000000
0.000000 0.600506 0.000000
0.000000 0.616497 0.000000
0.585025 0.612157 0.000000
0.839217 0.550011 0.000000
0.965530 0.474489 0.000000
1.000000 0.496480 0.000000
1.000000 0.540817 0.248319
1.000000 0.663531 0.473701
0.000000 0.760660 0.000000
0.000000 0.772213 0.000000
0.000000 0.779680 0.000000
0.387139 0.780089 0.000000
0.811401 0.769046 0.000000
0.947601 0.719071 0.000000
1.000000 0.672771 0.000000
1.000000 0.724828 0.145528
1.000000 0.744504 0.462777
0.000000 0.878741 0.000000
0.000000 0.881474 0.000000
0.000000 0.881971 0.000000
0.355509 0.878993 0.000000
0.733609 0.869790 0.000000
0.918414 0.861318 0.000000
0.997486 0.827818 0.000000
1.000000 0.797735 0.000000
1.000000 0.848594 0.427543
0.254454 0.947203 0.000000
0.366313 0.945961 0.000000
0.448928 0.944592 0.000000
0.566155 0.943809 0.000000
0.715207 0.938127 0.000000
0.877200 0.931593 0.000000
0.975996 0.925833 0.000000
1.000000 0.903732 0.094023
1.000000 0.896348 0.260329
0.692474 0.984398 0.077501
0.709707 0.983771 0.084697
0.722738 0.983285 0.090103
0.750452 0.982211 0.101455
0.792222 0.980494 0.118856
0.870802 0.976990 0.157962
0.950943 0.973213 0.221746
1.000000 0.966391 0.328160
1.000000 0.954124 0.430478
0.000000 0.000000 0.042758
0.000000 0.000000 0.021879
0.194593 0.000000 0.000000
0.351471 0.000000 0.000000
0.539996 0.000000 0.000000
0.824122 0.000000 0.071909
1.000000 0.000000 0.162851
1.000000 0.290277 0.303118
1.000000 0.579572 0.488982
0.000000 0.000000 0.000000
0.000000 0.000000 0.000000
0.207264 0.000000 0.000000
0.394566 0.000000 0.000000
0.627530 0.000000 0.023961
0.856801 0.000000 0.076714
1.000000 0.000000 0.165743
1.000000 0.334188 0.304639
1.000000 0.592769 0.492138
0.000000 0.187781 0.000000
0.000000 0.200873 0.000000
0.304940 0.204159 0.000000
0.501379 0.100863 0.000000
0.681181 0.000000 0.000000
0.874940 0.000000 0.065018
1.000000 0.000000 0.164091
1.000000 0.364654 0.304159
1.000000 0.598883 0.492063
0.000000 0.339744 0.000000
0.000000 0.384618 0.000000
0.188749 0.415687 0.000000
0.612724 0.361018 0.000000
0.759552 0.307816 0.000000
0.910113 0.227878 0.000000
1.000000 0.246360 0.149126
1.000000 0.427349 0.303100
1.000000 0.618809 0.492928
0.000000 0.519292 0.000000
0.000000 0.588918 0.000000
0.000000 0.612765 0.000000
0.572180 0.609235 0.000000
0.836956 0.543257 0.000000
0.930409 0.527103 0.000000
1.000000 0.521309 0.000000
1.000000 0.543310 0.290418
1.000000 0.661196 0.487452
0.000000 0.756283 0.000000
0.000000 0.771752 0.000000
0.000000 0.776877 0.000000
0.374739 0.777622 0.000000
0.809057 0.766539 0.000000
0.946493 0.716073 0.000000
0.992066 0.713873 0.000000
1.000000 0.727449 0.230526
1.000000 0.745039 0.479091
0.000000 0.878753 0.000000
0.000000 0.878185 0.000000
0.000000 0.880499 0.000000
0.336541 0.879217 0.000000
0.725658 0.870075 0.000000
0.919645 0.858011 0.000000
0.997486 0.827818 0.000000
1.000000 0.837806 0.000000
1.000000 0.849028 0.447685
0.239685 0.947320 0.000000
0.347266 0.946220 0.000000
0.441375 0.944734 0.000000
0.560561 0.943008 0.000000
0.715207 0.938127 0.000000
0.877200 0.931593 0.000000
0.975996 0.925833 0.000000
1.000000 0.903638 0.077888
1.000000 0.919066 0.248849
0.688896 0.984526 0.075990
0.706346 0.983895 0.083300
0.722738 0.983285 0.090103
0.744468 0.982448 0.099010
0.792222 0.980494 0.118856
0.870802 0.976990 0.157962
0.949829 0.973265 0.220517
1.000000 0.966391 0.328160
1.000000 0.954124 0.430478
0.000000 0.000000 0.145481
0.000000 0.000000 0.082436
0.184163 0.000000 0.052885
0.356678 0.000000 0.036632
0.533044 0.000000 0.023438
0.819331 0.000000 0.118182
1.000000 0.000000 0.210406
1.000000 0.279774 0.329752
1.000000 0.576991 0.500093
0.000000 0.000000 0.144393
0.000000 0.000000 0.112755
0.185774 0.000000 0.074258
0.377699 0.000000 0.081630
0.630981 0.000000 0.101231
0.861248 0.000000 0.136717
1.000000 0.000000 0.211973
1.000000 0.324589 0.334121
1.000000 0.590071 0.500491
0.000000 0.162305 0.277283
0.000000 0.175242 0.271664
0.207383 0.241269 0.251996
0.484193 0.107075 0.166853
0.681282 0.000000 0.122211
0.880432 0.000000 0.144142
1.000000 0.000000 0.212251
1.000000 0.362090 0.333388
1.000000 0.599240 0.500387
0.000000 0.370500 0.189473
0.000000 0.410188 0.133106
0.000000 0.463464 0.065179
0.516702 0.464020 0.000000
0.752756 0.363426 0.036291
0.915748 0.232334 0.126538
1.000000 0.252017 0.207667
1.000000 0.417464 0.335166
1.000000 0.619285 0.504030
0.000000 0.524001 0.000000
0.000000 0.600764 0.000000
0.000000 0.631594 0.000000
0.311019 0.657444 0.000000
0.761048 0.620744 0.000000
0.916747 0.571261 0.000000
1.000000 0.519727 0.155380
1.000000 0.538761 0.331665
1.000000 0.661645 0.498538
0.000000 0.748675 0.000000
0.000000 0.768480 0.000000
0.000000 0.774026 0.000000
0.362069 0.775123 0.000000
0.806686 0.764008 0.000000
0.947167 0.713088 0.000000
0.980550 0.755077 0.000000
1.000000 0.729478 0.281671
1.000000 0.740804 0.495511
0.000000 0.877014 0.000000
0.000000 0.878253 0.000000
0.000000 0.880561 0.000000
0.316303 0.879435 0.000000
0.721611 0.870219 0.000000
0.919645 0.858011 0.000000
0.997990 0.825957 0.000000
1.000000 0.854516 0.000000
1.000000 0.850982 0.468579
0.223655 0.947436 0.000000
0.337288 0.946347 0.000000
0.433693 0.944876 0.000000
0.560561 0.943008 0.000000
0.711407 0.938265 0.000000
0.875162 0.931680 0.000000
0.975996 0.925833 0.000000
1.000000 0.903638 0.077888
1.000000 0.926575 0.257968
0.688896 0.984526 0.075990
0.706346 0.983895 0.083300
0.716299 0.983527 0.087433
0.744468 0.982448 0.099010
0.789605 0.980604 0.117733
0.870802 0.976990 0.157962
0.949829 0.973265 0.220517
1.000000 0.966391 0.328160
1.000000 0.954124 0.430478
0.000000 0.000000 0.252982
0.000000 0.000000 0.142239
0.156688 0.000000 0.114280
0.352079 0.000000 0.075718
0.547620 0.000000 0.055356
0.803791 0.000000 0.192894
1.000000 0.000000 0.280308
1.000000 0.269153 0.378266
1.000000 0.574992 0.525401
0.000000 0.000000 0.247888
0.000000 0.000000 0.196411
0.152229 0.000000 0.164489
0.354710 0.000000 0.091865
0.593948 0.000000 0.174968
0.856010 0.000000 0.249292
1.000000 0.000000 0.289738
1.000000 0.310880 0.381114
1.000000 0.587230 0.525297
0.000000 0.054813 0.400220
0.000000 0.060697 0.376414
0.074632 0.096244 0.360428
0.477091 0.000000 0.316988
0.681796 0.000000 0.284774
0.881544 0.000000 0.273985
1.000000 0.000000 0.299016
1.000000 0.346052 0.381254
1.000000 0.597242 0.525713
0.000000 0.304776 0.511666
0.000000 0.329425 0.489903
0.000000 0.456234 0.482153
0.455188 0.478526 0.468151
0.737274 0.367575 0.379318
0.907086 0.205993 0.297195
1.000000 0.254983 0.312133
1.000000 0.412832 0.383882
1.000000 0.615714 0.528377
0.000000 0.560462 0.470661
0.000000 0.624658 0.398519
0.000000 0.663891 0.382958
0.000000 0.699370 0.355805
0.725161 0.692182 0.335000
0.907451 0.599789 0.275778
1.000000 0.517847 0.305747
1.000000 0.530182 0.383762
1.000000 0.656938 0.526698
0.000000 0.784454 0.149625
0.000000 0.806121 0.104990
0.000000 0.812161 0.091152
0.000000 0.828532 0.000000
0.590497 0.830018 0.000000
0.880520 0.806580 0.000000
0.973925 0.776080 0.200375
1.000000 0.724699 0.371445
1.000000 0.739203 0.520620
0.000000 0.883650 0.000000
0.000000 0.883876 0.000000
0.000000 0.885098 0.000000
0.000000 0.884508 0.000000
0.643467 0.876035 0.000000
0.907657 0.864879 0.000000
0.996952 0.825899 0.000000
1.000000 0.868018 0.227392
1.000000 0.853318 0.511097
0.163030 0.946806 0.000000
0.316337 0.945629 0.000000
0.401485 0.945429 0.000000
0.542921 0.943464 0.000000
0.707558 0.938404 0.000000
0.873100 0.931768 0.000000
0.975684 0.923924 0.000000
1.000000 0.903638 0.077888
1.000000 0.930989 0.360301
0.681609 0.984783 0.072872
0.699497 0.984145 0.080449
0.716299 0.983527 0.087433
0.741439 0.982566 0.097776
0.789605 0.980604 0.117733
0.867222 0.977154 0.155800
0.949829 0.973265 0.220517
1.000000 0.966391 0.328160
1.000000 0.952877 0.427499
0.000000 0.000000 0.362814
0.000000 0.000000 0.204818
0.098089 0.000000 0.183568
0.335921 0.000000 0.142442
0.540113 0.000000 0.102065
0.725726 0.000000 0.078780
1.000000 0.000000 0.397900
1.000000 0.249284 0.465261
1.000000 0.570065 0.563858
0.000000 0.000000 0.345827
0.000000 0.000000 0.261694
0.069836 0.000000 0.222816
0.339762 0.000000 0.158173
0.540113 0.000000 0.102065
0.808498 0.000000 0.317820
1.000000 0.000000 0.433662
1.000000 0.289947 0.471827
1.000000 0.580280 0.567161
0.000000 0.000000 0.507308
0.000000 0.000000 0.472186
0.000000 0.040223 0.447218
0.371818 0.000000 0.452937
0.638217 0.000000 0.359065
0.867688 0.000000 0.414628
1.000000 0.000000 0.448176
1.000000 0.334204 0.475167
1.000000 0.592620 0.567084
0.000000 0.182601 0.630605
0.000000 0.206034 0.612072
0.000000 0.285045 0.596360
0.301295 0.312783 0.596773
0.748176 0.209953 0.568426
0.907550 0.000000 0.494894
1.000000 0.214089 0.475511
1.000000 0.405768 0.484490
1.000000 0.610401 0.568306
0.000000 0.469785 0.693335
0.000000 0.512708 0.676413
0.000000 0.614449 0.658407
0.000000 0.696217 0.663232
0.673423 0.690888 0.655278
0.889422 0.599547 0.583096
1.000000 0.486120 0.498182
1.000000 0.533839 0.490997
1.000000 0.652140 0.572309
0.000000 0.764920 0.634423
0.000000 0.810565 0.603781
0.000000 0.823662 0.597743
0.000000 0.837088 0.589306
0.516300 0.841742 0.579118
0.845701 0.832755 0.566067
0.963326 0.786261 0.499729
1.000000 0.723586 0.504381
1.000000 0.735684 0.577368
0.000000 0.907442 0.431248
0.000000 0.913522 0.418293
0.000000 0.916120 0.419551
0.000000 0.919678 0.411401
0.422431 0.918019 0.398973
0.785213 0.910599 0.386471
0.942590 0.901604 0.375008
1.000000 0.878947 0.469045
1.000000 0.851672 0.584805
0.000000 0.964591 0.000000
0.000000 0.963714 0.000000
0.000000 0.962848 0.000000
0.204828 0.963264 0.000000
0.488544 0.960851 0.000000
0.747170 0.955589 0.000000
0.919279 0.947381 0.000000
1.000000 0.925669 0.000000
1.000000 0.937027 0.518353
0.674142 0.985043 0.069617
0.692474 0.984398 0.077501
0.709707 0.983771 0.084697
0.735306 0.982805 0.095269
0.784276 0.979750 0.094728
0.865685 0.976151 0.141222
0.948023 0.972290 0.209199
1.000000 0.965277 0.321467
1.000000 0.952877 0.427499
0.000000 0.000000 0.482908
0.000000 0.000000 0.264167
0.059432 0.000000 0.246898
0.293927 0.000000 0.246187
0.519485 0.000000 0.184236
0.725392 0.000000 0.142001
0.938300 0.000000 0.335075
1.000000 0.061745 0.591392
1.000000 0.545567 0.646114
0.000000 0.000000 0.458503
0.000000 0.000000 0.292060
0.037179 0.000000 0.258501
0.289801 0.000000 0.242717
0.518825 0.000000 0.181505
0.725392 0.000000 0.142001
0.980721 0.000000 0.492004
1.000000 0.209651 0.605183
1.000000 0.568217 0.646424
0.000000 0.000000 0.606567
0.000000 0.000000 0.554214
0.000000 0.000000 0.539825
0.185190 0.000000 0.529477
0.609645 0.000000 0.488307
0.736555 0.000000 0.252629
1.000000 0.000000 0.547941
1.000000 0.267687 0.621593
1.000000 0.577647 0.649423
0.000000 0.070062 0.710920
0.000000 0.110470 0.674958
0.000000 0.160763 0.660738
0.000000 0.182277 0.663814
0.633427 0.000000 0.667402
0.897175 0.000000 0.606232
1.000000 0.000000 0.613707
1.000000 0.361390 0.632537
1.000000 0.601097 0.653068
0.000000 0.324601 0.794661
0.000000 0.375211 0.775732
0.000000 0.466799 0.759091
0.000000 0.514229 0.766199
0.543644 0.555159 0.760780
0.908035 0.484936 0.744046
1.000000 0.405207 0.683827
1.000000 0.499407 0.655905
1.000000 0.648784 0.656580
0.000000 0.633738 0.825215
0.000000 0.665860 0.815522
0.000000 0.763345 0.795129
0.000000 0.814056 0.798607
0.389610 0.837849 0.794263
0.812472 0.828059 0.789375
0.944860 0.781278 0.746755
1.000000 0.710655 0.675388
1.000000 0.734481 0.665005
0.000000 0.907489 0.767131
0.000000 0.913851 0.767503
0.000000 0.918701 0.768701
0.000000 0.921728 0.766960
0.205885 0.923309 0.758922
0.738199 0.916366 0.744684
0.915299 0.912557 0.742927
0.993869 0.883010 0.688594
1.000000 0.851386 0.683059
0.000000 0.974608 0.639959
0.000000 0.974602 0.635967
0.000000 0.973903 0.631161
0.000000 0.973519 0.632070
0.432881 0.971698 0.630902
0.703150 0.966951 0.618692
0.881311 0.962149 0.619819
0.979467 0.957178 0.621855
1.000000 0.942069 0.684451
0.527042 1.000000 0.402094
0.547213 1.000000 0.402905
0.561577 0.999915 0.402029
0.597683 0.998872 0.400762
0.657114 0.996918 0.394070
0.761257 0.994604 0.406378
0.866806 0.990907 0.412445
0.967634 0.985581 0.427495
1.000000 0.976676 0.431473
0.000000 0.000000 0.593896
0.000000 0.000000 0.326317
0.000000 0.000000 0.322135
0.249195 0.000000 0.321793
0.484899 0.000000 0.285180
0.712029 0.000000 0.233084
0.907897 0.000000 0.192759
1.000000 0.000000 0.616359
1.000000 0.473780 0.754708
0.000000 0.000000 0.593896
0.000000 0.000000 0.326074
0.000000 0.000000 0.317615
0.249195 0.000000 0.321793
0.484899 0.000000 0.285180
0.712029 0.000000 0.233084
0.907897 0.000000 0.192759
1.000000 0.000000 0.661066
1.000000 0.497775 0.757681
0.000000 0.000000 0.688151
0.000000 0.000000 0.598914
0.000000 0.000000 0.590218
0.090738 0.000000 0.572945
0.449955 0.000000 0.517141
0.708202 0.000000 0.251978
0.907897 0.000000 0.192759
1.000000 0.000000 0.687674
1.000000 0.510323 0.760208
0.000000 0.000000 0.795766
0.000000 0.081216 0.745543
0.000000 0.111298 0.746993
0.000000 0.127803 0.747317
0.432310 0.000000 0.746044
0.859746 0.000000 0.731314
0.981672 0.000000 0.590842
1.000000 0.000000 0.724181
1.000000 0.548789 0.765245
0.000000 0.186535 0.851294
0.000000 0.256426 0.820098
0.000000 0.300059 0.815331
0.000000 0.335705 0.819364
0.343519 0.353249 0.820301
0.851484 0.296697 0.812180
1.000000 0.082437 0.775093
1.000000 0.380691 0.776962
1.000000 0.613398 0.781805
0.000000 0.515605 0.891964
0.000000 0.555800 0.875682
0.000000 0.635671 0.863736
0.000000 0.691342 0.863681
0.000000 0.732071 0.859577
0.729795 0.750016 0.857627
0.962434 0.712691 0.849318
1.000000 0.635609 0.807532
1.000000 0.713468 0.790172
0.000000 0.778887 0.903041
0.000000 0.794567 0.900954
0.000000 0.867745 0.881631
0.000000 0.900522 0.883374
0.000000 0.914820 0.881238
0.684649 0.916644 0.880808
0.896307 0.909564 0.876379
0.978464 0.882025 0.847175
1.000000 0.843906 0.806885
0.000000 0.976702 0.867842
0.000000 0.977460 0.866244
0.000000 0.977416 0.864217
0.000000 0.977036 0.862767
0.089321 0.974987 0.855994
0.633617 0.971320 0.853556
0.854478 0.965932 0.849777
0.958185 0.962010 0.849044
1.000000 0.944541 0.818702
0.438089 1.000000 0.794412
0.468391 1.000000 0.793029
0.496486 1.000000 0.793404
0.543866 1.000000 0.792776
0.614706 1.000000 0.792726
0.712601 0.999005 0.787074
0.836414 0.995188 0.787379
0.938316 0.991230 0.787095
0.997486 0.989030 0.796418
0.000000 0.000000 0.520279
0.000000 0.000000 0.407740
0.000000 0.000000 0.404446
0.222630 0.000000 0.410303
0.477982 0.000000 0.418018
0.674126 0.000000 0.357464
0.889679 0.000000 0.291534
1.000000 0.000000 0.250044
1.000000 0.000000 0.796153
0.000000 0.000000 0.526588
0.000000 0.000000 0.407535
0.000000 0.000000 0.404350
0.222630 0.000000 0.410303
0.477982 0.000000 0.418018
0.674126 0.000000 0.357464
0.889679 0.000000 0.291534
1.000000 0.000000 0.248362
1.000000 0.075649 0.806712
0.000000 0.000000 0.619906
0.000000 0.000000 0.526160
0.000000 0.000000 0.503652
0.183405 0.000000 0.471818
0.477982 0.000000 0.418018
0.674126 0.000000 0.357464
0.889679 0.000000 0.291534
1.000000 0.000000 0.248362
1.000000 0.210710 0.814358
0.000000 0.000000 0.845893
0.000000 0.000000 0.808220
0.000000 0.047734 0.809317
0.000000 0.053824 0.811560
0.320077 0.000000 0.804110
0.680475 0.000000 0.779768
0.949965 0.000000 0.632064
1.000000 0.000000 0.248362
1.000000 0.322591 0.829483
0.000000 0.134183 0.906529
0.000000 0.217067 0.874716
0.000000 0.242655 0.874868
0.000000 0.274619 0.874442
0.198568 0.284782 0.875819
0.667253 0.223399 0.867549
1.000000 0.000000 0.861255
1.000000 0.000000 0.793530
1.000000 0.459032 0.848483
0.000000 0.314620 0.936375
0.000000 0.428998 0.910385
0.000000 0.465731 0.909476
0.000000 0.511445 0.906393
0.000000 0.550003 0.906414
0.576701 0.561535 0.903835
0.963090 0.541385 0.897792
1.000000 0.451644 0.872547
1.000000 0.635661 0.869390
0.000000 0.664876 0.954364
0.000000 0.748169 0.935475
0.000000 0.798401 0.928137
0.000000 0.830220 0.927249
0.000000 0.856006 0.925131
0.408091 0.865786 0.922099
0.851809 0.862906 0.920503
0.987372 0.844288 0.913513
1.000000 0.807329 0.886428
0.000000 0.882455 0.956898
0.000000 0.882455 0.956898
0.000000 0.936389 0.939615
0.000000 0.960361 0.938630
0.000000 0.968715 0.938968
0.467133 0.968622 0.937146
0.822256 0.965116 0.934755
0.944908 0.961625 0.931405
1.000000 0.942462 0.912128
0.000000 1.000000 0.926340
0.000000 1.000000 0.924841
0.179214 1.000000 0.924150
0.364108 1.000000 0.922916
0.497284 1.000000 0.921815
0.653982 1.000000 0.919230
0.808185 0.997194 0.914361
0.918097 0.993880 0.913254
0.985965 0.990602 0.912697
0.000000 0.000000 0.495511
0.000000 0.000000 0.499586
0.039868 0.000000 0.495400
0.251066 0.000000 0.496215
0.451242 0.000000 0.502016
0.686447 0.000000 0.479838
0.851551 0.000000 0.420438
1.000000 0.000000 0.358691
1.000000 0.000000 0.324849
0.000000 0.000000 0.495290
0.000000 0.000000 0.499156
0.039868 0.000000 0.495400
0.251066 0.000000 0.496215
0.451242 0.000000 0.502016
0.686447 0.000000 0.479838
0.851551 0.000000 0.420438
1.000000 0.000000 0.358691
1.000000 0.000000 0.324849
0.000000 0.000000 0.494958
0.000000 0.000000 0.498941
0.000000 0.000000 0.495196
0.251066 0.000000 0.496215
0.451242 0.000000 0.502016
0.686447 0.000000 0.479838
0.851551 0.000000 0.420438
1.000000 0.000000 0.358691
1.000000 0.000000 0.324849
0.000000 0.000000 0.825073
0.000000 0.000000 0.821968
0.000000 0.000000 0.822054
0.000000 0.000000 0.816240
0.302827 0.000000 0.793099
0.617334 0.000000 0.694437
0.851551 0.000000 0.420438
1.000000 0.000000 0.358691
1.000000 0.000000 0.324849
0.000000 0.160161 0.917422
0.000000 0.183162 0.916958
0.000000 0.189016 0.918225
0.000000 0.206311 0.920171
0.151288 0.208003 0.916144
0.570822 0.124310 0.911291
0.894488 0.000000 0.900609
1.000000 0.000000 0.849928
1.000000 0.000000 0.324849
0.000000 0.356959 0.950431
0.000000 0.388727 0.948164
0.000000 0.414477 0.946236
0.000000 0.439366 0.945954
0.000000 0.462050 0.946346
0.476495 0.476860 0.941243
0.858258 0.439849 0.937133
1.000000 0.404674 0.932540
1.000000 0.231446 0.895128
0.000000 0.570839 0.966382
0.000000 0.621118 0.961237
0.000000 0.651281 0.960823
0.000000 0.680258 0.959316
0.000000 0.712907 0.957140
0.279725 0.738983 0.954799
0.760775 0.739674 0.950190
0.993800 0.738565 0.947830
1.000000 0.692959 0.933842
0.000000 0.804978 0.987580
0.000000 0.871324 0.972990
0.000000 0.896621 0.970279
0.000000 0.913553 0.968546
0.000000 0.925311 0.967820
0.000000 0.928954 0.965653
0.705437 0.927066 0.963034
0.917909 0.928472 0.960564
1.000000 0.916981 0.956485
0.000000 0.950054 0.987721
0.000000 0.950054 0.987721
0.000000 0.979941 0.977853
0.000000 0.997951 0.974482
0.000000 1.000000 0.975165
0.331969 1.000000 0.973753
0.732318 0.995604 0.972243
0.902754 0.992503 0.969462
0.977632 0.990415 0.965687
