Assets/Lutify-Free-LUTs-Pack/Lutify Free LUTs Pack/Film Tone Pro - Film Tone 3/Lutify.me-FilmTone3-VLog-to-Rec709.cube
# Created with: fylm.ai - Colour Grading and Collaboration Software in Cloud 
# Website: https://fylm.ai 
# META
# Option: Gamut compress
# Block 1: IDT | Panasonic V-Gamut V-Log
# Block 2: colourMatch | Blending Mode: Normal | {"ColorSpace":0,"CrossCovarianceLimit":50,"ReshapingIterations":1,"PercentSaturationShift":100,"PercentShadingShift":100,"ExtraShading":true,"PercentTint":100,"PercentModified":100}
# Block 3: subtractiveColour | Blending Mode: Normal | {"sliders":{"gainY":0.6,"C":0.3,"M":0.3,"Y":0.3}}
# Block 4: LUT | Filmic Curve Response: Low Contrast 2 (100%)
# Block 5: logPrimaries | Blending Mode: Normal | {"wheels":{"shadows":{"Y":"0","R":"1","G":"1","B":"1"},"midtones":{"Y":"0","R":"1","G":"1","B":"1"},"highlights":{"Y":"0","R":"1","G":"1","B":"1"},"offset":{"Y":"0","R":"1","G":"1","B":"1"}},"sliders":{"shadows":{"Y":0,"R":-0.026,"G":0.03,"B":0.1},"midtones":{"Y":0,"R":0.024,"G":-0.036,"B":0.036},"highlights":{"Y":0,"R":0,"G":0.044,"B":-0.128},"offset":{"Y":0,"R":0,"G":0,"B":0}}}
# Block 6: hueSaturation | Blending Mode: Normal | {"hue":0,"saturation":-0.1}
# Block 7: ODT | Rec709
TITLE "Lutify.me-FilmTone3-VLog-to-Rec709" 
LUT_3D_SIZE 33
0.000000 0.000000 0.000000
0.000000 0.000000 0.000000
0.000000 0.000000 0.000000
0.000000 0.000000 0.000000
0.000000 0.000000 0.000000
0.000000 0.000000 0.000000
0.051855 0.000000 0.000000
0.081377 0.000000 0.000000
0.112646 0.000000 0.000000
0.137647 0.000000 0.000000
0.169527 0.000000 0.000000
0.206540 0.000000 0.000000
0.245542 0.000000 0.000000
0.291538 0.000000 0.000000
0.351102 0.000000 0.000000
0.413176 0.000000 0.000000
0.477352 0.000000 0.000000
0.567228 0.000000 0.000000
0.657385 0.000000 0.000000
0.733173 0.000000 0.003776
0.825930 0.000000 0.048109
0.909831 0.000000 0.077515
0.966862 0.000000 0.114215
1.000000 0.000000 0.155875
1.000000 0.161299 0.209654
1.000000 0.286851 0.262212
1.000000 0.402404 0.328237
1.000000 0.501238 0.395857
1.000000 0.591835 0.471197
1.000000 0.667749 0.535040
1.000000 0.746141 0.606509
1.000000 0.800180 0.677674
1.000000 0.842484 0.737377
0.000000 0.000000 0.000000
0.000000 0.000000 0.000000
0.000000 0.000000 0.000000
0.000000 0.000000 0.000000
0.000000 0.000000 0.000000
0.000000 0.000000 0.000000
0.053350 0.000000 0.000000
0.082729 0.000000 0.000000
0.113781 0.000000 0.000000
0.139188 0.000000 0.000000
0.171562 0.000000 0.000000
0.207858 0.000000 0.000000
0.250340 0.000000 0.000000
0.297145 0.000000 0.000000
0.358396 0.000000 0.000000
0.422341 0.000000 0.000000
0.485059 0.000000 0.000000
0.572246 0.000000 0.000000
0.658443 0.000000 0.000000
0.738210 0.000000 0.005973
0.826805 0.000000 0.049184
0.910214 0.000000 0.079133
0.967084 0.000000 0.116169
1.000000 0.000000 0.155623
1.000000 0.174059 0.212603
1.000000 0.295077 0.261934
1.000000 0.402404 0.328237
1.000000 0.507798 0.395713
1.000000 0.591955 0.473955
1.000000 0.667749 0.535040
1.000000 0.746141 0.606509
1.000000 0.800180 0.677674
1.000000 0.842484 0.737377
0.000000 0.000000 0.000000
0.000000 0.000000 0.000000
0.000000 0.000000 0.000000
0.000000 0.000000 0.000000
0.000000 0.000000 0.000000
0.000000 0.000000 0.000000
0.055469 0.000000 0.000000
0.085481 0.000000 0.000000
0.116105 0.000000 0.000000
0.142343 0.000000 0.000000
0.175736 0.000000 0.000000
0.211867 0.000000 0.000000
0.258795 0.000000 0.000000
0.306803 0.000000 0.000000
0.363912 0.000000 0.000000
0.426091 0.000000 0.000000
0.495899 0.000000 0.000000
0.577151 0.000000 0.000000
0.663281 0.000000 0.000000
0.739130 0.000000 0.002728
0.827163 0.000000 0.048673
0.910516 0.000000 0.078558
0.967139 0.000000 0.115789
1.000000 0.000000 0.155220
1.000000 0.179923 0.212458
1.000000 0.295077 0.261934
1.000000 0.402404 0.328237
1.000000 0.507798 0.395713
1.000000 0.591955 0.473955
1.000000 0.667749 0.535040
1.000000 0.746141 0.606509
1.000000 0.800180 0.677674
1.000000 0.842484 0.737377
0.000000 0.000000 0.000000
0.000000 0.000000 0.000000
0.000000 0.000000 0.000000
0.000000 0.000000 0.000000
0.000000 0.000000 0.000000
0.005987 0.000000 0.000000
0.057704 0.000000 0.000000
0.087913 0.000000 0.000000
0.117497 0.000000 0.000000
0.145019 0.000000 0.000000
0.180173 0.000000 0.000000
0.221888 0.000000 0.000000
0.267814 0.000000 0.000000
0.313242 0.000000 0.000000
0.371827 0.000000 0.000000
0.430300 0.000000 0.000000
0.503752 0.000000 0.000000
0.578442 0.000000 0.000000
0.664475 0.000000 0.000000
0.744161 0.000000 0.000000
0.827638 0.000000 0.047928
0.911106 0.000000 0.079716
0.967170 0.000000 0.115520
1.000000 0.000000 0.155578
1.000000 0.179923 0.212458
1.000000 0.303480 0.265519
1.000000 0.405937 0.328131
1.000000 0.507798 0.395713
1.000000 0.591955 0.473955
1.000000 0.667749 0.535040
1.000000 0.746141 0.606509
1.000000 0.800180 0.677674
1.000000 0.842484 0.737377
0.000000 0.000000 0.000000
0.000000 0.000000 0.000000
0.000000 0.000000 0.000000
0.000000 0.000000 0.000000
0.000000 0.000000 0.000000
0.021243 0.000000 0.000000
0.064197 0.000000 0.000000
0.093191 0.000000 0.000000
0.123127 0.000000 0.000000
0.148587 0.000000 0.000000
0.188402 0.000000 0.000000
0.229642 0.000000 0.000000
0.275727 0.000000 0.000000
0.320029 0.000000 0.000000
0.377794 0.000000 0.000000
0.440032 0.000000 0.000000
0.511785 0.000000 0.000000
0.586623 0.000000 0.000000
0.665934 0.000000 0.000000
0.745075 0.000000 0.000000
0.832063 0.000000 0.049009
0.914292 0.000000 0.079646
0.969902 0.000000 0.117678
1.000000 0.000000 0.156622
1.000000 0.185617 0.212308
1.000000 0.303480 0.265519
1.000000 0.405937 0.328131
1.000000 0.511800 0.396146
1.000000 0.598188 0.473861
1.000000 0.667749 0.535040
1.000000 0.746141 0.606509
1.000000 0.800180 0.677674
1.000000 0.842484 0.737377
0.000000 0.024825 0.000000
0.000000 0.025147 0.000000
0.000000 0.025389 0.000000
0.000000 0.027495 0.000000
0.000000 0.029843 0.000000
0.012661 0.033555 0.000000
0.062710 0.014102 0.000000
0.101503 0.000000 0.000000
0.129376 0.000000 0.000000
0.157742 0.000000 0.000000
0.196444 0.000000 0.000000
0.238109 0.000000 0.000000
0.281811 0.000000 0.000000
0.327083 0.000000 0.000000
0.383891 0.000000 0.000000
0.444418 0.000000 0.000000
0.519773 0.000000 0.000000
0.591057 0.000000 0.000000
0.667531 0.000000 0.000000
0.745724 0.000000 0.000000
0.832409 0.000000 0.048365
0.914718 0.000000 0.081117
0.969911 0.000000 0.117539
1.000000 0.000000 0.156473
1.000000 0.185982 0.212601
1.000000 0.311469 0.265230
1.000000 0.412983 0.327916
1.000000 0.511800 0.396146
1.000000 0.598188 0.473861
1.000000 0.673254 0.535021
1.000000 0.746141 0.606509
1.000000 0.800180 0.677674
1.000000 0.842484 0.737377
0.000000 0.051187 0.000000
0.000000 0.050343 0.000000
0.000000 0.050533 0.000000
0.000000 0.051603 0.000000
0.000000 0.053278 0.000000
0.000000 0.054952 0.000000
0.059806 0.053116 0.000000
0.099198 0.042288 0.000000
0.135895 0.015396 0.000000
0.172925 0.000000 0.000000
0.213719 0.000000 0.000000
0.250784 0.000000 0.000000
0.290161 0.000000 0.000000
0.336662 0.000000 0.000000
0.395237 0.000000 0.000000
0.449186 0.000000 0.000000
0.521035 0.000000 0.000000
0.592500 0.000000 0.000000
0.672115 0.000000 0.000000
0.750356 0.000000 0.000000
0.832865 0.000000 0.047422
0.914850 0.000000 0.080769
0.969926 0.000000 0.117250
1.000000 0.000000 0.156164
1.000000 0.196933 0.212291
1.000000 0.311469 0.265230
1.000000 0.413116 0.330272
1.000000 0.511800 0.396146
1.000000 0.598188 0.473861
1.000000 0.673254 0.535021
1.000000 0.746141 0.606509
1.000000 0.800180 0.677674
1.000000 0.842484 0.737377
0.000000 0.068486 0.000000
0.000000 0.069598 0.000000
0.000000 0.068644 0.000000
0.000000 0.071105 0.000000
0.000000 0.073710 0.000000
0.000000 0.077132 0.000000
0.040128 0.077578 0.000000
0.097351 0.073417 0.000000
0.140569 0.056168 0.000000
0.182435 0.033482 0.000000
0.227569 0.000000 0.000000
0.267747 0.000000 0.000000
0.303939 0.000000 0.000000
0.345448 0.000000 0.000000
0.405262 0.000000 0.000000
0.456987 0.000000 0.000000
0.526048 0.000000 0.000000
0.597748 0.000000 0.000000
0.677238 0.000000 0.000000
0.751398 0.000000 0.000000
0.837191 0.000000 0.045718
0.915107 0.000000 0.080027
0.970112 0.000000 0.119096
1.000000 0.000000 0.156094
1.000000 0.202407 0.213773
1.000000 0.315426 0.265083
1.000000 0.416630 0.330164
1.000000 0.511800 0.396146
1.000000 0.598188 0.473861
1.000000 0.674742 0.536214
1.000000 0.748299 0.606565
1.000000 0.800180 0.677674
1.000000 0.842484 0.737377
0.000000 0.089594 0.000000
0.000000 0.090976 0.000000
0.000000 0.092481 0.000000
0.000000 0.092664 0.000000
0.000000 0.096669 0.000000
0.000000 0.100863 0.000000
0.000000 0.106051 0.000000
0.093937 0.104227 0.000000
0.147879 0.089530 0.000000
0.198317 0.073290 0.000000
0.242549 0.041174 0.000000
0.284472 0.000000 0.000000
0.322785 0.000000 0.000000
0.364697 0.000000 0.000000
0.413350 0.000000 0.000000
0.465317 0.000000 0.000000
0.535919 0.000000 0.000000
0.606837 0.000000 0.000000
0.689837 0.000000 0.000000
0.759869 0.000000 0.000000
0.838002 0.000000 0.046402
0.918478 0.000000 0.079099
0.970113 0.000000 0.118624
1.000000 0.000000 0.156941
1.000000 0.212674 0.213443
1.000000 0.323272 0.264779
1.000000 0.417278 0.330590
1.000000 0.515071 0.396072
1.000000 0.598188 0.473861
1.000000 0.674742 0.536214
1.000000 0.748299 0.606565
1.000000 0.801844 0.677771
1.000000 0.842484 0.737377
0.000000 0.116016 0.000000
0.000000 0.118676 0.000000
0.000000 0.120615 0.000000
0.000000 0.120882 0.000000
0.000000 0.127102 0.000000
0.000000 0.130322 0.000000
0.000000 0.137292 0.000000
0.041712 0.140803 0.000000
0.140361 0.139762 0.000000
0.202731 0.121320 0.000000
0.253653 0.097224 0.000000
0.295487 0.077038 0.000000
0.339908 0.000000 0.000000
0.386696 0.000000 0.000000
0.432452 0.000000 0.000000
0.485045 0.000000 0.000000
0.546347 0.000000 0.000000
0.620645 0.000000 0.000000
0.695117 0.000000 0.000000
0.764980 0.000000 0.000000
0.839567 0.000000 0.046008
0.918917 0.000000 0.080297
0.972569 0.000000 0.118133
1.000000 0.000000 0.156394
1.000000 0.213050 0.213739
1.000000 0.328028 0.268932
1.000000 0.420779 0.330481
1.000000 0.518467 0.398637
1.000000 0.601304 0.473813
1.000000 0.674742 0.536214
1.000000 0.748299 0.606565
1.000000 0.801844 0.677771
1.000000 0.843809 0.737473
0.000000 0.148749 0.000000
0.000000 0.151002 0.000000
0.000000 0.155865 0.000000
0.000000 0.156242 0.000000
0.000000 0.163068 0.000000
0.000000 0.165881 0.000000
0.000000 0.173383 0.000000
0.000000 0.181098 0.000000
0.100709 0.182080 0.000000
0.197935 0.176535 0.000000
0.263127 0.155258 0.000000
0.316446 0.132770 0.000000
0.358966 0.110372 0.000000
0.408298 0.066258 0.000000
0.459631 0.000000 0.000000
0.508266 0.000000 0.000000
0.558641 0.000000 0.000000
0.631148 0.000000 0.000000
0.704880 0.000000 0.000000
0.773785 0.000000 0.000000
0.844370 0.000000 0.046309
0.922354 0.000000 0.080020
0.972668 0.000000 0.119587
1.000000 0.083187 0.158445
1.000000 0.227979 0.214878
1.000000 0.331891 0.268780
1.000000 0.424275 0.330370
1.000000 0.528271 0.398409
1.000000 0.604421 0.473765
1.000000 0.677454 0.536209
1.000000 0.748299 0.606565
1.000000 0.801905 0.680365
1.000000 0.843809 0.737473
0.000000 0.180903 0.000000
0.000000 0.185004 0.000000
0.000000 0.190997 0.000000
0.000000 0.193082 0.000000
0.000000 0.199887 0.000000
0.000000 0.207691 0.000000
0.000000 0.211618 0.000000
0.000000 0.219054 0.000000
0.000000 0.220404 0.000000
0.160537 0.219221 0.000000
0.260647 0.212867 0.000000
0.326189 0.188515 0.000000
0.375380 0.168013 0.000000
0.424010 0.149372 0.000000
0.483566 0.118898 0.000000
0.529351 0.067884 0.000000
0.589687 0.000000 0.000000
0.650582 0.000000 0.000000
0.715857 0.000000 0.000000
0.783691 0.000000 0.000000
0.856047 0.000000 0.040258
0.923194 0.000000 0.081689
0.975049 0.000000 0.120566
1.000000 0.123684 0.157844
1.000000 0.237474 0.214511
1.000000 0.343514 0.270314
1.000000 0.434997 0.334816
1.000000 0.531538 0.398331
1.000000 0.605279 0.477063
1.000000 0.677454 0.536209
1.000000 0.751035 0.607266
1.000000 0.801905 0.680365
1.000000 0.843858 0.739643
0.000000 0.222303 0.000000
0.000000 0.227047 0.000000
0.000000 0.235304 0.000000
0.000000 0.239379 0.000000
0.000000 0.245561 0.000000
0.000000 0.252327 0.000000
0.000000 0.254551 0.000000
0.000000 0.264470 0.000000
0.000000 0.268736 0.000000
0.063086 0.269928 0.000000
0.221597 0.272031 0.000000
0.318299 0.255678 0.000000
0.387653 0.231938 0.000000
0.446915 0.210355 0.000000
0.504595 0.192051 0.000000
0.557304 0.161488 0.000000
0.611237 0.132739 0.000000
0.668064 0.057830 0.000000
0.731372 0.000000 0.000000
0.794270 0.000000 0.000000
0.864652 0.000000 0.035981
0.926790 0.000000 0.081714
0.981673 0.000000 0.119683
1.000000 0.172368 0.163400
1.000000 0.265808 0.217303
1.000000 0.354847 0.269827
1.000000 0.446638 0.335345
1.000000 0.534804 0.398252
1.000000 0.608389 0.477015
1.000000 0.680154 0.536204
1.000000 0.753154 0.607327
1.000000 0.803562 0.680462
1.000000 0.843858 0.739643
0.000000 0.266601 0.000000
0.000000 0.274358 0.000000
0.000000 0.278985 0.000000
0.000000 0.280168 0.000000
0.000000 0.289692 0.000000
0.000000 0.295615 0.000000
0.000000 0.298010 0.000000
0.000000 0.306519 0.000000
0.000000 0.315973 0.000000
0.000000 0.320796 0.000000
0.138984 0.319324 0.000000
0.273953 0.319625 0.000000
0.377201 0.303136 0.000000
0.455197 0.282852 0.000000
0.527090 0.263377 0.000000
0.583023 0.245914 0.000000
0.630067 0.226030 0.000000
0.689555 0.194919 0.000000
0.748676 0.151056 0.000000
0.809458 0.050999 0.000000
0.880197 0.000000 0.027749
0.935918 0.000000 0.079933
0.983208 0.128883 0.118724
1.000000 0.205055 0.165076
1.000000 0.291369 0.215997
1.000000 0.374254 0.273423
1.000000 0.453669 0.337541
1.000000 0.545388 0.401180
1.000000 0.617722 0.476871
1.000000 0.682842 0.536202
1.000000 0.755415 0.612930
1.000000 0.804058 0.681115
1.000000 0.845175 0.739738
0.000000 0.322796 0.000000
0.000000 0.328224 0.000000
0.000000 0.334064 0.000000
0.000000 0.343066 0.000000
0.000000 0.349514 0.000000
0.000000 0.356595 0.000000
0.000000 0.359042 0.000000
0.000000 0.366435 0.000000
0.000000 0.376983 0.000000
0.000000 0.383223 0.000000
0.000000 0.388713 0.000000
0.171214 0.389429 0.000000
0.316827 0.388333 0.000000
0.443113 0.378317 0.000000
0.536927 0.349304 0.000000
0.596241 0.332690 0.000000
0.657236 0.316016 0.000000
0.714356 0.296538 0.000000
0.765486 0.267215 0.000000
0.825656 0.242821 0.000000
0.888287 0.191747 0.000000
0.944012 0.174173 0.077569
0.986587 0.203735 0.121073
1.000000 0.248316 0.168816
1.000000 0.320648 0.221688
1.000000 0.392701 0.274609
1.000000 0.468014 0.337511
1.000000 0.552150 0.406361
1.000000 0.624183 0.482333
1.000000 0.690826 0.536204
1.000000 0.757502 0.612996
1.000000 0.805700 0.681213
1.000000 0.845175 0.739738
0.000000 0.385957 0.000000
0.000000 0.390302 0.000000
0.000000 0.394887 0.000000
0.000000 0.402566 0.000000
0.000000 0.410385 0.000000
0.000000 0.418088 0.000000
0.000000 0.422790 0.000000
0.000000 0.427984 0.000000
0.000000 0.430956 0.000000
0.000000 0.436924 0.000000
0.000000 0.449554 0.000000
0.000000 0.454942 0.000000
0.190522 0.461763 0.000000
0.379081 0.453659 0.000000
0.520020 0.445557 0.000000
0.603359 0.412060 0.000000
0.662669 0.399411 0.000000
0.727491 0.384146 0.000000
0.786874 0.372679 0.000000
0.840894 0.348101 0.000000
0.896903 0.329265 0.000000
0.946823 0.286269 0.057229
0.988553 0.279586 0.125190
1.000000 0.312218 0.168531
1.000000 0.360012 0.224926
1.000000 0.422556 0.281997
1.000000 0.492614 0.339556
1.000000 0.565165 0.406041
1.000000 0.630404 0.482237
1.000000 0.696184 0.538991
1.000000 0.759574 0.613065
1.000000 0.808962 0.681416
1.000000 0.846910 0.740437
0.000000 0.464869 0.000000
0.000000 0.472974 0.000000
0.000000 0.474909 0.000000
0.000000 0.479680 0.000000
0.000000 0.484786 0.000000
0.000000 0.489467 0.000000
0.000000 0.494150 0.000000
0.000000 0.501918 0.000000
0.000000 0.507011 0.000000
0.000000 0.510368 0.000000
0.000000 0.516526 0.000000
0.000000 0.525366 0.000000
0.000000 0.526944 0.000000
0.237141 0.533426 0.000000
0.443906 0.530645 0.000000
0.575544 0.519507 0.000000
0.661322 0.494823 0.000000
0.730324 0.473415 0.000000
0.800122 0.466225 0.000000
0.849406 0.447377 0.000000
0.902178 0.425394 0.000000
0.950122 0.406584 0.000000
0.988751 0.377171 0.116849
1.000000 0.375032 0.172831
1.000000 0.408895 0.227236
1.000000 0.456224 0.287993
1.000000 0.521481 0.342404
1.000000 0.582889 0.412040
1.000000 0.640988 0.483167
1.000000 0.702031 0.539616
1.000000 0.767703 0.613364
1.000000 0.812253 0.684192
1.000000 0.848205 0.740535
0.000000 0.550542 0.000000
0.000000 0.552222 0.000000
0.000000 0.553565 0.000000
0.000000 0.558196 0.000000
0.000000 0.559862 0.000000
0.000000 0.563926 0.000000
0.000000 0.568326 0.000000
0.000000 0.573028 0.000000
0.000000 0.578255 0.000000
0.000000 0.583413 0.000000
0.000000 0.591753 0.000000
0.000000 0.594024 0.000000
0.000000 0.602592 0.000000
0.000000 0.609427 0.000000
0.317026 0.608601 0.000000
0.492962 0.605972 0.000000
0.636340 0.600920 0.000000
0.729231 0.575547 0.000000
0.801430 0.558614 0.000000
0.858021 0.547094 0.000000
0.902524 0.533586 0.000000
0.944315 0.520397 0.000000
0.983306 0.493308 0.097466
1.000000 0.466856 0.169627
1.000000 0.471753 0.236958
1.000000 0.506127 0.290418
1.000000 0.552605 0.349363
1.000000 0.603008 0.414771
1.000000 0.656166 0.485762
1.000000 0.714925 0.545266
1.000000 0.772740 0.617585
1.000000 0.813857 0.684297
1.000000 0.850819 0.742877
0.000000 0.626753 0.000000
0.000000 0.628222 0.000000
0.000000 0.629227 0.000000
0.000000 0.633808 0.000000
0.000000 0.638369 0.000000
0.000000 0.639009 0.000000
0.000000 0.643216 0.000000
0.000000 0.644161 0.000000
0.000000 0.648666 0.000000
0.000000 0.656262 0.000000
0.000000 0.660939 0.000000
0.000000 0.672115 0.000000
0.000000 0.674059 0.000000
0.000000 0.681889 0.000000
0.090663 0.684652 0.000000
0.381070 0.683341 0.000000
0.548389 0.686374 0.000000
0.690826 0.681987 0.000000
0.785329 0.652783 0.000000
0.848762 0.640570 0.000000
0.899282 0.617181 0.000000
0.939476 0.607898 0.000000
0.973612 0.592186 0.078075
1.000000 0.574031 0.173203
1.000000 0.556433 0.237478
1.000000 0.558286 0.292131
1.000000 0.590030 0.353649
1.000000 0.625935 0.422387
1.000000 0.677213 0.486104
1.000000 0.733139 0.546711
1.000000 0.780399 0.617954
1.000000 0.818677 0.687176
1.000000 0.852091 0.742978
0.000000 0.708917 0.000000
0.000000 0.713081 0.000000
0.000000 0.713811 0.000000
0.000000 0.714651 0.000000
0.000000 0.714945 0.000000
0.000000 0.715328 0.000000
0.000000 0.715836 0.000000
0.000000 0.716526 0.000000
0.000000 0.720443 0.000000
0.000000 0.721672 0.000000
0.000000 0.726018 0.000000
0.000000 0.733051 0.000000
0.000000 0.737004 0.000000
0.000000 0.738263 0.000000
0.000000 0.744115 0.000000
0.254184 0.748382 0.000000
0.475894 0.746170 0.000000
0.624266 0.750289 0.000000
0.763671 0.739759 0.000000
0.834698 0.721139 0.000000
0.884150 0.711042 0.000000
0.933129 0.689666 0.000000
0.964179 0.684251 0.000000
0.992491 0.670023 0.166141
1.000000 0.647193 0.248328
1.000000 0.630989 0.300908
1.000000 0.634285 0.360971
1.000000 0.664775 0.425319
1.000000 0.700230 0.489359
1.000000 0.747176 0.549791
1.000000 0.787895 0.621129
1.000000 0.825734 0.688914
1.000000 0.857141 0.745518
0.000000 0.774679 0.000000
0.000000 0.775109 0.000000
0.000000 0.775327 0.000000
0.000000 0.775744 0.000000
0.000000 0.776043 0.000000
0.000000 0.776285 0.000000
0.000000 0.779480 0.000000
0.000000 0.779863 0.000000
0.000000 0.785498 0.000000
0.000000 0.786064 0.000000
0.000000 0.789241 0.000000
0.000000 0.792394 0.000000
0.000000 0.795466 0.000000
0.000000 0.800759 0.000000
0.000000 0.802838 0.000000
0.000000 0.801439 0.000000
0.394127 0.806429 0.000000
0.567634 0.802805 0.000000
0.703571 0.800631 0.000000
0.810639 0.796278 0.000000
0.872549 0.779230 0.000000
0.917770 0.770066 0.000000
0.953879 0.754858 0.028530
0.979320 0.747820 0.177449
1.000000 0.733667 0.263215
1.000000 0.719823 0.327644
1.000000 0.703463 0.373677
1.000000 0.709448 0.434194
1.000000 0.735297 0.499155
1.000000 0.769661 0.559523
1.000000 0.800948 0.622583
1.000000 0.831782 0.689401
1.000000 0.862793 0.751286
0.000000 0.833703 0.107846
0.000000 0.833928 0.108716
0.000000 0.834093 0.109368
0.000000 0.834361 0.110454
0.000000 0.834517 0.111105
0.000000 0.834669 0.111755
0.000000 0.834866 0.112624
0.000000 0.835008 0.113273
0.000000 0.835163 0.108647
0.000000 0.837518 0.109543
0.000000 0.839778 0.098933
0.000000 0.839991 0.088360
0.000000 0.842006 0.053291
0.000000 0.845950 0.022517
0.000000 0.847460 0.015752
0.000000 0.851899 0.000000
0.320693 0.849530 0.000000
0.515881 0.850045 0.000000
0.655787 0.845960 0.000000
0.761418 0.844043 0.000000
0.845497 0.840300 0.000000
0.907224 0.826186 0.000000
0.940005 0.818995 0.082721
0.969560 0.808740 0.200134
0.991535 0.799147 0.283313
1.000000 0.789944 0.348618
1.000000 0.778858 0.399432
1.000000 0.768398 0.453178
1.000000 0.771564 0.516039
1.000000 0.790387 0.567442
1.000000 0.815575 0.627714
1.000000 0.841392 0.696441
1.000000 0.867513 0.753785
0.000000 0.875952 0.234912
0.000000 0.876013 0.235204
0.000000 0.876100 0.235642
0.000000 0.876154 0.235936
0.000000 0.876257 0.236524
0.000000 0.876328 0.236968
0.000000 0.876372 0.237265
0.000000 0.876432 0.237711
0.000000 0.876519 0.238459
0.000000 0.876586 0.239212
0.000000 0.876472 0.230072
0.000000 0.878108 0.224898
0.000000 0.877918 0.223385
0.000000 0.879156 0.211579
0.000000 0.881997 0.211056
0.000000 0.884490 0.210933
0.037125 0.885839 0.198231
0.452792 0.882473 0.197803
0.607453 0.881686 0.187685
0.722789 0.879225 0.178683
0.814316 0.875707 0.183768
0.885534 0.872657 0.179015
0.932135 0.862857 0.157725
0.958752 0.855347 0.231646
0.982278 0.846765 0.308043
1.000000 0.842041 0.370224
1.000000 0.832647 0.424793
1.000000 0.821875 0.482559
1.000000 0.814118 0.540636
1.000000 0.815147 0.584512
1.000000 0.831087 0.638652
1.000000 0.854246 0.703230
1.000000 0.875966 0.757760
0.000000 0.908083 0.323434
0.000000 0.909496 0.324396
0.000000 0.909482 0.324695
0.000000 0.909474 0.324844
0.000000 0.909444 0.325294
0.000000 0.909432 0.325444
0.000000 0.909405 0.325746
0.000000 0.909337 0.326349
0.000000 0.912056 0.327878
0.000000 0.911957 0.328489
0.000000 0.911843 0.329103
0.000000 0.911602 0.326821
0.000000 0.911324 0.324551
0.000000 0.910867 0.319402
0.000000 0.910238 0.311214
0.000000 0.912007 0.314646
0.000000 0.913143 0.315574
0.414095 0.912393 0.302927
0.576713 0.908697 0.298732
0.680329 0.909054 0.303256
0.782806 0.906258 0.297244
0.856506 0.903143 0.298496
0.911682 0.900663 0.291082
0.947130 0.893194 0.282323
0.973031 0.884636 0.345951
0.994685 0.878902 0.402713
1.000000 0.873726 0.451630
1.000000 0.866149 0.504590
1.000000 0.857729 0.562710
1.000000 0.850233 0.604455
1.000000 0.852995 0.651427
1.000000 0.867663 0.710826
1.000000 0.884623 0.761328
0.000000 0.935850 0.428500
0.000000 0.935850 0.428500
0.000000 0.935807 0.428644
0.000000 0.935719 0.428933
0.000000 0.935719 0.428933
0.000000 0.935673 0.429078
0.000000 0.935579 0.429368
0.000000 0.935530 0.429514
0.000000 0.935430 0.429805
0.000000 0.936478 0.430557
0.000000 0.936259 0.424836
0.000000 0.936028 0.425428
0.000000 0.935716 0.426171
0.000000 0.935204 0.424151
0.000000 0.934471 0.422459
0.000000 0.933518 0.417901
0.215718 0.936060 0.417084
0.415751 0.934779 0.417836
0.547787 0.933899 0.407860
0.666139 0.930372 0.409612
0.756122 0.930063 0.405993
0.830427 0.927933 0.399916
0.887572 0.925472 0.403247
0.933576 0.923518 0.404230
0.962390 0.917271 0.391923
0.985770 0.909809 0.431332
1.000000 0.903966 0.480471
1.000000 0.900939 0.536820
1.000000 0.893791 0.586012
1.000000 0.886513 0.637310
1.000000 0.881792 0.674330
1.000000 0.883387 0.726425
1.000000 0.895110 0.765751
0.000000 0.959065 0.508042
0.000000 0.958954 0.502188
0.000000 0.958954 0.502188
0.000000 0.958809 0.502475
0.000000 0.958809 0.502475
0.000000 0.958735 0.502619
0.000000 0.958735 0.502619
0.000000 0.958660 0.502763
0.000000 0.959392 0.503751
0.000000 0.959313 0.503895
0.000000 0.959233 0.504040
0.000000 0.958987 0.504476
0.000000 0.958643 0.505059
0.000000 0.958169 0.502813
0.000000 0.957482 0.503853
0.143808 0.956285 0.505514
0.322377 0.956642 0.502741
0.439569 0.955696 0.502623
0.546683 0.954150 0.503137
0.639609 0.953098 0.499259
