Assets/Lutify-Free-LUTs-Pack/Lutify Free LUTs Pack/Film Tone Pro - Film Tone 3/Lutify.me-FilmTone3-SLog3Cine-to-Rec709.cube
# Created with: fylm.ai - Colour Grading and Collaboration Software in Cloud 
# Website: https://fylm.ai 
# META
# Option: Gamut compress
# Block 1: IDT | Sony S-Log3 S-Gamut3.Cine
# Block 2: colourMatch | Blending Mode: Normal | {"ColorSpace":0,"CrossCovarianceLimit":50,"ReshapingIterations":1,"PercentSaturationShift":100,"PercentShadingShift":100,"ExtraShading":true,"PercentTint":100,"PercentModified":100}
# Block 3: subtractiveColour | Blending Mode: Normal | {"sliders":{"gainY":0.6,"C":0.3,"M":0.3,"Y":0.3}}
# Block 4: LUT | Filmic Curve Response: Low Contrast 2 (100%)
# Block 5: logPrimaries | Blending Mode: Normal | {"wheels":{"shadows":{"Y":"0","R":"1","G":"1","B":"1"},"midtones":{"Y":"0","R":"1","G":"1","B":"1"},"highlights":{"Y":"0","R":"1","G":"1","B":"1"},"offset":{"Y":"0","R":"1","G":"1","B":"1"}},"sliders":{"shadows":{"Y":0,"R":-0.026,"G":0.03,"B":0.1},"midtones":{"Y":0,"R":0.024,"G":-0.036,"B":0.036},"highlights":{"Y":0,"R":0,"G":0.044,"B":-0.128},"offset":{"Y":0,"R":0,"G":0,"B":0}}}
# Block 6: hueSaturation | Blending Mode: Normal | {"hue":0,"saturation":-0.1}
# Block 7: ODT | Rec709
TITLE "Lutify.me-FilmTone3-SLog3Cine-to-Rec709" 
LUT_3D_SIZE 5
0.000000 0.000000 0.000000
0.114934 0.000000 0.000000
0.463537 0.000000 0.000000
1.000000 0.000000 0.130749
1.000000 0.767495 0.603397
0.000000 0.120715 0.000000
0.174170 0.125928 0.000000
0.532307 0.000000 0.000000
1.000000 0.000000 0.133973
1.000000 0.769348 0.603482
0.000000 0.550909 0.000000
0.000000 0.565332 0.000000
0.684731 0.528887 0.000000
1.000000 0.372961 0.127237
1.000000 0.785033 0.613676
0.387342 0.938847 0.363886
0.436807 0.938012 0.365030
0.636322 0.933804 0.346635
0.963719 0.916409 0.243785
1.000000 0.875837 0.663678
0.903916 1.000000 0.870534
0.903916 1.000000 0.870534
0.909039 1.000000 0.870005
0.940841 1.000000 0.871159
1.000000 1.000000 0.869259
0.000000 0.000000 0.064647
0.091771 0.000000 0.040868
0.457802 0.000000 0.033247
1.000000 0.000000 0.155706
1.000000 0.765781 0.608510
0.000000 0.101333 0.161070
0.115798 0.132215 0.139665
0.519698 0.000000 0.048993
1.000000 0.000000 0.158746
1.000000 0.769569 0.611282
0.000000 0.570174 0.000000
0.000000 0.585248 0.000000
0.662987 0.577061 0.000000
1.000000 0.376281 0.170013
1.000000 0.785101 0.616272
0.389344 0.937147 0.403805
0.430359 0.938496 0.406227
0.637194 0.934124 0.384387
0.963698 0.917111 0.297939
1.000000 0.875875 0.666131
0.903903 1.000000 0.871402
0.903903 1.000000 0.871402
0.909024 1.000000 0.870872
0.940841 1.000000 0.871159
1.000000 1.000000 0.869868
0.000000 0.000000 0.217816
0.000000 0.000000 0.161152
0.425276 0.000000 0.084823
1.000000 0.000000 0.314419
1.000000 0.768453 0.637550
0.000000 0.000000 0.352658
0.000000 0.000000 0.326826
0.474085 0.000000 0.215917
1.000000 0.000000 0.324205
1.000000 0.770295 0.637631
0.000000 0.537960 0.593246
0.000000 0.571381 0.594866
0.594801 0.608253 0.582115
1.000000 0.372951 0.375699
1.000000 0.787623 0.647926
0.352257 0.941996 0.584594
0.389698 0.941452 0.585173
0.603724 0.937531 0.572050
0.951279 0.925920 0.540685
1.000000 0.873594 0.695754
0.903803 1.000000 0.878215
0.903803 1.000000 0.878215
0.908911 1.000000 0.877687
0.940703 1.000000 0.876821
1.000000 1.000000 0.875500
0.000000 0.000000 0.369882
0.000000 0.000000 0.360631
0.395809 0.000000 0.329248
0.930172 0.000000 0.199455
1.000000 0.745775 0.780205
0.000000 0.000000 0.599266
0.000000 0.000000 0.592738
0.315656 0.000000 0.532503
0.930172 0.000000 0.199455
1.000000 0.747809 0.780195
0.000000 0.235731 0.811302
0.000000 0.243341 0.812207
0.227364 0.262630 0.813718
1.000000 0.000000 0.736669
1.000000 0.771188 0.781072
0.000000 0.936565 0.904094
0.000000 0.937188 0.903115
0.377691 0.939380 0.904494
0.916550 0.930299 0.898206
1.000000 0.871585 0.814664
0.896417 1.000000 0.915011
0.896417 1.000000 0.915011
0.901003 1.000000 0.915708
0.935899 1.000000 0.916009
1.000000 1.000000 0.916516
0.440614 0.000000 0.626915
0.467181 0.000000 0.611144
0.599037 0.000000 0.594401
0.906821 0.000000 0.533560
1.000000 0.000000 0.410191
0.313167 0.000000 0.834877
0.336461 0.000000 0.830477
0.475306 0.000000 0.777073
0.906821 0.000000 0.533560
1.000000 0.000000 0.410191
0.209485 0.192107 0.956218
0.233045 0.188668 0.956254
0.403075 0.158772 0.955194
0.900199 0.000000 0.932660
1.000000 0.000000 0.410191
0.000000 0.765846 0.985974
0.000000 0.765591 0.985423
0.233529 0.769801 0.985056
0.790716 0.770549 0.980926
1.000000 0.701415 0.959901
0.839726 1.000000 0.997929
0.839726 1.000000 0.997929
0.848002 1.000000 0.997936
0.905270 1.000000 0.997278
0.998895 1.000000 0.994971
