Assets/Lutify-Free-LUTs-Pack/Lutify Free LUTs Pack/Film Tone Pro - Film Tone 3/Lutify.me-FilmTone3-ZLog2-to-Rec709.cube
# Created with: fylm.ai - Colour Grading and Collaboration Software in Cloud 
# Website: https://fylm.ai 
# META
# Option: Gamut compress
# Block 1: IDT | Z-Cam Z-Log2 - BETA
# Block 2: colourMatch | Blending Mode: Normal | {"ColorSpace":0,"CrossCovarianceLimit":50,"ReshapingIterations":1,"PercentSaturationShift":100,"PercentShadingShift":100,"ExtraShading":true,"PercentTint":100,"PercentModified":100}
# Block 3: subtractiveColour | Blending Mode: Normal | {"sliders":{"gainY":0.6,"C":0.3,"M":0.3,"Y":0.3}}
# Block 4: LUT | Filmic Curve Response: Low Contrast 2 (100%)
# Block 5: logPrimaries | Blending Mode: Normal | {"wheels":{"shadows":{"Y":"0","R":"1","G":"1","B":"1"},"midtones":{"Y":"0","R":"1","G":"1","B":"1"},"highlights":{"Y":"0","R":"1","G":"1","B":"1"},"offset":{"Y":"0","R":"1","G":"1","B":"1"}},"sliders":{"shadows":{"Y":0,"R":-0.026,"G":0.03,"B":0.1},"midtones":{"Y":0,"R":0.024,"G":-0.036,"B":0.036},"highlights":{"Y":0,"R":0,"G":0.044,"B":-0.128},"offset":{"Y":0,"R":0,"G":0,"B":0}}}
# Block 6: hueSaturation | Blending Mode: Normal | {"hue":0,"saturation":-0.1}
# Block 7: ODT | Rec709
TITLE "Lutify.me-FilmTone3-ZLog2-to-Rec709" 
LUT_3D_SIZE 33
0.000000 0.000000 0.000000
0.000000 0.000000 0.000000
0.000000 0.000000 0.000000
0.000000 0.000000 0.000000
0.000000 0.000000 0.000000
0.025102 0.000000 0.000000
0.048140 0.000000 0.000000
0.063240 0.000000 0.000000
0.077097 0.000000 0.000000
0.090616 0.000000 0.000000
0.104642 0.000000 0.000000
0.116239 0.000000 0.000000
0.127954 0.000000 0.000000
0.141602 0.000000 0.000000
0.157594 0.000000 0.000000
0.174310 0.000000 0.000000
0.194866 0.000000 0.000000
0.211879 0.000000 0.000000
0.232256 0.000000 0.000000
0.254768 0.000000 0.000000
0.281135 0.000000 0.000000
0.303212 0.000000 0.014250
0.335660 0.000000 0.023677
0.367995 0.000000 0.030780
0.396110 0.000000 0.033392
0.426870 0.000000 0.036597
0.461282 0.000000 0.041936
0.499536 0.000000 0.049622
0.542928 0.000000 0.056382
0.588147 0.000000 0.064181
0.630893 0.000000 0.072857
0.674792 0.000000 0.083991
0.708847 0.000000 0.096589
0.000000 0.000000 0.000000
0.000000 0.000000 0.000000
0.000000 0.000000 0.000000
0.000000 0.000000 0.000000
0.004549 0.000000 0.000000
0.031737 0.000000 0.000000
0.052914 0.000000 0.000000
0.065971 0.000000 0.000000
0.078147 0.000000 0.000000
0.092335 0.000000 0.000000
0.106375 0.000000 0.000000
0.117552 0.000000 0.000000
0.129295 0.000000 0.000000
0.143189 0.000000 0.000000
0.159490 0.000000 0.000000
0.176514 0.000000 0.000000
0.194973 0.000000 0.000000
0.213370 0.000000 0.000000
0.232483 0.000000 0.000000
0.258285 0.000000 0.000000
0.281446 0.000000 0.000000
0.303398 0.000000 0.014352
0.335797 0.000000 0.023675
0.368386 0.000000 0.030752
0.399005 0.000000 0.033274
0.427369 0.000000 0.037090
0.464756 0.000000 0.042777
0.500003 0.000000 0.050127
0.543169 0.000000 0.056383
0.588393 0.000000 0.064183
0.631018 0.000000 0.072860
0.675042 0.000000 0.084000
0.709093 0.000000 0.096600
0.000000 0.000000 0.000000
0.000000 0.000000 0.000000
0.000000 0.000000 0.000000
0.000000 0.000000 0.000000
0.019270 0.000000 0.000000
0.041220 0.000000 0.000000
0.057613 0.000000 0.000000
0.070060 0.000000 0.000000
0.082829 0.000000 0.000000
0.095737 0.000000 0.000000
0.108054 0.000000 0.000000
0.118653 0.000000 0.000000
0.130649 0.000000 0.000000
0.144820 0.000000 0.000000
0.161433 0.000000 0.000000
0.178787 0.000000 0.000000
0.196357 0.000000 0.000000
0.216331 0.000000 0.000000
0.235677 0.000000 0.000000
0.261919 0.000000 0.000000
0.283328 0.000000 0.000000
0.307386 0.000000 0.015833
0.338306 0.000000 0.023556
0.370947 0.000000 0.030000
0.399169 0.000000 0.032677
0.433343 0.000000 0.037395
0.465401 0.000000 0.042738
0.503894 0.000000 0.050032
0.550094 0.000000 0.055125
0.588355 0.000000 0.062947
0.634740 0.000000 0.072837
0.675594 0.000000 0.085496
0.709338 0.000000 0.096610
0.000000 0.010237 0.000000
0.000000 0.012187 0.000000
0.000000 0.012562 0.000000
0.000000 0.013478 0.000000
0.013153 0.005704 0.000000
0.039945 0.000000 0.000000
0.057661 0.000000 0.000000
0.071250 0.000000 0.000000
0.085698 0.000000 0.000000
0.100052 0.000000 0.000000
0.111495 0.000000 0.000000
0.122018 0.000000 0.000000
0.133383 0.000000 0.000000
0.147304 0.000000 0.000000
0.165426 0.000000 0.000000
0.181161 0.000000 0.000000
0.201635 0.000000 0.000000
0.219394 0.000000 0.000000
0.239041 0.000000 0.000000
0.263945 0.000000 0.000000
0.285333 0.000000 0.000000
0.311538 0.000000 0.015618
0.342891 0.000000 0.022399
0.371348 0.000000 0.029961
0.402288 0.000000 0.033121
0.433950 0.000000 0.037869
0.469235 0.000000 0.043549
0.504107 0.000000 0.049503
0.550821 0.000000 0.055107
0.592244 0.000000 0.062900
0.635114 0.000000 0.072841
0.676092 0.000000 0.085512
0.713517 0.000000 0.096638
0.000000 0.027010 0.000000
0.000000 0.028243 0.000000
0.000000 0.029815 0.000000
0.000000 0.028960 0.000000
0.000000 0.030675 0.000000
0.038409 0.026175 0.000000
0.053452 0.017402 0.000000
0.068592 0.000000 0.000000
0.085270 0.000000 0.000000
0.100305 0.000000 0.000000
0.112936 0.000000 0.000000
0.126520 0.000000 0.000000
0.136913 0.000000 0.000000
0.151668 0.000000 0.000000
0.169683 0.000000 0.000000
0.184854 0.000000 0.000000
0.203263 0.000000 0.000000
0.221195 0.000000 0.000000
0.244135 0.000000 0.000000
0.267814 0.000000 0.000000
0.289326 0.000000 0.002604
0.315882 0.000000 0.015263
0.345550 0.000000 0.022224
0.376309 0.000000 0.028384
0.402845 0.000000 0.033645
0.437585 0.000000 0.038223
0.470237 0.000000 0.044443
0.504675 0.000000 0.049478
0.551185 0.000000 0.055093
0.593022 0.000000 0.064136
0.635760 0.000000 0.073519
0.680247 0.000000 0.085518
0.713761 0.000000 0.096642
0.000000 0.043509 0.000000
0.000000 0.043965 0.000000
0.000000 0.045059 0.000000
0.000000 0.045375 0.000000
0.000000 0.045499 0.000000
0.039760 0.044011 0.000000
0.051882 0.040796 0.000000
0.067512 0.035913 0.000000
0.087037 0.027106 0.000000
0.101292 0.000000 0.000000
0.117248 0.000000 0.000000
0.127929 0.000000 0.000000
0.140614 0.000000 0.000000
0.157965 0.000000 0.000000
0.175350 0.000000 0.000000
0.191324 0.000000 0.000000
0.209165 0.000000 0.000000
0.227561 0.000000 0.000000
0.249504 0.000000 0.000000
0.271951 0.000000 0.000000
0.291585 0.000000 0.000000
0.318347 0.000000 0.014972
0.348242 0.000000 0.022035
0.379486 0.000000 0.029602
0.408804 0.000000 0.033943
0.438502 0.000000 0.038649
0.474092 0.000000 0.044292
0.511938 0.000000 0.049259
0.555106 0.000000 0.055008
0.593516 0.000000 0.064123
0.636259 0.000000 0.073515
0.680743 0.000000 0.085519
0.714312 0.000000 0.098309
0.000000 0.052783 0.000000
0.000000 0.053740 0.000000
0.000000 0.054768 0.000000
0.000000 0.055121 0.000000
0.000000 0.055178 0.000000
0.027894 0.056268 0.000000
0.051063 0.055456 0.000000
0.067583 0.050567 0.000000
0.085648 0.045536 0.000000
0.102567 0.037988 0.000000
0.120163 0.029290 0.000000
0.134435 0.013533 0.000000
0.150052 0.000000 0.000000
0.165525 0.000000 0.000000
0.182198 0.000000 0.000000
0.198005 0.000000 0.000000
0.215341 0.000000 0.000000
0.232721 0.000000 0.000000
0.255022 0.000000 0.000000
0.277757 0.000000 0.000000
0.297539 0.000000 0.000000
0.322903 0.000000 0.014480
0.353422 0.000000 0.022686
0.385309 0.000000 0.029978
0.412673 0.000000 0.034246
0.442377 0.000000 0.038431
0.474865 0.000000 0.044217
0.512511 0.000000 0.049206
0.555579 0.000000 0.054384
0.600952 0.000000 0.064025
0.640614 0.000000 0.073470
0.681239 0.000000 0.085513
0.715039 0.000000 0.098308
0.000000 0.064285 0.000000
0.000000 0.065411 0.000000
0.000000 0.066660 0.000000
0.000000 0.067022 0.000000
0.000000 0.068239 0.000000
0.000000 0.069350 0.000000
0.042055 0.069344 0.000000
0.067631 0.066607 0.000000
0.087467 0.059888 0.000000
0.106712 0.053302 0.000000
0.121664 0.048985 0.000000
0.137445 0.042605 0.000000
0.154839 0.032027 0.000000
0.175382 0.000000 0.000000
0.195034 0.000000 0.000000
0.210998 0.000000 0.000000
0.223620 0.000000 0.000000
0.241592 0.000000 0.000000
0.261062 0.000000 0.000000
0.283574 0.000000 0.000000
0.301940 0.000000 0.000000
0.327841 0.000000 0.013817
0.356682 0.000000 0.022374
0.389110 0.000000 0.030981
0.416589 0.000000 0.034510
0.448992 0.000000 0.037567
0.481776 0.000000 0.042919
0.516313 0.000000 0.047950
0.559895 0.000000 0.054841
0.601945 0.000000 0.063965
0.641362 0.000000 0.073433
0.682278 0.000000 0.087017
0.719217 0.000000 0.098314
0.000000 0.076490 0.000000
0.000000 0.077826 0.000000
0.000000 0.079331 0.000000
0.000000 0.079697 0.000000
0.000000 0.079894 0.000000
0.000000 0.082616 0.000000
0.030740 0.082842 0.000000
0.066439 0.081276 0.000000
0.086808 0.077990 0.000000
0.109227 0.072583 0.000000
0.124878 0.066943 0.000000
0.142068 0.061620 0.000000
0.161408 0.051374 0.000000
0.179999 0.037244 0.000000
0.202334 0.000000 0.000000
0.220729 0.000000 0.000000
0.237139 0.000000 0.000000
0.254820 0.000000 0.000000
0.271950 0.000000 0.000000
0.288857 0.000000 0.000000
0.307234 0.000000 0.000000
0.333334 0.000000 0.010088
0.362681 0.000000 0.021690
0.392941 0.000000 0.029921
0.423071 0.000000 0.033478
0.452869 0.000000 0.036695
0.485943 0.000000 0.042617
0.520489 0.000000 0.047735
0.560753 0.000000 0.054741
0.606237 0.000000 0.063854
0.646013 0.000000 0.074741
0.682769 0.000000 0.086994
0.719938 0.000000 0.098277
0.000000 0.090673 0.000000
0.000000 0.092290 0.000000
0.000000 0.093993 0.000000
0.000000 0.094342 0.000000
0.000000 0.094653 0.000000
0.000000 0.097973 0.000000
0.000000 0.099087 0.000000
0.053357 0.098435 0.000000
0.083953 0.098077 0.000000
0.108627 0.092544 0.000000
0.129664 0.084970 0.000000
0.147188 0.080092 0.000000
0.166925 0.072500 0.000000
0.185929 0.063560 0.000000
0.209992 0.047872 0.000000
0.226269 0.028720 0.000000
0.244987 0.000000 0.000000
0.268441 0.000000 0.000000
0.287075 0.000000 0.000000
0.301395 0.000000 0.000000
0.322516 0.000000 0.000000
0.341251 0.000000 0.005228
0.370996 0.000000 0.019397
0.399014 0.000000 0.027890
0.426908 0.000000 0.033011
0.457010 0.000000 0.036219
0.486835 0.000000 0.041305
0.521953 0.000000 0.048593
0.565443 0.000000 0.054480
0.607481 0.000000 0.063690
0.647008 0.000000 0.074638
0.683749 0.000000 0.086916
0.720956 0.000000 0.099929
0.000000 0.104044 0.000000
0.000000 0.105950 0.000000
0.000000 0.106281 0.000000
0.000000 0.106588 0.000000
0.000000 0.108632 0.000000
0.000000 0.111613 0.000000
0.000000 0.112120 0.000000
0.040556 0.112421 0.000000
0.077419 0.112313 0.000000
0.111525 0.109790 0.000000
0.130561 0.104455 0.000000
0.152455 0.099354 0.000000
0.173859 0.094478 0.000000
0.202582 0.083739 0.000000
0.219551 0.072265 0.000000
0.235199 0.061055 0.000000
0.256529 0.042415 0.000000
0.275183 0.000000 0.000000
0.292559 0.000000 0.000000
0.310892 0.000000 0.000000
0.332767 0.000000 0.000000
0.354141 0.000000 0.000000
0.377332 0.000000 0.015689
0.405404 0.000000 0.025209
0.430994 0.000000 0.031606
0.461423 0.000000 0.035505
0.491507 0.000000 0.041799
0.530144 0.000000 0.048048
0.570152 0.000000 0.054139
0.612176 0.000000 0.064116
0.655252 0.000000 0.074439
0.688539 0.000000 0.087577
0.725484 0.000000 0.099851
0.000000 0.120296 0.000000
0.000000 0.122513 0.000000
0.000000 0.122824 0.000000
0.000000 0.123249 0.000000
0.000000 0.125606 0.000000
0.000000 0.130044 0.000000
0.000000 0.130685 0.000000
0.000000 0.131189 0.000000
0.071227 0.129274 0.000000
0.106253 0.128905 0.000000
0.135389 0.125994 0.000000
0.155097 0.122960 0.000000
0.180923 0.115920 0.000000
0.206127 0.104944 0.000000
0.227750 0.097517 0.000000
0.249783 0.086592 0.000000
0.268289 0.072688 0.000000
0.285607 0.061028 0.000000
0.299986 0.044385 0.000000
0.320898 0.000000 0.000000
0.345747 0.000000 0.000000
0.367974 0.000000 0.000000
0.387234 0.000000 0.000000
0.410508 0.000000 0.021069
0.435588 0.000000 0.027798
0.469312 0.000000 0.034177
0.499760 0.000000 0.040704
0.538401 0.000000 0.047341
0.575133 0.000000 0.053609
0.617244 0.000000 0.063691
0.656495 0.000000 0.074171
0.689753 0.000000 0.087354
0.726307 0.000000 0.099710
0.000000 0.141198 0.000000
0.000000 0.141611 0.000000
0.000000 0.142041 0.000000
0.000000 0.144799 0.000000
0.000000 0.148697 0.000000
0.000000 0.152796 0.000000
0.000000 0.154685 0.000000
0.000000 0.154170 0.000000
0.038990 0.154572 0.000000
0.087384 0.154603 0.000000
0.125442 0.154210 0.000000
0.152392 0.153514 0.000000
0.186809 0.142125 0.000000
0.211656 0.130700 0.000000
0.235573 0.122217 0.000000
0.258855 0.111286 0.000000
0.278374 0.103378 0.000000
0.296597 0.093402 0.000000
0.315657 0.081390 0.000000
0.333681 0.064648 0.000000
0.355386 0.040056 0.000000
0.378294 0.000000 0.000000
0.405598 0.000000 0.000000
0.424215 0.000000 0.000000
0.446782 0.000000 0.022385
0.474542 0.000000 0.030518
0.507883 0.000000 0.037962
0.543819 0.000000 0.046213
0.583894 0.000000 0.052685
0.618755 0.000000 0.063145
0.661901 0.000000 0.075161
0.694634 0.000000 0.087026
0.730825 0.000000 0.099536
0.000000 0.162174 0.000000
0.000000 0.162492 0.000000
0.000000 0.163088 0.000000
0.000000 0.166219 0.000000
0.000000 0.168169 0.000000
0.000000 0.171531 0.000000
0.000000 0.172501 0.000000
0.000000 0.173079 0.000000
0.000000 0.173620 0.000000
0.073084 0.173825 0.000000
0.114252 0.173713 0.000000
0.149645 0.174555 0.000000
0.186667 0.171887 0.000000
0.214578 0.160500 0.000000
0.241281 0.148554 0.000000
0.268542 0.140947 0.000000
0.288204 0.132401 0.000000
0.308009 0.125946 0.000000
0.330261 0.112348 0.000000
0.351739 0.101675 0.000000
0.367466 0.089420 0.000000
0.386525 0.072482 0.000000
0.416996 0.000000 0.000000
0.441487 0.000000 0.000000
0.465641 0.000000 0.000000
0.490446 0.000000 0.022322
0.514201 0.000000 0.034348
0.549957 0.000000 0.044736
0.589853 0.000000 0.052564
0.624238 0.000000 0.062108
0.667032 0.000000 0.074511
0.703353 0.000000 0.088271
0.739705 0.000000 0.101938
0.000000 0.178190 0.000000
0.000000 0.181424 0.000000
0.000000 0.184753 0.000000
0.000000 0.185387 0.000000
0.000000 0.187579 0.000000
0.000000 0.191173 0.000000
0.000000 0.191969 0.000000
0.000000 0.192605 0.000000
0.000000 0.193203 0.000000
0.044815 0.193573 0.000000
0.112460 0.190644 0.000000
0.146512 0.192813 0.000000
0.186990 0.192617 0.000000
0.218764 0.189296 0.000000
0.251181 0.176442 0.000000
0.275843 0.165065 0.000000
0.297122 0.160860 0.000000
0.316700 0.153479 0.000000
0.338746 0.146715 0.000000
0.361276 0.134425 0.000000
0.384870 0.122104 0.000000
0.404972 0.110877 0.000000
0.428619 0.089254 0.000000
0.454018 0.054012 0.000000
0.481825 0.000000 0.000000
0.510217 0.000000 0.000000
0.537466 0.000000 0.023602
0.562980 0.000000 0.041037
0.595623 0.000000 0.050386
0.632955 0.000000 0.060029
0.671903 0.000000 0.072055
0.708108 0.000000 0.087767
0.740723 0.000000 0.101519
0.000000 0.200174 0.000000
0.000000 0.203647 0.000000
0.000000 0.205753 0.000000
0.000000 0.209499 0.000000
0.000000 0.210372 0.000000
0.000000 0.212712 0.000000
0.000000 0.213332 0.000000
0.000000 0.213832 0.000000
0.000000 0.214163 0.000000
0.000000 0.214309 0.000000
0.094697 0.214088 0.000000
0.146493 0.213342 0.000000
0.182948 0.212257 0.000000
0.223273 0.210383 0.000000
0.252721 0.202118 0.000000
0.284279 0.191474 0.000000
0.305898 0.182807 0.000000
0.331909 0.173076 0.000000
0.348454 0.167380 0.000000
0.367563 0.160902 0.000000
0.392346 0.151324 0.000000
0.421001 0.139641 0.000000
0.446173 0.127251 0.000000
0.467007 0.114186 0.000000
0.491739 0.090670 0.000000
0.520799 0.026308 0.000000
0.554646 0.000000 0.000000
0.579421 0.000000 0.027640
0.605297 0.000000 0.046427
0.642386 0.000000 0.057475
0.677183 0.000000 0.070648
0.709649 0.000000 0.086765
0.745654 0.000000 0.100837
0.000000 0.225438 0.000000
0.000000 0.226018 0.000000
0.000000 0.229579 0.000000
0.000000 0.231796 0.000000
0.000000 0.232464 0.000000
0.000000 0.233007 0.000000
0.000000 0.233613 0.000000
0.000000 0.234154 0.000000
0.000000 0.234554 0.000000
0.000000 0.234767 0.000000
0.083934 0.234680 0.000000
0.137534 0.237571 0.000000
0.179276 0.236752 0.000000
0.218692 0.235432 0.000000
0.260181 0.228127 0.000000
0.291553 0.220721 0.000000
0.313523 0.210144 0.000000
0.339103 0.205765 0.000000
0.362970 0.192350 0.000000
0.388787 0.179745 0.000000
0.407177 0.174838 0.000000
0.431929 0.166797 0.000000
0.460850 0.156888 0.000000
0.485318 0.144948 0.000000
0.504546 0.133217 0.000000
0.534256 0.109996 0.000000
0.568741 0.076016 0.000000
0.593349 0.000000 0.000000
0.622067 0.000000 0.031482
0.652307 0.000000 0.052647
0.686635 0.000000 0.067923
0.718547 0.000000 0.085348
0.750947 0.000000 0.101741
0.000000 0.250662 0.000000
0.000000 0.251192 0.000000
0.000000 0.251810 0.000000
0.000000 0.254071 0.000000
0.000000 0.254603 0.000000
0.000000 0.255151 0.000000
0.000000 0.255816 0.000000
0.000000 0.256283 0.000000
0.000000 0.256692 0.000000
0.000000 0.257028 0.000000
0.063910 0.257070 0.000000
0.130365 0.260420 0.000000
0.173815 0.261706 0.000000
0.220269 0.260566 0.000000
0.263110 0.258877 0.000000
0.292427 0.251570 0.000000
0.322043 0.241923 0.000000
0.345705 0.232350 0.000000
0.374643 0.219949 0.000000
0.394311 0.217614 0.000000
0.422729 0.200292 0.000000
0.448373 0.190230 0.000000
0.472504 0.182128 0.000000
0.497917 0.177494 0.000000
0.520902 0.168916 0.000000
0.547805 0.156133 0.000000
0.578912 0.137136 0.000000
0.603706 0.109097 0.000000
0.639494 0.054854 0.000000
0.668604 0.000000 0.035340
0.692393 0.000000 0.061621
0.723752 0.000000 0.080036
0.755691 0.000000 0.098434
0.000000 0.271369 0.000000
0.000000 0.275511 0.000000
0.000000 0.275901 0.000000
0.000000 0.276443 0.000000
0.000000 0.276963 0.000000
0.000000 0.277552 0.000000
0.000000 0.279952 0.000000
0.000000 0.280486 0.000000
0.000000 0.280993 0.000000
0.000000 0.281345 0.000000
0.060411 0.281488 0.000000
0.138904 0.281265 0.000000
0.187245 0.280703 0.000000
0.230891 0.279713 0.000000
0.270810 0.278303 0.000000
0.300611 0.274832 0.000000
0.329110 0.266967 0.000000
0.358277 0.254615 0.000000
0.388804 0.247773 0.000000
0.413626 0.239019 0.000000
0.438310 0.231915 0.000000
0.463245 0.226430 0.000000
0.484899 0.218960 0.000000
0.510614 0.209103 0.000000
0.540752 0.204684 0.000000
0.564004 0.191751 0.000000
0.585461 0.181234 0.000000
0.613957 0.164746 0.000000
0.649681 0.135498 0.000000
0.682448 0.094047 0.000000
0.712229 0.000000 0.045042
0.732819 0.000000 0.074136
0.760543 0.000000 0.093137
0.000000 0.295480 0.000000
0.000000 0.295961 0.000000
0.000000 0.296429 0.000000
0.000000 0.296992 0.000000
0.000000 0.297475 0.000000
0.000000 0.298029 0.000000
0.000000 0.298533 0.000000
0.000000 0.299085 0.000000
0.000000 0.299480 0.000000
0.000000 0.299787 0.000000
0.095695 0.299797 0.000000
0.163556 0.299500 0.000000
0.209421 0.298890 0.000000
0.241774 0.300325 0.000000
0.271116 0.301625 0.000000
0.311461 0.299995 0.000000
0.338410 0.294134 0.000000
0.369149 0.285497 0.000000
0.395998 0.278991 0.000000
0.423196 0.269889 0.000000
0.453340 0.262287 0.000000
0.483375 0.252178 0.000000
0.509426 0.242096 0.000000
0.525770 0.239861 0.000000
0.552670 0.232070 0.000000
0.580596 0.228745 0.000000
0.604845 0.215852 0.000000
0.627476 0.210730 0.000000
0.660453 0.197121 0.000000
0.696469 0.167396 0.000000
0.722396 0.137330 0.000000
0.749280 0.081319 0.062247
0.769456 0.000000 0.087140
0.000000 0.321938 0.000000
0.000000 0.322324 0.000000
0.000000 0.322765 0.000000
0.000000 0.327709 0.000000
0.000000 0.328247 0.000000
0.000000 0.328809 0.000000
0.000000 0.329375 0.000000
0.000000 0.329873 0.000000
0.000000 0.330443 0.000000
0.000000 0.330764 0.000000
0.080359 0.330876 0.000000
0.157551 0.330747 0.000000
0.199986 0.330425 0.000000
0.234854 0.329928 0.000000
0.272343 0.333899 0.000000
0.313062 0.332633 0.000000
0.354469 0.330871 0.000000
0.382399 0.319513 0.000000
0.416091 0.310000 0.000000
0.446462 0.298007 0.000000
0.475444 0.288229 0.000000
0.499958 0.280978 0.000000
0.527358 0.278056 0.000000
0.547697 0.273213 0.000000
0.571234 0.265392 0.000000
0.592148 0.258401 0.000000
0.618038 0.261493 0.000000
0.646738 0.245839 0.000000
0.673034 0.240523 0.000000
0.702612 0.225361 0.000000
0.732371 0.202180 0.000000
0.762560 0.174845 0.031441
0.789795 0.142225 0.076915
0.000000 0.355670 0.000000
0.000000 0.358478 0.000000
0.000000 0.358898 0.000000
0.000000 0.359373 0.000000
0.000000 0.362449 0.000000
0.000000 0.362886 0.000000
0.000000 0.363524 0.000000
0.000000 0.364183 0.000000
0.000000 0.364648 0.000000
0.000000 0.365037 0.000000
0.000000 0.365264 0.000000
0.115042 0.365342 0.000000
0.174617 0.365244 0.000000
0.217061 0.364967 0.000000
0.266994 0.364280 0.000000
0.316569 0.360512 0.000000
0.361186 0.359210 0.000000
0.400168 0.354928 0.000000
0.434728 0.339636 0.000000
0.462231 0.332557 0.000000
0.493039 0.322317 0.000000
0.522892 0.309193 0.000000
0.554832 0.298138 0.000000
0.572185 0.298942 0.000000
0.589565 0.302454 0.000000
0.610306 0.294794 0.000000
0.632438 0.290866 0.000000
0.658936 0.292459 0.000000
0.681305 0.277500 0.000000
0.715078 0.269187 0.000000
0.741579 0.257971 0.000000
0.772137 0.245292 0.000000
0.799046 0.221895 0.052303
0.000000 0.385221 0.000000
0.000000 0.385516 0.000000
0.000000 0.391245 0.000000
0.000000 0.391676 0.000000
0.000000 0.392159 0.000000
0.000000 0.387270 0.000000
0.000000 0.387848 0.000000
0.000000 0.388263 0.000000
0.000000 0.388713 0.000000
0.000000 0.389072 0.000000
0.000000 0.389345 0.000000
0.115788 0.389465 0.000000
0.171214 0.389429 0.000000
0.218620 0.389362 0.000000
0.268954 0.389026 0.000000
0.316827 0.388333 0.000000
0.360452 0.387308 0.000000
0.402492 0.391815 0.000000
0.433178 0.384655 0.000000
0.468515 0.371168 0.000000
0.505336 0.360221 0.000000
0.541007 0.346115 0.000000
0.570887 0.337887 0.000000
0.592665 0.333028 0.000000
0.610417 0.334246 0.000000
0.628155 0.329560 0.000000
0.649544 0.330640 0.000000
0.665413 0.327853 0.000000
0.699434 0.326880 0.000000
0.723091 0.318053 0.000000
0.753701 0.314121 0.000000
0.776950 0.304231 0.000000
0.807533 0.280096 0.000000
0.000000 0.417135 0.000000
0.000000 0.417434 0.000000
0.000000 0.417725 0.000000
0.000000 0.418086 0.000000
0.000000 0.418605 0.000000
0.000000 0.419098 0.000000
0.000000 0.419497 0.000000
0.000000 0.419932 0.000000
0.000000 0.420384 0.000000
0.000000 0.420780 0.000000
0.000000 0.421221 0.000000
0.071079 0.421476 0.000000
0.155928 0.421616 0.000000
0.217940 0.421597 0.000000
0.265208 0.421365 0.000000
0.313610 0.420824 0.000000
0.356537 0.420020 0.000000
0.395207 0.418994 0.000000
0.437669 0.417541 0.000000
0.471070 0.416160 0.000000
0.511428 0.401888 0.000000
0.553568 0.387038 0.000000
0.585540 0.375522 0.000000
0.615932 0.366930 0.000000
0.645444 0.355063 0.000000
0.652508 0.357533 0.000000
0.670334 0.352746 0.000000
0.684791 0.364537 0.000000
0.701357 0.362260 0.000000
0.736089 0.362346 0.000000
0.760234 0.350566 0.000000
0.787596 0.347796 0.000000
0.817768 0.337789 0.000000
0.000000 0.448216 0.000000
0.000000 0.448447 0.000000
0.000000 0.448748 0.000000
0.000000 0.448967 0.000000
0.000000 0.449322 0.000000
0.000000 0.449660 0.000000
0.000000 0.450043 0.000000
0.000000 0.450456 0.000000
0.000000 0.450826 0.000000
0.000000 0.448167 0.000000
0.000000 0.448456 0.000000
0.034609 0.448638 0.000000
0.155123 0.448764 0.000000
0.212854 0.448746 0.000000
0.265309 0.448528 0.000000
0.313076 0.448063 0.000000
0.359049 0.447301 0.000000
0.393695 0.449580 0.000000
0.433600 0.448430 0.000000
0.485536 0.446531 0.000000
0.523278 0.432285 0.000000
0.567084 0.417312 0.000000
0.595866 0.409180 0.000000
0.626706 0.407047 0.000000
0.657742 0.395150 0.000000
0.683968 0.380181 0.000000
0.690817 0.389257 0.000000
0.701775 0.381865 0.000000
0.719983 0.393973 0.000000
0.744028 0.391498 0.000000
0.772155 0.392848 0.000000
0.793577 0.385479 0.000000
0.823188 0.382861 0.000000
0.000000 0.482860 0.000000
0.000000 0.483153 0.000000
0.000000 0.483367 0.000000
0.000000 0.483574 0.000000
0.000000 0.483776 0.000000
0.000000 0.484097 0.000000
0.000000 0.484455 0.000000
0.000000 0.484834 0.000000
0.000000 0.485075 0.000000
0.000000 0.485328 0.000000
0.000000 0.485565 0.000000
0.000000 0.485734 0.000000
0.143537 0.485830 0.000000
0.213069 0.485796 0.000000
0.261201 0.485621 0.000000
0.309592 0.485233 0.000000
0.345222 0.484770 0.000000
0.389044 0.483978 0.000000
0.431024 0.482976 0.000000
0.489651 0.481139 0.000000
