Assets/Lutify-Free-LUTs-Pack/Lutify Free LUTs Pack/Film Tone Pro - Film Tone 3/Lutify.me-FilmTone3-RWG-to-RWG.cube
# Created with: fylm.ai - Colour Grading and Collaboration Software in Cloud 
# Website: https://fylm.ai 
# META
# Option: Gamut compress
# Block 1: colourMatch | Blending Mode: Normal | {"ColorSpace":0,"CrossCovarianceLimit":50,"ReshapingIterations":1,"PercentSaturationShift":100,"PercentShadingShift":100,"ExtraShading":true,"PercentTint":100,"PercentModified":100}
# Block 2: subtractiveColour | Blending Mode: Normal | {"sliders":{"gainY":0.6,"C":0.3,"M":0.3,"Y":0.3}}
# Block 3: LUT | Filmic Curve Response: Low Contrast 2 (100%)
# Block 4: logPrimaries | Blending Mode: Normal | {"wheels":{"shadows":{"Y":"0","R":"1","G":"1","B":"1"},"midtones":{"Y":"0","R":"1","G":"1","B":"1"},"highlights":{"Y":"0","R":"1","G":"1","B":"1"},"offset":{"Y":"0","R":"1","G":"1","B":"1"}},"sliders":{"shadows":{"Y":0,"R":-0.026,"G":0.03,"B":0.1},"midtones":{"Y":0,"R":0.024,"G":-0.036,"B":0.036},"highlights":{"Y":0,"R":0,"G":0.044,"B":-0.128},"offset":{"Y":0,"R":0,"G":0,"B":0}}}
# Block 5: hueSaturation | Blending Mode: Normal | {"hue":0,"saturation":-0.1}
TITLE "ipp2" 
LUT_3D_SIZE 5
0.068354 0.076388 0.082875
0.213989 0.091324 0.102408
0.430204 0.207578 0.205537
0.644032 0.423195 0.409191
0.928781 0.658668 0.669102
0.097303 0.211662 0.135227
0.273242 0.229916 0.161041
0.439524 0.233563 0.213808
0.644133 0.425960 0.409691
0.928742 0.658603 0.668951
0.223909 0.407702 0.280169
0.276623 0.418099 0.291225
0.492418 0.422233 0.322751
0.652032 0.449399 0.412109
0.928827 0.660417 0.669170
0.442034 0.609465 0.472716
0.448132 0.611979 0.475320
0.499241 0.619449 0.484705
0.724537 0.608632 0.518565
0.940887 0.687821 0.681201
0.682844 0.872182 0.733192
0.682844 0.872182 0.733192
0.688082 0.872628 0.733782
0.746453 0.879814 0.742985
0.967654 0.876206 0.776083
0.083188 0.104330 0.163210
0.204936 0.101807 0.137424
0.430072 0.214030 0.226374
0.644669 0.424357 0.412771
0.928781 0.658668 0.669102
0.126193 0.222291 0.266097
0.252185 0.260501 0.264512
0.436218 0.242992 0.233405
0.644765 0.426467 0.413255
0.928781 0.658668 0.669102
0.217839 0.405727 0.278260
0.271864 0.415727 0.288956
0.491322 0.421150 0.321742
0.652739 0.453437 0.417310
0.928866 0.660483 0.669321
0.441477 0.609424 0.472656
0.447008 0.611896 0.475201
0.499241 0.619449 0.484705
0.724537 0.608632 0.518565
0.940884 0.687280 0.681120
0.682844 0.872182 0.733192
0.682844 0.872182 0.733192
0.688082 0.872628 0.733782
0.746453 0.879814 0.742985
0.967654 0.876206 0.776083
0.137368 0.156890 0.260463
0.194497 0.158373 0.258900
0.397568 0.161004 0.222939
0.642818 0.428723 0.440113
0.927021 0.658119 0.668868
0.171132 0.235420 0.354201
0.201849 0.237002 0.353267
0.412824 0.221340 0.321709
0.645129 0.432048 0.441801
0.927021 0.658119 0.668868
0.258358 0.409152 0.458364
0.265008 0.429384 0.451477
0.474397 0.478018 0.467721
0.654181 0.460842 0.451004
0.929219 0.661069 0.670679
0.432103 0.605632 0.468722
0.439836 0.608270 0.471503
0.495891 0.618202 0.483362
0.724476 0.607677 0.518001
0.941744 0.688975 0.683540
0.682369 0.872141 0.733139
0.682369 0.872141 0.733139
0.688082 0.872628 0.733782
0.744933 0.879724 0.742816
0.967654 0.876206 0.776083
0.324334 0.227884 0.350705
0.333196 0.228922 0.351410
0.401279 0.231305 0.346510
0.566273 0.272513 0.348571
0.928348 0.659970 0.680658
0.316253 0.307102 0.442839
0.325038 0.306674 0.442277
0.393481 0.282299 0.412462
0.566188 0.272000 0.347577
0.928389 0.660445 0.680780
0.352817 0.429630 0.540809
0.359113 0.430645 0.541526
0.414069 0.435740 0.542366
0.623736 0.422470 0.522589
0.928512 0.661869 0.681144
0.435799 0.587732 0.655924
0.435799 0.587732 0.655924
0.471528 0.643797 0.650896
0.677653 0.695742 0.658785
0.937997 0.692256 0.693398
0.675856 0.871536 0.732367
0.676624 0.871616 0.732465
0.680941 0.872019 0.732978
0.739786 0.877312 0.740267
0.967654 0.876206 0.776083
0.499503 0.309339 0.434069
0.500527 0.309590 0.434209
0.507540 0.309868 0.433306
0.563908 0.318944 0.430437
0.787338 0.461533 0.525549
0.499503 0.309339 0.434069
0.500527 0.309590 0.434209
0.507540 0.309868 0.433306
0.563908 0.318944 0.430437
0.787338 0.461533 0.525549
0.519788 0.518920 0.656796
0.520473 0.518978 0.656842
0.528510 0.519543 0.657336
0.583193 0.491950 0.629430
0.787338 0.461533 0.525549
0.573339 0.649238 0.768564
0.573728 0.649281 0.768605
0.577901 0.650744 0.769197
0.620904 0.652283 0.767802
0.899502 0.653231 0.746405
0.664828 0.823143 0.885042
0.664828 0.823143 0.885042
0.664828 0.823143 0.885042
0.744923 0.937759 0.920192
0.961910 0.999909 0.939126
