Assets/Lutify-Free-LUTs-Pack/Lutify Free LUTs Pack/Film Tone Pro - Film Tone 3/Lutify.me-FilmTone3-DragonColor2RLF-to-Rec709.cube
# Created with: fylm.ai - Colour Grading and Collaboration Software in Cloud 
# Website: https://fylm.ai 
# META
# Option: Gamut compress
# Block 1: IDT | RED DragonColor2 REDLogFilm
# Block 2: colourMatch | Blending Mode: Normal | {"ColorSpace":0,"CrossCovarianceLimit":50,"ReshapingIterations":1,"PercentSaturationShift":100,"PercentShadingShift":100,"ExtraShading":true,"PercentTint":100,"PercentModified":100}
# Block 3: subtractiveColour | Blending Mode: Normal | {"sliders":{"gainY":0.6,"C":0.3,"M":0.3,"Y":0.3}}
# Block 4: LUT | Filmic Curve Response: Low Contrast 2 (100%)
# Block 5: logPrimaries | Blending Mode: Normal | {"wheels":{"shadows":{"Y":"0","R":"1","G":"1","B":"1"},"midtones":{"Y":"0","R":"1","G":"1","B":"1"},"highlights":{"Y":"0","R":"1","G":"1","B":"1"},"offset":{"Y":"0","R":"1","G":"1","B":"1"}},"sliders":{"shadows":{"Y":0,"R":-0.026,"G":0.03,"B":0.1},"midtones":{"Y":0,"R":0.024,"G":-0.036,"B":0.036},"highlights":{"Y":0,"R":0,"G":0.044,"B":-0.128},"offset":{"Y":0,"R":0,"G":0,"B":0}}}
# Block 6: hueSaturation | Blending Mode: Normal | {"hue":0,"saturation":-0.1}
# Block 7: ODT | Rec709
TITLE "Lutify.me-FilmTone3-DragonColor2RLF-to-Rec709" 
LUT_3D_SIZE 33
0.000000 0.000000 0.000000
0.000000 0.000000 0.000000
0.000000 0.000000 0.000000
0.000000 0.000000 0.000000
0.000000 0.000000 0.000000
0.000000 0.000000 0.000000
0.000000 0.000000 0.000000
0.045017 0.000000 0.000000
0.071428 0.000000 0.000000
0.095386 0.000000 0.000000
0.117773 0.000000 0.000000
0.141152 0.000000 0.000000
0.171750 0.000000 0.000000
0.207004 0.000000 0.000000
0.241791 0.000000 0.000000
0.282949 0.000000 0.000000
0.332551 0.000000 0.000000
0.383527 0.000000 0.000000
0.438684 0.000000 0.000000
0.499726 0.000000 0.000000
0.566577 0.000000 0.000000
0.638025 0.000000 0.000000
0.698543 0.000000 0.000000
0.762320 0.000000 0.000000
0.830496 0.000000 0.000000
0.899932 0.000000 0.000000
0.947571 0.000000 0.000000
0.986598 0.000000 0.000000
1.000000 0.171977 0.000000
1.000000 0.271583 0.000000
1.000000 0.354790 0.000000
1.000000 0.440839 0.083337
1.000000 0.526151 0.131036
0.000000 0.000000 0.000000
0.000000 0.000000 0.000000
0.000000 0.000000 0.000000
0.000000 0.000000 0.000000
0.000000 0.000000 0.000000
0.000000 0.000000 0.000000
0.000000 0.000000 0.000000
0.048491 0.000000 0.000000
0.073448 0.000000 0.000000
0.097123 0.000000 0.000000
0.119056 0.000000 0.000000
0.142835 0.000000 0.000000
0.173880 0.000000 0.000000
0.208415 0.000000 0.000000
0.246782 0.000000 0.000000
0.286587 0.000000 0.000000
0.332772 0.000000 0.000000
0.388630 0.000000 0.000000
0.439006 0.000000 0.000000
0.500208 0.000000 0.000000
0.566708 0.000000 0.000000
0.638296 0.000000 0.000000
0.698543 0.000000 0.000000
0.762583 0.000000 0.000000
0.830496 0.000000 0.000000
0.900195 0.000000 0.000000
0.947571 0.000000 0.000000
0.986598 0.000000 0.000000
1.000000 0.171977 0.000000
1.000000 0.271583 0.000000
1.000000 0.354790 0.000000
1.000000 0.440839 0.083337
1.000000 0.526151 0.131036
0.000000 0.000000 0.000000
0.000000 0.000000 0.000000
0.000000 0.000000 0.000000
0.000000 0.000000 0.000000
0.000000 0.000000 0.000000
0.000000 0.000000 0.000000
0.012616 0.000000 0.000000
0.052993 0.000000 0.000000
0.076283 0.000000 0.000000
0.100244 0.000000 0.000000
0.122994 0.000000 0.000000
0.145269 0.000000 0.000000
0.178228 0.000000 0.000000
0.211274 0.000000 0.000000
0.248649 0.000000 0.000000
0.288583 0.000000 0.000000
0.335291 0.000000 0.000000
0.389094 0.000000 0.000000
0.442407 0.000000 0.000000
0.500571 0.000000 0.000000
0.567233 0.000000 0.000000
0.638840 0.000000 0.000000
0.698816 0.000000 0.000000
0.766562 0.000000 0.000000
0.830729 0.000000 0.000000
0.900195 0.000000 0.000000
0.947571 0.000000 0.000000
0.986598 0.000000 0.000000
1.000000 0.171977 0.000000
1.000000 0.271583 0.000000
1.000000 0.358546 0.000000
1.000000 0.440839 0.083337
1.000000 0.526151 0.131036
0.000000 0.000000 0.000000
0.000000 0.000000 0.000000
0.000000 0.000000 0.000000
0.000000 0.000000 0.000000
0.000000 0.000000 0.000000
0.000000 0.000000 0.000000
0.025242 0.000000 0.000000
0.056950 0.000000 0.000000
0.079880 0.000000 0.000000
0.102849 0.000000 0.000000
0.125673 0.000000 0.000000
0.148598 0.000000 0.000000
0.181647 0.000000 0.000000
0.212893 0.000000 0.000000
0.252229 0.000000 0.000000
0.292481 0.000000 0.000000
0.339948 0.000000 0.000000
0.392151 0.000000 0.000000
0.443058 0.000000 0.000000
0.504149 0.000000 0.000000
0.567760 0.000000 0.000000
0.642724 0.000000 0.000000
0.702905 0.000000 0.000000
0.766823 0.000000 0.000000
0.830860 0.000000 0.000000
0.900269 0.000000 0.000000
0.947621 0.000000 0.000000
0.986546 0.000000 0.000000
1.000000 0.171977 0.000000
1.000000 0.271583 0.000000
1.000000 0.358692 0.000000
1.000000 0.440839 0.083337
1.000000 0.526420 0.135073
0.000000 0.000000 0.000000
0.000000 0.000000 0.000000
0.000000 0.000000 0.000000
0.000000 0.000000 0.000000
0.000000 0.000000 0.000000
0.000000 0.000000 0.000000
0.037603 0.000000 0.000000
0.063916 0.000000 0.000000
0.086640 0.000000 0.000000
0.108716 0.000000 0.000000
0.128848 0.000000 0.000000
0.154758 0.000000 0.000000
0.188864 0.000000 0.000000
0.218877 0.000000 0.000000
0.257630 0.000000 0.000000
0.294878 0.000000 0.000000
0.342700 0.000000 0.000000
0.395428 0.000000 0.000000
0.446603 0.000000 0.000000
0.504636 0.000000 0.000000
0.571765 0.000000 0.000000
0.643399 0.000000 0.000000
0.703177 0.000000 0.000000
0.767084 0.000000 0.000000
0.831092 0.000000 0.000000
0.900269 0.000000 0.000000
0.950444 0.000000 0.000000
0.991083 0.000000 0.000000
1.000000 0.183266 0.000000
1.000000 0.271744 0.000000
1.000000 0.358692 0.000000
1.000000 0.444328 0.081659
1.000000 0.526420 0.135073
0.000000 0.012589 0.000000
0.000000 0.015000 0.000000
0.000000 0.016332 0.000000
0.000000 0.018010 0.000000
0.000000 0.018835 0.000000
0.000000 0.022556 0.000000
0.043843 0.011888 0.000000
0.068074 0.000000 0.000000
0.094183 0.000000 0.000000
0.114641 0.000000 0.000000
0.137989 0.000000 0.000000
0.165556 0.000000 0.000000
0.195568 0.000000 0.000000
0.226798 0.000000 0.000000
0.263657 0.000000 0.000000
0.300954 0.000000 0.000000
0.345650 0.000000 0.000000
0.398933 0.000000 0.000000
0.450515 0.000000 0.000000
0.508720 0.000000 0.000000
0.572563 0.000000 0.000000
0.644220 0.000000 0.000000
0.703586 0.000000 0.000000
0.767215 0.000000 0.000000
0.831555 0.000000 0.000000
0.900455 0.000000 0.000000
0.950465 0.000000 0.000000
0.991113 0.000000 0.000000
1.000000 0.183306 0.000000
1.000000 0.280286 0.000000
1.000000 0.358692 0.000000
1.000000 0.444328 0.081659
1.000000 0.526420 0.135073
0.000000 0.042115 0.000000
0.000000 0.043176 0.000000
0.000000 0.043835 0.000000
0.000000 0.045813 0.000000
0.000000 0.046156 0.000000
0.000000 0.047603 0.000000
0.047242 0.045970 0.000000
0.069585 0.039863 0.000000
0.096648 0.029728 0.000000
0.121729 0.007883 0.000000
0.145634 0.000000 0.000000
0.175145 0.000000 0.000000
0.207003 0.000000 0.000000
0.237239 0.000000 0.000000
0.273625 0.000000 0.000000
0.311608 0.000000 0.000000
0.358364 0.000000 0.000000
0.405756 0.000000 0.000000
0.457670 0.000000 0.000000
0.509710 0.000000 0.000000
0.577390 0.000000 0.000000
0.648791 0.000000 0.000000
0.707814 0.000000 0.000000
0.767737 0.000000 0.000000
0.839052 0.000000 0.000000
0.903780 0.000000 0.000000
0.950504 0.000000 0.000000
0.991051 0.000000 0.000000
1.000000 0.183306 0.000000
1.000000 0.280286 0.000000
1.000000 0.359179 0.000000
1.000000 0.444328 0.081659
1.000000 0.526420 0.135073
0.000000 0.060248 0.000000
0.000000 0.060299 0.000000
0.000000 0.062336 0.000000
0.000000 0.062531 0.000000
0.000000 0.063926 0.000000
0.000000 0.067094 0.000000
0.045430 0.067000 0.000000
0.075913 0.062807 0.000000
0.105915 0.055596 0.000000
0.132731 0.046466 0.000000
0.160084 0.032014 0.000000
0.191299 0.000000 0.000000
0.223010 0.000000 0.000000
0.257578 0.000000 0.000000
0.291800 0.000000 0.000000
0.325908 0.000000 0.000000
0.367330 0.000000 0.000000
0.412731 0.000000 0.000000
0.462056 0.000000 0.000000
0.524410 0.000000 0.000000
0.581969 0.000000 0.000000
0.650173 0.000000 0.000000
0.708628 0.000000 0.000000
0.771970 0.000000 0.000000
0.839385 0.000000 0.000000
0.904099 0.000000 0.000000
0.950631 0.000000 0.000000
0.990919 0.000000 0.000000
1.000000 0.183306 0.000000
1.000000 0.284827 0.000000
1.000000 0.366641 0.000000
1.000000 0.448089 0.085058
1.000000 0.529751 0.134135
0.000000 0.081374 0.000000
0.000000 0.082754 0.000000
0.000000 0.084253 0.000000
0.000000 0.085935 0.000000
0.000000 0.086217 0.000000
0.000000 0.090711 0.000000
0.031537 0.092428 0.000000
0.078725 0.092057 0.000000
0.113442 0.083232 0.000000
0.142756 0.077511 0.000000
0.173793 0.066237 0.000000
0.209884 0.047787 0.000000
0.238769 0.023469 0.000000
0.273797 0.000000 0.000000
0.305354 0.000000 0.000000
0.341033 0.000000 0.000000
0.382015 0.000000 0.000000
0.425980 0.000000 0.000000
0.476489 0.000000 0.000000
0.533279 0.000000 0.000000
0.594422 0.000000 0.000000
0.655179 0.000000 0.000000
0.716953 0.000000 0.000000
0.772748 0.000000 0.000000
0.839953 0.000000 0.000000
0.904475 0.000000 0.000000
0.950659 0.000000 0.000000
0.990923 0.030904 0.000000
1.000000 0.194429 0.000000
1.000000 0.293146 0.000000
1.000000 0.366641 0.000000
1.000000 0.448089 0.085058
1.000000 0.529751 0.134135
0.000000 0.107622 0.000000
0.000000 0.108701 0.000000
0.000000 0.108968 0.000000
0.000000 0.109281 0.000000
0.000000 0.112208 0.000000
0.000000 0.114533 0.000000
0.022731 0.115053 0.000000
0.083127 0.114933 0.000000
0.121755 0.112036 0.000000
0.150571 0.107629 0.000000
0.189610 0.097141 0.000000
0.222826 0.084762 0.000000
0.252593 0.074101 0.000000
0.286792 0.053336 0.000000
0.320096 0.000000 0.000000
0.355540 0.000000 0.000000
0.400824 0.000000 0.000000
0.444036 0.000000 0.000000
0.492411 0.000000 0.000000
0.546210 0.000000 0.000000
0.603869 0.000000 0.000000
0.667468 0.000000 0.000000
0.718588 0.000000 0.000000
0.777741 0.000000 0.000000
0.844206 0.000000 0.000000
0.904667 0.000000 0.000000
0.953461 0.000000 0.000000
0.990845 0.089844 0.000000
1.000000 0.199623 0.000000
1.000000 0.293454 0.000000
1.000000 0.370643 0.000000
1.000000 0.451568 0.083401
1.000000 0.529751 0.134135
0.000000 0.140046 0.000000
0.000000 0.140432 0.000000
0.000000 0.142920 0.000000
0.000000 0.145552 0.000000
0.000000 0.149511 0.000000
0.000000 0.151391 0.000000
0.000000 0.152025 0.000000
0.068366 0.152318 0.000000
0.116941 0.151977 0.000000
0.159269 0.153268 0.000000
0.201512 0.138688 0.000000
0.238910 0.126605 0.000000
0.274960 0.115365 0.000000
0.306574 0.099925 0.000000
0.338518 0.081317 0.000000
0.374126 0.056685 0.000000
0.418877 0.000000 0.000000
0.461022 0.000000 0.000000
0.507188 0.000000 0.000000
0.560537 0.000000 0.000000
0.616933 0.000000 0.000000
0.673076 0.000000 0.000000
0.723908 0.000000 0.000000
0.782855 0.000000 0.000000
0.844982 0.000000 0.000000
0.908420 0.000000 0.000000
0.953652 0.000000 0.000000
0.992991 0.099420 0.000000
1.000000 0.210058 0.000000
1.000000 0.301642 0.000000
1.000000 0.374342 0.000000
1.000000 0.458514 0.079891
1.000000 0.533080 0.133181
0.000000 0.176048 0.000000
0.000000 0.179150 0.000000
0.000000 0.179438 0.000000
0.000000 0.181446 0.000000
0.000000 0.184726 0.000000
0.000000 0.188069 0.000000
0.000000 0.188761 0.000000
0.000000 0.189214 0.000000
0.104848 0.189318 0.000000
0.169642 0.187805 0.000000
0.214229 0.179556 0.000000
0.253107 0.167630 0.000000
0.293111 0.158455 0.000000
0.323196 0.146349 0.000000
0.355865 0.128918 0.000000
0.393941 0.117036 0.000000
0.435642 0.095201 0.000000
0.478651 0.045501 0.000000
0.525467 0.000000 0.000000
0.579054 0.000000 0.000000
0.631487 0.000000 0.000000
0.686703 0.000000 0.000000
0.733453 0.000000 0.000000
0.791770 0.000000 0.000000
0.849662 0.000000 0.000000
0.911933 0.000000 0.000000
0.953692 0.000000 0.000000
0.992686 0.140722 0.000000
1.000000 0.224607 0.000000
1.000000 0.310019 0.000000
1.000000 0.385378 0.000000
1.000000 0.462790 0.084723
1.000000 0.539868 0.133308
0.000000 0.214062 0.000000
0.000000 0.217375 0.000000
0.000000 0.217625 0.000000
0.000000 0.219372 0.000000
0.000000 0.219724 0.000000
0.000000 0.220230 0.000000
0.000000 0.220490 0.000000
0.000000 0.220580 0.000000
0.112630 0.220233 0.000000
0.176937 0.218860 0.000000
0.216629 0.225408 0.000000
0.264846 0.214226 0.000000
0.305848 0.199056 0.000000
0.343308 0.184681 0.000000
0.380580 0.170575 0.000000
0.416635 0.158417 0.000000
0.460849 0.139701 0.000000
0.503175 0.123177 0.000000
0.547721 0.089572 0.000000
0.594562 0.000000 0.000000
0.643416 0.000000 0.000000
0.694303 0.000000 0.000000
0.739608 0.000000 0.000000
0.797218 0.000000 0.000000
0.854358 0.000000 0.000000
0.912442 0.000000 0.000000
0.956241 0.000000 0.000000
0.992487 0.166292 0.000000
1.000000 0.238561 0.000000
1.000000 0.322558 0.000000
1.000000 0.389322 0.000000
1.000000 0.466248 0.083002
1.000000 0.540440 0.134296
0.000000 0.259226 0.000000
0.000000 0.259436 0.000000
0.000000 0.261550 0.000000
0.000000 0.261695 0.000000
0.000000 0.262151 0.000000
0.000000 0.262446 0.000000
0.000000 0.262735 0.000000
0.000000 0.262961 0.000000
0.117752 0.262723 0.000000
0.174026 0.262025 0.000000
0.224766 0.262571 0.000000
0.268858 0.264537 0.000000
0.319993 0.249720 0.000000
0.361242 0.238535 0.000000
0.399689 0.224691 0.000000
0.440592 0.205342 0.000000
0.488191 0.188786 0.000000
0.525607 0.176643 0.000000
0.571007 0.162502 0.000000
0.614099 0.136681 0.000000
0.662501 0.099889 0.000000
0.713126 0.037439 0.000000
0.754104 0.000000 0.000000
0.803137 0.000000 0.000000
0.866024 0.000000 0.000000
0.912915 0.000000 0.000000
0.958623 0.104478 0.000000
0.994470 0.182843 0.000000
1.000000 0.257277 0.000000
1.000000 0.330683 0.000000
1.000000 0.404592 0.000000
1.000000 0.476874 0.083133
1.000000 0.547077 0.132341
0.000000 0.301311 0.000000
0.000000 0.301432 0.000000
0.000000 0.301573 0.000000
0.000000 0.299903 0.000000
0.000000 0.300175 0.000000
0.000000 0.300435 0.000000
0.000000 0.300595 0.000000
0.000000 0.302846 0.000000
0.090959 0.302801 0.000000
0.151814 0.304675 0.000000
0.211305 0.306090 0.000000
0.268492 0.302248 0.000000
0.328500 0.297298 0.000000
0.372538 0.285407 0.000000
0.418959 0.276984 0.000000
0.463324 0.261199 0.000000
0.509561 0.244371 0.000000
0.551523 0.231328 0.000000
0.590972 0.222226 0.000000
0.638061 0.210230 0.000000
0.682215 0.185123 0.000000
0.732246 0.165758 0.000000
0.776264 0.151844 0.000000
0.820709 0.129450 0.000000
0.877361 0.103939 0.000000
0.922069 0.110192 0.000000
0.960836 0.159226 0.000000
0.995980 0.212949 0.000000
1.000000 0.279284 0.000000
1.000000 0.346552 0.000000
1.000000 0.415685 0.000000
1.000000 0.483758 0.079405
1.000000 0.550661 0.135573
0.000000 0.355745 0.000000
0.000000 0.355848 0.000000
0.000000 0.356048 0.000000
0.000000 0.356190 0.000000
0.000000 0.356412 0.000000
0.000000 0.356522 0.000000
0.000000 0.356677 0.000000
0.000000 0.356810 0.000000
0.000000 0.361968 0.000000
0.126555 0.361965 0.000000
0.194560 0.361577 0.000000
0.249344 0.360806 0.000000
0.317512 0.361605 0.000000
0.374489 0.356945 0.000000
0.426220 0.345952 0.000000
0.481674 0.325847 0.000000
0.533785 0.302905 0.000000
0.579243 0.292998 0.000000
0.616692 0.283175 0.000000
0.660668 0.269020 0.000000
0.698433 0.257506 0.000000
0.747876 0.245899 0.000000
0.791145 0.237318 0.000000
0.840671 0.214901 0.000000
0.887910 0.194606 0.000000
0.927852 0.193143 0.000000
0.962751 0.209769 0.000000
0.996730 0.253534 0.000000
1.000000 0.308342 0.000000
1.000000 0.365801 0.000000
1.000000 0.423293 0.000000
1.000000 0.498122 0.075763
1.000000 0.554109 0.136718
0.000000 0.414761 0.000000
0.000000 0.414889 0.000000
0.000000 0.414972 0.000000
0.000000 0.415152 0.000000
0.000000 0.415326 0.000000
0.000000 0.415443 0.000000
0.000000 0.415443 0.000000
0.000000 0.415563 0.000000
0.000000 0.415839 0.000000
0.095896 0.415972 0.000000
0.177623 0.415894 0.000000
0.242950 0.415456 0.000000
0.295812 0.414794 0.000000
0.361701 0.416173 0.000000
0.434633 0.410435 0.000000
0.499006 0.394557 0.000000
0.556102 0.375004 0.000000
0.595060 0.359860 0.000000
0.639145 0.350124 0.000000
0.681790 0.340126 0.000000
0.723745 0.329864 0.000000
0.762327 0.319575 0.000000
0.808213 0.310998 0.000000
0.852618 0.298975 0.000000
0.897350 0.286788 0.000000
0.932520 0.271940 0.000000
0.968242 0.273909 0.000000
0.996773 0.299820 0.000000
1.000000 0.340177 0.000000
1.000000 0.392380 0.000000
1.000000 0.449448 0.000000
1.000000 0.511929 0.070043
1.000000 0.564722 0.136959
0.000000 0.472399 0.000000
0.000000 0.472457 0.000000
0.000000 0.472464 0.000000
0.000000 0.472682 0.000000
0.000000 0.472729 0.000000
0.000000 0.472813 0.000000
0.000000 0.472946 0.000000
0.000000 0.473036 0.000000
0.000000 0.473095 0.000000
0.000000 0.473073 0.000000
0.152928 0.473058 0.000000
0.231968 0.469348 0.000000
0.300553 0.468475 0.000000
0.361242 0.470064 0.000000
0.419537 0.471336 0.000000
0.500040 0.464740 0.000000
0.554220 0.448680 0.000000
0.605443 0.428705 0.000000
0.654003 0.409363 0.000000
0.695311 0.403293 0.000000
0.735625 0.394128 0.000000
0.778362 0.387882 0.000000
0.819728 0.381556 0.000000
0.865321 0.372091 0.000000
0.904324 0.366867 0.000000
0.937519 0.351561 0.000000
0.971925 0.345249 0.000000
1.000000 0.351403 0.000000
1.000000 0.374812 0.000000
1.000000 0.415455 0.000000
1.000000 0.471243 0.000000
1.000000 0.530033 0.064409
1.000000 0.574897 0.138387
0.000000 0.533250 0.000000
0.000000 0.533298 0.000000
0.000000 0.533391 0.000000
0.000000 0.533325 0.000000
0.000000 0.533368 0.000000
0.000000 0.533229 0.000000
0.000000 0.533123 0.000000
0.000000 0.533037 0.000000
0.000000 0.533064 0.000000
0.000000 0.532748 0.000000
0.125157 0.532459 0.000000
0.235724 0.531997 0.000000
0.293762 0.531128 0.000000
0.340004 0.536761 0.000000
0.407900 0.535076 0.000000
0.480103 0.532627 0.000000
0.560094 0.522514 0.000000
0.609020 0.512226 0.000000
0.662029 0.491476 0.000000
0.708469 0.472081 0.000000
0.750888 0.466384 0.000000
0.791979 0.450920 0.000000
0.835565 0.445533 0.000000
0.872954 0.441508 0.000000
0.907189 0.430569 0.000000
0.945015 0.427599 0.000000
0.977665 0.415658 0.000000
1.000000 0.415603 0.000000
1.000000 0.427956 0.000000
1.000000 0.459388 0.000000
1.000000 0.503140 0.000000
1.000000 0.543987 0.065839
1.000000 0.592809 0.142250
0.000000 0.592167 0.000000
0.000000 0.592167 0.000000
0.000000 0.592198 0.000000
0.000000 0.591916 0.000000
0.000000 0.591943 0.000000
0.000000 0.595219 0.000000
0.000000 0.595061 0.000000
0.000000 0.595113 0.000000
0.000000 0.595150 0.000000
0.000000 0.594949 0.000000
0.173380 0.594547 0.000000
0.250472 0.594120 0.000000
0.315096 0.593413 0.000000
0.369826 0.592213 0.000000
0.419663 0.591070 0.000000
0.471228 0.589425 0.000000
0.538725 0.586130 0.000000
0.609792 0.589034 0.000000
0.672107 0.567987 0.000000
0.714884 0.553353 0.000000
0.768827 0.540268 0.000000
0.803575 0.528971 0.000000
0.844360 0.521354 0.000000
0.880068 0.517788 0.000000
0.914748 0.507904 0.000000
0.945063 0.506219 0.000000
0.973700 0.498319 0.000000
1.000000 0.495594 0.000000
1.000000 0.500737 0.000000
1.000000 0.514034 0.000000
1.000000 0.531689 0.000000
1.000000 0.565221 0.068361
1.000000 0.606195 0.142947
0.000000 0.655013 0.000000
0.000000 0.655013 0.000000
0.000000 0.655013 0.000000
0.000000 0.658294 0.000000
0.000000 0.658288 0.000000
0.000000 0.658057 0.000000
0.000000 0.658042 0.000000
0.000000 0.658021 0.000000
0.121042 0.657751 0.000000
0.135551 0.663954 0.000000
0.197007 0.663865 0.000000
0.260826 0.656900 0.000000
0.316703 0.656158 0.000000
0.364507 0.655217 0.000000
0.413761 0.654223 0.000000
0.475412 0.652489 0.000000
0.532560 0.650410 0.000000
0.586941 0.658166 0.000000
0.654310 0.651226 0.000000
0.724248 0.631924 0.000000
0.771121 0.613970 0.000000
0.809952 0.601769 0.000000
0.852075 0.587651 0.000000
0.884470 0.580870 0.000000
0.915590 0.571843 0.000000
0.946398 0.570217 0.000000
0.971690 0.562434 0.000000
0.996913 0.556397 0.000000
1.000000 0.562096 0.000000
1.000000 0.567753 0.000000
1.000000 0.574885 0.000000
1.000000 0.593453 0.068055
1.000000 0.629838 0.141919
0.111629 0.716678 0.000000
0.111629 0.716678 0.000000
0.111629 0.716678 0.000000
0.136605 0.716436 0.000000
0.136605 0.716436 0.000000
0.174504 0.716376 0.000000
0.189970 0.716344 0.000000
0.204001 0.716310 0.000000
0.228695 0.716023 0.000000
0.250850 0.715943 0.000000
0.275450 0.718838 0.000000
0.302366 0.718480 0.000000
0.334768 0.717944 0.000000
0.385633 0.717283 0.000000
0.440118 0.713312 0.000000
0.481443 0.712255 0.000000
0.534501 0.713512 0.000000
0.584455 0.714283 0.000000
0.658590 0.711197 0.000000
0.723411 0.704431 0.000000
0.770089 0.690484 0.000000
0.817969 0.675597 0.000000
0.852236 0.664424 0.000000
0.884213 0.648058 0.000000
0.916505 0.642451 0.000000
0.945427 0.634120 0.000000
0.968304 0.633075 0.000000
0.989740 0.630300 0.000000
1.000000 0.621819 0.000000
1.000000 0.624495 0.000000
1.000000 0.627611 0.000000
1.000000 0.638530 0.060887
1.000000 0.657337 0.147530
0.273713 0.763736 0.000000
0.273713 0.763736 0.000000
0.273713 0.763736 0.000000
0.283946 0.763675 0.000000
0.283630 0.763488 0.000000
0.302975 0.763361 0.000000
0.302975 0.763361 0.000000
0.312165 0.763295 0.000000
0.320934 0.763134 0.000000
0.346279 0.762922 0.000000
0.350806 0.765438 0.000000
0.374249 0.765205 0.000000
0.403268 0.764688 0.000000
0.430539 0.764146 0.000000
0.468827 0.763192 0.000000
0.510725 0.762066 0.000000
0.555873 0.760733 0.000000
0.614019 0.758508 0.000000
0.662168 0.758773 0.000000
0.721047 0.755778 0.000000
0.773139 0.752964 0.000000
0.813881 0.740990 0.000000
0.855210 0.724419 0.000000
0.884816 0.711558 0.000000
0.916071 0.700023 0.000000
0.941942 0.695197 0.000000
0.964125 0.694956 0.000000
0.983443 0.694936 0.000000
1.000000 0.689303 0.000000
1.000000 0.684842 0.000000
1.000000 0.687705 0.000000
1.000000 0.694188 0.066727
1.000000 0.703562 0.153629
0.376489 0.806057 0.000000
0.392149 0.805864 0.000000
0.392149 0.805864 0.000000
0.392149 0.805864 0.000000
0.392149 0.805864 0.000000
0.399759 0.805765 0.000000
0.399759 0.805765 0.000000
0.407236 0.805664 0.000000
0.414307 0.805409 0.000000
0.419390 0.807643 0.000000
0.440478 0.807246 0.000000
0.454149 0.807023 0.000000
0.467074 0.806569 0.000000
0.490885 0.808255 0.000000
0.523270 0.805238 0.000000
0.558041 0.804132 0.000000
0.596822 0.802823 0.000000
0.628453 0.801531 0.000000
0.671879 0.802154 0.000000
0.716744 0.800175 0.000000
0.764255 0.797456 0.000000
0.815494 0.794387 0.000000
0.848561 0.786891 0.000000
0.882868 0.775241 0.000000
0.913183 0.764216 0.000000
0.936961 0.752029 0.000000
0.958624 0.751542 0.000000
0.976857 0.751209 0.000000
0.992954 0.745970 0.000000
1.000000 0.741417 0.000000
1.000000 0.740165 0.000000
1.000000 0.742624 0.083647
1.000000 0.748146 0.171937
0.478490 0.841952 0.060166
0.477030 0.843908 0.059823
0.483714 0.843778 0.060709
0.483714 0.843778 0.060709
0.483714 0.843778 0.060709
0.496852 0.843514 0.062443
0.496581 0.843392 0.024707
0.503044 0.843258 0.027548
0.509440 0.843122 0.030051
0.515637 0.842924 0.000000
0.521907 0.842786 0.000000
0.540105 0.842240 0.000000
0.552147 0.841949 0.000000
0.561446 0.845402 0.000000
0.578708 0.844829 0.000000
0.606661 0.843995 0.000000
0.627866 0.843313 0.000000
0.657667 0.842142 0.000000
0.690335 0.840945 0.000000
0.720197 0.839534 0.000000
0.765682 0.839337 0.000000
0.808657 0.837103 0.000000
0.845546 0.834839 0.000000
0.881074 0.824633 0.000000
0.910372 0.814895 0.000000
0.931712 0.808243 0.000000
0.953365 0.798407 0.000000
0.972202 0.793307 0.000000
0.986699 0.792889 0.000000
1.000000 0.786577 0.000000
1.000000 0.784988 0.000000
1.000000 0.786374 0.121439
1.000000 0.788390 0.198483
0.569559 0.870064 0.192296
0.568630 0.871747 0.192715
0.568511 0.871697 0.189048
0.568511 0.871697 0.189048
0.568511 0.871697 0.189048
0.568511 0.871697 0.189048
0.574369 0.871543 0.189335
0.574369 0.871543 0.189335
0.580151 0.871389 0.189624
0.591271 0.870980 0.182781
0.596843 0.870825 0.183086
0.602234 0.870620 0.179618
0.613048 0.870310 0.180250
0.623389 0.869900 0.173225
0.637742 0.871006 0.166860
0.652517 0.870493 0.163938
0.671276 0.869731 0.153058
0.693806 0.868925 0.150913
0.719185 0.867991 0.149336
