Assets/Lutify-Free-LUTs-Pack/Lutify Free LUTs Pack/Film Tone Pro - Film Tone 3/Lutify.me-FilmTone3-CanonLog2-to-Rec709.cube
# Created with: fylm.ai - Colour Grading and Collaboration Software in Cloud 
# Website: https://fylm.ai 
# META
# Option: Gamut compress
# Block 1: IDT | CanonLog2 Cinema Gamut Daylight
# Block 2: colourMatch | Blending Mode: Normal | {"ColorSpace":0,"CrossCovarianceLimit":50,"ReshapingIterations":1,"PercentSaturationShift":100,"PercentShadingShift":100,"ExtraShading":true,"PercentTint":100,"PercentModified":100}
# Block 3: subtractiveColour | Blending Mode: Normal | {"sliders":{"gainY":0.6,"C":0.3,"M":0.3,"Y":0.3}}
# Block 4: LUT | Filmic Curve Response: Low Contrast 2 (100%)
# Block 5: logPrimaries | Blending Mode: Normal | {"wheels":{"shadows":{"Y":"0","R":"1","G":"1","B":"1"},"midtones":{"Y":"0","R":"1","G":"1","B":"1"},"highlights":{"Y":"0","R":"1","G":"1","B":"1"},"offset":{"Y":"0","R":"1","G":"1","B":"1"}},"sliders":{"shadows":{"Y":0,"R":-0.026,"G":0.03,"B":0.1},"midtones":{"Y":0,"R":0.024,"G":-0.036,"B":0.036},"highlights":{"Y":0,"R":0,"G":0.044,"B":-0.128},"offset":{"Y":0,"R":0,"G":0,"B":0}}}
# Block 6: hueSaturation | Blending Mode: Normal | {"hue":0,"saturation":-0.1}
# Block 7: ODT | Rec709
TITLE "Lutify.me-FilmTone3-CanonLog2-to-Rec709" 
LUT_3D_SIZE 33
0.000000 0.000000 0.000000
0.000000 0.000000 0.000000
0.000000 0.000000 0.000000
0.000000 0.000000 0.000000
0.000000 0.000000 0.000000
0.041826 0.000000 0.000000
0.074841 0.000000 0.000000
0.107126 0.000000 0.000000
0.133902 0.000000 0.000000
0.166537 0.000000 0.000000
0.203931 0.000000 0.000000
0.245542 0.000000 0.000000
0.291661 0.000000 0.000000
0.347068 0.000000 0.000000
0.408692 0.000000 0.000000
0.478798 0.000000 0.000000
0.568043 0.000000 0.000000
0.650420 0.000000 0.000000
0.732973 0.000000 0.028387
0.818516 0.000000 0.059112
0.905895 0.000000 0.082782
0.964115 0.000000 0.117448
1.000000 0.000000 0.156743
1.000000 0.040624 0.213604
1.000000 0.241017 0.262428
1.000000 0.358201 0.322078
1.000000 0.463309 0.392963
1.000000 0.562869 0.468327
1.000000 0.642408 0.535179
1.000000 0.714303 0.600396
1.000000 0.784698 0.668993
1.000000 0.827649 0.728601
1.000000 0.864495 0.782538
0.000000 0.000000 0.000000
0.000000 0.000000 0.000000
0.000000 0.000000 0.000000
0.000000 0.000000 0.000000
0.000000 0.000000 0.000000
0.045584 0.000000 0.000000
0.076625 0.000000 0.000000
0.111528 0.000000 0.000000
0.137647 0.000000 0.000000
0.171562 0.000000 0.000000
0.207900 0.000000 0.000000
0.252307 0.000000 0.000000
0.299484 0.000000 0.000000
0.359356 0.000000 0.000000
0.415138 0.000000 0.000000
0.483692 0.000000 0.000000
0.573174 0.000000 0.000000
0.659141 0.000000 0.000000
0.734281 0.000000 0.026982
0.819376 0.000000 0.058485
0.909571 0.000000 0.082302
0.966804 0.000000 0.117351
1.000000 0.000000 0.156894
1.000000 0.065988 0.213502
1.000000 0.246372 0.262653
1.000000 0.365489 0.321893
1.000000 0.463309 0.392963
1.000000 0.562869 0.468327
1.000000 0.642408 0.535179
1.000000 0.714303 0.600396
1.000000 0.784698 0.668993
1.000000 0.827649 0.728601
1.000000 0.864495 0.782538
0.000000 0.000000 0.000000
0.000000 0.000000 0.000000
0.000000 0.000000 0.000000
0.000000 0.000000 0.000000
0.000000 0.000000 0.000000
0.050747 0.000000 0.000000
0.080669 0.000000 0.000000
0.114382 0.000000 0.000000
0.141228 0.000000 0.000000
0.175936 0.000000 0.000000
0.214993 0.000000 0.000000
0.261092 0.000000 0.000000
0.307623 0.000000 0.000000
0.369313 0.000000 0.000000
0.424362 0.000000 0.000000
0.488265 0.000000 0.000000
0.577945 0.000000 0.000000
0.663840 0.000000 0.000000
0.738781 0.000000 0.025590
0.826918 0.000000 0.056388
0.909734 0.000000 0.082094
0.966864 0.000000 0.117159
1.000000 0.000000 0.156711
1.000000 0.094411 0.210095
1.000000 0.246372 0.262653
1.000000 0.365489 0.321893
1.000000 0.463309 0.392963
1.000000 0.563693 0.468857
1.000000 0.642408 0.535179
1.000000 0.716649 0.600426
1.000000 0.784698 0.668993
1.000000 0.827649 0.728601
1.000000 0.864495 0.782538
0.000000 0.000000 0.000000
0.000000 0.000000 0.000000
0.000000 0.000000 0.000000
0.000000 0.000000 0.000000
0.000000 0.000000 0.000000
0.057108 0.000000 0.000000
0.088152 0.000000 0.000000
0.117126 0.000000 0.000000
0.144489 0.000000 0.000000
0.180477 0.000000 0.000000
0.219545 0.000000 0.000000
0.268520 0.000000 0.000000
0.313979 0.000000 0.000000
0.372427 0.000000 0.000000
0.436335 0.000000 0.000000
0.498772 0.000000 0.000000
0.578713 0.000000 0.000000
0.664495 0.000000 0.000000
0.739302 0.000000 0.024754
0.827399 0.000000 0.055916
0.910054 0.000000 0.081649
0.966920 0.000000 0.116958
1.000000 0.000000 0.156518
1.000000 0.094411 0.210095
1.000000 0.250930 0.262537
1.000000 0.365489 0.321893
1.000000 0.466621 0.392902
1.000000 0.566803 0.468814
1.000000 0.642408 0.535179
1.000000 0.716649 0.600426
1.000000 0.784698 0.668993
1.000000 0.827649 0.728601
1.000000 0.864495 0.782538
0.000000 0.025408 0.000000
0.000000 0.025679 0.000000
0.000000 0.025949 0.000000
0.000000 0.026893 0.000000
0.000000 0.030118 0.000000
0.052193 0.016926 0.000000
0.091379 0.000000 0.000000
0.123324 0.000000 0.000000
0.151348 0.000000 0.000000
0.188993 0.000000 0.000000
0.225965 0.000000 0.000000
0.274595 0.000000 0.000000
0.318561 0.000000 0.000000
0.380468 0.000000 0.000000
0.437400 0.000000 0.000000
0.503057 0.000000 0.000000
0.586371 0.000000 0.000000
0.665286 0.000000 0.000000
0.740084 0.000000 0.023279
0.827229 0.000000 0.052998
0.910132 0.000000 0.081531
0.966946 0.000000 0.116853
1.000000 0.000000 0.156417
1.000000 0.105900 0.210267
1.000000 0.250930 0.262537
1.000000 0.369116 0.321798
1.000000 0.466621 0.392902
1.000000 0.566803 0.468814
1.000000 0.645267 0.535160
1.000000 0.716649 0.600426
1.000000 0.784698 0.668993
1.000000 0.827649 0.728601
1.000000 0.866620 0.782690
0.000000 0.051225 0.000000
0.000000 0.050646 0.000000
0.000000 0.050873 0.000000
0.000000 0.052462 0.000000
0.000000 0.053069 0.000000
0.046172 0.054452 0.000000
0.089613 0.041964 0.000000
0.129753 0.014948 0.000000
0.165397 0.000000 0.000000
0.206701 0.000000 0.000000
0.240815 0.000000 0.000000
0.282684 0.000000 0.000000
0.323713 0.000000 0.000000
0.384258 0.000000 0.000000
0.444635 0.000000 0.000000
0.513721 0.000000 0.000000
0.587538 0.000000 0.000000
0.666344 0.000000 0.000000
0.744581 0.000000 0.020998
0.827706 0.000000 0.052403
0.910288 0.000000 0.081285
0.966997 0.000000 0.116636
1.000000 0.000000 0.156207
1.000000 0.115659 0.210148
1.000000 0.255430 0.262418
1.000000 0.369116 0.321798
1.000000 0.466621 0.392902
1.000000 0.566803 0.468814
1.000000 0.645154 0.532389
1.000000 0.716649 0.600426
1.000000 0.784698 0.668993
1.000000 0.827649 0.728601
1.000000 0.866620 0.782690
0.000000 0.070731 0.000000
0.000000 0.071011 0.000000
0.000000 0.072310 0.000000
0.000000 0.074908 0.000000
0.000000 0.076861 0.000000
0.000000 0.077488 0.000000
0.085811 0.075356 0.000000
0.132632 0.058992 0.000000
0.174959 0.037519 0.000000
0.220078 0.000000 0.000000
0.258700 0.000000 0.000000
0.295921 0.000000 0.000000
0.342402 0.000000 0.000000
0.396388 0.000000 0.000000
0.449960 0.000000 0.000000
0.524895 0.000000 0.000000
0.592235 0.000000 0.000000
0.671587 0.000000 0.000000
0.745877 0.000000 0.016399
0.831831 0.000000 0.049409
0.913866 0.000000 0.080572
0.967042 0.000000 0.116407
1.000000 0.000000 0.156341
1.000000 0.132693 0.209900
1.000000 0.255430 0.262418
1.000000 0.369849 0.322215
1.000000 0.469932 0.392840
1.000000 0.566803 0.468814
1.000000 0.645154 0.532389
1.000000 0.716649 0.600426
1.000000 0.784698 0.668993
1.000000 0.828678 0.729868
1.000000 0.866620 0.782690
0.000000 0.095238 0.000000
0.000000 0.095426 0.000000
0.000000 0.096371 0.000000
0.000000 0.099682 0.000000
0.000000 0.101197 0.000000
0.000000 0.105645 0.000000
0.068182 0.107995 0.000000
0.139153 0.095277 0.000000
0.190897 0.078426 0.000000
0.239307 0.043233 0.000000
0.282594 0.000000 0.000000
0.322464 0.000000 0.000000
0.361679 0.000000 0.000000
0.409780 0.000000 0.000000
0.461473 0.000000 0.000000
0.530580 0.000000 0.000000
0.597885 0.000000 0.000000
0.676571 0.000000 0.000000
0.750356 0.000000 0.000000
0.832409 0.000000 0.048365
0.914292 0.000000 0.079646
0.969661 0.000000 0.116100
1.000000 0.000000 0.155996
1.000000 0.140335 0.209772
1.000000 0.264108 0.260277
1.000000 0.373457 0.322118
1.000000 0.469932 0.392840
1.000000 0.569915 0.468770
1.000000 0.645154 0.532389
1.000000 0.716649 0.600426
1.000000 0.786423 0.669082
1.000000 0.828678 0.729868
1.000000 0.866620 0.782690
0.000000 0.124173 0.000000
0.000000 0.128253 0.000000
0.000000 0.128606 0.000000
0.000000 0.132008 0.000000
0.000000 0.132900 0.000000
0.000000 0.140789 0.000000
0.000000 0.147213 0.000000
0.127317 0.144691 0.000000
0.194833 0.128737 0.000000
0.253735 0.101838 0.000000
0.301082 0.074783 0.000000
0.341717 0.000000 0.000000
0.386005 0.000000 0.000000
0.437103 0.000000 0.000000
0.483254 0.000000 0.000000
0.544365 0.000000 0.000000
0.617952 0.000000 0.000000
0.692977 0.000000 0.000000
0.758808 0.000000 0.000000
0.837191 0.000000 0.045718
0.914629 0.000000 0.078772
0.969727 0.000000 0.115422
1.000000 0.000000 0.155718
1.000000 0.154756 0.209794
1.000000 0.269811 0.260841
1.000000 0.380645 0.321919
1.000000 0.476548 0.392712
1.000000 0.569915 0.468770
1.000000 0.648004 0.532370
1.000000 0.718982 0.600457
1.000000 0.786423 0.669082
1.000000 0.830075 0.729955
1.000000 0.866620 0.782690
0.000000 0.159167 0.000000
0.000000 0.162017 0.000000
0.000000 0.163770 0.000000
0.000000 0.168108 0.000000
0.000000 0.169252 0.000000
0.000000 0.179077 0.000000
0.000000 0.184799 0.000000
0.072836 0.186350 0.000000
0.191030 0.183877 0.000000
0.262285 0.160953 0.000000
0.318682 0.136720 0.000000
0.367894 0.104227 0.000000
0.416177 0.060042 0.000000
0.462285 0.000000 0.000000
0.513466 0.000000 0.000000
0.562332 0.000000 0.000000
0.628186 0.000000 0.000000
0.702218 0.000000 0.000000
0.767350 0.000000 0.000000
0.841960 0.000000 0.038296
0.918045 0.000000 0.074927
0.969768 0.000000 0.114497
1.000000 0.000000 0.155133
1.000000 0.173652 0.209365
1.000000 0.282533 0.260441
1.000000 0.384225 0.321817
1.000000 0.479852 0.392646
1.000000 0.573028 0.468726
1.000000 0.648004 0.532370
1.000000 0.718982 0.600457
1.000000 0.786423 0.669082
1.000000 0.830075 0.729955
1.000000 0.866620 0.782690
0.000000 0.195031 0.000000
0.000000 0.195598 0.000000
0.000000 0.203795 0.000000
0.000000 0.207528 0.000000
0.000000 0.208851 0.000000
0.000000 0.215455 0.000000
0.000000 0.221571 0.000000
0.000000 0.229664 0.000000
0.147954 0.229124 0.000000
0.263761 0.217651 0.000000
0.325483 0.195272 0.000000
0.383209 0.171868 0.000000
0.439600 0.135756 0.000000
0.497659 0.097021 0.000000
0.544477 0.000000 0.000000
0.590082 0.000000 0.000000
0.646760 0.000000 0.000000
0.708510 0.000000 0.000000
0.780206 0.000000 0.000000
0.853094 0.000000 0.000000
0.921406 0.000000 0.070100
0.972061 0.000000 0.110904
1.000000 0.000000 0.154215
1.000000 0.196561 0.209031
1.000000 0.294925 0.260018
1.000000 0.391359 0.321606
1.000000 0.484688 0.393578
1.000000 0.579254 0.468635
1.000000 0.650843 0.532351
1.000000 0.723612 0.600525
1.000000 0.788143 0.669171
1.000000 0.830075 0.729955
1.000000 0.866620 0.782690
0.000000 0.238155 0.000000
0.000000 0.240600 0.000000
0.000000 0.246362 0.000000
0.000000 0.250900 0.000000
0.000000 0.253855 0.000000
0.000000 0.261021 0.000000
0.000000 0.269264 0.000000
0.000000 0.274201 0.000000
0.056717 0.273728 0.000000
0.234387 0.273613 0.000000
0.325103 0.261162 0.000000
0.398882 0.236638 0.000000
0.461602 0.201930 0.000000
0.531265 0.168462 0.000000
0.578852 0.136064 0.000000
0.618616 0.099392 0.000000
0.673300 0.000000 0.000000
0.726371 0.000000 0.000000
0.786111 0.000000 0.000000
0.867512 0.000000 0.000000
0.924399 0.000000 0.059315
0.976498 0.000000 0.106014
1.000000 0.092746 0.150143
1.000000 0.212161 0.205570
1.000000 0.315580 0.259617
1.000000 0.402002 0.321277
1.000000 0.494545 0.393373
1.000000 0.582369 0.468589
1.000000 0.653670 0.532334
1.000000 0.725908 0.600561
1.000000 0.788143 0.669171
1.000000 0.831464 0.730043
1.000000 0.867672 0.782768
0.000000 0.284064 0.000000
0.000000 0.287404 0.000000
0.000000 0.293078 0.000000
0.000000 0.294311 0.000000
0.000000 0.302020 0.000000
0.000000 0.307917 0.000000
0.000000 0.314960 0.000000
0.000000 0.318138 0.000000
0.000000 0.325566 0.000000
0.175060 0.325984 0.000000
0.298570 0.328294 0.000000
0.400343 0.303889 0.000000
0.479653 0.275799 0.000000
0.559791 0.249352 0.000000
0.616904 0.209341 0.000000
0.663358 0.181093 0.000000
0.704988 0.160617 0.000000
0.748751 0.117629 0.000000
0.803370 0.000000 0.000000
0.871962 0.000000 0.000000
0.936032 0.000000 0.039275
0.982548 0.000000 0.096696
1.000000 0.164119 0.148080
1.000000 0.241926 0.204992
1.000000 0.338845 0.258619
1.000000 0.416744 0.321239
1.000000 0.501854 0.393737
1.000000 0.588598 0.468494
1.000000 0.656487 0.532318
1.000000 0.728192 0.600599
1.000000 0.789856 0.669262
1.000000 0.831464 0.730043
1.000000 0.867672 0.782768
0.000000 0.340211 0.000000
0.000000 0.347518 0.000000
0.000000 0.349514 0.000000
0.000000 0.355918 0.000000
0.000000 0.362527 0.000000
0.000000 0.367164 0.000000
0.000000 0.376867 0.000000
0.000000 0.380155 0.000000
0.000000 0.386635 0.000000
0.000000 0.389214 0.000000
0.242518 0.386403 0.000000
0.384515 0.386563 0.000000
0.481645 0.364611 0.000000
0.571084 0.335004 0.000000
0.634314 0.297261 0.000000
0.691214 0.269297 0.000000
0.742275 0.244945 0.000000
0.777458 0.237228 0.000000
0.830839 0.218155 0.000000
0.882448 0.167075 0.000000
0.937908 0.134030 0.000000
0.985521 0.167957 0.084016
1.000000 0.217535 0.143647
1.000000 0.290531 0.202694
1.000000 0.358831 0.258444
1.000000 0.438662 0.316737
1.000000 0.514817 0.390816
1.000000 0.592479 0.468984
1.000000 0.663665 0.533483
1.000000 0.730462 0.600640
1.000000 0.791563 0.669354
1.000000 0.832847 0.730133
1.000000 0.867672 0.782768
0.000000 0.401419 0.000000
0.000000 0.404631 0.000000
0.000000 0.409774 0.000000
0.000000 0.417171 0.000000
0.000000 0.421575 0.000000
0.000000 0.426179 0.000000
0.000000 0.430860 0.000000
0.000000 0.434091 0.000000
0.000000 0.443502 0.000000
0.000000 0.446973 0.000000
0.130360 0.448737 0.000000
0.340000 0.441547 0.000000
0.464052 0.447373 0.000000
0.575672 0.413639 0.000000
0.654291 0.392227 0.000000
0.715947 0.357934 0.000000
0.777611 0.324907 0.000000
0.815297 0.309733 0.000000
0.846471 0.317266 0.000000
0.898265 0.295493 0.000000
0.942879 0.254089 0.000000
0.986992 0.252495 0.049204
1.000000 0.288099 0.128756
1.000000 0.338084 0.190983
1.000000 0.389215 0.255624
1.000000 0.459971 0.316336
1.000000 0.535110 0.390847
1.000000 0.604918 0.468788
1.000000 0.668958 0.527943
1.000000 0.737194 0.600772
1.000000 0.793263 0.669449
1.000000 0.835594 0.730317
1.000000 0.868718 0.782847
0.000000 0.470662 0.000000
0.000000 0.479863 0.000000
0.000000 0.484851 0.000000
0.000000 0.489202 0.000000
0.000000 0.496430 0.000000
0.000000 0.498123 0.000000
0.000000 0.500103 0.000000
0.000000 0.502332 0.000000
0.000000 0.508220 0.000000
0.000000 0.514310 0.000000
0.000000 0.516804 0.000000
0.243905 0.517229 0.000000
0.414106 0.515215 0.000000
0.572685 0.503610 0.000000
0.648918 0.483353 0.000000
0.720118 0.445810 0.000000
0.789356 0.413887 0.000000
0.848358 0.381680 0.000000
0.875688 0.379278 0.000000
0.903685 0.388126 0.000000
0.945435 0.380337 0.000000
0.986689 0.358332 0.000000
1.000000 0.354769 0.106642
1.000000 0.386439 0.173990
1.000000 0.432487 0.249192
1.000000 0.491747 0.313530
1.000000 0.555718 0.386133
1.000000 0.617360 0.468583
1.000000 0.679838 0.527913
1.000000 0.746590 0.601626
1.000000 0.796642 0.669641
1.000000 0.836956 0.730411
1.000000 0.869758 0.782928
0.000000 0.547620 0.000000
0.000000 0.552892 0.000000
0.000000 0.554206 0.000000
0.000000 0.555509 0.000000
0.000000 0.556262 0.000000
0.000000 0.557436 0.000000
0.000000 0.559007 0.000000
0.000000 0.564227 0.000000
0.000000 0.569631 0.000000
0.000000 0.575097 0.000000
0.000000 0.577327 0.000000
0.000000 0.575272 0.000000
0.346888 0.574374 0.000000
0.529994 0.577394 0.000000
0.642087 0.570024 0.000000
0.717018 0.542899 0.000000
0.797056 0.518036 0.000000
0.859761 0.490703 0.000000
0.908034 0.457506 0.000000
0.921858 0.471064 0.000000
0.947682 0.481648 0.000000
0.984457 0.474885 0.000000
1.000000 0.445683 0.022101
1.000000 0.451412 0.156916
1.000000 0.481843 0.241504
1.000000 0.533123 0.307668
1.000000 0.581513 0.382735
1.000000 0.634274 0.469421
1.000000 0.691104 0.525778
1.000000 0.752994 0.601806
1.000000 0.800506 0.670527
1.000000 0.839661 0.730603
1.000000 0.871816 0.783092
0.000000 0.616973 0.000000
0.000000 0.621411 0.000000
0.000000 0.622600 0.000000
0.000000 0.623346 0.000000
0.000000 0.624294 0.000000
0.000000 0.625225 0.000000
0.000000 0.626338 0.000000
0.000000 0.627899 0.000000
0.000000 0.632349 0.000000
0.000000 0.643488 0.000000
0.000000 0.645501 0.000000
0.000000 0.646921 0.000000
0.232414 0.640396 0.000000
0.482804 0.637918 0.000000
0.608105 0.634722 0.000000
0.718411 0.630550 0.000000
0.801760 0.596246 0.000000
0.864304 0.562718 0.000000
0.907962 0.544334 0.000000
0.948180 0.519993 0.000000
0.957924 0.541195 0.000000
0.979871 0.560097 0.000000
1.000000 0.560383 0.000000
1.000000 0.535749 0.121990
1.000000 0.543846 0.221117
1.000000 0.570571 0.299352
1.000000 0.610938 0.377084
1.000000 0.655761 0.461427
1.000000 0.706664 0.525825
1.000000 0.762419 0.603404
1.000000 0.803815 0.670733
1.000000 0.842880 0.735816
1.000000 0.874616 0.784387
0.000000 0.683677 0.000000
0.000000 0.684602 0.000000
0.000000 0.685307 0.000000
0.000000 0.685902 0.000000
0.000000 0.686196 0.000000
0.000000 0.690120 0.000000
0.000000 0.690684 0.000000
0.000000 0.694666 0.000000
0.000000 0.695714 0.000000
0.000000 0.697066 0.000000
0.000000 0.698272 0.000000
0.000000 0.699333 0.000000
0.000000 0.699576 0.000000
0.391120 0.698296 0.000000
0.554759 0.702037 0.000000
0.688827 0.698153 0.000000
0.789912 0.681422 0.000000
0.857866 0.658972 0.000000
0.899354 0.634180 0.000000
0.942246 0.610329 0.000000
0.981763 0.584283 0.000000
0.982486 0.613019 0.000000
0.999297 0.640004 0.000000
1.000000 0.634288 0.000000
1.000000 0.608289 0.193291
1.000000 0.617691 0.292424
1.000000 0.647098 0.374390
1.000000 0.682053 0.450784
1.000000 0.732507 0.527376
1.000000 0.774323 0.603902
1.000000 0.811960 0.671280
1.000000 0.845510 0.736013
1.000000 0.876592 0.784562
0.000000 0.747236 0.000000
0.000000 0.750672 0.000000
0.000000 0.750989 0.000000
0.000000 0.751222 0.000000
0.000000 0.751451 0.000000
0.000000 0.751675 0.000000
0.000000 0.752249 0.000000
0.000000 0.752654 0.000000
0.000000 0.753157 0.000000
0.000000 0.753817 0.000000
0.000000 0.757227 0.000000
0.000000 0.760476 0.000000
0.000000 0.760510 0.000000
0.256467 0.759572 0.000000
0.491956 0.757043 0.000000
0.639693 0.753526 0.000000
0.769473 0.749121 0.000000
0.841098 0.738114 0.000000
0.891567 0.719217 0.000000
0.935654 0.697526 0.000000
0.970576 0.682859 0.000000
1.000000 0.655902 0.000000
0.993758 0.696876 0.000000
1.000000 0.711982 0.000000
1.000000 0.712226 0.113658
1.000000 0.687901 0.267611
1.000000 0.695479 0.363687
1.000000 0.723504 0.449201
1.000000 0.755848 0.525856
1.000000 0.785957 0.599721
1.000000 0.819212 0.673137
1.000000 0.850680 0.736426
1.000000 0.879503 0.784833
0.000000 0.803935 0.000000
0.000000 0.804134 0.000000
0.000000 0.804276 0.000000
0.000000 0.804411 0.000000
0.000000 0.804454 0.000000
0.000000 0.804581 0.000000
0.000000 0.804700 0.000000
0.000000 0.804881 0.000000
0.000000 0.805095 0.000000
0.000000 0.805260 0.000000
0.000000 0.807808 0.000000
0.000000 0.807767 0.000000
0.000000 0.807334 0.000000
0.193211 0.806253 0.000000
0.435508 0.804081 0.000000
0.578904 0.808005 0.000000
0.728853 0.798803 0.000000
0.832406 0.795009 0.000000
0.880003 0.781720 0.000000
0.927240 0.763288 0.000000
0.963335 0.750518 0.000000
0.989142 0.730000 0.000000
1.000000 0.718657 0.000000
1.000000 0.762677 0.000000
1.000000 0.769079 0.000000
1.000000 0.769492 0.224662
1.000000 0.756346 0.347828
1.000000 0.762802 0.441204
1.000000 0.781685 0.528364
1.000000 0.802867 0.596798
1.000000 0.830703 0.672893
1.000000 0.857713 0.738228
1.000000 0.884011 0.786339
0.000000 0.844984 0.000000
0.000000 0.845018 0.000000
0.000000 0.845028 0.000000
0.000000 0.845043 0.000000
0.000000 0.845050 0.000000
0.000000 0.845061 0.000000
0.000000 0.845064 0.000000
0.000000 0.845054 0.000000
0.000000 0.845000 0.000000
0.000000 0.846877 0.000000
0.000000 0.846642 0.000000
0.000000 0.846219 0.000000
0.000000 0.845513 0.000000
0.211419 0.844404 0.000000
0.400253 0.842636 0.000000
0.535277 0.842063 0.000000
0.694291 0.837470 0.000000
0.804899 0.833464 0.000000
0.873196 0.834770 0.000000
0.916739 0.817742 0.000000
0.952962 0.806943 0.000000
0.979490 0.790317 0.000000
1.000000 0.778287 0.000000
1.000000 0.764438 0.000000
1.000000 0.810593 0.000000
1.000000 0.812849 0.114770
1.000000 0.816385 0.320150
1.000000 0.805864 0.427966
1.000000 0.810225 0.523903
1.000000 0.823891 0.600067
1.000000 0.842671 0.672262
1.000000 0.866742 0.740336
1.000000 0.888691 0.786829
0.000000 0.878348 0.000000
0.000000 0.878253 0.000000
0.000000 0.878220 0.000000
0.000000 0.878185 0.000000
0.000000 0.878111 0.000000
0.000000 0.878073 0.000000
0.000000 0.877951 0.000000
0.000000 0.881214 0.000000
0.000000 0.881016 0.000000
0.000000 0.880799 0.000000
0.000000 0.880499 0.000000
0.000000 0.879950 0.000000
0.000000 0.879314 0.000000
0.260240 0.878295 0.000000
0.390517 0.878527 0.000000
0.520198 0.876148 0.000000
0.659653 0.872316 0.000000
0.773969 0.868303 0.000000
0.850970 0.865380 0.000000
0.905672 0.864947 0.000000
0.943744 0.850682 0.000000
0.970394 0.841731 0.000000
0.996952 0.825899 0.000000
1.000000 0.814121 0.000000
1.000000 0.803186 0.000000
1.000000 0.849376 0.000000
1.000000 0.850861 0.245947
1.000000 0.851833 0.410540
1.000000 0.843981 0.514810
1.000000 0.849083 0.592324
1.000000 0.860791 0.673525
1.000000 0.876958 0.738036
1.000000 0.895406 0.788123
0.000000 0.909343 0.000000
0.000000 0.909197 0.000000
0.000000 0.909121 0.000000
0.000000 0.909121 0.000000
0.000000 0.909045 0.000000
0.000000 0.908889 0.000000
0.000000 0.908809 0.000000
0.000000 0.908727 0.000000
0.000000 0.908475 0.000000
0.000000 0.908301 0.000000
0.000000 0.907841 0.000000
0.171584 0.907246 0.000000
0.271415 0.906602 0.000000
0.366230 0.906886 0.000000
0.454716 0.906759 0.000000
0.548551 0.904676 0.000000
0.651334 0.901712 0.000000
0.743914 0.898468 0.000000
0.820042 0.895503 0.000000
0.888583 0.892710 0.000000
0.935195 0.887120 0.000000
0.966008 0.879584 0.000000
0.989644 0.866526 0.000000
1.000000 0.861132 0.000000
1.000000 0.850224 0.000000
1.000000 0.841238 0.000000
1.000000 0.877866 0.000000
1.000000 0.882698 0.357535
1.000000 0.881019 0.493836
1.000000 0.875929 0.587538
1.000000 0.880344 0.667151
1.000000 0.890761 0.739413
1.000000 0.903904 0.790265
0.015745 0.935894 0.000000
0.107825 0.935786 0.000000
0.143885 0.935678 0.000000
0.143885 0.935678 0.000000
0.170559 0.935568 0.000000
0.170559 0.935568 0.000000
0.192561 0.935457 0.000000
0.228742 0.935230 0.000000
0.258747 0.934999 0.000000
0.284936 0.934763 0.000000
0.330087 0.934274 0.000000
0.369048 0.933765 0.000000
0.412207 0.933098 0.000000
0.473018 0.931964 0.000000
0.526896 0.930757 0.000000
0.591284 0.929062 0.000000
0.660871 0.926919 0.000000
0.734209 0.924330 0.000000
0.798533 0.921831 0.000000
0.867554 0.918961 0.000000
0.919386 0.918941 0.000000
0.955516 0.915496 0.000000
0.980494 0.905029 0.000000
1.000000 0.898071 0.000000
1.000000 0.889232 0.000000
1.000000 0.882094 0.000000
1.000000 0.874399 0.172782
1.000000 0.910608 0.207854
1.000000 0.910888 0.450137
1.000000 0.909490 0.585362
1.000000 0.903482 0.664297
1.000000 0.907387 0.734757
1.000000 0.916012 0.791614
0.401601 0.951972 0.000000
0.409880 0.951835 0.000000
0.409880 0.951835 0.000000
0.425941 0.951558 0.000000
0.425941 0.951558 0.000000
0.433744 0.951418 0.000000
0.433744 0.951418 0.000000
0.441411 0.951276 0.000000
0.456364 0.950989 0.000000
0.470857 0.950697 0.000000
0.484944 0.951302 0.000000
0.511549 0.950706 0.000000
0.536501 0.950105 0.000000
0.571223 0.950979 0.000000
0.608288 0.949924 0.000000
0.651316 0.948584 0.000000
0.693777 0.947143 0.000000
0.744751 0.945270 0.000000
0.793866 0.943328 0.000000
0.852618 0.940847 0.000000
