Assets/Lutify-Free-LUTs-Pack/Lutify Free LUTs Pack/Film Tone Pro - Film Tone 3/Lutify.me-FilmTone3-CanonLog2-to-Rec709.cube
# Created with: fylm.ai - Colour Grading and Collaboration Software in Cloud 
# Website: https://fylm.ai 
# META
# Option: Gamut compress
# Block 1: IDT | CanonLog2 Cinema Gamut Daylight
# Block 2: colourMatch | Blending Mode: Normal | {"ColorSpace":0,"CrossCovarianceLimit":50,"ReshapingIterations":1,"PercentSaturationShift":100,"PercentShadingShift":100,"ExtraShading":true,"PercentTint":100,"PercentModified":100}
# Block 3: subtractiveColour | Blending Mode: Normal | {"sliders":{"gainY":0.6,"C":0.3,"M":0.3,"Y":0.3}}
# Block 4: LUT | Filmic Curve Response: Low Contrast 2 (100%)
# Block 5: logPrimaries | Blending Mode: Normal | {"wheels":{"shadows":{"Y":"0","R":"1","G":"1","B":"1"},"midtones":{"Y":"0","R":"1","G":"1","B":"1"},"highlights":{"Y":"0","R":"1","G":"1","B":"1"},"offset":{"Y":"0","R":"1","G":"1","B":"1"}},"sliders":{"shadows":{"Y":0,"R":-0.026,"G":0.03,"B":0.1},"midtones":{"Y":0,"R":0.024,"G":-0.036,"B":0.036},"highlights":{"Y":0,"R":0,"G":0.044,"B":-0.128},"offset":{"Y":0,"R":0,"G":0,"B":0}}}
# Block 6: hueSaturation | Blending Mode: Normal | {"hue":0,"saturation":-0.1}
# Block 7: ODT | Rec709
TITLE "Lutify.me-FilmTone3-CanonLog2-to-Rec709" 
LUT_3D_SIZE 5
0.000000 0.000000 0.000000
0.133902 0.000000 0.000000
0.568043 0.000000 0.000000
1.000000 0.241017 0.262428
1.000000 0.864495 0.782538
0.000000 0.124173 0.000000
0.194833 0.128737 0.000000
0.617952 0.000000 0.000000
1.000000 0.269811 0.260841
1.000000 0.866620 0.782690
0.000000 0.547620 0.000000
0.000000 0.569631 0.000000
0.797056 0.518036 0.000000
1.000000 0.481843 0.241504
1.000000 0.871816 0.783092
0.015745 0.935894 0.000000
0.258747 0.934999 0.000000
0.660871 0.926919 0.000000
1.000000 0.889232 0.000000
1.000000 0.916012 0.791614
0.925134 1.000000 0.662171
0.926095 1.000000 0.662461
0.931755 1.000000 0.657830
0.979702 1.000000 0.681789
1.000000 0.997902 0.851937
0.000000 0.000000 0.078078
0.112591 0.000000 0.046428
0.562750 0.000000 0.056997
1.000000 0.238019 0.281997
1.000000 0.864537 0.784281
0.000000 0.096815 0.167281
0.118063 0.136543 0.143061
0.612675 0.000000 0.064006
1.000000 0.270188 0.281672
1.000000 0.866661 0.784429
0.000000 0.544059 0.000000
0.000000 0.573225 0.000000
0.769249 0.536612 0.000000
1.000000 0.480228 0.271429
1.000000 0.871855 0.784820
0.000000 0.936000 0.000000
0.244328 0.935115 0.000000
0.656293 0.927070 0.000000
1.000000 0.889232 0.000000
1.000000 0.916039 0.793164
0.925130 1.000000 0.655711
0.926099 1.000000 0.656008
0.931755 1.000000 0.657830
0.979702 1.000000 0.681789
1.000000 0.997902 0.851937
0.000000 0.000000 0.272528
0.000000 0.000000 0.168955
0.499260 0.000000 0.095839
1.000000 0.200832 0.438107
1.000000 0.863719 0.794428
0.000000 0.000000 0.405610
0.000000 0.000000 0.354316
0.526182 0.000000 0.217248
1.000000 0.237091 0.441402
1.000000 0.864788 0.794489
0.000000 0.435675 0.657528
0.000000 0.551147 0.625252
0.638190 0.651284 0.618721
1.000000 0.466586 0.457246
1.000000 0.870036 0.794811
0.000000 0.953022 0.000000
0.000000 0.952474 0.000000
0.391433 0.950196 0.000000
0.992934 0.916965 0.000000
1.000000 0.916201 0.802384
0.924154 1.000000 0.655415
0.925130 1.000000 0.655711
0.931755 1.000000 0.657830
0.979130 1.000000 0.681339
1.000000 0.997902 0.851937
0.000000 0.000000 0.386152
0.000000 0.000000 0.381567
0.437739 0.000000 0.394112
1.000000 0.000000 0.236593
1.000000 0.854156 0.861894
0.000000 0.000000 0.388624
0.000000 0.000000 0.381383
0.434500 0.000000 0.394034
1.000000 0.000000 0.236593
1.000000 0.855310 0.861897
0.000000 0.184553 0.850830
0.000000 0.204704 0.847470
0.167644 0.249438 0.852470
1.000000 0.000000 0.765264
1.000000 0.861469 0.863501
0.000000 0.861528 0.944322
0.000000 0.902140 0.930336
0.000000 0.955916 0.924707
0.935304 0.949289 0.918082
1.000000 0.913288 0.871062
0.865955 1.000000 0.827770
0.865955 1.000000 0.827770
0.873200 1.000000 0.830293
0.923597 1.000000 0.836077
1.000000 1.000000 0.862191
0.292744 0.000000 0.656079
0.317332 0.000000 0.656765
0.497804 0.000000 0.657510
0.962155 0.000000 0.608903
1.000000 0.000000 0.491706
0.292744 0.000000 0.656079
0.317332 0.000000 0.656765
0.497804 0.000000 0.657510
0.962155 0.000000 0.608903
1.000000 0.000000 0.491706
0.286680 0.000000 0.655904
0.311130 0.000000 0.656595
0.497804 0.000000 0.657510
0.962155 0.000000 0.608903
1.000000 0.000000 0.491706
0.000000 0.747777 1.000000
0.000000 0.748507 1.000000
0.000000 0.771294 1.000000
0.795608 0.791182 0.997090
1.000000 0.734333 0.974548
0.000000 1.000000 1.000000
0.000000 1.000000 1.000000
0.185236 1.000000 1.000000
0.833351 1.000000 1.000000
1.000000 1.000000 1.000000
