Assets/Lutify-Free-LUTs-Pack/Lutify Free LUTs Pack/Film Tone Pro - Film Tone 3/Lutify.me-FilmTone3-BolexLog-to-Rec709.cube
# Created with: fylm.ai - Colour Grading and Collaboration Software in Cloud 
# Website: https://fylm.ai 
# META
# Option: Gamut compress
# Block 1: IDT | Bolex Wide Gamut RGB Bolex Log
# Block 2: colourMatch | Blending Mode: Normal | {"ColorSpace":0,"CrossCovarianceLimit":50,"ReshapingIterations":1,"PercentSaturationShift":100,"PercentShadingShift":100,"ExtraShading":true,"PercentTint":100,"PercentModified":100}
# Block 3: subtractiveColour | Blending Mode: Normal | {"sliders":{"gainY":0.6,"C":0.3,"M":0.3,"Y":0.3}}
# Block 4: LUT | Filmic Curve Response: Low Contrast 2 (100%)
# Block 5: logPrimaries | Blending Mode: Normal | {"wheels":{"shadows":{"Y":"0","R":"1","G":"1","B":"1"},"midtones":{"Y":"0","R":"1","G":"1","B":"1"},"highlights":{"Y":"0","R":"1","G":"1","B":"1"},"offset":{"Y":"0","R":"1","G":"1","B":"1"}},"sliders":{"shadows":{"Y":0,"R":-0.026,"G":0.03,"B":0.1},"midtones":{"Y":0,"R":0.024,"G":-0.036,"B":0.036},"highlights":{"Y":0,"R":0,"G":0.044,"B":-0.128},"offset":{"Y":0,"R":0,"G":0,"B":0}}}
# Block 6: hueSaturation | Blending Mode: Normal | {"hue":0,"saturation":-0.1}
# Block 7: ODT | Rec709
TITLE "Lutify.me-FilmTone3-BolexLog-to-Rec709" 
LUT_3D_SIZE 9
0.000000 0.000000 0.000000
0.024226 0.000000 0.000000
0.124843 0.000000 0.000000
0.250741 0.000000 0.000000
0.448120 0.000000 0.000000
0.741752 0.000000 0.049288
0.991185 0.000000 0.154810
1.000000 0.431064 0.348788
1.000000 0.721871 0.592700
0.000000 0.047008 0.000000
0.047055 0.051345 0.000000
0.154059 0.000000 0.000000
0.283503 0.000000 0.000000
0.469417 0.000000 0.000000
0.748558 0.000000 0.050942
0.993218 0.000000 0.155458
1.000000 0.435424 0.354143
1.000000 0.724266 0.592732
0.000000 0.122741 0.000000
0.000000 0.143729 0.000000
0.183377 0.135302 0.000000
0.335466 0.068557 0.000000
0.507583 0.000000 0.000000
0.759744 0.000000 0.049142
0.995319 0.000000 0.163837
1.000000 0.445855 0.353868
1.000000 0.729101 0.595627
0.000000 0.266716 0.000000
0.000000 0.286141 0.000000
0.000000 0.298677 0.000000
0.380869 0.281048 0.000000
0.588844 0.217281 0.000000
0.802590 0.000000 0.043335
1.000000 0.192370 0.173729
1.000000 0.467560 0.361441
1.000000 0.733786 0.595706
0.000000 0.508235 0.000000
0.000000 0.521442 0.000000
0.000000 0.534291 0.000000
0.090610 0.546523 0.000000
0.624817 0.527306 0.000000
0.851493 0.462188 0.000000
1.000000 0.401357 0.192469
1.000000 0.538415 0.374472
1.000000 0.750456 0.605123
0.000000 0.760432 0.101721
0.000000 0.766489 0.088342
0.000000 0.769577 0.066774
0.000000 0.774901 0.000000
0.479925 0.778790 0.000000
0.834110 0.770244 0.000000
0.973092 0.721236 0.231253
1.000000 0.683793 0.412250
1.000000 0.784481 0.616067
0.000000 0.910566 0.424412
0.000000 0.910231 0.425018
0.000000 0.909875 0.425628
0.229841 0.909565 0.418998
0.525848 0.910104 0.417227
0.765743 0.905843 0.411480
0.934264 0.900147 0.421467
1.000000 0.874686 0.522991
1.000000 0.858608 0.660606
0.628199 0.976023 0.683925
0.632571 0.975885 0.684062
0.636888 0.975748 0.684201
0.657658 0.975068 0.684898
0.695356 0.973763 0.686325
0.786776 0.972602 0.680420
0.891699 0.969697 0.682168
0.983334 0.966772 0.702000
1.000000 0.952857 0.761516
0.831102 1.000000 0.851126
0.832747 1.000000 0.851195
0.833262 1.000000 0.852033
0.834886 1.000000 0.852102
0.842884 1.000000 0.852447
0.859750 1.000000 0.852016
0.901584 1.000000 0.851675
0.957081 1.000000 0.854319
1.000000 0.999455 0.867941
0.000000 0.000000 0.027859
0.000000 0.000000 0.024993
0.120145 0.000000 0.000000
0.239554 0.000000 0.000000
0.448842 0.000000 0.029195
0.745896 0.000000 0.070814
0.991936 0.000000 0.168317
1.000000 0.431453 0.356349
1.000000 0.721962 0.595524
0.000000 0.036510 0.055079
0.031854 0.045183 0.051165
0.140625 0.000000 0.035520
0.273842 0.000000 0.023644
0.474157 0.000000 0.033947
0.752649 0.000000 0.073492
0.994018 0.000000 0.170582
1.000000 0.434945 0.356262
1.000000 0.724356 0.595557
0.000000 0.123159 0.060048
0.000000 0.142628 0.045029
0.153522 0.155072 0.034383
0.326236 0.075333 0.023615
0.506397 0.000000 0.036364
0.764785 0.000000 0.080060
0.995803 0.000000 0.173829
1.000000 0.446243 0.361553
1.000000 0.729101 0.595627
0.000000 0.276990 0.000000
0.000000 0.296839 0.000000
0.000000 0.312341 0.000000
0.354702 0.308492 0.000000
0.592543 0.224910 0.000000
0.802528 0.000000 0.081412
1.000000 0.198797 0.185914
1.000000 0.467687 0.364051
1.000000 0.733873 0.598534
0.000000 0.520443 0.000000
0.000000 0.528168 0.000000
0.000000 0.541636 0.000000
0.074797 0.553968 0.000000
0.620134 0.544887 0.000000
0.853421 0.462107 0.037826
1.000000 0.402153 0.203857
1.000000 0.538794 0.382561
1.000000 0.750456 0.605123
0.000000 0.762102 0.171428
0.000000 0.768315 0.171303
0.000000 0.771375 0.161723
0.000000 0.779272 0.141792
0.475452 0.780339 0.126378
0.834976 0.771670 0.123712
0.972904 0.722182 0.256243
1.000000 0.681115 0.420817
1.000000 0.784616 0.621736
0.000000 0.912032 0.437485
0.000000 0.911781 0.437934
0.000000 0.911336 0.438688
0.229868 0.909735 0.434708
0.526059 0.910225 0.429632
0.762522 0.906152 0.429400
0.934113 0.900311 0.435751
1.000000 0.874771 0.528721
1.000000 0.858697 0.666067
0.628089 0.976039 0.691851
0.628089 0.976039 0.691851
0.636775 0.975763 0.692119
0.649391 0.975354 0.692524
0.695260 0.973774 0.691576
0.783969 0.972731 0.688040
0.891557 0.969713 0.687189
0.983334 0.966772 0.702000
1.000000 0.952793 0.760829
0.831084 1.000000 0.852353
0.832728 1.000000 0.852422
0.833244 1.000000 0.853247
0.834868 1.000000 0.853315
0.842884 1.000000 0.852447
0.859750 1.000000 0.852016
0.901584 1.000000 0.851675
0.957081 1.000000 0.854319
1.000000 0.999455 0.867941
0.000000 0.000000 0.070483
0.000000 0.000000 0.061837
0.106115 0.000000 0.050280
0.238091 0.000000 0.046857
0.452069 0.000000 0.057592
0.745710 0.000000 0.093259
0.990446 0.000000 0.183582
1.000000 0.424842 0.364202
1.000000 0.722052 0.598354
0.000000 0.000000 0.106939
0.000000 0.000000 0.096356
0.123578 0.000000 0.085253
0.270860 0.000000 0.072326
0.478669 0.000000 0.068945
0.756800 0.000000 0.099681
0.992450 0.000000 0.186032
1.000000 0.435460 0.366574
1.000000 0.724446 0.598386
0.000000 0.106358 0.182249
0.000000 0.133260 0.171671
0.124965 0.150138 0.170915
0.320712 0.076463 0.122156
0.511891 0.000000 0.085542
0.768578 0.000000 0.107849
0.994312 0.000000 0.192749
1.000000 0.446499 0.366756
1.000000 0.724446 0.598386
0.000000 0.284272 0.197681
0.000000 0.305213 0.178090
0.000000 0.323808 0.165984
0.329161 0.332925 0.154434
0.595956 0.236852 0.108233
0.802688 0.000000 0.119738
1.000000 0.201026 0.208591
1.000000 0.468197 0.374613
1.000000 0.734046 0.604205
0.000000 0.527796 0.161478
0.000000 0.541378 0.145542
0.000000 0.546258 0.148842
0.000000 0.564916 0.122970
0.616087 0.559544 0.107952
0.854731 0.469057 0.131320
1.000000 0.407392 0.226889
1.000000 0.539046 0.387987
1.000000 0.750537 0.607959
0.000000 0.769664 0.240345
0.000000 0.770350 0.241817
0.000000 0.773394 0.233820
0.000000 0.781045 0.212226
0.477413 0.782090 0.204364
0.832971 0.773588 0.203778
0.970455 0.726290 0.292223
1.000000 0.684463 0.429336
1.000000 0.784683 0.624576
0.000000 0.912321 0.456312
0.000000 0.911987 0.456901
0.000000 0.911723 0.457346
0.229694 0.909968 0.456759
0.526327 0.910403 0.448285
0.762045 0.907529 0.448171
0.933872 0.900537 0.455898
1.000000 0.874856 0.534468
1.000000 0.858741 0.668783
0.623589 0.976187 0.696943
0.628015 0.976049 0.697074
0.632385 0.975911 0.697205
0.649311 0.975365 0.697735
0.695211 0.973780 0.694184
0.783858 0.972743 0.693179
0.891277 0.970299 0.690350
0.983175 0.966790 0.706504
1.000000 0.952807 0.762730
0.831084 1.000000 0.852353
0.832728 1.000000 0.852422
0.833244 1.000000 0.853247
0.834868 1.000000 0.853315
0.842865 1.000000 0.853656
0.859727 1.000000 0.853223
0.901553 1.000000 0.852861
0.957042 1.000000 0.855437
1.000000 0.999455 0.867941
0.000000 0.000000 0.130957
0.000000 0.000000 0.115218
0.085231 0.000000 0.112591
0.238100 0.000000 0.078482
0.445493 0.000000 0.118974
0.751735 0.000000 0.160760
0.993392 0.000000 0.240963
1.000000 0.422480 0.388013
1.000000 0.720975 0.602907
0.000000 0.000000 0.180636
0.000000 0.000000 0.169352
0.085242 0.000000 0.166034
0.262593 0.000000 0.136854
0.472336 0.000000 0.156097
0.762927 0.000000 0.170516
0.992965 0.000000 0.242520
1.000000 0.433109 0.390523
1.000000 0.722322 0.606866
0.000000 0.054256 0.271680
0.000000 0.069093 0.256194
0.038653 0.080712 0.255205
0.320206 0.000000 0.239432
0.514467 0.000000 0.195002
0.774268 0.000000 0.182028
0.994732 0.000000 0.247779
1.000000 0.440690 0.390802
1.000000 0.724714 0.606898
0.000000 0.241609 0.352067
0.000000 0.275019 0.352651
0.000000 0.314335 0.355827
0.298535 0.333725 0.351545
0.585975 0.235128 0.271857
0.803731 0.000000 0.212345
0.996406 0.206313 0.259771
1.000000 0.465761 0.396157
1.000000 0.731887 0.609852
0.000000 0.538871 0.371464
0.000000 0.549889 0.372700
0.000000 0.557952 0.363491
0.000000 0.577883 0.347395
0.591383 0.580610 0.340069
0.843232 0.481082 0.266598
1.000000 0.399860 0.284325
1.000000 0.536797 0.412799
1.000000 0.748488 0.613587
0.000000 0.775813 0.370750
0.000000 0.776435 0.372065
0.000000 0.782501 0.373718
0.000000 0.782548 0.363486
0.447556 0.793754 0.348757
0.825364 0.785080 0.354797
0.967906 0.728671 0.362185
1.000000 0.685569 0.458223
1.000000 0.784817 0.630267
0.000000 0.914233 0.507423
0.000000 0.913984 0.507847
0.000000 0.913602 0.505230
0.131237 0.914678 0.501688
0.526740 0.910861 0.498353
0.762354 0.906826 0.499786
0.933179 0.901039 0.502612
1.000000 0.875234 0.560520
1.000000 0.857433 0.673991
0.618927 0.976351 0.709662
0.623408 0.976212 0.709786
0.627831 0.976074 0.709911
0.644965 0.975526 0.710413
0.694920 0.973815 0.709568
0.783579 0.972774 0.705826
0.889277 0.970415 0.704871
0.981950 0.966873 0.719502
1.000000 0.952868 0.770220
0.831049 1.000000 0.854787
0.831049 1.000000 0.854787
0.832692 1.000000 0.854853
0.834833 1.000000 0.855719
0.842827 1.000000 0.856053
0.859683 1.000000 0.855616
0.901493 1.000000 0.855212
0.955437 1.000000 0.857447
1.000000 0.999457 0.869790
0.000000 0.000000 0.225537
0.000000 0.000000 0.210186
0.000000 0.000000 0.211901
0.234238 0.000000 0.203486
0.416677 0.000000 0.139153
0.741212 0.000000 0.291030
0.995921 0.000000 0.343444
1.000000 0.428157 0.451093
1.000000 0.719269 0.625789
0.000000 0.000000 0.290207
0.000000 0.000000 0.279968
0.000000 0.000000 0.278402
0.230522 0.000000 0.283121
0.458541 0.000000 0.217746
0.761172 0.000000 0.310549
0.995852 0.000000 0.351132
1.000000 0.435284 0.453885
1.000000 0.719269 0.625789
0.000000 0.022227 0.359700
0.000000 0.035008 0.352707
0.000000 0.039751 0.350463
0.229033 0.000000 0.352572
0.519754 0.000000 0.313480
0.779251 0.000000 0.337086
0.997481 0.000000 0.359359
1.000000 0.442875 0.454174
1.000000 0.721690 0.625817
0.000000 0.166106 0.470790
0.000000 0.179647 0.471398
0.000000 0.197618 0.470855
0.198693 0.215107 0.475147
0.593480 0.144192 0.464900
0.810474 0.000000 0.395230
0.998594 0.175436 0.370914
1.000000 0.468090 0.462889
1.000000 0.730147 0.629841
0.000000 0.486625 0.567411
0.000000 0.513097 0.571963
0.000000 0.533305 0.573724
0.000000 0.568670 0.570934
0.564348 0.579106 0.575106
0.832519 0.481377 0.488884
0.996311 0.398368 0.416048
1.000000 0.542838 0.475357
1.000000 0.746455 0.638776
0.000000 0.780930 0.597670
0.000000 0.784224 0.592556
0.000000 0.787634 0.588168
0.000000 0.790826 0.590457
0.388858 0.801957 0.577724
0.796457 0.795488 0.572868
0.958813 0.735998 0.504789
1.000000 0.684643 0.514479
1.000000 0.783503 0.655942
0.000000 0.914227 0.615833
0.000000 0.913902 0.616354
0.000000 0.914711 0.614072
0.000000 0.915855 0.609964
0.490935 0.916133 0.612731
0.743330 0.910724 0.605642
0.924707 0.905772 0.616988
1.000000 0.877241 0.613440
1.000000 0.857791 0.695243
0.605451 0.978019 0.739611
0.610075 0.977880 0.739719
0.619142 0.977604 0.739936
0.628277 0.977918 0.740592
0.676635 0.976317 0.739594
0.782860 0.972853 0.737212
0.885442 0.970071 0.732285
0.978552 0.967084 0.748500
1.000000 0.953600 0.783182
0.830981 1.000000 0.859570
0.830981 1.000000 0.859570
0.832624 1.000000 0.859633
0.834768 1.000000 0.860445
0.841175 1.000000 0.860700
0.858094 1.000000 0.861413
0.901347 1.000000 0.860980
0.955242 1.000000 0.862909
1.000000 0.999090 0.873625
0.000000 0.000000 0.400899
0.000000 0.000000 0.396479
0.000000 0.000000 0.398750
0.123708 0.000000 0.398377
0.459105 0.000000 0.398875
0.681881 0.000000 0.294986
0.990633 0.000000 0.523786
1.000000 0.413975 0.572431
1.000000 0.720971 0.681883
0.000000 0.000000 0.458359
0.000000 0.000000 0.459103
0.000000 0.000000 0.459175
0.086470 0.000000 0.461518
0.456341 0.000000 0.459641
0.725927 0.000000 0.377415
0.992913 0.000000 0.530899
1.000000 0.421171 0.575511
1.000000 0.723489 0.684745
0.000000 0.000000 0.504242
0.000000 0.023188 0.508562
0.000000 0.029789 0.508179
0.019118 0.000000 0.510535
0.460299 0.000000 0.514834
0.761751 0.000000 0.452793
0.995442 0.000000 0.547634
1.000000 0.428264 0.575517
1.000000 0.724683 0.685570
0.000000 0.113377 0.580837
0.000000 0.118638 0.585120
0.000000 0.123175 0.580836
0.000000 0.131182 0.587947
0.478372 0.000000 0.592907
0.820974 0.000000 0.552091
1.000000 0.000000 0.569398
1.000000 0.453842 0.588107
1.000000 0.734185 0.685657
0.000000 0.371087 0.688157
0.000000 0.382335 0.692003
0.000000 0.396723 0.695923
0.000000 0.413496 0.693746
0.428508 0.437680 0.696135
0.851099 0.394250 0.680438
0.999135 0.357808 0.618015
1.000000 0.538245 0.603853
1.000000 0.751350 0.692293
0.000000 0.745878 0.767630
0.000000 0.753351 0.769096
0.000000 0.760525 0.768057
0.000000 0.776857 0.769427
0.281244 0.795100 0.769966
0.769040 0.795676 0.764112
0.943527 0.736794 0.709146
1.000000 0.680973 0.641836
1.000000 0.786573 0.706024
0.000000 0.916585 0.785358
0.000000 0.917535 0.785735
0.000000 0.917192 0.783808
0.000000 0.918692 0.780239
0.425247 0.918675 0.781384
0.717241 0.914075 0.777144
0.907932 0.908781 0.774512
0.997536 0.878641 0.724088
1.000000 0.858349 0.737500
0.585085 0.977564 0.805259
0.589969 0.977418 0.803476
0.599545 0.977140 0.803622
0.618606 0.977764 0.802542
0.668252 0.976746 0.801844
0.775984 0.975022 0.803811
0.876044 0.972886 0.802282
0.973969 0.969073 0.806812
1.000000 0.953834 0.808504
0.829173 1.000000 0.873132
0.830821 1.000000 0.873186
0.830821 1.000000 0.873186
0.832460 1.000000 0.873241
0.841016 1.000000 0.873047
0.857917 1.000000 0.872593
0.899812 1.000000 0.875093
0.953859 1.000000 0.877603
1.000000 0.999131 0.884789
0.000000 0.000000 0.649586
0.000000 0.000000 0.651538
0.000000 0.000000 0.654270
0.000000 0.000000 0.657176
0.318845 0.000000 0.656761
0.741613 0.000000 0.656660
0.953842 0.000000 0.562745
1.000000 0.315228 0.742446
1.000000 0.710836 0.772683
0.000000 0.036567 0.669090
0.000000 0.029193 0.670821
0.000000 0.019731 0.673552
0.000000 0.000000 0.676140
0.324083 0.000000 0.676228
0.744204 0.000000 0.672388
0.960054 0.000000 0.594642
1.000000 0.330929 0.745345
1.000000 0.715825 0.772623
0.000000 0.068089 0.698246
0.000000 0.069976 0.700292
0.000000 0.074283 0.696786
0.000000 0.072306 0.699251
0.321265 0.000000 0.702532
0.754892 0.000000 0.702000
0.974874 0.000000 0.628354
1.000000 0.342498 0.748186
1.000000 0.715825 0.772623
0.000000 0.134161 0.736701
0.000000 0.137003 0.738587
0.000000 0.142573 0.738279
0.000000 0.152669 0.743336
0.304050 0.128491 0.745429
0.758537 0.000000 0.739122
0.999180 0.000000 0.692037
1.000000 0.380856 0.756662
1.000000 0.723869 0.775064
0.000000 0.277558 0.790416
0.000000 0.282425 0.791527
0.000000 0.283291 0.793202
0.000000 0.295301 0.788990
0.265383 0.307907 0.794829
0.764064 0.255986 0.793834
1.000000 0.111838 0.763716
1.000000 0.465627 0.772643
1.000000 0.742894 0.779368
0.000000 0.628870 0.848286
0.000000 0.629790 0.848878
0.000000 0.640447 0.849087
0.000000 0.649550 0.850767
0.000000 0.663918 0.847660
0.690552 0.687479 0.845073
0.964878 0.666864 0.839377
1.000000 0.644298 0.799390
1.000000 0.782703 0.790558
0.000000 0.904112 0.884551
0.000000 0.905327 0.884741
0.000000 0.905043 0.882205
0.000000 0.908347 0.882711
0.216030 0.910827 0.884124
0.686837 0.910947 0.882159
0.893227 0.908660 0.880265
0.987571 0.881076 0.848042
1.000000 0.854756 0.811876
0.557817 0.979957 0.891831
0.557817 0.979957 0.891831
0.563004 0.979819 0.891863
0.587882 0.979129 0.892024
0.637621 0.978790 0.892510
0.761420 0.975996 0.887236
0.870235 0.973531 0.887522
0.964318 0.971410 0.884699
1.000000 0.956156 0.861921
0.825728 1.000000 0.906537
0.825728 1.000000 0.906537
0.827381 1.000000 0.906575
0.829027 1.000000 0.906614
0.835524 1.000000 0.906767
0.854602 1.000000 0.905794
0.895864 1.000000 0.905343
0.952135 1.000000 0.905832
1.000000 0.999797 0.909796
0.000000 0.156657 0.850190
0.000000 0.155754 0.850606
0.000000 0.154510 0.851069
0.099054 0.149866 0.852211
0.313663 0.130367 0.849992
0.626638 0.000000 0.850100
0.977895 0.000000 0.845343
1.000000 0.000000 0.792743
1.000000 0.656087 0.869634
0.000000 0.168470 0.854527
0.000000 0.167700 0.854936
0.000000 0.166633 0.853374
0.087106 0.162608 0.854507
0.311649 0.145772 0.854327
0.622447 0.000000 0.854419
0.977673 0.000000 0.851564
1.000000 0.000000 0.798615
1.000000 0.658877 0.869556
0.000000 0.183852 0.858942
0.000000 0.183193 0.859341
0.000000 0.182269 0.859784
0.077789 0.178948 0.858856
0.304067 0.169776 0.858661
0.622218 0.054458 0.856748
0.977322 0.000000 0.853938
1.000000 0.000000 0.806948
1.000000 0.658963 0.871097
0.000000 0.222181 0.871152
0.000000 0.221728 0.869644
0.000000 0.225166 0.869987
0.000000 0.223169 0.869053
0.297518 0.222594 0.867029
0.616222 0.169317 0.866978
0.975479 0.000000 0.865952
1.000000 0.000000 0.828926
1.000000 0.667350 0.872387
0.000000 0.327265 0.892290
0.000000 0.327293 0.892519
0.000000 0.327285 0.892743
0.000000 0.332070 0.893394
0.245665 0.339484 0.889666
0.603698 0.316233 0.889657
0.973163 0.268461 0.885096
1.000000 0.188523 0.856604
1.000000 0.690468 0.873412
0.000000 0.520918 0.912171
0.000000 0.521081 0.912303
0.000000 0.524448 0.912349
0.000000 0.527915 0.912574
0.000000 0.540204 0.910266
0.545368 0.553161 0.909431
0.943327 0.542890 0.906864
1.000000 0.507987 0.887774
1.000000 0.746879 0.884738
0.000000 0.840510 0.932374
0.000000 0.840429 0.932437
0.000000 0.840338 0.932498
0.000000 0.843927 0.932485
0.000000 0.848368 0.931602
0.487683 0.852436 0.929873
0.850345 0.855106 0.926782
0.997180 0.846848 0.923105
1.000000 0.838676 0.898494
0.393317 0.975639 0.950471
0.401756 0.975501 0.950481
0.417979 0.975223 0.950502
0.456103 0.975152 0.950538
0.544532 0.975045 0.950644
0.696096 0.974054 0.949634
0.849579 0.973027 0.949907
0.956336 0.971418 0.946489
1.000000 0.955444 0.928880
0.812309 1.000000 0.955772
0.814026 1.000000 0.955788
0.814026 1.000000 0.955788
0.815727 1.000000 0.955806
0.820732 1.000000 0.955857
0.838937 1.000000 0.956157
0.883364 1.000000 0.953507
0.944518 1.000000 0.952327
0.995470 1.000000 0.952795
0.344225 0.355780 0.950974
0.349648 0.355576 0.950977
0.365632 0.354940 0.950984
0.396527 0.353557 0.950990
0.464780 0.349726 0.950968
0.628818 0.328932 0.950817
0.877389 0.311738 0.945727
1.000000 0.312110 0.942400
1.000000 0.283223 0.914676
0.342968 0.358844 0.951940
0.348424 0.358644 0.951943
0.364492 0.358020 0.951949
0.395528 0.356666 0.951955
0.464015 0.352908 0.951931
0.623000 0.339240 0.950658
0.875930 0.327613 0.945513
1.000000 0.316770 0.943364
1.000000 0.301959 0.915862
0.339133 0.367845 0.952754
0.355605 0.367270 0.952762
0.360994 0.367071 0.952763
0.392441 0.365795 0.952770
0.461604 0.362246 0.952747
0.621491 0.349296 0.951490
0.874795 0.339519 0.946365
1.000000 0.334109 0.943153
1.000000 0.318542 0.915768
0.331760 0.395284 0.954072
0.343294 0.394960 0.954078
0.360135 0.394447 0.954086
0.387189 0.393524 0.954093
0.458292 0.390446 0.954079
0.615071 0.386144 0.952730
0.874690 0.370281 0.948873
1.000000 0.372223 0.945605
1.000000 0.356221 0.920280
0.314927 0.455136 0.959084
0.327832 0.454893 0.959090
0.340350 0.454638 0.959095
0.370267 0.453952 0.959104
0.443035 0.448602 0.959199
0.598300 0.460186 0.955651
0.866213 0.434731 0.954284
1.000000 0.444610 0.950042
1.000000 0.435940 0.927288
0.254485 0.585714 0.964730
0.264111 0.585645 0.964733
0.282310 0.585502 0.964738
0.323264 0.585108 0.964748
0.412485 0.583832 0.964751
0.568183 0.592828 0.962457
0.833951 0.580586 0.961251
1.000000 0.597965 0.957860
1.000000 0.595467 0.939064
0.091258 0.764549 0.969302
0.129879 0.764483 0.969304
0.157022 0.764414 0.969305
0.229990 0.764126 0.969309
0.354363 0.768506 0.969007
0.542588 0.770423 0.967298
0.780979 0.773403 0.966604
0.990901 0.774392 0.963616
1.000000 0.774331 0.953728
0.396955 0.940906 0.979601
0.405775 0.940761 0.979600
0.414354 0.940616 0.979598
0.438445 0.940155 0.979116
0.495786 0.940867 0.978513
0.618567 0.940443 0.977856
0.776620 0.937708 0.977788
0.933012 0.939084 0.976128
1.000000 0.935370 0.974009
0.760959 1.000000 0.988713
0.763131 1.000000 0.988715
0.763131 1.000000 0.988715
0.769552 1.000000 0.988723
0.779929 1.000000 0.988738
0.804970 1.000000 0.988780
0.862493 1.000000 0.987733
0.937868 1.000000 0.987031
0.990272 1.000000 0.985951
