Assets/Lutify-Free-LUTs-Pack/Lutify Free LUTs Pack/Film Tone Pro - Film Tone 3/Lutify.me-FilmTone3-CanonLog1-to-Rec709.cube
# Created with: fylm.ai - Colour Grading and Collaboration Software in Cloud 
# Website: https://fylm.ai 
# META
# Option: Gamut compress
# Block 1: IDT | CanonLog Cinema Gamut Daylight
# Block 2: colourMatch | Blending Mode: Normal | {"ColorSpace":0,"CrossCovarianceLimit":50,"ReshapingIterations":1,"PercentSaturationShift":100,"PercentShadingShift":100,"ExtraShading":true,"PercentTint":100,"PercentModified":100}
# Block 3: subtractiveColour | Blending Mode: Normal | {"sliders":{"gainY":0.6,"C":0.3,"M":0.3,"Y":0.3}}
# Block 4: LUT | Filmic Curve Response: Low Contrast 2 (100%)
# Block 5: logPrimaries | Blending Mode: Normal | {"wheels":{"shadows":{"Y":"0","R":"1","G":"1","B":"1"},"midtones":{"Y":"0","R":"1","G":"1","B":"1"},"highlights":{"Y":"0","R":"1","G":"1","B":"1"},"offset":{"Y":"0","R":"1","G":"1","B":"1"}},"sliders":{"shadows":{"Y":0,"R":-0.026,"G":0.03,"B":0.1},"midtones":{"Y":0,"R":0.024,"G":-0.036,"B":0.036},"highlights":{"Y":0,"R":0,"G":0.044,"B":-0.128},"offset":{"Y":0,"R":0,"G":0,"B":0}}}
# Block 6: hueSaturation | Blending Mode: Normal | {"hue":0,"saturation":-0.1}
# Block 7: ODT | Rec709
TITLE "Lutify.me-FilmTone3-CanonLog1-to-Rec709" 
LUT_3D_SIZE 9
0.000000 0.000000 0.000000
0.007470 0.000000 0.000000
0.217346 0.000000 0.000000
0.366399 0.000000 0.000000
0.549395 0.000000 0.000000
0.726516 0.000000 0.000000
0.932827 0.000000 0.058046
1.000000 0.000000 0.165783
1.000000 0.342853 0.300954
0.000000 0.068486 0.000000
0.000000 0.070256 0.000000
0.277244 0.000000 0.000000
0.452289 0.000000 0.000000
0.652681 0.000000 0.000000
0.785916 0.000000 0.000000
0.946525 0.000000 0.032452
1.000000 0.079918 0.160273
1.000000 0.372811 0.300452
0.000000 0.217538 0.000000
0.000000 0.242894 0.000000
0.354868 0.225827 0.000000
0.552562 0.109861 0.000000
0.703483 0.000000 0.000000
0.837091 0.000000 0.000000
0.962228 0.000000 0.000000
1.000000 0.195147 0.156851
1.000000 0.401319 0.299389
0.000000 0.346746 0.000000
0.000000 0.407672 0.000000
0.267265 0.424338 0.000000
0.615413 0.373210 0.000000
0.779746 0.288672 0.000000
0.904603 0.161393 0.000000
0.970027 0.183290 0.000000
1.000000 0.304732 0.137825
1.000000 0.452516 0.296806
0.000000 0.494434 0.000000
0.000000 0.567008 0.000000
0.000000 0.590829 0.000000
0.585630 0.588868 0.000000
0.805783 0.531175 0.000000
0.924516 0.467508 0.000000
0.987235 0.439321 0.000000
1.000000 0.445173 0.038112
1.000000 0.538926 0.282514
0.000000 0.691057 0.000000
0.000000 0.720043 0.000000
0.000000 0.727469 0.000000
0.453328 0.728685 0.000000
0.797508 0.712941 0.000000
0.915819 0.664892 0.000000
0.998101 0.613697 0.000000
1.000000 0.657468 0.000000
1.000000 0.639411 0.251602
0.000000 0.829030 0.000000
0.000000 0.836834 0.000000
0.000000 0.838645 0.000000
0.325128 0.833622 0.000000
0.715463 0.828909 0.000000
0.895468 0.812243 0.000000
0.974657 0.778684 0.000000
1.000000 0.748906 0.000000
1.000000 0.798012 0.000000
0.000000 0.907559 0.000000
0.000000 0.906361 0.000000
0.000000 0.904997 0.000000
0.410136 0.904906 0.000000
0.671143 0.898446 0.000000
0.857852 0.891379 0.000000
0.958613 0.878348 0.000000
1.000000 0.856324 0.000000
1.000000 0.834696 0.000000
0.347502 0.952765 0.000000
0.441501 0.952177 0.000000
0.505172 0.952632 0.000000
0.592777 0.951253 0.000000
0.705315 0.947607 0.000000
0.820785 0.943080 0.000000
0.935530 0.938188 0.000000
0.994105 0.927279 0.000000
1.000000 0.911510 0.163979
0.000000 0.000000 0.045038
0.000000 0.000000 0.023652
0.200882 0.000000 0.000000
0.347100 0.000000 0.000000
0.501727 0.000000 0.000000
0.729724 0.000000 0.052768
0.935892 0.000000 0.114379
1.000000 0.000000 0.213912
1.000000 0.341119 0.332057
0.000000 0.000000 0.000000
0.000000 0.000000 0.000000
0.212663 0.000000 0.000000
0.391867 0.000000 0.000000
0.589318 0.000000 0.019762
0.780823 0.000000 0.060646
0.950626 0.000000 0.116801
1.000000 0.039883 0.214645
1.000000 0.370395 0.331428
0.000000 0.197777 0.000000
0.000000 0.206972 0.000000
0.318539 0.209656 0.000000
0.499599 0.119696 0.000000
0.655447 0.000000 0.000000
0.809368 0.000000 0.032573
0.959530 0.000000 0.113265
1.000000 0.185281 0.212019
1.000000 0.399681 0.331109
0.000000 0.337444 0.000000
0.000000 0.381721 0.000000
0.232004 0.412642 0.000000
0.609282 0.358250 0.000000
0.742100 0.307055 0.000000
0.856947 0.261198 0.000000
0.973391 0.201477 0.077884
1.000000 0.302097 0.204345
1.000000 0.450446 0.330861
0.000000 0.488278 0.000000
0.000000 0.558477 0.000000
0.000000 0.580667 0.000000
0.579067 0.582453 0.000000
0.800139 0.521264 0.000000
0.905813 0.488889 0.000000
0.974562 0.491964 0.000000
1.000000 0.455083 0.161720
1.000000 0.537659 0.319903
0.000000 0.684633 0.000000
0.000000 0.715992 0.000000
0.000000 0.724155 0.000000
0.437123 0.725892 0.000000
0.791323 0.710088 0.000000
0.916513 0.661523 0.000000
0.993811 0.620233 0.000000
1.000000 0.675424 0.000000
1.000000 0.648258 0.296307
0.000000 0.826464 0.000000
0.000000 0.834661 0.000000
0.000000 0.836670 0.000000
0.315348 0.833717 0.000000
0.711163 0.829059 0.000000
0.896190 0.810146 0.000000
0.975255 0.776333 0.000000
1.000000 0.748727 0.000000
1.000000 0.805015 0.192564
0.000000 0.907708 0.000000
0.000000 0.906579 0.000000
0.000000 0.905186 0.000000
0.402889 0.903678 0.000000
0.666546 0.898599 0.000000
0.855393 0.891478 0.000000
0.958613 0.878348 0.000000
1.000000 0.856324 0.000000
1.000000 0.834696 0.000000
0.337548 0.952893 0.000000
0.433840 0.952318 0.000000
0.491911 0.952929 0.000000
0.587492 0.951404 0.000000
0.705315 0.947607 0.000000
0.820785 0.943080 0.000000
0.935888 0.937311 0.000000
0.994105 0.927279 0.000000
1.000000 0.911510 0.163979
0.000000 0.000000 0.151052
0.000000 0.000000 0.084367
0.192828 0.000000 0.053803
0.352581 0.000000 0.038673
0.499799 0.000000 0.023547
0.718578 0.000000 0.086259
0.937277 0.000000 0.161717
1.000000 0.000000 0.246882
1.000000 0.330044 0.348368
0.000000 0.000000 0.147684
0.000000 0.000000 0.117984
0.197577 0.000000 0.075579
0.373065 0.000000 0.084149
0.590509 0.000000 0.104690
0.782512 0.000000 0.124533
0.952523 0.000000 0.172979
1.000000 0.000000 0.248164
1.000000 0.367855 0.350628
0.000000 0.168500 0.289197
0.000000 0.180570 0.277449
0.219143 0.254293 0.261754
0.485610 0.135614 0.177427
0.653931 0.000000 0.131208
0.814705 0.000000 0.134869
0.963725 0.000000 0.172423
1.000000 0.188763 0.249441
1.000000 0.393659 0.350554
0.000000 0.364454 0.228032
0.000000 0.403159 0.171539
0.000000 0.462867 0.120298
0.510311 0.466787 0.084080
0.729319 0.370205 0.071560
0.866092 0.272487 0.117688
0.975005 0.210800 0.167437
1.000000 0.305619 0.247390
1.000000 0.448307 0.355588
0.000000 0.505271 0.000000
0.000000 0.574986 0.000000
0.000000 0.620735 0.000000
0.344715 0.629490 0.000000
0.726308 0.607271 0.000000
0.879377 0.557710 0.000000
0.972234 0.503190 0.083494
1.000000 0.449355 0.235791
1.000000 0.535852 0.350011
0.000000 0.675998 0.000000
0.000000 0.716355 0.000000
0.000000 0.728800 0.000000
0.280466 0.739305 0.000000
0.743719 0.724036 0.000000
0.904022 0.678219 0.000000
0.954880 0.701605 0.000000
1.000000 0.687483 0.135792
1.000000 0.650104 0.334552
0.000000 0.826141 0.000000
0.000000 0.834555 0.000000
0.000000 0.836756 0.000000
0.297742 0.831846 0.000000
0.707740 0.827181 0.000000
0.893919 0.810218 0.000000
0.975255 0.776333 0.000000
0.991433 0.806690 0.000000
1.000000 0.812669 0.273632
0.000000 0.906476 0.000000
0.000000 0.906650 0.000000
0.000000 0.905369 0.000000
0.394549 0.903806 0.000000
0.657187 0.898906 0.000000
0.855931 0.890141 0.000000
0.955881 0.878410 0.000000
1.000000 0.856324 0.000000
1.000000 0.862915 0.000000
0.327249 0.953019 0.000000
0.426040 0.952459 0.000000
0.484944 0.951302 0.000000
0.582137 0.951555 0.000000
0.697557 0.947885 0.000000
0.818182 0.943190 0.000000
0.933016 0.937429 0.000000
0.994105 0.927279 0.000000
1.000000 0.911510 0.163979
0.000000 0.000000 0.247888
0.000000 0.000000 0.140118
0.171738 0.000000 0.107817
0.347508 0.000000 0.074561
0.514380 0.000000 0.056930
0.681492 0.000000 0.094859
0.932808 0.000000 0.235066
1.000000 0.000000 0.297829
1.000000 0.317369 0.397001
0.000000 0.000000 0.244545
0.000000 0.000000 0.193524
0.171812 0.000000 0.161253
0.350322 0.000000 0.091886
0.544554 0.000000 0.153824
0.772060 0.000000 0.234050
0.952938 0.000000 0.259829
1.000000 0.000000 0.315946
1.000000 0.351964 0.397221
0.000000 0.071120 0.419829
0.000000 0.077121 0.389010
0.102915 0.113473 0.368171
0.479991 0.000000 0.332416
0.653427 0.000000 0.292563
0.816632 0.000000 0.273127
0.962273 0.000000 0.273200
1.000000 0.171531 0.323139
1.000000 0.384578 0.396947
0.000000 0.300378 0.508461
0.000000 0.327077 0.489891
0.000000 0.457067 0.474195
0.452069 0.475359 0.465006
0.699214 0.384592 0.392250
0.852557 0.248449 0.315000
0.970787 0.192749 0.283922
1.000000 0.297532 0.325117
1.000000 0.440237 0.403260
0.000000 0.532385 0.487270
0.000000 0.590467 0.422264
0.000000 0.635386 0.403213
0.184385 0.667175 0.376386
0.678233 0.665063 0.359067
0.864884 0.584371 0.300103
0.972853 0.503113 0.276272
1.000000 0.450497 0.320470
1.000000 0.531418 0.398146
0.000000 0.708871 0.269831
0.000000 0.751124 0.211733
0.000000 0.774715 0.191413
0.000000 0.787585 0.154680
0.562448 0.791214 0.135749
0.837819 0.778651 0.096429
0.949486 0.727427 0.187298
1.000000 0.691384 0.310105
1.000000 0.642477 0.388535
0.000000 0.848013 0.000000
0.000000 0.856583 0.000000
0.000000 0.864548 0.000000
0.000000 0.867031 0.000000
0.455709 0.866311 0.000000
0.783962 0.857367 0.000000
0.925362 0.839820 0.000000
0.984672 0.832479 0.114185
1.000000 0.814999 0.369472
0.000000 0.906716 0.000000
0.000000 0.905510 0.000000
0.000000 0.904319 0.000000
0.360303 0.902929 0.000000
0.648166 0.897863 0.000000
0.853448 0.890241 0.000000
0.956872 0.875558 0.000000
1.000000 0.854741 0.000000
1.000000 0.888279 0.117559
0.305430 0.953269 0.000000
0.401601 0.951972 0.000000
0.478001 0.951450 0.000000
0.576730 0.950828 0.000000
0.693777 0.947143 0.000000
0.815847 0.942416 0.000000
0.933016 0.937429 0.000000
0.994105 0.927279 0.000000
1.000000 0.911510 0.163979
0.000000 0.000000 0.345827
0.000000 0.000000 0.196411
0.118439 0.000000 0.173530
0.337234 0.000000 0.131168
0.509570 0.000000 0.099614
0.666942 0.000000 0.078845
0.912308 0.000000 0.311103
1.000000 0.000000 0.402037
1.000000 0.307739 0.462700
0.000000 0.000000 0.329668
0.000000 0.000000 0.258176
0.091846 0.000000 0.214571
0.342935 0.000000 0.154647
0.509316 0.000000 0.098080
0.717058 0.000000 0.241833
0.947915 0.000000 0.378610
1.000000 0.000000 0.412738
1.000000 0.350456 0.465967
0.000000 0.000000 0.493396
0.000000 0.000000 0.461514
0.000000 0.056986 0.436632
0.382577 0.000000 0.442985
0.627926 0.000000 0.374241
0.807748 0.000000 0.393922
0.959949 0.000000 0.420283
1.000000 0.085061 0.434507
1.000000 0.387665 0.469136
0.000000 0.201197 0.618398
0.000000 0.226050 0.593291
0.000000 0.303447 0.576409
0.312135 0.337516 0.584624
0.714407 0.264791 0.562001
0.855807 0.060015 0.486879
0.972856 0.092143 0.452298
1.000000 0.267800 0.444743
1.000000 0.437941 0.475029
0.000000 0.441807 0.664048
0.000000 0.480930 0.650515
0.000000 0.596004 0.637419
0.000000 0.659265 0.634851
0.649603 0.657866 0.628761
0.839615 0.586165 0.561257
0.965659 0.480509 0.493780
1.000000 0.433473 0.456920
1.000000 0.526595 0.478859
0.000000 0.663622 0.667080
0.000000 0.752686 0.598655
0.000000 0.777586 0.586033
0.000000 0.795854 0.582297
0.485529 0.804676 0.559958
0.805566 0.797169 0.560497
0.936586 0.743059 0.492620
1.000000 0.687509 0.455470
1.000000 0.643448 0.488509
0.000000 0.859684 0.455284
0.000000 0.869454 0.452401
0.000000 0.876356 0.449193
0.000000 0.882755 0.431262
0.371864 0.885456 0.423764
0.731019 0.880682 0.411119
0.910055 0.870541 0.401301
0.976535 0.843813 0.422493
1.000000 0.813945 0.484583
0.000000 0.932659 0.245190
0.000000 0.932051 0.240247
0.000000 0.932346 0.234934
0.000000 0.932899 0.235696
0.343715 0.935066 0.226163
0.694878 0.929504 0.216060
0.877922 0.921903 0.214636
0.964431 0.913696 0.195732
1.000000 0.899739 0.405457
0.254965 0.953752 0.000000
0.366505 0.952506 0.000000
0.448948 0.951133 0.000000
0.559981 0.951281 0.000000
0.685706 0.947426 0.000000
0.813191 0.942528 0.000000
0.931562 0.937489 0.000000
0.992737 0.926373 0.000000
1.000000 0.910399 0.153573
0.000000 0.000000 0.443480
0.000000 0.000000 0.244840
0.082579 0.000000 0.224897
0.297065 0.000000 0.206233
0.491832 0.000000 0.158324
0.668172 0.000000 0.127811
0.831273 0.000000 0.104401
1.000000 0.000000 0.500064
1.000000 0.258856 0.558627
0.000000 0.000000 0.416925
0.000000 0.000000 0.285761
0.062175 0.000000 0.247003
0.297065 0.000000 0.206233
0.491322 0.000000 0.155952
0.668172 0.000000 0.127811
0.891839 0.000000 0.354528
1.000000 0.000000 0.525902
1.000000 0.306150 0.562677
0.000000 0.000000 0.582360
0.000000 0.000000 0.536890
0.000000 0.000000 0.511813
0.220587 0.000000 0.511193
0.595113 0.000000 0.488521
0.723481 0.000000 0.339502
0.941782 0.000000 0.487169
1.000000 0.000000 0.544526
1.000000 0.349113 0.569391
0.000000 0.089512 0.679677
0.000000 0.122420 0.643081
0.000000 0.176243 0.630414
0.112253 0.193195 0.636048
0.622452 0.091945 0.632391
0.855671 0.000000 0.584514
0.970038 0.000000 0.570760
1.000000 0.198261 0.579286
1.000000 0.412432 0.573250
0.000000 0.328672 0.756034
0.000000 0.377104 0.741189
0.000000 0.470820 0.725433
0.000000 0.529761 0.729589
0.520668 0.554936 0.728887
0.858488 0.505220 0.715716
0.969480 0.391051 0.648113
1.000000 0.408165 0.606944
1.000000 0.505236 0.592441
0.000000 0.583389 0.790124
0.000000 0.608747 0.776582
0.000000 0.727924 0.757236
0.000000 0.778345 0.761855
0.390095 0.798526 0.760638
0.772867 0.795358 0.756533
0.913915 0.746991 0.704002
0.999204 0.677948 0.642189
1.000000 0.632680 0.605328
0.000000 0.844708 0.753126
0.000000 0.867682 0.748457
0.000000 0.881276 0.741288
0.000000 0.885840 0.734798
0.000000 0.889597 0.725975
0.690994 0.885449 0.714437
0.881716 0.881050 0.712483
0.963883 0.849701 0.665406
1.000000 0.812665 0.623651
0.000000 0.936515 0.630264
0.000000 0.938626 0.628310
0.000000 0.942312 0.619940
0.000000 0.940753 0.620889
0.188833 0.939680 0.612322
0.638271 0.935652 0.600396
0.849365 0.930530 0.598983
0.946222 0.926485 0.593924
0.999280 0.905354 0.606782
0.000000 0.978959 0.500960
0.000000 0.978102 0.499656
0.000000 0.977140 0.498386
0.226906 0.975904 0.493747
0.450747 0.974940 0.492295
0.636135 0.972082 0.488253
0.817185 0.968333 0.489004
0.921776 0.964738 0.489038
0.991822 0.957194 0.480393
0.000000 0.000000 0.548825
0.000000 0.000000 0.295331
0.051451 0.000000 0.281430
0.264312 0.000000 0.286352
0.463590 0.000000 0.242282
0.656795 0.000000 0.199196
0.828796 0.000000 0.163837
0.957445 0.000000 0.179197
1.000000 0.000000 0.660030
0.000000 0.000000 0.545634
0.000000 0.000000 0.295189
0.047419 0.000000 0.281307
0.264312 0.000000 0.286352
0.463590 0.000000 0.242282
0.656795 0.000000 0.199196
0.828537 0.000000 0.161373
1.000000 0.000000 0.498275
1.000000 0.174968 0.671653
0.000000 0.000000 0.661140
0.000000 0.000000 0.593450
0.000000 0.000000 0.580944
0.113650 0.000000 0.573765
0.453444 0.000000 0.547208
0.710871 0.000000 0.399734
0.828537 0.000000 0.161373
1.000000 0.000000 0.588569
1.000000 0.253234 0.682163
0.000000 0.000000 0.754604
0.000000 0.089569 0.713285
0.000000 0.130092 0.701379
0.000000 0.147376 0.714815
0.443546 0.050578 0.710045
0.824902 0.000000 0.701451
0.950030 0.000000 0.615622
1.000000 0.000000 0.665223
1.000000 0.334009 0.699157
0.000000 0.186565 0.813164
0.000000 0.242054 0.786052
0.000000 0.306655 0.771810
0.000000 0.337598 0.776920
0.379618 0.348059 0.780999
0.811639 0.303362 0.779492
0.982103 0.174751 0.745492
1.000000 0.282018 0.727954
1.000000 0.459320 0.721226
0.000000 0.482080 0.858158
0.000000 0.525099 0.843201
0.000000 0.625020 0.826244
0.000000 0.680378 0.826791
0.000000 0.717845 0.826521
0.698147 0.723643 0.824718
0.926639 0.691939 0.815897
1.000000 0.609601 0.778846
1.000000 0.609136 0.743633
0.000000 0.723887 0.868712
0.000000 0.732799 0.863177
0.000000 0.827764 0.845204
0.000000 0.860424 0.843732
0.000000 0.883030 0.846065
0.649672 0.884399 0.845197
0.862386 0.878085 0.842201
0.948476 0.851309 0.810886
1.000000 0.807777 0.771073
0.000000 0.932430 0.839004
0.000000 0.934918 0.835355
0.000000 0.939759 0.836070
0.000000 0.943994 0.832280
0.000000 0.942326 0.826451
0.589454 0.939388 0.817890
0.816380 0.935965 0.811787
0.925724 0.931480 0.811903
0.987483 0.911466 0.785325
0.000000 0.981652 0.765758
0.000000 0.981453 0.764924
0.000000 0.981253 0.763927
0.000000 0.980858 0.757076
0.370147 0.977666 0.753442
0.589115 0.975458 0.751182
0.790569 0.971365 0.748167
0.900967 0.967663 0.748287
0.974467 0.965574 0.747637
0.000000 0.000000 0.639495
0.000000 0.000000 0.348740
0.000000 0.000000 0.343711
0.232540 0.000000 0.346836
0.447773 0.000000 0.334898
0.622490 0.000000 0.284116
0.814233 0.000000 0.237227
0.951137 0.000000 0.207874
1.000000 0.000000 0.508554
0.000000 0.000000 0.639495
0.000000 0.000000 0.350964
0.000000 0.000000 0.343554
0.232540 0.000000 0.346836
0.447674 0.000000 0.330173
0.622490 0.000000 0.284116
0.814233 0.000000 0.237227
0.951137 0.000000 0.207874
1.000000 0.000000 0.637429
0.000000 0.000000 0.713476
0.000000 0.000000 0.612037
0.000000 0.000000 0.606324
0.046823 0.000000 0.590658
0.367119 0.000000 0.536835
0.644997 0.000000 0.369439
0.814233 0.000000 0.237227
0.951137 0.000000 0.207874
1.000000 0.000000 0.693088
0.000000 0.000000 0.814609
0.000000 0.064611 0.766644
0.000000 0.092599 0.764689
0.000000 0.100493 0.768391
0.310007 0.000000 0.765784
0.674791 0.000000 0.753366
0.934728 0.000000 0.709147
0.970138 0.000000 0.439316
1.000000 0.000000 0.742819
0.000000 0.128561 0.861862
0.000000 0.209572 0.827582
0.000000 0.247121 0.825380
0.000000 0.277670 0.827938
0.237433 0.285109 0.828057
0.670897 0.243962 0.825644
0.962036 0.093894 0.820554
1.000000 0.000000 0.770791
1.000000 0.276819 0.784751
0.000000 0.302482 0.897463
0.000000 0.385261 0.866997
0.000000 0.455688 0.861490
0.000000 0.489933 0.863004
0.000000 0.520860 0.860380
0.594069 0.527547 0.860122
0.927619 0.506682 0.858015
1.000000 0.436799 0.836059
1.000000 0.513229 0.820609
0.000000 0.624214 0.918215
0.000000 0.678579 0.906838
0.000000 0.758154 0.894569
0.000000 0.800578 0.891223
0.000000 0.825695 0.890188
0.436467 0.838007 0.886882
0.828054 0.834316 0.886554
0.955786 0.816072 0.880406
1.000000 0.761895 0.850655
0.000000 0.815855 0.922170
0.000000 0.822750 0.921800
0.000000 0.897471 0.900062
0.000000 0.920357 0.902223
0.000000 0.934508 0.902314
0.461681 0.936844 0.901386
0.787061 0.934549 0.895541
0.915943 0.928439 0.895885
0.976362 0.910132 0.875265
0.000000 0.982933 0.897020
0.000000 0.982845 0.894641
0.000000 0.983327 0.895429
0.000000 0.982312 0.894104
0.000000 0.981824 0.890754
0.501926 0.977046 0.885295
0.764161 0.973553 0.881066
0.884118 0.970095 0.879322
0.961211 0.967257 0.877653
0.000000 0.000000 0.504604
0.000000 0.000000 0.414973
0.000000 0.000000 0.416993
0.216296 0.000000 0.424748
0.433558 0.000000 0.431646
0.618972 0.000000 0.395720
0.779892 0.000000 0.338560
0.939311 0.000000 0.298010
1.000000 0.000000 0.256980
0.000000 0.000000 0.517133
0.000000 0.000000 0.414559
0.000000 0.000000 0.416993
0.216296 0.000000 0.424748
0.433558 0.000000 0.431646
0.618972 0.000000 0.395720
0.779892 0.000000 0.338560
0.939311 0.000000 0.298010
1.000000 0.000000 0.256980
0.000000 0.000000 0.606883
0.000000 0.000000 0.511887
0.000000 0.000000 0.498725
0.188333 0.000000 0.459727
0.430305 0.000000 0.431567
0.618972 0.000000 0.395720
0.778961 0.000000 0.333804
0.939311 0.000000 0.298010
1.000000 0.000000 0.256980
0.000000 0.000000 0.843541
0.000000 0.000000 0.810879
0.000000 0.000000 0.809223
0.000000 0.000000 0.812457
0.254863 0.000000 0.807049
0.551128 0.000000 0.793428
0.851026 0.000000 0.752224
0.939311 0.000000 0.298010
1.000000 0.000000 0.256980
0.000000 0.106319 0.899371
0.000000 0.178695 0.873005
0.000000 0.208581 0.873561
0.000000 0.226745 0.874166
0.124367 0.229835 0.871445
0.519987 0.192350 0.868398
0.860425 0.000000 0.862358
1.000000 0.000000 0.847571
1.000000 0.000000 0.735279
0.000000 0.236719 0.935127
0.000000 0.343664 0.907546
0.000000 0.380952 0.905353
0.000000 0.422095 0.903419
0.000000 0.442039 0.905085
0.451251 0.451061 0.900995
0.828123 0.431095 0.899151
1.000000 0.396177 0.894430
1.000000 0.269793 0.862122
0.000000 0.438966 0.952653
0.000000 0.554410 0.926276
0.000000 0.597525 0.923766
0.000000 0.631557 0.921759
0.000000 0.672296 0.920991
0.271198 0.691196 0.917002
0.742757 0.700301 0.914868
0.964996 0.685045 0.914634
1.000000 0.642025 0.899349
0.000000 0.745379 0.960285
0.000000 0.793728 0.948187
0.000000 0.850236 0.938105
0.000000 0.877099 0.937256
0.000000 0.893305 0.937347
0.000000 0.902575 0.934644
0.671766 0.902271 0.931656
0.886121 0.898977 0.930347
0.975866 0.892255 0.925226
0.000000 0.894490 0.961899
0.000000 0.894490 0.961899
0.000000 0.945512 0.945888
0.000000 0.964953 0.945538
0.000000 0.972816 0.945644
0.000000 0.974973 0.944481
0.691765 0.972262 0.943225
0.860607 0.970107 0.938539
0.950897 0.967805 0.937488
