Assets/Lutify-Free-LUTs-Pack/Lutify Free LUTs Pack/Film Tone Pro - Film Tone 3/Lutify.me-FilmTone3-VLog-to-Rec709.cube
# Created with: fylm.ai - Colour Grading and Collaboration Software in Cloud 
# Website: https://fylm.ai 
# META
# Option: Gamut compress
# Block 1: IDT | Panasonic V-Gamut V-Log
# Block 2: colourMatch | Blending Mode: Normal | {"ColorSpace":0,"CrossCovarianceLimit":50,"ReshapingIterations":1,"PercentSaturationShift":100,"PercentShadingShift":100,"ExtraShading":true,"PercentTint":100,"PercentModified":100}
# Block 3: subtractiveColour | Blending Mode: Normal | {"sliders":{"gainY":0.6,"C":0.3,"M":0.3,"Y":0.3}}
# Block 4: LUT | Filmic Curve Response: Low Contrast 2 (100%)
# Block 5: logPrimaries | Blending Mode: Normal | {"wheels":{"shadows":{"Y":"0","R":"1","G":"1","B":"1"},"midtones":{"Y":"0","R":"1","G":"1","B":"1"},"highlights":{"Y":"0","R":"1","G":"1","B":"1"},"offset":{"Y":"0","R":"1","G":"1","B":"1"}},"sliders":{"shadows":{"Y":0,"R":-0.026,"G":0.03,"B":0.1},"midtones":{"Y":0,"R":0.024,"G":-0.036,"B":0.036},"highlights":{"Y":0,"R":0,"G":0.044,"B":-0.128},"offset":{"Y":0,"R":0,"G":0,"B":0}}}
# Block 6: hueSaturation | Blending Mode: Normal | {"hue":0,"saturation":-0.1}
# Block 7: ODT | Rec709
TITLE "Lutify.me-FilmTone3-VLog-to-Rec709" 
LUT_3D_SIZE 9
0.000000 0.000000 0.000000
0.000000 0.000000 0.000000
0.112646 0.000000 0.000000
0.245542 0.000000 0.000000
0.477352 0.000000 0.000000
0.825930 0.000000 0.048109
1.000000 0.161299 0.209654
1.000000 0.591835 0.471197
1.000000 0.842484 0.737377
0.000000 0.000000 0.000000
0.000000 0.000000 0.000000
0.123127 0.000000 0.000000
0.275727 0.000000 0.000000
0.511785 0.000000 0.000000
0.832063 0.000000 0.049009
1.000000 0.185617 0.212308
1.000000 0.598188 0.473861
1.000000 0.842484 0.737377
0.000000 0.089594 0.000000
0.000000 0.096669 0.000000
0.147879 0.089530 0.000000
0.322785 0.000000 0.000000
0.535919 0.000000 0.000000
0.838002 0.000000 0.046402
1.000000 0.212674 0.213443
1.000000 0.598188 0.473861
1.000000 0.842484 0.737377
0.000000 0.222303 0.000000
0.000000 0.245561 0.000000
0.000000 0.268736 0.000000
0.387653 0.231938 0.000000
0.611237 0.132739 0.000000
0.864652 0.000000 0.035981
1.000000 0.265808 0.217303
1.000000 0.608389 0.477015
1.000000 0.843858 0.739643
0.000000 0.464869 0.000000
0.000000 0.484786 0.000000
0.000000 0.507011 0.000000
0.000000 0.526944 0.000000
0.661322 0.494823 0.000000
0.902178 0.425394 0.000000
1.000000 0.408895 0.227236
1.000000 0.640988 0.483167
1.000000 0.848205 0.740535
0.000000 0.774679 0.000000
0.000000 0.776043 0.000000
0.000000 0.785498 0.000000
0.000000 0.795466 0.000000
0.394127 0.806429 0.000000
0.872549 0.779230 0.000000
1.000000 0.733667 0.263215
1.000000 0.735297 0.499155
1.000000 0.862793 0.751286
0.000000 0.935850 0.428500
0.000000 0.935719 0.428933
0.000000 0.935430 0.429805
0.000000 0.935716 0.426171
0.215718 0.936060 0.417084
0.756122 0.930063 0.405993
0.962390 0.917271 0.391923
1.000000 0.893791 0.586012
1.000000 0.895110 0.765751
0.519533 0.997021 0.729293
0.526114 0.997303 0.730063
0.531345 0.997173 0.730172
0.556501 0.996522 0.730719
0.612444 0.995790 0.731186
0.739796 0.992606 0.726852
0.897170 0.988369 0.727478
1.000000 0.982262 0.731894
1.000000 0.970223 0.825078
0.830489 1.000000 0.890785
0.830489 1.000000 0.890785
0.830489 1.000000 0.890785
0.831841 1.000000 0.890830
0.838534 1.000000 0.890237
0.855476 1.000000 0.891179
0.898187 1.000000 0.892225
0.970012 1.000000 0.894317
1.000000 1.000000 0.904295
0.000000 0.000000 0.000000
0.000000 0.000000 0.000000
0.102637 0.000000 0.000000
0.236237 0.000000 0.000000
0.474514 0.000000 0.000000
0.822062 0.000000 0.070482
1.000000 0.174520 0.218886
1.000000 0.591955 0.473955
1.000000 0.842533 0.739549
0.000000 0.000000 0.000000
0.000000 0.000000 0.000000
0.112659 0.000000 0.000000
0.253708 0.000000 0.000000
0.497418 0.000000 0.008768
0.835287 0.000000 0.070698
1.000000 0.186385 0.218898
1.000000 0.592076 0.476719
1.000000 0.842533 0.739549
0.000000 0.084931 0.000000
0.000000 0.090633 0.000000
0.122050 0.097574 0.000000
0.302499 0.000000 0.000000
0.524871 0.000000 0.000000
0.841407 0.000000 0.071917
1.000000 0.213551 0.221804
1.000000 0.598308 0.476627
1.000000 0.842533 0.739549
0.000000 0.226544 0.000000
0.000000 0.246977 0.000000
0.000000 0.273115 0.000000
0.351114 0.256604 0.000000
0.604449 0.152695 0.000000
0.864770 0.000000 0.076338
1.000000 0.266598 0.225939
1.000000 0.608629 0.482565
1.000000 0.843858 0.739643
0.000000 0.472238 0.000000
0.000000 0.497662 0.000000
0.000000 0.516813 0.000000
0.000000 0.545527 0.000000
0.644576 0.520400 0.000000
0.903486 0.439400 0.000000
1.000000 0.409981 0.243010
1.000000 0.641222 0.488748
1.000000 0.848252 0.742680
0.000000 0.778557 0.034519
0.000000 0.785571 0.000000
0.000000 0.787479 0.000000
0.000000 0.797397 0.000000
0.392436 0.806017 0.000000
0.873797 0.781257 0.000000
1.000000 0.734069 0.274171
1.000000 0.735389 0.501978
1.000000 0.862793 0.751286
0.000000 0.934900 0.440157
0.000000 0.935836 0.441307
0.000000 0.935647 0.441881
0.000000 0.939134 0.440174
0.198225 0.935271 0.434433
0.756212 0.930211 0.423327
0.962213 0.917476 0.410146
1.000000 0.893892 0.594226
1.000000 0.895174 0.769536
0.519533 0.997021 0.729293
0.526114 0.997303 0.730063
0.531345 0.997173 0.730172
0.556501 0.996522 0.730719
0.612432 0.995790 0.733379
0.739762 0.992606 0.729021
0.897112 0.988371 0.729514
1.000000 0.982267 0.733666
1.000000 0.970223 0.825078
0.830489 1.000000 0.890785
0.830489 1.000000 0.890785
0.830489 1.000000 0.890785
0.831841 1.000000 0.890830
0.838540 1.000000 0.891056
0.855480 1.000000 0.891981
0.898187 1.000000 0.892225
0.969988 1.000000 0.895019
1.000000 1.000000 0.904295
0.000000 0.000000 0.058406
0.000000 0.000000 0.048039
0.092851 0.000000 0.033430
0.232522 0.000000 0.022092
0.475603 0.000000 0.036367
0.825666 0.000000 0.090609
1.000000 0.176298 0.234149
1.000000 0.592316 0.482266
1.000000 0.842533 0.739549
0.000000 0.000000 0.071777
0.000000 0.000000 0.061502
0.091998 0.000000 0.049051
0.252872 0.000000 0.041825
0.502990 0.000000 0.045935
0.835526 0.000000 0.094302
1.000000 0.198604 0.233675
1.000000 0.592316 0.482266
1.000000 0.842533 0.739549
0.000000 0.077520 0.134515
0.000000 0.086584 0.125955
0.093277 0.108172 0.115110
0.298070 0.000000 0.066991
0.530660 0.000000 0.050338
0.845436 0.000000 0.098679
1.000000 0.214577 0.235321
1.000000 0.598549 0.482179
1.000000 0.842533 0.739549
0.000000 0.238935 0.143990
0.000000 0.258464 0.118035
0.000000 0.285115 0.091185
0.331266 0.294288 0.054740
0.611739 0.154478 0.040696
0.864328 0.000000 0.100727
1.000000 0.267234 0.241447
1.000000 0.608749 0.485350
1.000000 0.843858 0.739643
0.000000 0.488704 0.062336
0.000000 0.505514 0.000000
0.000000 0.527519 0.000000
0.000000 0.554053 0.000000
0.636891 0.543334 0.000000
0.904980 0.442732 0.073815
1.000000 0.410791 0.255213
1.000000 0.641222 0.488748
1.000000 0.848252 0.742680
0.000000 0.780466 0.165078
0.000000 0.787612 0.159060
0.000000 0.792037 0.161376
0.000000 0.799433 0.134979
0.372221 0.808202 0.082505
0.867428 0.790604 0.000000
1.000000 0.735172 0.304744
1.000000 0.735663 0.510476
1.000000 0.862836 0.753346
0.000000 0.935075 0.458807
0.000000 0.936008 0.459921
0.000000 0.935790 0.457383
0.000000 0.939296 0.458612
0.198431 0.935373 0.446608
0.756262 0.930332 0.437851
0.962038 0.917650 0.425946
1.000000 0.893925 0.596973
1.000000 0.895174 0.769536
0.519531 0.997021 0.731526
0.526112 0.997303 0.732285
0.531342 0.997173 0.732393
0.556501 0.996522 0.730719
0.612432 0.995790 0.733379
0.739963 0.993010 0.734027
0.897054 0.988373 0.731542
1.000000 0.982282 0.738958
1.000000 0.970223 0.825078
0.830497 1.000000 0.891604
0.830497 1.000000 0.891604
0.830497 1.000000 0.891604
0.831841 1.000000 0.890830
0.838540 1.000000 0.891056
0.855480 1.000000 0.891981
0.898187 1.000000 0.892225
0.969988 1.000000 0.895019
1.000000 1.000000 0.904295
0.000000 0.000000 0.140118
0.000000 0.000000 0.098337
0.067793 0.000000 0.088903
0.231923 0.000000 0.057627
0.474643 0.000000 0.096714
0.829331 0.000000 0.143777
1.000000 0.166803 0.261227
1.000000 0.592556 0.487839
1.000000 0.842582 0.741710
0.000000 0.000000 0.173306
0.000000 0.000000 0.144975
0.054964 0.000000 0.132436
0.246844 0.000000 0.099156
0.507603 0.000000 0.127180
0.842877 0.000000 0.150010
1.000000 0.190485 0.264736
1.000000 0.592556 0.487839
1.000000 0.842582 0.741710
0.000000 0.034039 0.253250
0.000000 0.044858 0.231292
0.000000 0.055348 0.219022
0.300599 0.000000 0.186152
0.538725 0.000000 0.156352
0.848695 0.000000 0.154949
1.000000 0.217076 0.266515
1.000000 0.599026 0.493357
1.000000 0.842631 0.743862
0.000000 0.198559 0.349813
0.000000 0.225628 0.329233
0.000000 0.281146 0.324145
0.278085 0.313975 0.321206
0.603296 0.170305 0.218070
0.867778 0.000000 0.173912
1.000000 0.268949 0.271562
1.000000 0.609226 0.496552
1.000000 0.843956 0.743951
0.000000 0.493419 0.346974
0.000000 0.519072 0.320245
0.000000 0.540132 0.320861
0.000000 0.577675 0.289714
0.621182 0.580019 0.271076
0.904868 0.442956 0.201347
1.000000 0.420189 0.289213
1.000000 0.641919 0.505636
1.000000 0.848394 0.749050
0.000000 0.784274 0.312247
0.000000 0.791262 0.308180
0.000000 0.795635 0.307733
0.000000 0.805716 0.294781
0.337585 0.816616 0.269979
0.860013 0.799459 0.241490
1.000000 0.739253 0.344963
1.000000 0.736117 0.524739
1.000000 0.862836 0.753346
0.000000 0.935444 0.499451
0.000000 0.936461 0.500220
0.000000 0.936178 0.501048
0.000000 0.936503 0.500236
0.149642 0.937024 0.492843
0.753036 0.930784 0.478712
0.960240 0.921148 0.471023
1.000000 0.894052 0.613052
1.000000 0.895206 0.771412
0.519527 0.997020 0.742513
0.524861 0.996890 0.742615
0.531337 0.997172 0.743319
0.551579 0.996651 0.741574
0.608192 0.995917 0.741928
0.734166 0.993236 0.740133
0.896824 0.988381 0.739570
1.000000 0.982331 0.743432
1.000000 0.970234 0.826397
0.830505 1.000000 0.892421
0.830505 1.000000 0.892421
0.830505 1.000000 0.892421
0.831856 1.000000 0.892466
0.838553 1.000000 0.892688
0.855482 1.000000 0.892781
0.898187 1.000000 0.892225
0.969963 1.000000 0.895721
1.000000 1.000000 0.905410
0.000000 0.000000 0.268997
0.000000 0.000000 0.232720
0.000000 0.000000 0.220730
0.226340 0.000000 0.218438
0.443740 0.000000 0.126205
0.836797 0.000000 0.305371
1.000000 0.168104 0.362039
1.000000 0.591206 0.530434
1.000000 0.841498 0.752277
0.000000 0.000000 0.332137
0.000000 0.000000 0.301656
0.000000 0.000000 0.295568
0.220848 0.000000 0.291374
0.481849 0.000000 0.203805
0.843442 0.000000 0.315898
1.000000 0.192123 0.367470
1.000000 0.594322 0.530405
1.000000 0.842827 0.752357
0.000000 0.000000 0.385403
0.000000 0.026377 0.362784
0.000000 0.040306 0.353695
0.206620 0.000000 0.356489
0.537981 0.000000 0.293025
0.853307 0.000000 0.329088
1.000000 0.223414 0.370077
1.000000 0.594322 0.530405
1.000000 0.842827 0.752357
0.000000 0.127014 0.492251
0.000000 0.152380 0.474221
0.000000 0.175568 0.471520
0.133482 0.208204 0.475751
0.628882 0.000000 0.437527
0.875704 0.000000 0.370710
1.000000 0.274708 0.375509
1.000000 0.606788 0.530282
1.000000 0.844150 0.752438
0.000000 0.413536 0.595439
0.000000 0.457681 0.575593
0.000000 0.507124 0.568987
0.000000 0.573315 0.582496
0.573497 0.591732 0.562249
0.893396 0.456354 0.464230
1.000000 0.420704 0.402544
1.000000 0.638680 0.533308
1.000000 0.848535 0.755321
0.000000 0.797044 0.586388
0.000000 0.799172 0.583013
0.000000 0.803568 0.579550
0.000000 0.816305 0.579418
0.246816 0.827250 0.557223
0.846970 0.816663 0.548565
0.996863 0.745825 0.469263
1.000000 0.734898 0.565253
1.000000 0.862920 0.757434
0.000000 0.938879 0.603319
0.000000 0.938733 0.603835
0.000000 0.938442 0.604739
0.000000 0.937534 0.606950
0.000000 0.940288 0.598961
0.735127 0.933190 0.589654
0.952028 0.925229 0.580332
1.000000 0.895556 0.647017
1.000000 0.895334 0.778795
0.514186 0.997149 0.767454
0.519586 0.997019 0.767543
0.524912 0.996889 0.767633
0.551591 0.996650 0.766576
0.608105 0.995917 0.766700
0.731907 0.994526 0.764144
0.894710 0.988853 0.761354
0.997899 0.983927 0.769423
1.000000 0.970261 0.833888
0.830537 1.000000 0.895674
0.830537 1.000000 0.895674
0.830537 1.000000 0.895674
0.831887 1.000000 0.895718
0.838577 1.000000 0.895933
0.854238 1.000000 0.895923
0.897348 1.000000 0.895661
0.969321 1.000000 0.898449
1.000000 1.000000 0.907645
0.000000 0.000000 0.525899
0.000000 0.000000 0.522070
0.000000 0.000000 0.521368
0.000000 0.000000 0.523392
0.504542 0.000000 0.519825
0.784626 0.000000 0.381706
1.000000 0.000000 0.574951
1.000000 0.594027 0.620017
1.000000 0.840706 0.774613
0.000000 0.000000 0.547841
0.000000 0.030333 0.544057
0.000000 0.037847 0.549711
0.000000 0.037089 0.554855
0.488817 0.000000 0.551616
0.816920 0.000000 0.437680
1.000000 0.105739 0.578491
1.000000 0.594758 0.620374
1.000000 0.842039 0.774671
0.000000 0.053347 0.573924
0.000000 0.062779 0.573291
0.000000 0.071590 0.572972
0.000000 0.076526 0.573902
0.494474 0.000000 0.581133
0.836415 0.000000 0.481152
1.000000 0.156765 0.582400
1.000000 0.601053 0.620341
1.000000 0.842039 0.774671
0.000000 0.122162 0.620229
0.000000 0.133224 0.622928
0.000000 0.146380 0.626368
0.000000 0.160823 0.636206
0.494625 0.090216 0.637397
0.881981 0.000000 0.564199
1.000000 0.240404 0.595956
1.000000 0.612016 0.624027
1.000000 0.843413 0.776685
0.000000 0.351000 0.723546
0.000000 0.381683 0.719214
0.000000 0.392171 0.718528
0.000000 0.434710 0.723791
0.398486 0.464465 0.727048
0.906555 0.389237 0.695534
1.000000 0.413002 0.626319
1.000000 0.644683 0.630605
1.000000 0.847343 0.776863
0.000000 0.736639 0.788857
0.000000 0.747383 0.785224
0.000000 0.763485 0.788446
0.000000 0.788821 0.791363
0.000000 0.824693 0.792063
0.806167 0.822263 0.784618
0.981522 0.752203 0.704854
1.000000 0.738910 0.659476
1.000000 0.861617 0.783740
0.000000 0.940054 0.801815
0.000000 0.939857 0.802377
0.000000 0.939584 0.800904
0.000000 0.942952 0.796401
0.000000 0.943785 0.793613
0.705237 0.937284 0.786506
0.934277 0.932670 0.781839
1.000000 0.896439 0.735325
1.000000 0.894750 0.799667
0.491588 0.999002 0.822277
0.497237 0.998875 0.822341
0.502802 0.998747 0.822405
0.529448 0.998106 0.821078
0.591181 0.996438 0.818624
0.715633 0.993949 0.817384
0.887155 0.990316 0.818381
0.994044 0.984512 0.820920
1.000000 0.970770 0.848708
0.830444 1.000000 0.905057
0.830444 1.000000 0.905057
0.831777 1.000000 0.905096
0.831777 1.000000 0.905096
0.838388 1.000000 0.905293
0.853847 1.000000 0.905773
0.897269 1.000000 0.904739
0.969055 1.000000 0.906099
1.000000 1.000000 0.914363
0.000000 0.162472 0.783136
0.000000 0.163040 0.784942
0.000000 0.163524 0.787189
0.000000 0.174332 0.783934
0.279423 0.164819 0.789167
0.824890 0.000000 0.783245
1.000000 0.000000 0.692419
1.000000 0.566658 0.799141
1.000000 0.839336 0.822179
0.000000 0.174630 0.789066
0.000000 0.175315 0.788147
0.000000 0.174345 0.790308
0.000000 0.185739 0.789750
0.275513 0.180531 0.794907
0.828690 0.000000 0.789086
1.000000 0.000000 0.703398
1.000000 0.569831 0.799094
1.000000 0.839336 0.822179
0.000000 0.187258 0.794841
0.000000 0.188078 0.794120
0.000000 0.188784 0.796287
0.000000 0.199237 0.795466
0.271655 0.196454 0.797918
0.824783 0.000000 0.794787
1.000000 0.000000 0.717730
1.000000 0.576177 0.798997
1.000000 0.839336 0.822179
0.000000 0.224843 0.808805
0.000000 0.225775 0.810428
0.000000 0.228682 0.807690
0.000000 0.239218 0.811716
0.257084 0.250568 0.811497
0.826955 0.121511 0.808447
1.000000 0.000000 0.745270
1.000000 0.590447 0.801244
1.000000 0.841181 0.824154
0.000000 0.332810 0.835220
0.000000 0.339128 0.836390
0.000000 0.348534 0.837921
0.000000 0.367778 0.840947
0.120296 0.389304 0.840023
0.809060 0.357463 0.839265
1.000000 0.234738 0.800247
1.000000 0.629323 0.807008
1.000000 0.846526 0.825881
0.000000 0.665527 0.879285
0.000000 0.674009 0.879893
0.000000 0.678980 0.880534
0.000000 0.686762 0.881011
0.000000 0.724082 0.877257
0.702962 0.743451 0.874041
0.989906 0.709623 0.859324
1.000000 0.729743 0.821282
1.000000 0.863562 0.828404
0.000000 0.926187 0.906991
0.000000 0.926659 0.907575
0.000000 0.927024 0.908080
0.000000 0.931145 0.907177
0.000000 0.938352 0.908245
0.644452 0.938921 0.904398
0.919583 0.932941 0.901690
1.000000 0.898445 0.860384
1.000000 0.896924 0.843454
0.392166 1.000000 0.913195
0.406748 1.000000 0.913246
0.413801 1.000000 0.913272
0.440621 1.000000 0.913375
0.531178 0.998703 0.910887
0.690463 0.996239 0.909565
0.877617 0.991244 0.904626
0.985478 0.987788 0.903094
1.000000 0.971091 0.883338
0.827476 1.000000 0.928694
0.827476 1.000000 0.928694
0.827476 1.000000 0.928694
0.828783 1.000000 0.928040
0.832722 1.000000 0.927442
0.851382 1.000000 0.927325
0.892982 1.000000 0.927354
0.966693 1.000000 0.926708
1.000000 1.000000 0.932191
0.000000 0.410328 0.929091
0.000000 0.413502 0.929148
0.000000 0.413709 0.929320
0.000000 0.423045 0.929476
0.211611 0.421507 0.927919
0.633030 0.420466 0.924524
1.000000 0.383749 0.921890
1.000000 0.260563 0.876207
1.000000 0.829387 0.908931
0.000000 0.413477 0.930226
0.000000 0.416619 0.930251
0.000000 0.416832 0.930421
0.000000 0.426203 0.930569
0.203997 0.427940 0.930113
0.632312 0.423967 0.925631
1.000000 0.387751 0.921826
1.000000 0.279079 0.876236
1.000000 0.829387 0.908931
0.000000 0.422432 0.929950
0.000000 0.422603 0.930066
0.000000 0.422826 0.930237
0.000000 0.429231 0.930475
0.192519 0.437228 0.929837
0.630045 0.434068 0.925386
1.000000 0.399651 0.921648
1.000000 0.290607 0.877852
1.000000 0.830810 0.908889
0.000000 0.437760 0.931832
0.000000 0.437991 0.931975
0.000000 0.438058 0.930941
0.000000 0.444616 0.931194
0.175989 0.456009 0.930447
0.616051 0.455151 0.927209
1.000000 0.423337 0.922384
1.000000 0.326856 0.885768
1.000000 0.832227 0.908847
0.000000 0.494006 0.935692
0.000000 0.494287 0.935829
0.000000 0.494544 0.935962
0.000000 0.498287 0.936223
0.000000 0.513759 0.934237
0.582919 0.520914 0.933207
1.000000 0.496434 0.926463
1.000000 0.434422 0.898076
1.000000 0.838799 0.910907
0.000000 0.637697 0.943732
0.000000 0.638090 0.943869
0.000000 0.638333 0.943957
0.000000 0.639097 0.944273
0.000000 0.655935 0.943058
0.527108 0.670837 0.940842
0.960272 0.664365 0.936589
1.000000 0.637923 0.917868
1.000000 0.853898 0.913604
0.000000 0.883288 0.957389
0.000000 0.884977 0.957373
0.000000 0.888240 0.957261
0.000000 0.889680 0.956644
0.000000 0.894496 0.954584
0.417026 0.896831 0.954669
0.871507 0.894472 0.950794
1.000000 0.881250 0.944339
1.000000 0.893156 0.924606
0.000000 1.000000 0.973004
0.000000 1.000000 0.973033
0.000000 0.999808 0.972049
0.000000 0.999124 0.971631
0.000000 0.998894 0.971274
0.573607 0.996548 0.970996
0.854746 0.992436 0.967934
0.976605 0.988903 0.963962
1.000000 0.972693 0.945617
0.812830 1.000000 0.973174
0.812830 1.000000 0.973174
0.815482 1.000000 0.973197
0.816805 1.000000 0.973209
0.823352 1.000000 0.972940
0.842201 1.000000 0.972380
0.881621 1.000000 0.971298
0.959847 1.000000 0.969210
1.000000 1.000000 0.969036
0.265804 0.702905 0.988280
0.276747 0.702840 0.988274
0.287216 0.702773 0.988267
0.321627 0.705644 0.988073
0.406857 0.707857 0.987822
0.607277 0.703668 0.986925
0.855031 0.707170 0.982885
1.000000 0.714013 0.980623
1.000000 0.693538 0.960792
0.265804 0.702905 0.988280
0.276747 0.702840 0.988274
0.282676 0.705927 0.988098
0.321627 0.705644 0.988073
0.406857 0.707857 0.987822
0.607277 0.703668 0.986925
0.853995 0.710238 0.982736
1.000000 0.714013 0.980623
1.000000 0.693538 0.960792
0.260727 0.706058 0.988111
0.271957 0.705993 0.988104
0.282676 0.705927 0.988098
0.317773 0.708778 0.987905
0.404113 0.710975 0.987656
0.605731 0.706799 0.986764
0.853995 0.710238 0.982736
1.000000 0.716842 0.980492
1.000000 0.697832 0.960624
0.255821 0.709343 0.988491
0.267344 0.709278 0.988486
0.273584 0.712325 0.988311
0.314108 0.712043 0.988286
0.413426 0.717105 0.987856
0.601221 0.716208 0.986829
0.850936 0.719580 0.983405
1.000000 0.725190 0.980104
1.000000 0.704598 0.961115
0.215909 0.731135 0.988940
0.224245 0.734037 0.988770
0.238119 0.733970 0.988764
0.285811 0.733689 0.988740
0.397848 0.735532 0.988484
0.592049 0.734276 0.986422
0.845879 0.734583 0.984306
1.000000 0.738762 0.980019
1.000000 0.723116 0.961756
0.031818 0.779164 0.989330
0.105869 0.779095 0.989325
0.139938 0.779023 0.989320
0.215338 0.781289 0.989149
0.350998 0.782768 0.988928
0.573467 0.781205 0.988007
0.827493 0.784811 0.984843
1.000000 0.785178 0.982523
1.000000 0.774831 0.965019
0.000000 0.859474 0.990991
0.000000 0.859474 0.990991
0.000000 0.859385 0.990987
0.000000 0.859015 0.990970
0.302884 0.859446 0.990788
0.541296 0.862397 0.990126
0.798848 0.864001 0.987457
0.997354 0.862618 0.985850
1.000000 0.858890 0.974185
0.118227 0.976066 0.996539
0.118227 0.976066 0.996539
0.151815 0.975948 0.996535
0.249952 0.975339 0.996511
0.383655 0.975039 0.996073
0.581507 0.973929 0.995408
0.785960 0.970422 0.993564
0.951526 0.969955 0.992313
1.000000 0.963401 0.988770
0.694554 1.000000 1.000000
0.696392 1.000000 1.000000
0.698228 1.000000 1.000000
0.701893 1.000000 1.000000
0.727564 1.000000 1.000000
0.770282 1.000000 1.000000
0.847572 1.000000 1.000000
0.949370 1.000000 0.999546
1.000000 1.000000 0.997865
