Assets/Lutify-Free-LUTs-Pack/Lutify Free LUTs Pack/Film Tone Pro - Film Tone 3/Lutify.me-FilmTone3-BMDFilmGen4-to-Rec709.cube
# Created with: fylm.ai - Colour Grading and Collaboration Software in Cloud 
# Website: https://fylm.ai 
# META
# Option: Gamut compress
# Block 1: IDT | BMD Wide Gamut BMDFilm Gen 4
# Block 2: colourMatch | Blending Mode: Normal | {"ColorSpace":0,"CrossCovarianceLimit":50,"ReshapingIterations":1,"PercentSaturationShift":100,"PercentShadingShift":100,"ExtraShading":true,"PercentTint":100,"PercentModified":100}
# Block 3: subtractiveColour | Blending Mode: Normal | {"sliders":{"gainY":0.6,"C":0.3,"M":0.3,"Y":0.3}}
# Block 4: LUT | Filmic Curve Response: Low Contrast 2 (100%)
# Block 5: logPrimaries | Blending Mode: Normal | {"wheels":{"shadows":{"Y":"0","R":"1","G":"1","B":"1"},"midtones":{"Y":"0","R":"1","G":"1","B":"1"},"highlights":{"Y":"0","R":"1","G":"1","B":"1"},"offset":{"Y":"0","R":"1","G":"1","B":"1"}},"sliders":{"shadows":{"Y":0,"R":-0.026,"G":0.03,"B":0.1},"midtones":{"Y":0,"R":0.024,"G":-0.036,"B":0.036},"highlights":{"Y":0,"R":0,"G":0.044,"B":-0.128},"offset":{"Y":0,"R":0,"G":0,"B":0}}}
# Block 6: hueSaturation | Blending Mode: Normal | {"hue":0,"saturation":-0.1}
# Block 7: ODT | Rec709
TITLE "Lutify.me-FilmTone3-BMDFilmGen4-to-Rec709" 
LUT_3D_SIZE 5
0.000000 0.000000 0.000000
0.181400 0.000000 0.000000
0.475585 0.000000 0.000000
0.860389 0.000000 0.000000
1.000000 0.393087 0.208407
0.000000 0.189435 0.000000
0.289201 0.200673 0.000000
0.572823 0.091989 0.000000
0.883754 0.000000 0.000000
1.000000 0.426185 0.207400
0.000000 0.491880 0.000000
0.000000 0.520191 0.000000
0.681145 0.481450 0.000000
0.910934 0.463078 0.000000
1.000000 0.540120 0.198702
0.000000 0.811206 0.000000
0.000000 0.812673 0.000000
0.524981 0.814397 0.000000
0.906803 0.771830 0.000000
1.000000 0.793029 0.158623
0.509265 0.951574 0.174303
0.533990 0.951810 0.171802
0.638502 0.950301 0.149375
0.840520 0.945453 0.134333
0.987977 0.929059 0.000000
0.000000 0.000000 0.099785
0.168367 0.000000 0.067801
0.474153 0.000000 0.093513
0.864690 0.000000 0.122800
1.000000 0.388661 0.254079
0.000000 0.165398 0.257365
0.203613 0.233937 0.244515
0.560036 0.108660 0.142221
0.883826 0.000000 0.119457
1.000000 0.418699 0.254973
0.000000 0.529944 0.140087
0.000000 0.558475 0.074900
0.618453 0.565912 0.000000
0.914294 0.491363 0.043466
1.000000 0.540227 0.257792
0.000000 0.827480 0.000000
0.000000 0.833051 0.000000
0.476855 0.833304 0.000000
0.885480 0.815146 0.000000
1.000000 0.795050 0.246035
0.496146 0.954632 0.290256
0.534044 0.953715 0.288981
0.634601 0.951640 0.284713
0.835554 0.947784 0.269457
0.984523 0.937484 0.210292
0.000000 0.000000 0.191230
0.117161 0.000000 0.187222
0.422594 0.000000 0.142333
0.863758 0.000000 0.325406
1.000000 0.386458 0.373307
0.000000 0.047761 0.385045
0.000000 0.065945 0.393315
0.559416 0.000000 0.370174
0.884815 0.000000 0.360930
1.000000 0.420258 0.376099
0.000000 0.486641 0.564275
0.000000 0.553049 0.568927
0.568250 0.581834 0.558968
0.903684 0.483211 0.443435
1.000000 0.532653 0.386872
0.000000 0.837554 0.504161
0.000000 0.843424 0.498810
0.425120 0.845840 0.483052
0.862690 0.843269 0.451844
1.000000 0.803735 0.425399
0.469618 0.956796 0.504796
0.510165 0.956722 0.503659
0.615873 0.957095 0.501596
0.818630 0.954120 0.494705
0.976982 0.946894 0.466668
0.000000 0.000000 0.295336
0.119043 0.000000 0.302352
0.416671 0.000000 0.322782
0.763818 0.000000 0.347174
1.000000 0.321300 0.637017
0.000000 0.000000 0.546066
0.000000 0.000000 0.555883
0.408553 0.000000 0.570530
0.858496 0.000000 0.536442
1.000000 0.361030 0.643832
0.000000 0.256351 0.708450
0.000000 0.276027 0.710404
0.402082 0.295680 0.719458
0.930226 0.231117 0.701144
1.000000 0.491457 0.667356
0.000000 0.811468 0.812720
0.000000 0.824598 0.811181
0.196682 0.841941 0.808134
0.828465 0.842872 0.804870
0.988359 0.804189 0.728640
0.387559 0.961876 0.785306
0.437762 0.960998 0.783674
0.567243 0.959555 0.777209
0.792786 0.956939 0.771694
0.956443 0.953309 0.759367
0.233843 0.000000 0.387984
0.293050 0.000000 0.398494
0.446537 0.000000 0.440864
0.760810 0.000000 0.532677
1.000000 0.000000 0.681267
0.000000 0.000000 0.697563
0.123956 0.000000 0.701342
0.346387 0.000000 0.708621
0.786758 0.000000 0.745946
1.000000 0.000000 0.746031
0.000000 0.198683 0.835493
0.000000 0.200268 0.837448
0.306769 0.202918 0.840905
0.804296 0.079026 0.842845
1.000000 0.000000 0.820958
0.000000 0.596993 0.896435
0.000000 0.597878 0.897129
0.000000 0.620856 0.894682
0.753341 0.634381 0.891904
1.000000 0.657546 0.882382
0.000000 0.955648 0.926994
0.000000 0.954612 0.927198
0.410551 0.954924 0.927684
0.756271 0.953197 0.925353
0.938286 0.952740 0.922981
