Assets/Lutify-Free-LUTs-Pack/Lutify Free LUTs Pack/Film Tone Pro - Film Tone 3/Lutify.me-FilmTone3-LogC4-to-Rec709.cube
# Created with: fylm.ai - Colour Grading and Collaboration Software in Cloud 
# Website: https://fylm.ai 
# META
# Option: Gamut compress
# Block 1: IDT | Arri Alexa 35 - LogC4
# Block 2: colourMatch | Blending Mode: Normal | {"ColorSpace":0,"CrossCovarianceLimit":50,"ReshapingIterations":1,"PercentSaturationShift":100,"PercentShadingShift":100,"ExtraShading":true,"PercentTint":100,"PercentModified":100}
# Block 3: subtractiveColour | Blending Mode: Normal | {"sliders":{"gainY":0.6,"C":0.3,"M":0.3,"Y":0.3}}
# Block 4: LUT | Filmic Curve Response: Low Contrast 2 (100%)
# Block 5: logPrimaries | Blending Mode: Normal | {"wheels":{"shadows":{"Y":"0","R":"1","G":"1","B":"1"},"midtones":{"Y":"0","R":"1","G":"1","B":"1"},"highlights":{"Y":"0","R":"1","G":"1","B":"1"},"offset":{"Y":"0","R":"1","G":"1","B":"1"}},"sliders":{"shadows":{"Y":0,"R":-0.026,"G":0.03,"B":0.1},"midtones":{"Y":0,"R":0.024,"G":-0.036,"B":0.036},"highlights":{"Y":0,"R":0,"G":0.044,"B":-0.128},"offset":{"Y":0,"R":0,"G":0,"B":0}}}
# Block 6: hueSaturation | Blending Mode: Normal | {"hue":0,"saturation":-0.1}
# Block 7: ODT | Rec709
TITLE "Lutify.me-FilmTone3-LogC4-to-Rec709" 
LUT_3D_SIZE 33
0.000000 0.000000 0.000000
0.000000 0.000000 0.000000
0.000000 0.000000 0.000000
0.000000 0.000000 0.000000
0.059604 0.000000 0.000000
0.116105 0.000000 0.000000
0.160698 0.000000 0.000000
0.210522 0.000000 0.000000
0.268790 0.000000 0.000000
0.335941 0.000000 0.000000
0.402408 0.000000 0.000000
0.484996 0.000000 0.000000
0.594169 0.000000 0.000000
0.690372 0.000000 0.019934
0.784895 0.000000 0.055424
0.888504 0.000000 0.083310
0.961601 0.000000 0.122112
1.000000 0.000000 0.168945
1.000000 0.073642 0.232160
1.000000 0.263106 0.294628
1.000000 0.392480 0.366218
1.000000 0.509048 0.452362
1.000000 0.606985 0.527023
1.000000 0.694341 0.598742
1.000000 0.773271 0.681201
1.000000 0.827759 0.749418
1.000000 0.869116 0.798755
1.000000 0.901241 0.841831
1.000000 0.930013 0.880808
1.000000 0.952592 0.908698
1.000000 0.966571 0.931143
1.000000 0.979031 0.948573
1.000000 0.988392 0.965770
0.000000 0.000000 0.000000
0.000000 0.000000 0.000000
0.000000 0.000000 0.000000
0.000000 0.000000 0.000000
0.059604 0.000000 0.000000
0.116105 0.000000 0.000000
0.162616 0.000000 0.000000
0.211867 0.000000 0.000000
0.272295 0.000000 0.000000
0.338428 0.000000 0.000000
0.408576 0.000000 0.000000
0.489455 0.000000 0.000000
0.599133 0.000000 0.000000
0.691167 0.000000 0.020772
0.785658 0.000000 0.055067
0.888793 0.000000 0.083111
0.961912 0.000000 0.124083
1.000000 0.000000 0.171502
1.000000 0.100222 0.231992
1.000000 0.263106 0.294628
1.000000 0.392480 0.366218
1.000000 0.509048 0.452362
1.000000 0.606985 0.527023
1.000000 0.694341 0.598742
1.000000 0.773271 0.681201
1.000000 0.827759 0.749418
1.000000 0.869116 0.798755
1.000000 0.901241 0.841831
1.000000 0.930013 0.880808
1.000000 0.952592 0.908698
1.000000 0.966571 0.931143
1.000000 0.979031 0.948573
1.000000 0.988392 0.965770
0.000000 0.000000 0.000000
0.000000 0.000000 0.000000
0.000000 0.000000 0.000000
0.000000 0.000000 0.000000
0.060845 0.000000 0.000000
0.118502 0.000000 0.000000
0.166537 0.000000 0.000000
0.217437 0.000000 0.000000
0.278168 0.000000 0.000000
0.345672 0.000000 0.000000
0.415047 0.000000 0.000000
0.500695 0.000000 0.000000
0.607525 0.000000 0.000000
0.696178 0.000000 0.022010
0.786697 0.000000 0.056238
0.892479 0.000000 0.082887
0.961988 0.000000 0.123943
1.000000 0.000000 0.171434
1.000000 0.110630 0.231904
1.000000 0.271716 0.294461
1.000000 0.395983 0.366160
1.000000 0.509048 0.452362
1.000000 0.606985 0.527023
1.000000 0.694438 0.601543
1.000000 0.773271 0.681201
1.000000 0.827759 0.749418
1.000000 0.869116 0.798755
1.000000 0.902003 0.841890
1.000000 0.930013 0.880808
1.000000 0.952592 0.908698
1.000000 0.966571 0.931143
1.000000 0.979031 0.948573
1.000000 0.988392 0.965770
0.000000 0.000000 0.000000
0.000000 0.000000 0.000000
0.000000 0.000000 0.000000
0.000000 0.000000 0.000000
0.066452 0.000000 0.000000
0.124342 0.000000 0.000000
0.171854 0.000000 0.000000
0.226550 0.000000 0.000000
0.286117 0.000000 0.000000
0.360278 0.000000 0.000000
0.428053 0.000000 0.000000
0.506296 0.000000 0.000000
0.613038 0.000000 0.000000
0.698166 0.000000 0.024089
0.795419 0.000000 0.055311
0.893180 0.000000 0.084279
0.962129 0.000000 0.123640
1.000000 0.000000 0.171291
1.000000 0.120532 0.235229
1.000000 0.275957 0.294374
1.000000 0.395983 0.366160
1.000000 0.512248 0.452322
1.000000 0.606985 0.527023
1.000000 0.694438 0.601543
1.000000 0.773271 0.681201
1.000000 0.827759 0.749418
1.000000 0.869116 0.798755
1.000000 0.902003 0.841890
1.000000 0.930013 0.880808
1.000000 0.952592 0.908698
1.000000 0.966571 0.931143
1.000000 0.979031 0.948573
1.000000 0.988392 0.965770
0.000000 0.054224 0.000000
0.000000 0.053381 0.000000
0.000000 0.052737 0.000000
0.000000 0.054990 0.000000
0.060462 0.054931 0.000000
0.135895 0.015396 0.000000
0.197755 0.000000 0.000000
0.250508 0.000000 0.000000
0.300696 0.000000 0.000000
0.372158 0.000000 0.000000
0.445183 0.000000 0.000000
0.522406 0.000000 0.000000
0.619359 0.000000 0.000000
0.704364 0.000000 0.024597
0.800560 0.000000 0.056949
0.894131 0.000000 0.085380
0.965074 0.000000 0.125625
1.000000 0.000000 0.173878
1.000000 0.144777 0.235236
1.000000 0.284472 0.296289
1.000000 0.399480 0.366101
1.000000 0.512248 0.452322
1.000000 0.612979 0.526968
1.000000 0.694438 0.601543
1.000000 0.773271 0.681201
1.000000 0.827759 0.749418
1.000000 0.869116 0.798755
1.000000 0.902003 0.841890
1.000000 0.930013 0.880808
1.000000 0.952592 0.908698
1.000000 0.966571 0.931143
1.000000 0.979031 0.948573
1.000000 0.988392 0.965770
0.000000 0.092377 0.000000
0.000000 0.093797 0.000000
0.000000 0.096128 0.000000
0.000000 0.098041 0.000000
0.000000 0.107520 0.000000
0.144635 0.093145 0.000000
0.222249 0.058700 0.000000
0.284065 0.000000 0.000000
0.334045 0.000000 0.000000
0.389608 0.000000 0.000000
0.461687 0.000000 0.000000
0.536465 0.000000 0.000000
0.626894 0.000000 0.000000
0.711750 0.000000 0.026653
0.802302 0.000000 0.057229
0.901720 0.000000 0.087400
0.965288 0.000000 0.126301
1.000000 0.000000 0.173532
1.000000 0.158694 0.236770
1.000000 0.288599 0.296198
1.000000 0.407347 0.368982
1.000000 0.518646 0.452238
1.000000 0.613095 0.529774
1.000000 0.696934 0.601559
1.000000 0.775094 0.681270
1.000000 0.827759 0.749418
1.000000 0.869116 0.798755
1.000000 0.902003 0.841890
1.000000 0.930013 0.880808
1.000000 0.952592 0.908698
1.000000 0.966571 0.931143
1.000000 0.979031 0.948573
1.000000 0.988392 0.965770
0.000000 0.139015 0.000000
0.000000 0.141122 0.000000
0.000000 0.145667 0.000000
0.000000 0.149751 0.000000
0.000000 0.163765 0.000000
0.103899 0.169752 0.000000
0.232135 0.148351 0.000000
0.303319 0.111739 0.000000
0.367377 0.066439 0.000000
0.428588 0.000000 0.000000
0.482260 0.000000 0.000000
0.559653 0.000000 0.000000
0.649733 0.000000 0.000000
0.725974 0.000000 0.017263
0.808191 0.000000 0.055269
0.906339 0.000000 0.089724
0.968167 0.000000 0.127844
1.000000 0.000000 0.176120
1.000000 0.183428 0.236632
1.000000 0.300936 0.298031
1.000000 0.414281 0.368860
1.000000 0.521967 0.454937
1.000000 0.616094 0.529747
1.000000 0.697728 0.602151
1.000000 0.775094 0.681270
1.000000 0.827759 0.749418
1.000000 0.870130 0.798818
1.000000 0.902003 0.841890
1.000000 0.930013 0.880808
1.000000 0.952592 0.908698
1.000000 0.966571 0.931143
1.000000 0.979031 0.948573
1.000000 0.988392 0.965770
0.000000 0.187781 0.000000
0.000000 0.190593 0.000000
0.000000 0.198195 0.000000
0.000000 0.200820 0.000000
0.000000 0.213624 0.000000
0.000000 0.229519 0.000000
0.203868 0.227549 0.000000
0.319909 0.200950 0.000000
0.390552 0.165339 0.000000
0.459739 0.129628 0.000000
0.526602 0.067077 0.000000
0.586895 0.000000 0.000000
0.673756 0.000000 0.000000
0.741085 0.000000 0.000000
0.819190 0.000000 0.056392
0.910709 0.000000 0.090625
0.968634 0.000000 0.132724
1.000000 0.000000 0.176582
1.000000 0.205483 0.239687
1.000000 0.321364 0.297893
1.000000 0.424642 0.368666
1.000000 0.529967 0.455837
1.000000 0.619094 0.529720
1.000000 0.700201 0.602169
1.000000 0.779860 0.682647
1.000000 0.829158 0.749487
1.000000 0.870130 0.798818
1.000000 0.902003 0.841890
1.000000 0.930013 0.880808
1.000000 0.952592 0.908698
1.000000 0.966571 0.931143
1.000000 0.979031 0.948573
1.000000 0.988392 0.965770
0.000000 0.244241 0.000000
0.000000 0.244355 0.000000
0.000000 0.251589 0.000000
0.000000 0.258208 0.000000
0.000000 0.274243 0.000000
0.000000 0.290220 0.000000
0.101721 0.289442 0.000000
0.294574 0.289834 0.000000
0.409021 0.256130 0.000000
0.491818 0.224441 0.000000
0.558436 0.195422 0.000000
0.625427 0.150416 0.000000
0.693620 0.053719 0.000000
0.761596 0.000000 0.000000
0.837095 0.000000 0.053950
0.915357 0.000000 0.093186
0.973586 0.000000 0.135547
1.000000 0.110200 0.179964
1.000000 0.236669 0.243380
1.000000 0.336895 0.299607
1.000000 0.439229 0.371433
1.000000 0.542702 0.455657
1.000000 0.623793 0.530771
1.000000 0.705110 0.602209
1.000000 0.781620 0.682722
1.000000 0.829158 0.749487
1.000000 0.870130 0.798818
1.000000 0.902003 0.841890
1.000000 0.931138 0.880898
1.000000 0.952610 0.909394
1.000000 0.966571 0.931143
1.000000 0.979031 0.948573
1.000000 0.988392 0.965770
0.000000 0.303584 0.000000
0.000000 0.303945 0.000000
0.000000 0.317591 0.000000
0.000000 0.326435 0.000000
0.000000 0.341828 0.000000
0.000000 0.355097 0.000000
0.000000 0.371449 0.000000
0.178471 0.373205 0.000000
0.362962 0.372958 0.000000
0.498867 0.332615 0.000000
0.583619 0.303959 0.000000
0.650827 0.281723 0.000000
0.718325 0.248265 0.000000
0.787971 0.196576 0.000000
0.858264 0.064556 0.037824
0.925592 0.000000 0.095115
0.982178 0.099114 0.137585
1.000000 0.196664 0.182547
1.000000 0.273635 0.248017
1.000000 0.364185 0.305738
1.000000 0.454532 0.377273
1.000000 0.552496 0.461026
1.000000 0.632851 0.533497
1.000000 0.707735 0.607839
1.000000 0.783374 0.682799
1.000000 0.830550 0.749557
1.000000 0.871138 0.798883
1.000000 0.903522 0.842009
1.000000 0.931138 0.880898
1.000000 0.952610 0.909394
1.000000 0.966571 0.931143
1.000000 0.979031 0.948573
1.000000 0.988392 0.965770
0.000000 0.372634 0.000000
0.000000 0.378493 0.000000
0.000000 0.390310 0.000000
0.000000 0.396428 0.000000
0.000000 0.409369 0.000000
0.000000 0.425757 0.000000
0.000000 0.438628 0.000000
0.000000 0.452634 0.000000
0.234623 0.456700 0.000000
0.461416 0.449193 0.000000
0.584325 0.417554 0.000000
0.661707 0.398726 0.000000
0.748490 0.376097 0.000000
0.804409 0.345431 0.000000
0.877089 0.303516 0.000000
0.936166 0.228562 0.089909
0.984661 0.224938 0.139991
1.000000 0.263545 0.187294
1.000000 0.331934 0.251959
1.000000 0.397999 0.311760
1.000000 0.475639 0.379910
1.000000 0.566087 0.464097
1.000000 0.641701 0.533423
1.000000 0.714034 0.609078
1.000000 0.785120 0.682877
1.000000 0.831936 0.749629
1.000000 0.871177 0.800498
1.000000 0.903522 0.842009
1.000000 0.931138 0.880898
1.000000 0.953020 0.909435
1.000000 0.966571 0.931143
1.000000 0.979307 0.948604
1.000000 0.988392 0.965770
0.000000 0.461758 0.000000
0.000000 0.472129 0.000000
0.000000 0.480170 0.000000
0.000000 0.486266 0.000000
0.000000 0.492919 0.000000
0.000000 0.510050 0.000000
0.000000 0.521499 0.000000
0.000000 0.533090 0.000000
0.000000 0.542361 0.000000
0.319127 0.545299 0.000000
0.536109 0.540459 0.000000
0.661048 0.510842 0.000000
0.755960 0.485955 0.000000
0.824798 0.459934 0.000000
0.882966 0.437671 0.000000
0.939417 0.400733 0.046314
0.985241 0.348591 0.140466
1.000000 0.350277 0.196936
1.000000 0.386201 0.257751
1.000000 0.439405 0.323154
1.000000 0.508149 0.388526
1.000000 0.585388 0.469364
1.000000 0.651211 0.533905
1.000000 0.723463 0.609201
1.000000 0.789139 0.683661
1.000000 0.833316 0.749702
1.000000 0.872178 0.800563
1.000000 0.904279 0.842069
1.000000 0.931698 0.880944
1.000000 0.953020 0.909435
1.000000 0.966899 0.931177
1.000000 0.979307 0.948604
1.000000 0.989062 0.965847
0.000000 0.561034 0.000000
0.000000 0.565238 0.000000
0.000000 0.570240 0.000000
0.000000 0.575696 0.000000
0.000000 0.578953 0.000000
0.000000 0.592131 0.000000
0.000000 0.602924 0.000000
0.000000 0.619470 0.000000
0.000000 0.626012 0.000000
0.000000 0.633641 0.000000
0.420401 0.631576 0.000000
0.602147 0.633872 0.000000
0.744923 0.599633 0.000000
0.822974 0.579757 0.000000
0.885208 0.562940 0.000000
0.936285 0.538832 0.000000
0.979417 0.498463 0.132148
1.000000 0.454306 0.197742
1.000000 0.459627 0.266107
1.000000 0.493022 0.329148
1.000000 0.548875 0.393320
1.000000 0.605226 0.472347
1.000000 0.668531 0.539444
1.000000 0.737292 0.612241
1.000000 0.794340 0.686506
1.000000 0.837886 0.750487
1.000000 0.875141 0.800764
1.000000 0.905034 0.842130
1.000000 0.932256 0.880990
1.000000 0.953429 0.909476
1.000000 0.967288 0.932305
1.000000 0.979327 0.949577
1.000000 0.989069 0.966253
0.000000 0.653338 0.000000
0.000000 0.654134 0.000000
0.000000 0.662226 0.000000
0.000000 0.667283 0.000000
0.000000 0.670094 0.000000
0.000000 0.676066 0.000000
0.000000 0.682245 0.000000
0.000000 0.694931 0.000000
0.000000 0.706845 0.000000
0.000000 0.712082 0.000000
0.236539 0.720395 0.000000
0.505162 0.717505 0.000000
0.693976 0.711926 0.000000
0.805599 0.687355 0.000000
0.874645 0.669910 0.000000
0.927620 0.647134 0.000000
0.968661 0.624457 0.106308
1.000000 0.589695 0.201909
1.000000 0.562788 0.279929
1.000000 0.555895 0.334811
1.000000 0.589405 0.400828
1.000000 0.635303 0.481311
1.000000 0.688519 0.539953
1.000000 0.751166 0.615961
1.000000 0.799477 0.689345
1.000000 0.841949 0.752826
1.000000 0.877119 0.802507
1.000000 0.905817 0.843459
1.000000 0.933389 0.881991
1.000000 0.953429 0.909476
1.000000 0.967610 0.932339
1.000000 0.979601 0.949608
1.000000 0.989069 0.966253
0.000000 0.735069 0.000000
0.000000 0.738728 0.000000
0.000000 0.742666 0.000000
0.000000 0.744080 0.000000
0.000000 0.748527 0.000000
0.000000 0.750228 0.000000
0.000000 0.752109 0.000000
0.000000 0.762819 0.000000
0.000000 0.769927 0.000000
0.000000 0.778982 0.000000
0.000000 0.781118 0.000000
0.390044 0.786354 0.000000
0.605241 0.781780 0.000000
0.762500 0.776478 0.000000
0.860256 0.753982 0.000000
0.914856 0.735742 0.000000
0.956073 0.725404 0.113336
0.986982 0.709218 0.202515
1.000000 0.679076 0.291006
1.000000 0.648599 0.345761
1.000000 0.646949 0.414513
1.000000 0.675358 0.484146
1.000000 0.718751 0.549690
1.000000 0.771049 0.626215
1.000000 0.810409 0.693668
1.000000 0.845943 0.755154
1.000000 0.879811 0.805220
1.000000 0.907316 0.843582
1.000000 0.934490 0.882085
1.000000 0.953837 0.909517
1.000000 0.967610 0.932339
1.000000 0.979601 0.949608
1.000000 0.989069 0.966253
0.000000 0.811918 0.119575
0.000000 0.812380 0.120553
0.000000 0.812593 0.110846
0.000000 0.815560 0.105879
0.000000 0.820787 0.099714
0.000000 0.821428 0.081629
0.000000 0.822629 0.086749
0.000000 0.823752 0.091976
0.000000 0.828876 0.049785
0.000000 0.835569 0.000000
0.000000 0.840825 0.000000
0.243550 0.840346 0.000000
0.528039 0.840075 0.000000
0.693079 0.835092 0.000000
0.816011 0.830241 0.000000
0.898746 0.814804 0.000000
0.940692 0.801171 0.132276
0.972506 0.792622 0.225423
0.999416 0.771760 0.321759
1.000000 0.752176 0.376809
1.000000 0.730048 0.428586
1.000000 0.731858 0.497127
1.000000 0.755285 0.559452
1.000000 0.786935 0.633168
1.000000 0.820529 0.699902
1.000000 0.853165 0.756671
1.000000 0.884528 0.807155
1.000000 0.910998 0.847249
1.000000 0.936149 0.883127
1.000000 0.955528 0.911032
1.000000 0.968252 0.932407
1.000000 0.979874 0.949639
1.000000 0.989290 0.966280
0.000000 0.863130 0.243693
0.000000 0.863285 0.244090
0.000000 0.865306 0.241418
0.000000 0.865552 0.242090
0.000000 0.867862 0.240391
0.000000 0.868023 0.231320
0.000000 0.871995 0.223269
0.000000 0.872516 0.225774
0.000000 0.872879 0.228638
0.000000 0.876102 0.215806
0.000000 0.878706 0.209988
0.000000 0.880463 0.204777
0.440442 0.879517 0.196311
0.640127 0.877603 0.188451
0.769531 0.872978 0.189184
0.866837 0.869058 0.192204
0.928037 0.856899 0.180186
0.960000 0.847529 0.260769
0.986409 0.839013 0.346784
1.000000 0.827081 0.399299
1.000000 0.808689 0.464159
1.000000 0.796185 0.527159
1.000000 0.791960 0.577038
1.000000 0.808968 0.637965
1.000000 0.836686 0.711989
1.000000 0.863667 0.760543
1.000000 0.888961 0.811517
1.000000 0.913927 0.848730
1.000000 0.938265 0.884017
1.000000 0.956326 0.911117
1.000000 0.969207 0.932512
1.000000 0.980418 0.949702
1.000000 0.989726 0.966333
0.000000 0.904989 0.345331
0.000000 0.905040 0.345607
0.000000 0.905020 0.339554
0.000000 0.905111 0.340113
0.000000 0.906621 0.337897
0.000000 0.906649 0.332415
0.000000 0.908227 0.334477
0.000000 0.909599 0.330269
0.000000 0.912162 0.330639
0.000000 0.911683 0.333238
0.000000 0.910788 0.326312
0.000000 0.911923 0.321391
0.334273 0.912512 0.319423
0.581857 0.911146 0.316120
0.713759 0.907904 0.308556
0.826279 0.904672 0.317551
0.903327 0.900189 0.319215
0.944688 0.892422 0.308271
0.975779 0.882523 0.381456
1.000000 0.872834 0.438195
1.000000 0.864990 0.490139
1.000000 0.851773 0.556066
1.000000 0.839424 0.601227
1.000000 0.838045 0.653500
1.000000 0.854258 0.719369
1.000000 0.875404 0.769958
1.000000 0.896148 0.812143
1.000000 0.919191 0.849645
1.000000 0.940383 0.885089
1.000000 0.957533 0.911926
1.000000 0.970153 0.932620
1.000000 0.980966 0.950248
1.000000 0.989942 0.966360
0.000000 0.936002 0.453675
0.000000 0.935962 0.450690
0.000000 0.935928 0.451102
0.000000 0.937004 0.452066
0.000000 0.936925 0.449366
0.000000 0.936801 0.450198
0.000000 0.937634 0.445673
0.000000 0.937307 0.440607
0.000000 0.940185 0.443697
0.000000 0.940737 0.445760
0.000000 0.940911 0.442183
0.000000 0.939306 0.438969
0.300238 0.937580 0.437560
0.523017 0.937775 0.436038
0.678115 0.934149 0.430900
0.791807 0.931741 0.425905
0.868804 0.928498 0.432271
0.928058 0.925969 0.434027
0.962814 0.918642 0.427238
0.988812 0.910158 0.465100
1.000000 0.903615 0.526732
1.000000 0.896518 0.582798
1.000000 0.883218 0.634313
1.000000 0.875064 0.677286
1.000000 0.876264 0.732711
1.000000 0.887432 0.777833
1.000000 0.904289 0.814905
1.000000 0.925415 0.852683
1.000000 0.944260 0.887532
1.000000 0.959915 0.913504
1.000000 0.971422 0.933837
1.000000 0.981949 0.950710
1.000000 0.990267 0.967016
0.000000 0.963498 0.536250
0.000000 0.963407 0.536523
0.000000 0.963360 0.536660
0.000000 0.963264 0.536933
0.000000 0.963145 0.534190
0.000000 0.963851 0.535259
0.000000 0.963552 0.532942
0.000000 0.963210 0.527635
0.000000 0.963593 0.529298
0.000000 0.963992 0.530835
0.000000 0.963890 0.530129
0.000000 0.964129 0.527695
0.335429 0.961612 0.524988
0.504549 0.960185 0.521121
0.634850 0.959732 0.525605
0.760492 0.956723 0.528354
0.834905 0.954324 0.530212
0.896401 0.952287 0.529301
0.940343 0.949620 0.536299
0.978344 0.943573 0.527907
0.997990 0.937914 0.574901
1.000000 0.931903 0.625843
1.000000 0.924593 0.665991
1.000000 0.914202 0.708079
1.000000 0.906129 0.752248
1.000000 0.905477 0.786826
1.000000 0.918379 0.822704
1.000000 0.933735 0.857942
1.000000 0.947811 0.888763
1.000000 0.961462 0.914349
1.000000 0.972949 0.934561
1.000000 0.982996 0.951317
1.000000 0.990895 0.967099
0.000000 0.981131 0.619241
0.000000 0.981131 0.619241
0.000000 0.981045 0.616452
0.000000 0.980967 0.616586
0.000000 0.980967 0.616586
0.000000 0.982027 0.618414
0.000000 0.981770 0.615912
0.000000 0.981600 0.616182
0.000000 0.981878 0.614558
0.000000 0.981308 0.612486
0.000000 0.980796 0.609001
0.268507 0.979913 0.611595
0.411066 0.979304 0.612315
0.532120 0.976741 0.609341
0.628468 0.974647 0.610347
0.730030 0.974161 0.608198
0.815666 0.971235 0.607147
0.873583 0.970410 0.616647
0.919847 0.968253 0.614601
0.960149 0.966434 0.626695
0.989945 0.962281 0.617324
1.000000 0.956632 0.667133
1.000000 0.951908 0.705192
1.000000 0.945748 0.737521
1.000000 0.938639 0.773568
1.000000 0.932665 0.803247
1.000000 0.933496 0.832796
1.000000 0.942321 0.863980
1.000000 0.953121 0.892544
1.000000 0.965388 0.915817
1.000000 0.975453 0.935679
1.000000 0.984773 0.952031
1.000000 0.991515 0.967578
0.000000 0.994264 0.708155
0.000000 0.994264 0.708155
0.000000 0.994264 0.708155
0.000000 0.994162 0.708266
0.000000 0.994055 0.705888
0.000000 0.993845 0.706112
0.000000 0.994132 0.706962
0.147887 0.993685 0.702431
0.228231 0.993227 0.702888
0.321021 0.993368 0.702509
0.385035 0.992474 0.700839
0.439499 0.992042 0.702334
0.511076 0.991530 0.702551
0.576379 0.991331 0.703687
0.645747 0.989220 0.700900
0.712622 0.987361 0.699414
0.786669 0.986292 0.696879
0.852821 0.983815 0.698308
0.901975 0.982834 0.700132
0.940202 0.980982 0.705264
0.973856 0.979402 0.715893
0.997448 0.975758 0.707261
1.000000 0.971315 0.737346
1.000000 0.967730 0.770429
1.000000 0.963009 0.798098
1.000000 0.956967 0.820567
1.000000 0.951062 0.846167
1.000000 0.952452 0.869173
1.000000 0.960222 0.896404
1.000000 0.969661 0.919584
1.000000 0.978298 0.937652
1.000000 0.986076 0.952855
1.000000 0.992790 0.968365
0.442093 1.000000 0.766049
0.442093 1.000000 0.766049
0.442093 1.000000 0.766049
0.448250 1.000000 0.766137
0.448250 1.000000 0.766137
0.454307 1.000000 0.766225
0.466103 1.000000 0.764465
0.477576 1.000000 0.764645
0.492477 1.000000 0.764075
0.513489 1.000000 0.764437
0.538275 1.000000 0.762964
0.567450 1.000000 0.762206
0.599679 1.000000 0.764111
0.635433 1.000000 0.763704
0.684182 1.000000 0.764487
0.735431 1.000000 0.762667
0.783455 0.998247 0.762922
0.829882 0.996518 0.764401
0.879654 0.995464 0.765851
0.924850 0.993518 0.770192
0.956805 0.991897 0.772908
0.983519 0.990576 0.778057
1.000000 0.987817 0.776336
1.000000 0.984946 0.796761
1.000000 0.981346 0.824124
1.000000 0.978317 0.842834
1.000000 0.973105 0.861601
1.000000 0.968040 0.880354
1.000000 0.968882 0.901615
1.000000 0.975849 0.923059
1.000000 0.982008 0.939747
1.000000 0.988989 0.954580
1.000000 0.994280 0.969373
0.606518 1.000000 0.814449
0.606518 1.000000 0.814449
0.606518 1.000000 0.814449
0.610056 1.000000 0.814520
0.610056 1.000000 0.814520
0.613561 1.000000 0.814591
0.613561 1.000000 0.814591
0.620450 1.000000 0.813224
0.629918 1.000000 0.814409
0.633185 1.000000 0.812983
0.646053 1.000000 0.813274
0.659530 1.000000 0.812606
0.677175 1.000000 0.813051
0.703300 1.000000 0.814265
0.733569 1.000000 0.816185
0.765321 1.000000 0.814855
0.795571 1.000000 0.813094
0.829030 1.000000 0.813257
0.868822 1.000000 0.816044
0.910484 1.000000 0.818650
0.945379 1.000000 0.820236
0.971183 0.999653 0.822745
0.993128 0.998511 0.829152
1.000000 0.996321 0.828255
1.000000 0.994094 0.847590
1.000000 0.992225 0.865551
1.000000 0.988929 0.878871
1.000000 0.985806 0.894535
1.000000 0.982394 0.910942
1.000000 0.982915 0.928051
1.000000 0.986331 0.943407
1.000000 0.991438 0.956269
1.000000 0.996047 0.970656
0.712432 1.000000 0.860067
0.712432 1.000000 0.860067
0.712432 1.000000 0.860067
0.714713 1.000000 0.860122
0.714713 1.000000 0.860122
0.714713 1.000000 0.860122
0.716985 1.000000 0.860176
0.719248 1.000000 0.860230
0.723717 1.000000 0.859220
0.730385 1.000000 0.859385
0.734778 1.000000 0.859496
0.743419 1.000000 0.858598
0.753999 1.000000 0.858880
0.768319 1.000000 0.858161
0.783409 1.000000 0.859483
0.798733 1.000000 0.859318
0.815190 1.000000 0.859714
0.839669 1.000000 0.858894
0.867954 1.000000 0.859164
0.903083 1.000000 0.861121
0.935670 1.000000 0.861823
0.960728 1.000000 0.863422
0.983657 1.000000 0.867142
1.000000 1.000000 0.872479
1.000000 1.000000 0.875169
1.000000 1.000000 0.884862
1.000000 0.998355 0.896508
1.000000 0.996586 0.908753
1.000000 0.993945 0.922000
1.000000 0.991557 0.935055
1.000000 0.991297 0.947332
1.000000 0.994744 0.959089
1.000000 0.998046 0.972046
0.793226 1.000000 0.891406
0.793226 1.000000 0.891406
0.793226 1.000000 0.891406
0.793226 1.000000 0.891406
0.793226 1.000000 0.891406
0.793226 1.000000 0.891406
0.794768 1.000000 0.891449
0.794768 1.000000 0.891449
0.796302 1.000000 0.891491
0.797828 1.000000 0.891533
0.800857 1.000000 0.891618
0.803837 1.000000 0.890873
0.809731 1.000000 0.891046
0.814048 1.000000 0.890346
0.821087 1.000000 0.890567
0.830489 1.000000 0.890785
0.844804 1.000000 0.892022
0.860464 1.000000 0.891367
0.880839 1.000000 0.891416
0.904291 1.000000 0.892538
