Assets/Lutify-Free-LUTs-Pack/Lutify Free LUTs Pack/Film Tone Pro - Film Tone 3/Lutify.me-FilmTone3-LLog-to-Rec709.cube
# Created with: fylm.ai - Colour Grading and Collaboration Software in Cloud 
# Website: https://fylm.ai 
# META
# Option: Gamut compress
# Block 1: IDT | Leica BT2020 L-Log
# Block 2: colourMatch | Blending Mode: Normal | {"ColorSpace":0,"CrossCovarianceLimit":50,"ReshapingIterations":1,"PercentSaturationShift":100,"PercentShadingShift":100,"ExtraShading":true,"PercentTint":100,"PercentModified":100}
# Block 3: subtractiveColour | Blending Mode: Normal | {"sliders":{"gainY":0.6,"C":0.3,"M":0.3,"Y":0.3}}
# Block 4: LUT | Filmic Curve Response: Low Contrast 2 (100%)
# Block 5: logPrimaries | Blending Mode: Normal | {"wheels":{"shadows":{"Y":"0","R":"1","G":"1","B":"1"},"midtones":{"Y":"0","R":"1","G":"1","B":"1"},"highlights":{"Y":"0","R":"1","G":"1","B":"1"},"offset":{"Y":"0","R":"1","G":"1","B":"1"}},"sliders":{"shadows":{"Y":0,"R":-0.026,"G":0.03,"B":0.1},"midtones":{"Y":0,"R":0.024,"G":-0.036,"B":0.036},"highlights":{"Y":0,"R":0,"G":0.044,"B":-0.128},"offset":{"Y":0,"R":0,"G":0,"B":0}}}
# Block 6: hueSaturation | Blending Mode: Normal | {"hue":0,"saturation":-0.1}
# Block 7: ODT | Rec709
TITLE "Lutify.me-FilmTone3-LLog-to-Rec709" 
LUT_3D_SIZE 5
0.000000 0.000000 0.000000
0.110172 0.000000 0.000000
0.438709 0.000000 0.000000
0.990707 0.000000 0.152266
1.000000 0.749064 0.597768
0.000000 0.084408 0.000000
0.131667 0.090975 0.000000
0.473211 0.000000 0.000000
0.994601 0.000000 0.153545
1.000000 0.751261 0.597827
0.000000 0.408828 0.000000
0.000000 0.441621 0.000000
0.589437 0.445112 0.000000
1.000000 0.351019 0.171995
1.000000 0.766861 0.607356
0.000000 0.883531 0.351346
0.000000 0.885275 0.350215
0.000000 0.888869 0.336239
0.932535 0.877431 0.327984
1.000000 0.845421 0.650468
0.685029 1.000000 0.824596
0.690906 1.000000 0.824735
0.711542 1.000000 0.824176
0.838136 1.000000 0.825883
1.000000 0.995031 0.839868
0.000000 0.000000 0.060784
0.096304 0.000000 0.044609
0.448062 0.000000 0.046490
0.991687 0.000000 0.174053
1.000000 0.749146 0.600583
0.000000 0.085201 0.135719
0.100846 0.115398 0.123787
0.482117 0.000000 0.058354
0.995717 0.061475 0.180474
1.000000 0.751503 0.606283
0.000000 0.426273 0.120838
0.000000 0.461956 0.085961
0.587323 0.479893 0.000000
1.000000 0.356958 0.200157
1.000000 0.766861 0.607356
0.000000 0.884211 0.393442
0.000000 0.885991 0.395480
0.000000 0.889508 0.381132
0.932304 0.878075 0.371572
1.000000 0.845470 0.653254
0.685041 1.000000 0.827567
0.690916 1.000000 0.827704
0.711545 1.000000 0.827136
0.838107 1.000000 0.827303
1.000000 0.995033 0.840998
0.000000 0.024211 0.312207
0.000000 0.035007 0.316357
0.496415 0.000000 0.270759
0.995423 0.000000 0.323270
1.000000 0.749953 0.628955
0.000000 0.071169 0.377768
0.000000 0.088056 0.375053
0.546416 0.000000 0.340910
0.996366 0.128873 0.330585
1.000000 0.752141 0.629011
0.000000 0.441425 0.533672
0.000000 0.490725 0.537141
0.527605 0.555835 0.529207
0.995635 0.381939 0.376354
1.000000 0.767526 0.632881
0.000000 0.891754 0.572541
0.000000 0.891749 0.567889
0.000000 0.896532 0.558458
0.922271 0.887427 0.557696
1.000000 0.845863 0.675237
0.685096 1.000000 0.837726
0.690964 1.000000 0.837854
0.711571 1.000000 0.838678
0.838232 1.000000 0.837908
1.000000 0.995051 0.849913
0.000000 0.288122 0.776351
0.000000 0.299663 0.775570
0.364654 0.308587 0.783171
1.000000 0.166453 0.747423
1.000000 0.766249 0.764288
0.000000 0.310867 0.781971
0.000000 0.318567 0.781311
0.366756 0.329529 0.786032
1.000000 0.219407 0.750635
1.000000 0.766249 0.764288
0.000000 0.449159 0.811692
0.000000 0.459590 0.812854
0.303081 0.481643 0.811913
1.000000 0.444979 0.788355
1.000000 0.779418 0.771724
0.000000 0.892010 0.874226
0.000000 0.896895 0.874967
0.000000 0.907250 0.873266
0.890766 0.902884 0.869042
1.000000 0.857767 0.795595
0.681866 1.000000 0.895332
0.684751 1.000000 0.895368
0.711375 1.000000 0.895028
0.837606 1.000000 0.892081
1.000000 0.997273 0.895726
0.489246 0.783991 0.965237
0.502440 0.783729 0.965234
0.570484 0.782178 0.965207
0.843124 0.787616 0.962376
1.000000 0.799585 0.948996
0.487433 0.786482 0.965099
0.500694 0.786220 0.965096
0.569031 0.784666 0.965071
0.842231 0.789922 0.962258
1.000000 0.801427 0.949690
0.483948 0.800925 0.965675
0.490739 0.800791 0.965674
0.566779 0.799068 0.965651
0.836243 0.805562 0.963518
1.000000 0.812332 0.951476
0.457671 0.881278 0.970689
0.465243 0.881132 0.970688
0.546687 0.879331 0.970679
0.812237 0.878064 0.968010
1.000000 0.879620 0.958924
0.680693 1.000000 0.986748
0.686199 1.000000 0.986753
0.712314 1.000000 0.986111
0.828681 1.000000 0.986331
0.989384 1.000000 0.982649
