Assets/Lutify-Free-LUTs-Pack/Lutify Free LUTs Pack/Film Tone Pro - Film Tone 3/Lutify.me-FilmTone3-ACEScct-to-ACEScct.cube
# Created with: fylm.ai - Colour Grading and Collaboration Software in Cloud 
# Website: https://fylm.ai 
# META
# Option: Gamut compress
# Block 1: subtractiveColour | Blending Mode: Normal | {"sliders":{"gainY":0.6,"C":0.3,"M":0.3,"Y":0.3}}
# Block 2: LUT | Filmic Curve Response: Low Contrast 2 (100%)
# Block 3: logPrimaries | Blending Mode: Normal | {"wheels":{"shadows":{"Y":"0","R":"1","G":"1","B":"1"},"midtones":{"Y":"0","R":"1","G":"1","B":"1"},"highlights":{"Y":"0","R":"1","G":"1","B":"1"},"offset":{"Y":"0","R":"1","G":"1","B":"1"}},"sliders":{"shadows":{"Y":0,"R":-0.026,"G":0.03,"B":0.1},"midtones":{"Y":0,"R":0.024,"G":-0.036,"B":0.036},"highlights":{"Y":0,"R":0,"G":0.044,"B":-0.128},"offset":{"Y":0,"R":0,"G":0,"B":0}}}
# Block 4: hueSaturation | Blending Mode: Normal | {"hue":0,"saturation":-0.1}
TITLE "Lutify.me-FilmTone3-ACEScct-to-ACEScct" 
LUT_3D_SIZE 5
0.033790 0.046106 0.062822
0.191724 0.054480 0.068557
0.454904 0.183056 0.129391
0.666569 0.466862 0.414956
0.945683 0.672955 0.596416
0.044998 0.200717 0.074910
0.239231 0.211079 0.075595
0.460280 0.228022 0.134767
0.666667 0.469599 0.415054
0.945683 0.672955 0.596416
0.164190 0.450994 0.219616
0.238612 0.455034 0.209580
0.493842 0.467449 0.182405
0.671131 0.486380 0.422157
0.945748 0.673900 0.597361
0.461095 0.666080 0.485728
0.463832 0.666178 0.485826
0.497654 0.670968 0.485337
0.699544 0.681069 0.470805
0.949528 0.698794 0.602900
0.661258 0.955099 0.670055
0.661258 0.955099 0.670055
0.662170 0.956892 0.668328
0.695992 0.962561 0.666960
0.984848 0.984848 0.654936
0.037830 0.056305 0.169795
0.194526 0.062561 0.141740
0.456631 0.189182 0.173346
0.666667 0.466960 0.417693
0.945683 0.672955 0.596416
0.046725 0.199804 0.257869
0.229000 0.242196 0.249234
0.462300 0.235321 0.186054
0.666764 0.469697 0.417791
0.945683 0.672955 0.596416
0.166830 0.453633 0.293516
0.234181 0.461160 0.286087
0.494917 0.474682 0.259140
0.671196 0.486445 0.423982
0.945748 0.673900 0.597361
0.461193 0.666178 0.488465
0.463930 0.666276 0.488563
0.497687 0.671000 0.486250
0.699642 0.682046 0.472662
0.949528 0.698794 0.602900
0.661258 0.955099 0.670055
0.661258 0.955099 0.670055
0.662235 0.956957 0.670153
0.695992 0.962561 0.666960
0.984848 0.984848 0.654936
0.120723 0.202542 0.421603
0.186673 0.213946 0.422450
0.464060 0.221245 0.409514
0.666960 0.471652 0.447898
0.945748 0.673021 0.598240
0.122450 0.241219 0.433007
0.190192 0.252656 0.433007
0.469599 0.263734 0.422092
0.666992 0.472564 0.447931
0.945748 0.673021 0.598240
0.149137 0.459694 0.486966
0.218573 0.466667 0.487781
0.493483 0.495243 0.487325
0.672304 0.489312 0.453242
0.945780 0.673933 0.598273
0.462235 0.668980 0.515901
0.464060 0.669045 0.515966
0.498729 0.672043 0.515445
0.698208 0.688530 0.503780
0.949560 0.698827 0.603812
0.661355 0.956957 0.671033
0.661355 0.956957 0.671033
0.662268 0.956989 0.671066
0.696057 0.962626 0.668785
0.984946 0.984946 0.657673
0.426132 0.480678 0.607364
0.429814 0.481720 0.607527
0.465526 0.486641 0.608928
0.670088 0.491496 0.597947
0.944933 0.676605 0.623819
0.426165 0.481590 0.607397
0.429847 0.482633 0.607559
0.465559 0.487553 0.608961
0.671033 0.492441 0.598012
0.944933 0.676605 0.623819
0.427892 0.498273 0.614402
0.430629 0.498371 0.614500
0.469990 0.505181 0.614272
0.674585 0.510948 0.603324
0.944966 0.677517 0.623851
0.449528 0.673868 0.670349
0.453177 0.673998 0.670479
0.490648 0.679798 0.669241
0.690844 0.711958 0.662691
0.948778 0.703324 0.629423
0.659954 0.961714 0.704822
0.659954 0.961714 0.704822
0.662626 0.961747 0.703095
0.693711 0.965559 0.703389
0.984327 0.988726 0.688726
0.629065 0.691528 0.844607
0.629065 0.691528 0.844607
0.630010 0.692473 0.844673
0.664744 0.697296 0.844216
0.944542 0.702607 0.824014
0.629065 0.691528 0.844607
0.629065 0.691528 0.844607
0.630010 0.692473 0.844673
0.664744 0.697296 0.844216
0.944542 0.702607 0.824014
0.629163 0.692506 0.846465
0.629163 0.692506 0.846465
0.631900 0.692603 0.846562
0.664875 0.699185 0.846106
0.944607 0.704431 0.824080
0.631183 0.718280 0.852884
0.631183 0.718280 0.852884
0.633920 0.718377 0.852981
0.666895 0.723200 0.854285
0.950603 0.732421 0.837993
0.656240 0.973835 0.928087
0.656240 0.973835 0.928087
0.658064 0.973900 0.928153
0.692929 0.980613 0.929586
0.972662 0.996416 0.923395
