Assets/Lutify-Free-LUTs-Pack/Lutify Free LUTs Pack/Film Tone Pro - Film Tone 3/Lutify.me-FilmTone3-BolexLog-to-Rec709.cube
# Created with: fylm.ai - Colour Grading and Collaboration Software in Cloud 
# Website: https://fylm.ai 
# META
# Option: Gamut compress
# Block 1: IDT | Bolex Wide Gamut RGB Bolex Log
# Block 2: colourMatch | Blending Mode: Normal | {"ColorSpace":0,"CrossCovarianceLimit":50,"ReshapingIterations":1,"PercentSaturationShift":100,"PercentShadingShift":100,"ExtraShading":true,"PercentTint":100,"PercentModified":100}
# Block 3: subtractiveColour | Blending Mode: Normal | {"sliders":{"gainY":0.6,"C":0.3,"M":0.3,"Y":0.3}}
# Block 4: LUT | Filmic Curve Response: Low Contrast 2 (100%)
# Block 5: logPrimaries | Blending Mode: Normal | {"wheels":{"shadows":{"Y":"0","R":"1","G":"1","B":"1"},"midtones":{"Y":"0","R":"1","G":"1","B":"1"},"highlights":{"Y":"0","R":"1","G":"1","B":"1"},"offset":{"Y":"0","R":"1","G":"1","B":"1"}},"sliders":{"shadows":{"Y":0,"R":-0.026,"G":0.03,"B":0.1},"midtones":{"Y":0,"R":0.024,"G":-0.036,"B":0.036},"highlights":{"Y":0,"R":0,"G":0.044,"B":-0.128},"offset":{"Y":0,"R":0,"G":0,"B":0}}}
# Block 6: hueSaturation | Blending Mode: Normal | {"hue":0,"saturation":-0.1}
# Block 7: ODT | Rec709
TITLE "Lutify.me-FilmTone3-BolexLog-to-Rec709" 
LUT_3D_SIZE 33
0.000000 0.000000 0.000000
0.000000 0.000000 0.000000
0.000000 0.000000 0.000000
0.000000 0.000000 0.000000
0.024226 0.000000 0.000000
0.057857 0.000000 0.000000
0.080039 0.000000 0.000000
0.104123 0.000000 0.000000
0.124843 0.000000 0.000000
0.150693 0.000000 0.000000
0.180051 0.000000 0.000000
0.211998 0.000000 0.000000
0.250741 0.000000 0.000000
0.290663 0.000000 0.000000
0.337882 0.000000 0.000000
0.390336 0.000000 0.000000
0.448120 0.000000 0.000000
0.522312 0.000000 0.000000
0.597898 0.000000 0.006797
0.669844 0.000000 0.025797
0.741752 0.000000 0.049288
0.812537 0.000000 0.069245
0.890013 0.000000 0.093115
0.946636 0.000000 0.124740
0.991185 0.000000 0.154810
1.000000 0.130370 0.200049
1.000000 0.245389 0.249572
1.000000 0.344791 0.297112
1.000000 0.431064 0.348788
1.000000 0.515753 0.412234
1.000000 0.592910 0.480965
1.000000 0.657148 0.537337
1.000000 0.721871 0.592700
0.000000 0.000000 0.000000
0.000000 0.000000 0.000000
0.000000 0.000000 0.000000
0.000000 0.000000 0.000000
0.034397 0.000000 0.000000
0.063624 0.000000 0.000000
0.085187 0.000000 0.000000
0.109236 0.000000 0.000000
0.128555 0.000000 0.000000
0.154490 0.000000 0.000000
0.183607 0.000000 0.000000
0.219206 0.000000 0.000000
0.259474 0.000000 0.000000
0.296794 0.000000 0.000000
0.342976 0.000000 0.000000
0.396751 0.000000 0.000000
0.455528 0.000000 0.000000
0.524180 0.000000 0.000000
0.602604 0.000000 0.000000
0.671164 0.000000 0.026600
0.742663 0.000000 0.050363
0.813121 0.000000 0.068672
0.890329 0.000000 0.092646
0.946664 0.000000 0.124631
0.991222 0.000000 0.156019
1.000000 0.137975 0.199909
1.000000 0.246202 0.250152
1.000000 0.344791 0.297112
1.000000 0.431064 0.348788
1.000000 0.516003 0.417649
1.000000 0.592910 0.480965
1.000000 0.657148 0.537337
1.000000 0.721871 0.592700
0.000000 0.000000 0.000000
0.000000 0.000000 0.000000
0.000000 0.000000 0.000000
0.000000 0.000000 0.000000
0.047766 0.000000 0.000000
0.069956 0.000000 0.000000
0.091935 0.000000 0.000000
0.113754 0.000000 0.000000
0.133134 0.000000 0.000000
0.161052 0.000000 0.000000
0.194489 0.000000 0.000000
0.225547 0.000000 0.000000
0.265565 0.000000 0.000000
0.301378 0.000000 0.000000
0.350828 0.000000 0.000000
0.405806 0.000000 0.000000
0.460176 0.000000 0.000000
0.528923 0.000000 0.000000
0.604167 0.000000 0.000000
0.675743 0.000000 0.026242
0.747013 0.000000 0.049664
0.817584 0.000000 0.069897
0.890797 0.000000 0.094244
0.946814 0.000000 0.125562
0.991141 0.000000 0.155774
1.000000 0.138438 0.203079
1.000000 0.255324 0.249877
1.000000 0.352361 0.296866
1.000000 0.434556 0.348694
1.000000 0.516003 0.417649
1.000000 0.593030 0.483783
1.000000 0.657148 0.537337
1.000000 0.724266 0.592732
0.000000 0.019049 0.000000
0.000000 0.020223 0.000000
0.000000 0.021086 0.000000
0.000000 0.026651 0.000000
0.049453 0.014617 0.000000
0.075551 0.000000 0.000000
0.100829 0.000000 0.000000
0.121746 0.000000 0.000000
0.142901 0.000000 0.000000
0.170475 0.000000 0.000000
0.201603 0.000000 0.000000
0.235355 0.000000 0.000000
0.275393 0.000000 0.000000
0.310020 0.000000 0.000000
0.356422 0.000000 0.000000
0.410191 0.000000 0.000000
0.464993 0.000000 0.000000
0.533560 0.000000 0.000000
0.609158 0.000000 0.000000
0.677332 0.000000 0.028900
0.747656 0.000000 0.049967
0.818040 0.000000 0.069352
0.894451 0.000000 0.096066
0.946884 0.000000 0.125210
0.993269 0.000000 0.155596
1.000000 0.152376 0.202799
1.000000 0.255324 0.249877
1.000000 0.352361 0.296866
1.000000 0.434816 0.353724
1.000000 0.525902 0.417453
1.000000 0.593030 0.483783
1.000000 0.660033 0.537320
1.000000 0.724266 0.592732
0.000000 0.047008 0.000000
0.000000 0.048055 0.000000
0.000000 0.049662 0.000000
0.000000 0.051635 0.000000
0.047055 0.051345 0.000000
0.073248 0.045069 0.000000
0.100900 0.036545 0.000000
0.127715 0.020032 0.000000
0.154059 0.000000 0.000000
0.183148 0.000000 0.000000
0.213795 0.000000 0.000000
0.244634 0.000000 0.000000
0.283503 0.000000 0.000000
0.320825 0.000000 0.000000
0.367177 0.000000 0.000000
0.417112 0.000000 0.000000
0.469417 0.000000 0.000000
0.538601 0.000000 0.000000
0.610603 0.000000 0.000000
0.682313 0.000000 0.029034
0.748558 0.000000 0.050942
0.818765 0.000000 0.070558
0.894736 0.000000 0.095535
0.947021 0.000000 0.126136
0.993218 0.000000 0.155458
1.000000 0.158868 0.202653
1.000000 0.259807 0.249734
1.000000 0.352361 0.296866
1.000000 0.435424 0.354143
1.000000 0.525902 0.417453
1.000000 0.596199 0.483737
1.000000 0.660033 0.537320
1.000000 0.724266 0.592732
0.000000 0.062537 0.000000
0.000000 0.063775 0.000000
0.000000 0.066109 0.000000
0.000000 0.069014 0.000000
0.029176 0.072687 0.000000
0.073377 0.069727 0.000000
0.106564 0.060167 0.000000
0.134056 0.050744 0.000000
0.162198 0.034817 0.000000
0.195210 0.000000 0.000000
0.227378 0.000000 0.000000
0.262100 0.000000 0.000000
0.291011 0.000000 0.000000
0.326855 0.000000 0.000000
0.378407 0.000000 0.000000
0.421545 0.000000 0.000000
0.477124 0.000000 0.000000
0.547089 0.000000 0.000000
0.618659 0.000000 0.000000
0.683236 0.000000 0.028679
0.752900 0.000000 0.050053
0.819101 0.000000 0.070091
0.894944 0.000000 0.095103
0.947040 0.000000 0.126010
0.993257 0.000000 0.157886
1.000000 0.171090 0.202603
1.000000 0.260119 0.253490
1.000000 0.356262 0.298924
1.000000 0.438906 0.354052
1.000000 0.525902 0.417453
1.000000 0.596199 0.483737
1.000000 0.660033 0.537320
1.000000 0.724266 0.592732
0.000000 0.079427 0.000000
0.000000 0.079534 0.000000
0.000000 0.083676 0.000000
0.000000 0.087303 0.000000
0.000000 0.092171 0.000000
0.063141 0.092282 0.000000
0.106613 0.085116 0.000000
0.134432 0.078461 0.000000
0.171177 0.066773 0.000000
0.206946 0.046780 0.000000
0.238449 0.000000 0.000000
0.273308 0.000000 0.000000
0.300902 0.000000 0.000000
0.339684 0.000000 0.000000
0.387765 0.000000 0.000000
0.434078 0.000000 0.000000
0.482285 0.000000 0.000000
0.549155 0.000000 0.000000
0.623825 0.000000 0.000000
0.691759 0.000000 0.028469
0.753918 0.000000 0.050749
0.823531 0.000000 0.071264
0.895310 0.000000 0.096857
0.949842 0.000000 0.125632
0.993200 0.000000 0.157744
1.000000 0.171473 0.205828
1.000000 0.268929 0.253208
1.000000 0.356262 0.298924
1.000000 0.438906 0.354052
1.000000 0.529200 0.417386
1.000000 0.596199 0.483737
1.000000 0.660033 0.537320
1.000000 0.724266 0.592732
0.000000 0.099264 0.000000
0.000000 0.099459 0.000000
0.000000 0.103769 0.000000
0.000000 0.108136 0.000000
0.000000 0.112512 0.000000
0.040914 0.113240 0.000000
0.102846 0.112684 0.000000
0.141012 0.108279 0.000000
0.176353 0.096895 0.000000
0.218017 0.080661 0.000000
0.252091 0.064499 0.000000
0.286190 0.037471 0.000000
0.319186 0.000000 0.000000
0.352169 0.000000 0.000000
0.401454 0.000000 0.000000
0.448532 0.000000 0.000000
0.494112 0.000000 0.000000
0.558392 0.000000 0.000000
0.629278 0.000000 0.000000
0.692945 0.000000 0.028659
0.758251 0.000000 0.049648
0.824557 0.000000 0.071888
0.898791 0.000000 0.096320
0.949853 0.000000 0.125490
0.995397 0.000000 0.161499
1.000000 0.182959 0.205520
1.000000 0.273671 0.253360
1.000000 0.360011 0.298799
1.000000 0.445855 0.353868
1.000000 0.529852 0.417853
1.000000 0.596199 0.483737
1.000000 0.660033 0.537320
1.000000 0.724266 0.592732
0.000000 0.122741 0.000000
0.000000 0.126900 0.000000
0.000000 0.132381 0.000000
0.000000 0.135928 0.000000
0.000000 0.143729 0.000000
0.000000 0.147136 0.000000
0.074139 0.147565 0.000000
0.130913 0.146923 0.000000
0.183377 0.135302 0.000000
0.225003 0.121159 0.000000
0.265876 0.107423 0.000000
0.296462 0.093296 0.000000
0.335466 0.068557 0.000000
0.372672 0.000000 0.000000
0.411944 0.000000 0.000000
0.459621 0.000000 0.000000
0.507583 0.000000 0.000000
0.572126 0.000000 0.000000
0.638752 0.000000 0.000000
0.698197 0.000000 0.027129
0.759744 0.000000 0.049142
0.829265 0.000000 0.073603
0.899430 0.000000 0.098646
0.950165 0.000000 0.128374
0.995319 0.000000 0.163837
1.000000 0.193845 0.205197
1.000000 0.277959 0.253212
1.000000 0.367470 0.298543
1.000000 0.445855 0.353868
1.000000 0.529852 0.417853
1.000000 0.599369 0.483691
1.000000 0.665764 0.537288
1.000000 0.729101 0.595627
0.000000 0.154034 0.000000
0.000000 0.158144 0.000000
0.000000 0.165346 0.000000
0.000000 0.169703 0.000000
0.000000 0.176644 0.000000
0.000000 0.180771 0.000000
0.000000 0.181801 0.000000
0.105075 0.182064 0.000000
0.176498 0.181902 0.000000
0.227326 0.168752 0.000000
0.277353 0.151992 0.000000
0.310367 0.141151 0.000000
0.348728 0.125844 0.000000
0.387999 0.104752 0.000000
0.436996 0.059680 0.000000
0.478083 0.000000 0.000000
0.533282 0.000000 0.000000
0.586525 0.000000 0.000000
0.652574 0.000000 0.000000
0.708435 0.000000 0.024771
0.769155 0.000000 0.050786
0.830697 0.000000 0.075629
0.906257 0.000000 0.100103
0.950348 0.000000 0.130215
0.997249 0.052846 0.166077
1.000000 0.209786 0.208483
1.000000 0.286568 0.254820
1.000000 0.371964 0.303192
1.000000 0.445855 0.353868
1.000000 0.533266 0.420508
1.000000 0.599369 0.483691
1.000000 0.665764 0.537288
1.000000 0.729101 0.595627
0.000000 0.186540 0.000000
0.000000 0.190109 0.000000
0.000000 0.198791 0.000000
0.000000 0.203808 0.000000
0.000000 0.210196 0.000000
0.000000 0.214708 0.000000
0.000000 0.215620 0.000000
0.028105 0.215907 0.000000
0.159358 0.214672 0.000000
0.225825 0.215106 0.000000
0.280224 0.199861 0.000000
0.321875 0.184113 0.000000
0.363233 0.173512 0.000000
0.408826 0.156876 0.000000
0.458369 0.135208 0.000000
0.500784 0.106230 0.000000
0.550178 0.051432 0.000000
0.602669 0.000000 0.000000
0.668003 0.000000 0.000000
0.718530 0.000000 0.014565
0.774917 0.000000 0.048876
0.839310 0.000000 0.077594
0.906948 0.000000 0.101850
0.953118 0.000000 0.131519
0.996998 0.107794 0.168263
1.000000 0.219821 0.209792
1.000000 0.303469 0.254493
1.000000 0.379341 0.302935
1.000000 0.453506 0.356654
1.000000 0.539843 0.420373
1.000000 0.603897 0.484616
1.000000 0.665764 0.537288
1.000000 0.729101 0.595627
0.000000 0.224860 0.000000
0.000000 0.230855 0.000000
0.000000 0.240266 0.000000
0.000000 0.245256 0.000000
0.000000 0.246971 0.000000
0.000000 0.253309 0.000000
0.000000 0.254559 0.000000
0.000000 0.255434 0.000000
0.120697 0.255388 0.000000
0.199961 0.255923 0.000000
0.268833 0.258934 0.000000
0.331419 0.237582 0.000000
0.380348 0.223423 0.000000
0.423905 0.208536 0.000000
0.477215 0.188134 0.000000
0.521060 0.171044 0.000000
0.570865 0.148805 0.000000
0.623400 0.116964 0.000000
0.684412 0.000000 0.000000
0.736625 0.000000 0.000000
0.788289 0.000000 0.047992
0.847762 0.000000 0.077752
0.910790 0.000000 0.104554
0.960860 0.000000 0.133035
1.000000 0.152296 0.170492
1.000000 0.234386 0.211174
1.000000 0.315682 0.255937
1.000000 0.390598 0.307043
1.000000 0.460412 0.356464
1.000000 0.543131 0.420303
1.000000 0.607053 0.484570
1.000000 0.668610 0.537273
1.000000 0.731451 0.595665
0.000000 0.266716 0.000000
0.000000 0.273706 0.000000
0.000000 0.280819 0.000000
0.000000 0.284303 0.000000
0.000000 0.286141 0.000000
0.000000 0.291340 0.000000
0.000000 0.296556 0.000000
0.000000 0.297861 0.000000
0.000000 0.298677 0.000000
0.141943 0.300682 0.000000
0.233380 0.301587 0.000000
0.319651 0.298374 0.000000
0.380869 0.281048 0.000000
0.434832 0.265290 0.000000
0.488868 0.248735 0.000000
0.541969 0.235640 0.000000
0.588844 0.217281 0.000000
0.637443 0.200838 0.000000
0.697983 0.164768 0.000000
0.753105 0.121761 0.000000
0.802590 0.000000 0.043335
0.863269 0.000000 0.078802
0.917697 0.000000 0.108677
0.963102 0.110666 0.135999
1.000000 0.192370 0.173729
1.000000 0.253149 0.214047
1.000000 0.335993 0.259319
1.000000 0.401985 0.306998
1.000000 0.467560 0.361441
1.000000 0.546540 0.422969
1.000000 0.613365 0.484475
1.000000 0.671442 0.537261
1.000000 0.733786 0.595706
0.000000 0.317052 0.000000
0.000000 0.327385 0.000000
0.000000 0.331072 0.000000
0.000000 0.337377 0.000000
0.000000 0.338935 0.000000
0.000000 0.340513 0.000000
0.000000 0.344126 0.000000
0.000000 0.352863 0.000000
0.000000 0.354201 0.000000
0.000000 0.354813 0.000000
0.166125 0.357312 0.000000
0.277360 0.353526 0.000000
0.364735 0.358900 0.000000
0.442344 0.336054 0.000000
0.511720 0.312753 0.000000
0.566619 0.300969 0.000000
0.609419 0.289623 0.000000
0.658825 0.274205 0.000000
0.715036 0.252376 0.000000
0.766337 0.234955 0.000000
0.818133 0.199637 0.000000
0.872389 0.153264 0.081309
0.926647 0.140773 0.108585
0.967274 0.179540 0.137423
1.000000 0.226771 0.176910
1.000000 0.288067 0.215783
1.000000 0.351639 0.262615
1.000000 0.420584 0.308950
1.000000 0.482415 0.361926
1.000000 0.553109 0.422830
1.000000 0.616758 0.490082
1.000000 0.674260 0.537250
1.000000 0.738495 0.598622
0.000000 0.379136 0.000000
0.000000 0.383175 0.000000
0.000000 0.390090 0.000000
0.000000 0.393937 0.000000
0.000000 0.395702 0.000000
0.000000 0.397156 0.000000
0.000000 0.401463 0.000000
0.000000 0.405507 0.000000
0.000000 0.412484 0.000000
0.000000 0.416776 0.000000
0.000000 0.420674 0.000000
0.185784 0.421126 0.000000
0.308549 0.420076 0.000000
0.419800 0.417254 0.000000
0.506814 0.397815 0.000000
0.573106 0.379114 0.000000
0.624350 0.367680 0.000000
0.674180 0.356853 0.000000
0.731260 0.340222 0.000000
0.784816 0.319872 0.000000
0.832251 0.300026 0.000000
0.885683 0.264958 0.065538
0.928967 0.236225 0.111031
0.970868 0.236010 0.142510
1.000000 0.275207 0.175557
1.000000 0.325076 0.219236
1.000000 0.378738 0.267784
1.000000 0.436039 0.313763
1.000000 0.496744 0.364600
1.000000 0.567077 0.428515
1.000000 0.623068 0.489988
1.000000 0.677065 0.537240
1.000000 0.740783 0.598669
0.000000 0.436198 0.000000
0.000000 0.440576 0.000000
0.000000 0.448133 0.000000
0.000000 0.452002 0.000000
0.000000 0.456168 0.000000
0.000000 0.457007 0.000000
0.000000 0.464131 0.000000
0.000000 0.468456 0.000000
0.000000 0.470007 0.000000
0.000000 0.471429 0.000000
0.000000 0.475398 0.000000
0.000000 0.488099 0.000000
0.244333 0.478717 0.000000
0.367046 0.486792 0.000000
0.482923 0.483686 0.000000
0.566837 0.460371 0.000000
0.628169 0.445349 0.000000
0.686545 0.427561 0.000000
0.743848 0.412409 0.000000
0.794461 0.400404 0.000000
0.845945 0.385710 0.000000
0.890594 0.367718 0.052180
0.936564 0.337100 0.106976
0.969674 0.322851 0.149442
1.000000 0.332288 0.179243
1.000000 0.364416 0.226160
1.000000 0.405620 0.273397
1.000000 0.458202 0.322803
1.000000 0.517770 0.367083
1.000000 0.573745 0.431138
1.000000 0.630135 0.493219
1.000000 0.686009 0.537759
1.000000 0.745312 0.598770
0.000000 0.508235 0.000000
0.000000 0.509152 0.000000
0.000000 0.516313 0.000000
0.000000 0.520353 0.000000
0.000000 0.521442 0.000000
0.000000 0.525228 0.000000
0.000000 0.529184 0.000000
0.000000 0.530498 0.000000
0.000000 0.534291 0.000000
0.000000 0.535491 0.000000
0.000000 0.536673 0.000000
0.000000 0.543735 0.000000
0.090610 0.546523 0.000000
0.316430 0.542660 0.000000
0.436839 0.544090 0.000000
0.550889 0.541069 0.000000
0.624817 0.527306 0.000000
0.695596 0.510891 0.000000
0.755169 0.489401 0.000000
0.804834 0.475727 0.000000
0.851493 0.462188 0.000000
0.896019 0.448676 0.000000
0.936354 0.428655 0.105332
0.972136 0.412634 0.149203
1.000000 0.401357 0.192469
1.000000 0.409892 0.234792
1.000000 0.442390 0.282318
1.000000 0.486993 0.329391
1.000000 0.538415 0.374472
1.000000 0.588217 0.437339
1.000000 0.639626 0.495932
1.000000 0.694280 0.540601
1.000000 0.750456 0.605123
0.000000 0.576185 0.000000
0.000000 0.576863 0.000000
0.000000 0.580673 0.000000
0.000000 0.581135 0.000000
0.000000 0.584893 0.000000
0.000000 0.585738 0.000000
0.000000 0.589277 0.000000
0.000000 0.590157 0.000000
0.000000 0.591227 0.000000
0.000000 0.592174 0.000000
0.000000 0.596160 0.000000
0.000000 0.599693 0.000000
0.000000 0.606417 0.000000
0.249917 0.609416 0.000000
0.379413 0.608337 0.000000
0.501202 0.609300 0.000000
0.603253 0.606375 0.000000
0.686569 0.595353 0.000000
0.759919 0.572587 0.000000
0.811227 0.558287 0.000000
0.858728 0.545776 0.000000
0.900468 0.536306 0.000000
0.934673 0.524318 0.089468
0.966970 0.506469 0.154174
0.998140 0.491984 0.189720
1.000000 0.479594 0.242347
1.000000 0.496258 0.286276
1.000000 0.525708 0.333179
1.000000 0.562820 0.382295
1.000000 0.607980 0.442506
1.000000 0.655187 0.501456
1.000000 0.705155 0.546332
1.000000 0.759141 0.605376
0.000000 0.644905 0.000000
0.000000 0.645577 0.000000
0.000000 0.649067 0.000000
0.000000 0.649528 0.000000
0.000000 0.649750 0.000000
0.000000 0.653355 0.000000
0.000000 0.653557 0.000000
0.000000 0.657247 0.000000
0.000000 0.657758 0.000000
0.000000 0.658591 0.000000
0.000000 0.659349 0.000000
0.000000 0.663257 0.000000
0.000000 0.669922 0.000000
0.168053 0.672487 0.000000
0.321988 0.675211 0.000000
0.439869 0.674254 0.000000
0.559271 0.671767 0.000000
0.661776 0.668320 0.000000
0.747658 0.661264 0.000000
0.806713 0.642907 0.000000
0.859870 0.622460 0.000000
0.899168 0.609943 0.000000
0.934299 0.598303 0.088800
0.962705 0.584336 0.159026
0.989483 0.577620 0.204256
1.000000 0.568754 0.253047
1.000000 0.557058 0.302490
1.000000 0.564766 0.337863
1.000000 0.590866 0.390556
1.000000 0.628221 0.448179
1.000000 0.673719 0.504642
1.000000 0.719256 0.550353
1.000000 0.765551 0.608429
0.000000 0.706845 0.000000
0.000000 0.706877 0.000000
0.000000 0.713677 0.000000
0.000000 0.713919 0.000000
0.000000 0.714233 0.000000
0.000000 0.714465 0.000000
0.000000 0.717838 0.000000
0.000000 0.718140 0.000000
0.000000 0.721497 0.000000
0.000000 0.721839 0.000000
0.000000 0.725317 0.000000
0.000000 0.725646 0.000000
0.000000 0.726007 0.000000
0.000000 0.728577 0.000000
0.282189 0.730375 0.000000
0.410861 0.732291 0.000000
0.514864 0.730870 0.000000
0.629513 0.730359 0.000000
0.722823 0.730054 0.000000
0.796460 0.721193 0.000000
0.850091 0.704272 0.000000
0.890512 0.682649 0.000000
0.928061 0.674962 0.112783
0.956828 0.664121 0.162957
0.983047 0.651070 0.214428
1.000000 0.642343 0.271716
1.000000 0.630538 0.317293
1.000000 0.616965 0.352626
1.000000 0.625162 0.395957
1.000000 0.663938 0.459347
1.000000 0.694861 0.508403
1.000000 0.734821 0.556807
1.000000 0.774668 0.612752
0.000000 0.760432 0.101721
0.000000 0.760606 0.102249
0.000000 0.760630 0.091571
0.000000 0.766338 0.087692
0.000000 0.766489 0.088342
0.000000 0.766631 0.088993
0.000000 0.766669 0.083008
0.000000 0.769621 0.081739
0.000000 0.769577 0.066774
0.000000 0.772359 0.041522
0.000000 0.772445 0.025871
0.000000 0.775047 0.000000
0.000000 0.774901 0.000000
0.000000 0.774593 0.000000
0.217401 0.776447 0.000000
0.355993 0.777963 0.000000
0.479925 0.778790 0.000000
0.611489 0.775817 0.000000
0.698938 0.775408 0.000000
0.775091 0.777593 0.000000
0.834110 0.770244 0.000000
0.877654 0.753355 0.041059
0.924189 0.731195 0.125278
0.949484 0.727529 0.190299
0.973092 0.721236 0.231253
0.994104 0.713222 0.284217
1.000000 0.702242 0.328946
1.000000 0.695542 0.373259
1.000000 0.683793 0.412250
1.000000 0.700407 0.465660
1.000000 0.725307 0.520549
1.000000 0.753886 0.565830
1.000000 0.784481 0.616067
0.000000 0.813087 0.185074
0.000000 0.813110 0.185218
0.000000 0.813170 0.185651
0.000000 0.813204 0.185941
0.000000 0.815573 0.185916
0.000000 0.815607 0.186359
0.000000 0.815616 0.186507
0.000000 0.815638 0.187102
0.000000 0.817860 0.183988
0.000000 0.817678 0.177328
0.000000 0.817447 0.170846
0.000000 0.819465 0.168076
0.000000 0.821252 0.161603
0.000000 0.820667 0.163879
0.176738 0.819945 0.166048
0.350675 0.822946 0.164849
0.462427 0.823161 0.152142
0.572287 0.822691 0.148629
0.667660 0.819947 0.158455
0.749991 0.816872 0.153434
0.819290 0.814218 0.158525
0.866723 0.812432 0.163660
0.908427 0.798515 0.176586
0.940736 0.785557 0.222837
0.962322 0.779868 0.263927
0.982340 0.772736 0.315883
1.000000 0.765856 0.359550
1.000000 0.757050 0.395191
1.000000 0.751628 0.437080
1.000000 0.746816 0.484297
1.000000 0.755493 0.530317
1.000000 0.774138 0.575713
1.000000 0.798156 0.625920
0.000000 0.852874 0.261428
0.000000 0.852856 0.261576
0.000000 0.852798 0.262021
0.000000 0.852753 0.262319
0.000000 0.852729 0.262469
0.000000 0.852677 0.262768
0.000000 0.852649 0.262919
0.000000 0.856461 0.263364
0.000000 0.856365 0.263822
0.000000 0.856221 0.264438
0.000000 0.857890 0.261946
0.000000 0.857493 0.259771
0.000000 0.858968 0.257640
0.000000 0.860048 0.249447
0.188072 0.859152 0.251382
0.359449 0.857759 0.253963
0.466712 0.857749 0.247075
0.561365 0.857286 0.240663
0.648362 0.854702 0.237933
0.729017 0.851994 0.242908
0.800297 0.849261 0.242898
0.850371 0.850813 0.244047
0.895864 0.849108 0.249424
0.928807 0.837588 0.263912
0.953887 0.826929 0.310677
0.973492 0.822202 0.351360
0.992548 0.814052 0.388227
1.000000 0.806302 0.422685
1.000000 0.801293 0.464092
1.000000 0.799008 0.509174
1.000000 0.791185 0.547993
1.000000 0.797079 0.587208
1.000000 0.813249 0.633759
0.000000 0.883902 0.337756
0.000000 0.883853 0.337909
0.000000 0.883802 0.338063
0.000000 0.883802 0.338063
0.000000 0.883697 0.338372
0.000000 0.883642 0.338527
0.000000 0.883587 0.338682
0.000000 0.883472 0.338993
0.000000 0.883352 0.339306
0.000000 0.886421 0.340488
0.000000 0.886146 0.341123
0.000000 0.885832 0.335146
0.000000 0.886827 0.333446
0.000000 0.887832 0.331623
0.284857 0.888196 0.327505
0.400716 0.888334 0.330120
0.489312 0.888246 0.332852
0.565753 0.886354 0.328902
0.641320 0.884055 0.322440
0.705224 0.881896 0.322670
0.782616 0.879104 0.331528
0.834730 0.878485 0.331491
0.877304 0.881011 0.330500
0.917078 0.875244 0.336864
0.943836 0.867176 0.350007
0.964409 0.857986 0.382216
0.984787 0.854012 0.422912
1.000000 0.847180 0.454041
1.000000 0.839133 0.488252
1.000000 0.836634 0.532268
1.000000 0.834407 0.573389
1.000000 0.825285 0.605458
1.000000 0.831131 0.648277
0.000000 0.910566 0.424412
0.000000 0.910484 0.424563
0.000000 0.910484 0.424563
0.000000 0.910317 0.424866
0.000000 0.910231 0.425018
0.000000 0.910231 0.425018
0.000000 0.910144 0.425170
0.000000 0.910056 0.425322
0.000000 0.909875 0.425628
0.000000 0.909689 0.425935
0.000000 0.910721 0.426850
0.034503 0.910246 0.421185
0.229841 0.909565 0.418998
0.308128 0.910135 0.417311
0.385122 0.911642 0.416505
0.464687 0.910223 0.415109
0.525848 0.910104 0.417227
0.585104 0.909705 0.413438
0.646194 0.910212 0.413846
0.707735 0.908077 0.413781
0.765743 0.905843 0.411480
0.824946 0.903477 0.416779
0.868680 0.902816 0.419803
0.902018 0.903676 0.415179
0.934264 0.900147 0.421467
0.957054 0.891120 0.429163
0.976860 0.883578 0.458162
0.994331 0.878851 0.486240
1.000000 0.874686 0.522991
1.000000 0.868327 0.563303
1.000000 0.866114 0.595491
1.000000 0.861981 0.629146
1.000000 0.858608 0.660606
0.158328 0.930577 0.489605
0.203459 0.930348 0.489909
0.203459 0.930348 0.489909
0.221711 0.930231 0.490061
0.238199 0.930113 0.490214
0.238199 0.930113 0.490214
0.253346 0.929994 0.490367
0.280651 0.929752 0.490674
0.293150 0.929628 0.490829
0.305037 0.929504 0.490983
0.327293 0.929251 0.491293
0.367245 0.928729 0.491918
0.393842 0.929420 0.492914
0.435082 0.928718 0.493710
0.479506 0.928872 0.489051
0.520175 0.927932 0.486973
0.561933 0.929998 0.480695
0.610745 0.929668 0.482891
0.663078 0.929055 0.485544
0.712285 0.928351 0.485519
