Assets/Lutify-Free-LUTs-Pack/Lutify Free LUTs Pack/Film Tone Pro - Film Tone 3/Lutify.me-FilmTone3-FLog-to-Rec709.cube
# Created with: fylm.ai - Colour Grading and Collaboration Software in Cloud 
# Website: https://fylm.ai 
# META
# Option: Gamut compress
# Block 1: IDT | Fujifilm F-Gamut F-Log
# Block 2: colourMatch | Blending Mode: Normal | {"ColorSpace":0,"CrossCovarianceLimit":50,"ReshapingIterations":1,"PercentSaturationShift":100,"PercentShadingShift":100,"ExtraShading":true,"PercentTint":100,"PercentModified":100}
# Block 3: subtractiveColour | Blending Mode: Normal | {"sliders":{"gainY":0.6,"C":0.3,"M":0.3,"Y":0.3}}
# Block 4: LUT | Filmic Curve Response: Low Contrast 2 (100%)
# Block 5: logPrimaries | Blending Mode: Normal | {"wheels":{"shadows":{"Y":"0","R":"1","G":"1","B":"1"},"midtones":{"Y":"0","R":"1","G":"1","B":"1"},"highlights":{"Y":"0","R":"1","G":"1","B":"1"},"offset":{"Y":"0","R":"1","G":"1","B":"1"}},"sliders":{"shadows":{"Y":0,"R":-0.026,"G":0.03,"B":0.1},"midtones":{"Y":0,"R":0.024,"G":-0.036,"B":0.036},"highlights":{"Y":0,"R":0,"G":0.044,"B":-0.128},"offset":{"Y":0,"R":0,"G":0,"B":0}}}
# Block 6: hueSaturation | Blending Mode: Normal | {"hue":0,"saturation":-0.1}
# Block 7: ODT | Rec709
TITLE "Lutify.me-FilmTone3-FLog-to-Rec709" 
LUT_3D_SIZE 9
0.000000 0.000000 0.000000
0.000000 0.000000 0.000000
0.112646 0.000000 0.000000
0.221792 0.000000 0.000000
0.377831 0.000000 0.000000
0.599187 0.000000 0.000000
0.837199 0.000000 0.070536
1.000000 0.060677 0.170376
1.000000 0.427473 0.334441
0.000000 0.000000 0.000000
0.000000 0.000000 0.000000
0.121669 0.000000 0.000000
0.238046 0.000000 0.000000
0.393297 0.000000 0.000000
0.609420 0.000000 0.000000
0.838412 0.000000 0.070918
1.000000 0.102389 0.172770
1.000000 0.430993 0.334330
0.000000 0.088390 0.000000
0.000000 0.094781 0.000000
0.139153 0.095277 0.000000
0.285029 0.000000 0.000000
0.427390 0.000000 0.000000
0.629159 0.000000 0.000000
0.844416 0.000000 0.074793
1.000000 0.150491 0.176352
1.000000 0.441526 0.333986
0.000000 0.192881 0.000000
0.000000 0.206979 0.000000
0.000000 0.232968 0.000000
0.324376 0.203888 0.000000
0.492239 0.153456 0.000000
0.670823 0.000000 0.000000
0.862099 0.000000 0.079533
1.000000 0.206919 0.179297
1.000000 0.456164 0.336365
0.000000 0.351429 0.000000
0.000000 0.363354 0.000000
0.000000 0.387343 0.000000
0.105726 0.414457 0.000000
0.529221 0.380493 0.000000
0.723399 0.340051 0.000000
0.891776 0.267568 0.064428
1.000000 0.313337 0.185929
1.000000 0.496096 0.343761
0.000000 0.567994 0.000000
0.000000 0.574515 0.000000
0.000000 0.582654 0.000000
0.000000 0.605153 0.000000
0.346746 0.625396 0.000000
0.736531 0.595710 0.000000
0.902791 0.560406 0.000000
1.000000 0.529080 0.201671
1.000000 0.569735 0.360800
0.000000 0.773579 0.147482
0.000000 0.774650 0.149056
0.000000 0.776150 0.143963
0.000000 0.783527 0.130709
0.000000 0.796283 0.083820
0.606729 0.796296 0.063071
0.867710 0.784282 0.024019
0.975001 0.749916 0.248684
1.000000 0.733365 0.401586
0.000000 0.898729 0.394719
0.000000 0.898720 0.395132
0.000000 0.901663 0.397120
0.000000 0.901136 0.389928
0.000000 0.902439 0.382429
0.489424 0.901532 0.375205
0.794210 0.895740 0.373290
0.940432 0.888494 0.373831
1.000000 0.869536 0.483584
0.000000 0.965898 0.606385
0.000000 0.965793 0.603499
0.000000 0.967006 0.605233
0.000000 0.966300 0.606194
0.253662 0.966740 0.598332
0.511780 0.962688 0.599616
0.740783 0.959950 0.594813
0.887511 0.955125 0.604446
0.982407 0.951041 0.604583
0.000000 0.000000 0.000000
0.000000 0.000000 0.000000
0.111720 0.000000 0.000000
0.215421 0.000000 0.000000
0.380425 0.000000 0.000000
0.605778 0.000000 0.031724
0.839636 0.000000 0.084765
1.000000 0.064148 0.179139
1.000000 0.427604 0.336874
0.000000 0.000000 0.017843
0.000000 0.000000 0.014319
0.118997 0.000000 0.000000
0.231505 0.000000 0.000000
0.396510 0.000000 0.000000
0.612839 0.000000 0.031555
0.840712 0.000000 0.085660
1.000000 0.113153 0.178504
1.000000 0.431124 0.336765
0.000000 0.089626 0.014641
0.000000 0.097320 0.000000
0.128200 0.103689 0.000000
0.281452 0.020865 0.000000
0.420768 0.000000 0.012795
0.629742 0.000000 0.035341
0.846164 0.000000 0.087505
1.000000 0.157732 0.182212
1.000000 0.441787 0.338888
0.000000 0.196127 0.000000
0.000000 0.211306 0.000000
0.000000 0.240296 0.000000
0.303240 0.227671 0.000000
0.490483 0.161414 0.000000
0.674579 0.000000 0.000000
0.863459 0.000000 0.091578
1.000000 0.217684 0.188268
1.000000 0.456294 0.338835
0.000000 0.357686 0.000000
0.000000 0.372207 0.000000
0.000000 0.401324 0.000000
0.000000 0.426672 0.000000
0.523290 0.405056 0.000000
0.726555 0.343233 0.000000
0.892937 0.280650 0.092576
1.000000 0.322228 0.197358
1.000000 0.496225 0.346308
0.000000 0.571408 0.000000
0.000000 0.581264 0.000000
0.000000 0.589293 0.000000
0.000000 0.615062 0.000000
0.336962 0.629198 0.000000
0.734555 0.606991 0.000000
0.903214 0.561758 0.000000
1.000000 0.533490 0.216687
1.000000 0.569861 0.363498
0.000000 0.774631 0.186865
0.000000 0.775697 0.188281
0.000000 0.779807 0.180000
0.000000 0.784438 0.170016
0.000000 0.797291 0.141519
0.607821 0.797051 0.127542
0.861979 0.787461 0.101179
0.974882 0.750389 0.262828
1.000000 0.736202 0.407329
0.000000 0.898957 0.410764
0.000000 0.898852 0.404894
0.000000 0.901795 0.406721
0.000000 0.901341 0.402566
0.000000 0.902668 0.394988
0.489695 0.901674 0.387712
0.794270 0.895915 0.388440
0.940348 0.888644 0.385230
1.000000 0.869582 0.486432
0.000000 0.965912 0.609408
0.000000 0.965821 0.609544
0.000000 0.967032 0.611254
0.000000 0.966313 0.609201
0.253336 0.966773 0.607269
0.512016 0.963456 0.603222
0.740747 0.959961 0.597689
0.887448 0.955137 0.607236
0.981356 0.951112 0.611892
0.000000 0.000000 0.062243
0.000000 0.000000 0.057035
0.100638 0.000000 0.046725
0.218591 0.000000 0.041908
0.386641 0.000000 0.046477
0.611870 0.000000 0.059356
0.843640 0.000000 0.110244
1.000000 0.107264 0.193616
1.000000 0.427734 0.339321
0.000000 0.000000 0.081724
0.000000 0.000000 0.076853
0.106978 0.000000 0.065932
0.236993 0.000000 0.057140
0.403962 0.000000 0.052551
0.619173 0.000000 0.063367
0.844835 0.000000 0.111527
1.000000 0.132820 0.198128
1.000000 0.431255 0.339215
0.000000 0.089362 0.143297
0.000000 0.101695 0.136911
0.105881 0.121118 0.129913
0.279152 0.059894 0.091730
0.429547 0.000000 0.064385
0.636207 0.000000 0.068417
0.849783 0.000000 0.112434
1.000000 0.172642 0.203668
1.000000 0.442047 0.343850
0.000000 0.211410 0.164997
0.000000 0.231849 0.146849
0.000000 0.257784 0.129343
0.283778 0.271584 0.108176
0.493732 0.180820 0.072843
0.674487 0.000000 0.080710
0.866556 0.000000 0.117910
1.000000 0.224343 0.207643
1.000000 0.456683 0.346334
0.000000 0.376749 0.133765
0.000000 0.389579 0.124027
0.000000 0.411462 0.097648
0.000000 0.443369 0.060846
0.513221 0.435777 0.000000
0.731697 0.352687 0.056161
0.894408 0.290612 0.126686
1.000000 0.327257 0.211252
1.000000 0.496610 0.354039
0.000000 0.576744 0.138409
0.000000 0.586173 0.135076
0.000000 0.601113 0.113952
0.000000 0.620722 0.072961
0.324193 0.638075 0.000000
0.724322 0.623832 0.000000
0.903917 0.564607 0.126115
1.000000 0.538287 0.238821
1.000000 0.570240 0.371629
0.000000 0.776332 0.244240
0.000000 0.777389 0.245617
0.000000 0.784006 0.237788
0.000000 0.785880 0.223447
0.000000 0.801152 0.203608
0.601442 0.803092 0.189346
0.862712 0.788916 0.180599
0.974555 0.751426 0.294183
1.000000 0.736588 0.418814
0.000000 0.899229 0.430030
0.000000 0.899213 0.430570
0.000000 0.902099 0.429135
0.000000 0.903072 0.422110
0.000000 0.902991 0.420414
0.490158 0.901955 0.412732
0.790758 0.897565 0.409947
0.940175 0.888903 0.405270
1.000000 0.869718 0.495003
0.000000 0.965966 0.621521
0.000000 0.965874 0.621655
0.000000 0.967082 0.623320
0.000000 0.966362 0.621250
0.253095 0.966796 0.613238
0.511954 0.963487 0.612104
0.737389 0.960126 0.609043
0.887042 0.955870 0.613546
0.981133 0.951154 0.619700
0.000000 0.000000 0.133333
0.000000 0.000000 0.125550
0.094380 0.000000 0.124259
0.229443 0.000000 0.096760
0.391768 0.000000 0.118088
0.625996 0.000000 0.123345
0.848764 0.000000 0.151168
1.000000 0.138028 0.230799
1.000000 0.428771 0.359441
0.000000 0.000000 0.170854
0.000000 0.000000 0.160008
0.087598 0.000000 0.160957
0.251826 0.000000 0.135769
0.415900 0.000000 0.136565
0.633414 0.000000 0.132810
0.849991 0.000000 0.154695
1.000000 0.158111 0.230510
1.000000 0.432291 0.359358
0.000000 0.073394 0.245125
0.000000 0.084867 0.237617
0.000000 0.103246 0.237161
0.295622 0.065347 0.222541
0.445709 0.000000 0.166640
0.650545 0.000000 0.147890
0.855411 0.000000 0.163438
1.000000 0.187366 0.237283
1.000000 0.442949 0.361696
0.000000 0.198805 0.308327
0.000000 0.224130 0.292020
0.000000 0.264491 0.294899
0.256852 0.286799 0.297825
0.493236 0.215917 0.225989
0.682065 0.073483 0.179917
0.868177 0.000000 0.173326
1.000000 0.236721 0.241989
1.000000 0.457581 0.364366
0.000000 0.395634 0.326263
0.000000 0.409441 0.315844
0.000000 0.433631 0.303969
0.000000 0.457435 0.289423
0.498647 0.467173 0.277985
0.721327 0.379739 0.209531
0.897082 0.303344 0.197243
1.000000 0.338024 0.252405
1.000000 0.497502 0.372572
0.000000 0.593425 0.307861
0.000000 0.596790 0.300002
0.000000 0.608984 0.296170
0.000000 0.641373 0.278868
0.288972 0.653139 0.273288
0.713343 0.646390 0.258578
0.901603 0.573222 0.227690
1.000000 0.540766 0.283591
1.000000 0.570995 0.388050
0.000000 0.778918 0.331634
0.000000 0.779778 0.326714
0.000000 0.786601 0.328788
0.000000 0.798641 0.316794
0.000000 0.803839 0.312430
0.587657 0.805880 0.295438
0.861976 0.796103 0.290739
0.969345 0.760592 0.346501
1.000000 0.739868 0.439124
0.000000 0.899760 0.468661
0.000000 0.899742 0.469191
0.000000 0.902651 0.470884
0.000000 0.903691 0.470152
0.000000 0.904961 0.465401
0.490705 0.902431 0.456674
0.783573 0.900778 0.453133
0.939691 0.889444 0.448698
1.000000 0.870079 0.518038
0.000000 0.966030 0.636697
0.000000 0.965938 0.636829
0.000000 0.967143 0.638439
0.000000 0.966422 0.636349
0.252255 0.966860 0.631193
0.511746 0.963555 0.632904
0.737116 0.960188 0.626441
0.886635 0.955941 0.630366
0.980667 0.951237 0.635444
0.000000 0.000000 0.268090
0.000000 0.000000 0.267370
0.000000 0.000000 0.261890
0.239387 0.000000 0.264655
0.418951 0.000000 0.224604
0.645452 0.000000 0.251748
0.861012 0.000000 0.265761
1.000000 0.144918 0.304920
1.000000 0.437696 0.399316
0.000000 0.030517 0.294993
0.000000 0.040032 0.290832
0.000000 0.043197 0.292431
0.248783 0.000000 0.294748
0.448137 0.000000 0.257940
0.652965 0.000000 0.264086
0.862118 0.000000 0.271891
1.000000 0.164336 0.304848
1.000000 0.437696 0.399316
0.000000 0.067158 0.341232
0.000000 0.076564 0.336291
0.000000 0.087859 0.336085
0.240939 0.073699 0.341801
0.482665 0.000000 0.304937
0.671628 0.000000 0.294581
0.866730 0.000000 0.276386
1.000000 0.192803 0.311595
1.000000 0.444834 0.401937
0.000000 0.187875 0.422331
0.000000 0.202044 0.418752
0.000000 0.229630 0.420812
0.169150 0.263792 0.427907
0.513849 0.231440 0.414252
0.702711 0.097406 0.338001
0.878398 0.000000 0.296010
1.000000 0.241901 0.320584
1.000000 0.463065 0.407515
0.000000 0.372073 0.480993
0.000000 0.396336 0.480527
0.000000 0.431941 0.478223
0.000000 0.479267 0.482983
0.464689 0.487971 0.474513
0.711492 0.419946 0.406732
0.893511 0.337987 0.337339
1.000000 0.346309 0.331550
1.000000 0.502804 0.413477
0.000000 0.603662 0.508162
0.000000 0.610377 0.508341
0.000000 0.628902 0.504214
0.000000 0.652258 0.493506
0.243069 0.676652 0.471137
0.700439 0.671330 0.471506
0.891690 0.598662 0.398774
1.000000 0.551580 0.364566
1.000000 0.576347 0.432835
0.000000 0.788861 0.509701
0.000000 0.792293 0.504627
0.000000 0.801084 0.500280
0.000000 0.802968 0.501190
0.000000 0.814941 0.490354
0.579907 0.816318 0.474927
0.856498 0.806688 0.475106
0.967508 0.763188 0.433603
1.000000 0.743760 0.480380
0.000000 0.900776 0.546445
0.000000 0.900752 0.546958
0.000000 0.903622 0.548509
0.000000 0.904630 0.547612
0.000000 0.907160 0.536322
0.489414 0.905830 0.533428
0.783101 0.901496 0.527237
0.933097 0.896588 0.527183
1.000000 0.873425 0.556742
0.000000 0.966214 0.681221
0.000000 0.966028 0.681460
0.000000 0.967293 0.676959
0.000000 0.966580 0.677809
0.277733 0.966747 0.672824
0.505504 0.965289 0.669091
0.726654 0.960682 0.663496
0.883715 0.956861 0.666952
0.976579 0.952215 0.673956
0.000000 0.063562 0.445391
0.000000 0.068769 0.443514
0.000000 0.073140 0.447138
0.163892 0.062440 0.450335
0.466273 0.000000 0.461018
0.678721 0.000000 0.408765
0.876060 0.000000 0.436275
1.000000 0.187293 0.451126
1.000000 0.451205 0.483944
0.000000 0.076969 0.462238
0.000000 0.082627 0.460425
0.000000 0.089705 0.464167
0.155090 0.083846 0.467144
0.463641 0.000000 0.474954
0.686150 0.000000 0.422657
0.876024 0.000000 0.436807
1.000000 0.197990 0.451209
1.000000 0.454821 0.486859
0.000000 0.106239 0.490472
0.000000 0.113240 0.485478
0.000000 0.120378 0.489040
0.141221 0.125234 0.492046
0.464091 0.000000 0.503144
0.714519 0.000000 0.459413
0.880324 0.000000 0.449823
1.000000 0.222923 0.451607
1.000000 0.465833 0.487096
0.000000 0.190997 0.537676
0.000000 0.200314 0.535461
0.000000 0.210821 0.535687
0.000000 0.233274 0.544587
0.456169 0.215434 0.549813
0.742932 0.083310 0.518826
0.893735 0.000000 0.479429
1.000000 0.273364 0.463855
1.000000 0.483326 0.489899
0.000000 0.375899 0.600926
0.000000 0.379082 0.604761
0.000000 0.404220 0.608079
0.000000 0.429538 0.612099
0.359338 0.462781 0.613091
0.740897 0.442588 0.606097
0.898919 0.360740 0.532341
1.000000 0.370941 0.485482
1.000000 0.523001 0.499368
0.000000 0.593782 0.654246
0.000000 0.600731 0.654698
0.000000 0.619389 0.660272
0.000000 0.653677 0.656675
0.039495 0.686041 0.662825
0.673423 0.690888 0.655278
0.870878 0.630835 0.591631
0.990790 0.571921 0.531025
1.000000 0.596095 0.514417
0.000000 0.802806 0.687118
0.000000 0.803533 0.685158
0.000000 0.804947 0.681338
0.000000 0.814066 0.679337
0.000000 0.820693 0.667950
0.535402 0.828846 0.666914
0.838151 0.820839 0.661145
0.954783 0.779426 0.595610
1.000000 0.745795 0.561427
0.000000 0.908333 0.691844
0.000000 0.908304 0.692291
0.000000 0.909604 0.693348
0.000000 0.910374 0.686574
0.000000 0.908683 0.687067
0.440541 0.910487 0.679497
0.759311 0.908317 0.680463
0.925583 0.903886 0.671023
0.996960 0.875853 0.637091
0.000000 0.967996 0.730938
0.000000 0.967808 0.731140
0.000000 0.967517 0.731441
0.000000 0.966787 0.729588
0.274463 0.966954 0.732414
0.484934 0.965903 0.725713
0.722117 0.960994 0.720016
0.882084 0.957084 0.721590
0.973443 0.955212 0.731723
0.000000 0.165927 0.637637
0.000000 0.170673 0.639934
0.000000 0.176942 0.643420
0.000000 0.186773 0.646096
0.368396 0.164117 0.655463
0.705037 0.000000 0.650787
0.904967 0.000000 0.603708
1.000000 0.209327 0.617304
1.000000 0.473198 0.630396
0.000000 0.177623 0.641778
0.000000 0.181052 0.643760
0.000000 0.187675 0.647235
0.000000 0.198096 0.647054
0.363144 0.180933 0.656040
0.704657 0.060471 0.661068
0.907932 0.000000 0.607820
1.000000 0.224493 0.620647
1.000000 0.476674 0.630400
0.000000 0.194399 0.652436
0.000000 0.199896 0.648381
0.000000 0.205420 0.648259
0.000000 0.220588 0.654513
0.358768 0.207535 0.663593
0.707909 0.128322 0.668604
0.911438 0.000000 0.618802
1.000000 0.243837 0.627379
1.000000 0.487666 0.630626
0.000000 0.236847 0.670938
0.000000 0.245034 0.669939
0.000000 0.251722 0.669771
0.000000 0.266405 0.675694
0.336430 0.269046 0.678303
0.704376 0.225706 0.683542
0.919718 0.000000 0.644011
1.000000 0.293408 0.634366
1.000000 0.505166 0.633715
0.000000 0.376151 0.716612
0.000000 0.385549 0.717999
0.000000 0.395997 0.717395
0.000000 0.402472 0.722657
0.257829 0.432962 0.724650
0.678648 0.423585 0.726353
0.917787 0.380897 0.699155
1.000000 0.401130 0.654652
1.000000 0.547269 0.640044
0.000000 0.593599 0.765270
0.000000 0.595173 0.766630
0.000000 0.607211 0.763196
0.000000 0.620742 0.764085
0.000000 0.653621 0.767206
0.587330 0.667449 0.767707
0.871329 0.657596 0.758120
0.985247 0.594450 0.702209
1.000000 0.617218 0.662272
0.000000 0.787017 0.794085
0.000000 0.787981 0.795001
0.000000 0.794801 0.796505
0.000000 0.811961 0.796947
0.000000 0.823922 0.799432
0.520164 0.837419 0.795468
0.813700 0.831927 0.791659
0.939032 0.798738 0.749410
1.000000 0.761549 0.699874
0.000000 0.912785 0.812472
0.000000 0.912742 0.812740
0.000000 0.912573 0.811275
0.000000 0.913311 0.810564
0.000000 0.915433 0.808640
0.425853 0.916582 0.802430
0.751512 0.913016 0.797232
0.911992 0.908865 0.795959
0.988601 0.884005 0.760502
0.000000 0.970736 0.818410
0.000000 0.970640 0.818473
0.000000 0.971181 0.818743
0.000000 0.970357 0.819243
0.212927 0.970042 0.818648
0.478894 0.968508 0.813431
0.716608 0.964299 0.813943
0.869695 0.960621 0.809141
0.967164 0.959005 0.812211
0.000000 0.323570 0.796559
0.000000 0.323737 0.797133
0.000000 0.323891 0.798021
0.000000 0.333704 0.800027
0.271243 0.341352 0.802755
0.614057 0.320915 0.802085
0.902695 0.302182 0.801447
1.000000 0.229358 0.770774
1.000000 0.494994 0.776931
0.000000 0.328535 0.799108
0.000000 0.331207 0.799670
0.000000 0.333922 0.800541
0.000000 0.338930 0.802522
0.265830 0.349655 0.805188
0.612166 0.333611 0.802082
0.901640 0.314461 0.801444
1.000000 0.249502 0.773521
1.000000 0.502532 0.776992
0.000000 0.338606 0.801605
0.000000 0.338826 0.802165
0.000000 0.344216 0.803009
0.000000 0.354882 0.804921
0.254263 0.366643 0.807518
0.608302 0.356356 0.804449
0.899263 0.338667 0.806130
1.000000 0.269037 0.776316
1.000000 0.509514 0.776924
0.000000 0.367822 0.808962
0.000000 0.373629 0.809442
0.000000 0.376750 0.807825
0.000000 0.385774 0.809572
0.242731 0.396185 0.812117
0.596637 0.393136 0.808924
0.895273 0.373927 0.812854
1.000000 0.322668 0.781683
1.000000 0.530428 0.779170
0.000000 0.429236 0.822193
0.000000 0.432615 0.822556
0.000000 0.436204 0.821090
0.000000 0.449311 0.820439
0.172213 0.461219 0.820297
0.574768 0.460255 0.821611
0.887529 0.449146 0.823049
1.000000 0.415705 0.794076
1.000000 0.568966 0.783633
0.000000 0.591198 0.843162
0.000000 0.595008 0.843472
0.000000 0.602338 0.843901
0.000000 0.607088 0.845178
0.000000 0.614226 0.841238
0.513017 0.632862 0.843627
0.833180 0.634246 0.840662
0.985850 0.615182 0.827783
1.000000 0.628588 0.799035
0.000000 0.789357 0.863326
0.000000 0.789696 0.863634
0.000000 0.792911 0.864181
0.000000 0.796096 0.864960
0.000000 0.801120 0.864778
0.409866 0.814974 0.861876
0.775585 0.817524 0.861124
0.932164 0.815696 0.855090
1.000000 0.778765 0.822695
0.000000 0.908986 0.885811
0.000000 0.910356 0.885974
0.000000 0.911639 0.886256
0.000000 0.912551 0.885552
0.000000 0.914919 0.882567
0.418071 0.917958 0.883251
0.738782 0.918016 0.881386
0.899417 0.913818 0.879251
0.976703 0.894204 0.854082
0.000000 0.974392 0.892212
0.000000 0.974101 0.892309
0.000000 0.973902 0.892374
0.000000 0.973857 0.892631
0.207130 0.972753 0.890805
0.476018 0.970486 0.889344
0.716081 0.966806 0.886617
0.863059 0.963959 0.884775
0.955906 0.962348 0.880987
0.000000 0.523269 0.896073
0.000000 0.523258 0.896108
0.000000 0.523193 0.896244
0.000000 0.522905 0.896536
0.293544 0.534652 0.896690
0.508956 0.543100 0.894191
0.792793 0.535690 0.893705
0.992851 0.544466 0.894059
1.000000 0.521917 0.870001
0.000000 0.526486 0.895964
0.000000 0.526476 0.895999
0.000000 0.526416 0.896135
0.000000 0.526139 0.896428
0.290360 0.537927 0.896580
0.507454 0.546453 0.894084
0.791938 0.539348 0.895063
0.992057 0.548273 0.895369
1.000000 0.525491 0.869924
0.000000 0.539510 0.897022
0.000000 0.539487 0.897125
0.000000 0.539460 0.897192
0.000000 0.539224 0.897481
0.286828 0.541323 0.897950
0.504317 0.553282 0.895351
0.791082 0.542878 0.894962
0.990560 0.555588 0.895167
1.000000 0.536076 0.871338
0.000000 0.555948 0.899427
0.000000 0.555940 0.899493
0.000000 0.555897 0.899622
0.000000 0.555701 0.899870
0.277076 0.557907 0.900313
0.496200 0.570187 0.896253
0.790497 0.560401 0.895897
0.987480 0.570159 0.894751
1.000000 0.550187 0.872640
0.000000 0.582366 0.902797
0.000000 0.582363 0.902859
0.000000 0.582221 0.901542
0.000000 0.588652 0.901498
0.233859 0.591120 0.901924
0.481865 0.597542 0.900980
0.780960 0.595745 0.897585
0.979969 0.603074 0.897863
1.000000 0.585647 0.878135
0.000000 0.635528 0.908769
0.000000 0.635543 0.908852
0.000000 0.638703 0.907490
0.000000 0.641931 0.907533
0.106486 0.654350 0.904812
0.445212 0.665094 0.904990
0.754882 0.665870 0.901705
0.958850 0.670500 0.903170
1.000000 0.655203 0.886533
0.000000 0.778940 0.916465
0.000000 0.778910 0.916538
0.000000 0.781502 0.916473
0.000000 0.783932 0.916525
0.000000 0.790803 0.915375
0.365032 0.795649 0.915630
0.699664 0.801498 0.911393
0.912436 0.800902 0.911776
1.000000 0.790563 0.903450
0.000000 0.902153 0.928418
0.000000 0.902101 0.928440
0.000000 0.903249 0.928482
0.000000 0.902812 0.928631
0.000000 0.904181 0.928861
0.325876 0.906104 0.927235
0.678018 0.906641 0.925877
0.876514 0.904905 0.924455
0.968863 0.904997 0.919075
0.000000 0.973293 0.942651
0.000000 0.973208 0.942668
0.000000 0.973564 0.942718
0.000000 0.972708 0.942861
0.000000 0.970922 0.940748
0.447312 0.969792 0.941102
0.701451 0.968084 0.940244
0.852663 0.967514 0.936800
0.949510 0.966733 0.935836
