Assets/Lutify-Free-LUTs-Pack/Lutify Free LUTs Pack/Film Tone Pro - Film Tone 3/Lutify.me-FilmTone3-Cineon-to-Rec709.cube
# Created with: fylm.ai - Colour Grading and Collaboration Software in Cloud 
# Website: https://fylm.ai 
# META
# Option: Gamut compress
# Block 1: IDT | ADX10
# Block 2: colourMatch | Blending Mode: Normal | {"ColorSpace":0,"CrossCovarianceLimit":50,"ReshapingIterations":1,"PercentSaturationShift":100,"PercentShadingShift":100,"ExtraShading":true,"PercentTint":100,"PercentModified":100}
# Block 3: subtractiveColour | Blending Mode: Normal | {"sliders":{"gainY":0.6,"C":0.3,"M":0.3,"Y":0.3}}
# Block 4: LUT | Filmic Curve Response: Low Contrast 2 (100%)
# Block 5: logPrimaries | Blending Mode: Normal | {"wheels":{"shadows":{"Y":"0","R":"1","G":"1","B":"1"},"midtones":{"Y":"0","R":"1","G":"1","B":"1"},"highlights":{"Y":"0","R":"1","G":"1","B":"1"},"offset":{"Y":"0","R":"1","G":"1","B":"1"}},"sliders":{"shadows":{"Y":0,"R":-0.026,"G":0.03,"B":0.1},"midtones":{"Y":0,"R":0.024,"G":-0.036,"B":0.036},"highlights":{"Y":0,"R":0,"G":0.044,"B":-0.128},"offset":{"Y":0,"R":0,"G":0,"B":0}}}
# Block 6: hueSaturation | Blending Mode: Normal | {"hue":0,"saturation":-0.1}
# Block 7: ODT | Rec709
TITLE "Lutify.me-FilmTone3-Cineon-to-Rec709" 
LUT_3D_SIZE 9
0.000000 0.000000 0.000000
0.000000 0.000000 0.000000
0.077734 0.000000 0.000000
0.151538 0.000000 0.000000
0.264787 0.000000 0.000000
0.423324 0.000000 0.020499
0.638203 0.000000 0.046562
0.855072 0.000000 0.106042
1.000000 0.311127 0.211130
0.000000 0.000000 0.000000
0.000000 0.013590 0.000000
0.103409 0.000000 0.000000
0.194336 0.000000 0.000000
0.315736 0.000000 0.000000
0.486400 0.000000 0.026947
0.708456 0.000000 0.062354
0.919730 0.099689 0.134677
1.000000 0.389315 0.258696
0.000000 0.081545 0.000000
0.000000 0.098643 0.000000
0.126692 0.111632 0.000000
0.261173 0.089360 0.000000
0.402526 0.028661 0.000000
0.582160 0.000000 0.026953
0.779685 0.000000 0.083643
0.964892 0.239354 0.168174
1.000000 0.465616 0.313803
0.000000 0.192737 0.000000
0.000000 0.218996 0.000000
0.000000 0.253852 0.000000
0.304949 0.267809 0.000000
0.503925 0.246999 0.000000
0.685988 0.227989 0.000000
0.865958 0.265028 0.115610
0.995449 0.376492 0.211029
1.000000 0.554308 0.363533
0.000000 0.371545 0.000000
0.000000 0.404754 0.000000
0.000000 0.446824 0.000000
0.000000 0.487898 0.000000
0.546824 0.514777 0.000000
0.767738 0.491977 0.062262
0.915381 0.500278 0.170312
1.000000 0.573109 0.289927
1.000000 0.661044 0.432914
0.000000 0.615449 0.192696
0.000000 0.647088 0.203229
0.000000 0.679949 0.199998
0.000000 0.712624 0.204714
0.372065 0.742649 0.214128
0.769014 0.758675 0.236985
0.918389 0.744821 0.291275
0.991904 0.755956 0.393599
1.000000 0.802600 0.536217
0.000000 0.838988 0.422576
0.000000 0.848776 0.442406
0.000000 0.861827 0.456945
0.000000 0.876714 0.464551
0.093143 0.886566 0.475104
0.694885 0.891544 0.490036
0.895970 0.894314 0.518907
0.976908 0.891009 0.560821
1.000000 0.894609 0.656605
0.000000 0.949812 0.669497
0.000000 0.954300 0.678410
0.000000 0.958175 0.690659
0.000000 0.961659 0.701148
0.353335 0.964438 0.711642
0.655114 0.965459 0.721530
0.852808 0.964323 0.732710
0.953874 0.967020 0.757642
1.000000 0.964891 0.786534
0.357414 0.999265 0.827947
0.418949 1.000000 0.836258
0.487156 1.000000 0.845103
0.558591 1.000000 0.853256
0.640827 1.000000 0.857150
0.741921 1.000000 0.863777
0.846062 1.000000 0.867715
0.935408 1.000000 0.877220
0.989876 1.000000 0.889653
0.000000 0.000000 0.000000
0.000000 0.000000 0.002376
0.076729 0.000000 0.000000
0.155268 0.000000 0.015382
0.274685 0.000000 0.031161
0.432775 0.000000 0.042025
0.649710 0.000000 0.068217
0.864455 0.000000 0.129399
1.000000 0.324536 0.229354
0.000000 0.000000 0.008458
0.000000 0.015822 0.025718
0.105342 0.000000 0.025848
0.198647 0.000000 0.034638
0.323346 0.000000 0.040249
0.494534 0.000000 0.050607
0.716095 0.000000 0.088207
0.923669 0.123201 0.150757
1.000000 0.398202 0.275835
0.000000 0.082169 0.025000
0.000000 0.099830 0.036894
0.122019 0.120648 0.046200
0.262350 0.098065 0.048406
0.404946 0.062364 0.047488
0.589723 0.000000 0.062545
0.790398 0.000000 0.112163
0.967780 0.249512 0.190384
1.000000 0.477214 0.325988
0.000000 0.191820 0.024031
0.000000 0.222214 0.031569
0.000000 0.264355 0.041095
0.302921 0.280358 0.054292
0.507938 0.248212 0.049173
0.692813 0.230411 0.086840
0.870714 0.266595 0.145308
0.997147 0.385408 0.231892
1.000000 0.562512 0.377838
0.000000 0.370587 0.074089
0.000000 0.407092 0.072543
0.000000 0.441902 0.075465
0.000000 0.488227 0.070206
0.554822 0.518472 0.107837
0.773069 0.490788 0.127979
0.918245 0.497928 0.190694
1.000000 0.571061 0.311212
1.000000 0.665834 0.448523
0.000000 0.609325 0.206396
0.000000 0.638033 0.220787
0.000000 0.677688 0.220170
0.000000 0.710362 0.228551
0.390034 0.740408 0.241909
0.779433 0.754109 0.280224
0.923495 0.740059 0.315746
0.994607 0.754122 0.409048
1.000000 0.800931 0.542408
0.000000 0.834720 0.422274
0.000000 0.846737 0.445301
0.000000 0.859932 0.456785
0.000000 0.873211 0.464127
0.215280 0.881347 0.474876
0.703901 0.889874 0.493212
0.898280 0.893052 0.524884
0.978125 0.889859 0.566668
1.000000 0.892461 0.661917
0.000000 0.946904 0.664949
0.000000 0.951505 0.677149
0.000000 0.955459 0.683691
0.000000 0.960038 0.700331
0.362581 0.963521 0.708693
0.663349 0.964485 0.718813
0.858918 0.962775 0.732307
0.957995 0.966282 0.758046
1.000000 0.963213 0.785980
0.333426 0.998679 0.825651
0.404874 0.999857 0.833852
0.475758 1.000000 0.842788
0.549558 1.000000 0.849625
0.634405 1.000000 0.854971
0.743000 1.000000 0.860502
0.850447 1.000000 0.867036
0.938214 1.000000 0.876119
0.992183 0.999658 0.888734
0.000000 0.000000 0.047140
0.000000 0.000000 0.054081
0.066339 0.000000 0.059999
0.157488 0.000000 0.062767
0.285711 0.000000 0.072462
0.446775 0.000000 0.089571
0.669021 0.000000 0.113252
0.871407 0.000000 0.168731
1.000000 0.338892 0.268265
0.000000 0.000000 0.057289
0.000000 0.000000 0.068431
0.096026 0.000000 0.083073
0.204907 0.000000 0.085679
0.333331 0.000000 0.088519
0.515780 0.000000 0.104251
0.729626 0.000000 0.128657
0.928981 0.151439 0.195076
1.000000 0.411121 0.300541
0.000000 0.084961 0.106238
0.000000 0.106210 0.120304
0.110253 0.126095 0.135247
0.264660 0.111423 0.125569
0.415250 0.069381 0.122787
0.595481 0.000000 0.127484
0.794890 0.000000 0.154916
0.968599 0.265321 0.231528
1.000000 0.485752 0.349195
0.000000 0.200246 0.135886
0.000000 0.229601 0.146752
0.000000 0.265002 0.157082
0.297439 0.295568 0.184430
0.505212 0.265396 0.166991
0.693779 0.250447 0.159900
0.876219 0.269591 0.195384
0.997361 0.391840 0.275350
1.000000 0.571198 0.403543
0.000000 0.377683 0.168231
0.000000 0.409789 0.185282
0.000000 0.451105 0.198803
0.000000 0.497557 0.203511
0.545545 0.524441 0.225423
0.774728 0.495381 0.213653
0.923122 0.500998 0.243847
1.000000 0.565496 0.335740
1.000000 0.673188 0.469255
0.000000 0.607781 0.254150
0.000000 0.636815 0.268360
0.000000 0.670266 0.273888
0.000000 0.709429 0.286583
0.407361 0.739572 0.314422
0.777522 0.753452 0.350981
0.925482 0.738827 0.364424
0.996439 0.749972 0.436133
1.000000 0.799531 0.560545
0.000000 0.832670 0.438024
0.000000 0.844857 0.454864
0.000000 0.854454 0.472678
0.000000 0.869941 0.483390
0.275312 0.879642 0.501013
0.716623 0.888296 0.518724
0.903812 0.891864 0.552899
0.979691 0.886382 0.583654
1.000000 0.890416 0.667955
0.000000 0.944956 0.667003
0.000000 0.949664 0.676129
0.000000 0.954586 0.683229
0.000000 0.958296 0.699640
0.360456 0.960368 0.709905
0.675263 0.962682 0.720918
0.864472 0.961895 0.737083
0.960234 0.965057 0.761748
1.000000 0.961523 0.788680
0.280862 0.997879 0.821259
0.382403 0.998896 0.831367
0.462134 1.000000 0.840196
0.540443 1.000000 0.848806
0.631518 1.000000 0.851433
0.746779 1.000000 0.859819
0.854855 0.999866 0.866379
0.941013 0.999383 0.875476
0.993966 0.999193 0.888619
0.000000 0.000000 0.089050
0.000000 0.000000 0.105591
0.047898 0.000000 0.121324
0.163785 0.000000 0.141696
0.306591 0.000000 0.156520
0.470975 0.000000 0.179376
0.686255 0.000000 0.206662
0.883619 0.000000 0.241565
1.000000 0.349778 0.324142
0.000000 0.000000 0.105600
0.000000 0.000000 0.124974
0.069861 0.023512 0.148988
0.215105 0.000000 0.174349
0.358320 0.000000 0.185292
0.534501 0.000000 0.199977
0.745659 0.000000 0.227627
0.934999 0.181981 0.269475
1.000000 0.421339 0.357295
0.000000 0.074155 0.180031
0.000000 0.091023 0.197398
0.046794 0.115717 0.220597
0.271906 0.126229 0.241371
0.434855 0.098003 0.235406
0.611942 0.052297 0.235176
0.811313 0.084054 0.252130
0.972289 0.277691 0.300369
1.000000 0.509527 0.401319
0.000000 0.195587 0.245249
0.000000 0.230696 0.262495
0.000000 0.277711 0.282856
0.271844 0.306937 0.314008
0.501542 0.289262 0.301423
0.701280 0.261911 0.279984
0.878885 0.297156 0.288136
0.999456 0.398878 0.336797
1.000000 0.587366 0.446934
0.000000 0.379271 0.279514
0.000000 0.418025 0.296845
0.000000 0.456645 0.316927
0.000000 0.500420 0.337404
0.554428 0.536787 0.372793
0.771912 0.515990 0.351338
0.916191 0.517270 0.352962
1.000000 0.568378 0.395229
1.000000 0.681417 0.508503
0.000000 0.613884 0.334166
0.000000 0.639914 0.352672
0.000000 0.671191 0.386448
0.000000 0.716564 0.400016
0.430396 0.745560 0.431446
0.781327 0.756400 0.467701
0.925517 0.741549 0.450502
0.994480 0.754015 0.484715
1.000000 0.800177 0.581935
0.000000 0.830990 0.467153
0.000000 0.843412 0.490564
0.000000 0.855033 0.508490
0.000000 0.868826 0.529218
0.285641 0.880087 0.543256
0.716189 0.888809 0.566400
0.905993 0.892315 0.612098
0.981162 0.884310 0.619545
1.000000 0.889561 0.687285
0.000000 0.942987 0.672141
0.000000 0.948767 0.684635
0.000000 0.953848 0.697163
0.000000 0.957457 0.707674
0.368765 0.958656 0.722650
0.682833 0.961736 0.730855
0.867599 0.961796 0.751190
0.963719 0.964377 0.774128
1.000000 0.960432 0.797092
0.247141 0.997233 0.820601
0.360776 0.998313 0.830741
0.450148 0.999891 0.839385
0.531141 1.000000 0.848005
0.625995 1.000000 0.853648
0.745916 1.000000 0.860601
0.857898 0.999439 0.866227
0.943748 0.998770 0.875136
0.995137 0.998944 0.890460
0.000000 0.000000 0.177220
0.000000 0.012640 0.200629
0.000000 0.033850 0.223069
0.127351 0.031401 0.256851
0.327201 0.000000 0.300625
0.518044 0.000000 0.310201
0.714158 0.000000 0.350848
0.901133 0.117155 0.387612
1.000000 0.380986 0.435176
0.000000 0.013463 0.193082
0.000000 0.030199 0.216354
0.000000 0.045355 0.247372
0.176690 0.037791 0.286400
0.383043 0.000000 0.330142
0.579384 0.000000 0.342365
0.768887 0.000000 0.374901
0.942424 0.222294 0.410715
1.000000 0.440260 0.464978
0.000000 0.069349 0.263224
0.000000 0.084312 0.278246
0.000000 0.106894 0.312265
0.211934 0.126934 0.350973
0.459068 0.130697 0.394950
0.652484 0.088743 0.387657
0.826665 0.149796 0.406842
0.974662 0.322825 0.434018
1.000000 0.524890 0.498776
0.000000 0.175665 0.334387
0.000000 0.207526 0.355007
0.000000 0.249273 0.391660
0.214951 0.288067 0.433139
0.526289 0.308800 0.463660
0.716252 0.289658 0.445418
0.886351 0.334700 0.448981
0.998904 0.429823 0.469462
1.000000 0.600722 0.527317
0.000000 0.383206 0.416235
0.000000 0.416913 0.444874
0.000000 0.471058 0.475397
0.000000 0.521793 0.504866
0.524351 0.552551 0.525953
0.756406 0.540288 0.510582
0.918834 0.534085 0.505619
1.000000 0.593976 0.517575
1.000000 0.689627 0.572191
0.000000 0.615128 0.469114
0.000000 0.644710 0.499856
0.000000 0.684811 0.519354
0.000000 0.721091 0.542359
0.394824 0.752183 0.557287
0.771390 0.762361 0.590112
0.916535 0.753702 0.586453
0.988381 0.766830 0.587631
1.000000 0.801781 0.640214
0.000000 0.825742 0.545553
0.000000 0.842860 0.575990
0.000000 0.856280 0.590249
0.000000 0.870205 0.621131
0.300497 0.882638 0.638013
0.707542 0.887265 0.667682
0.902943 0.894359 0.697253
0.978243 0.885185 0.693425
1.000000 0.890004 0.721449
0.000000 0.939969 0.692187
0.000000 0.946029 0.709470
0.000000 0.952182 0.724263
0.000000 0.954948 0.738808
0.367485 0.957959 0.750163
0.693497 0.960740 0.761735
0.866704 0.961925 0.778977
0.965495 0.963844 0.803683
1.000000 0.958817 0.816240
0.167531 0.995288 0.822550
0.334536 0.997280 0.833122
0.424461 0.999088 0.843093
0.520352 1.000000 0.851344
0.621326 1.000000 0.856105
0.747290 0.999018 0.865060
0.862187 0.998367 0.871517
0.946343 0.997661 0.880526
0.996239 0.998497 0.894689
0.000000 0.042143 0.304013
0.000000 0.051062 0.330784
0.000000 0.065793 0.366857
0.000000 0.087629 0.399648
0.258901 0.092290 0.457914
0.518816 0.045203 0.512121
0.764047 0.000000 0.536569
0.919640 0.193720 0.565981
1.000000 0.423281 0.604146
0.000000 0.046937 0.319929
0.000000 0.061226 0.347583
0.000000 0.074935 0.388356
0.027145 0.100471 0.427667
0.320546 0.109694 0.486616
0.601505 0.066219 0.537896
0.817067 0.000000 0.555754
0.953763 0.277113 0.584993
1.000000 0.477622 0.619630
0.000000 0.076817 0.356588
0.000000 0.098431 0.389065
0.000000 0.119469 0.433085
0.112009 0.151589 0.474345
0.400887 0.162090 0.526878
0.677200 0.171781 0.571526
0.861766 0.202580 0.582229
0.977594 0.372579 0.610111
1.000000 0.560308 0.635202
0.000000 0.179374 0.443011
0.000000 0.199837 0.468484
0.000000 0.233420 0.500550
0.000000 0.277746 0.544526
0.442484 0.309940 0.590635
0.743591 0.336356 0.618405
0.901923 0.377681 0.618280
0.995886 0.470808 0.635127
1.000000 0.628914 0.660992
0.000000 0.358414 0.523260
0.000000 0.394148 0.552344
0.000000 0.445011 0.582261
0.000000 0.486661 0.622356
0.436376 0.529250 0.660608
0.778978 0.561720 0.678466
0.915891 0.562849 0.668546
0.998976 0.619882 0.672758
1.000000 0.716397 0.695632
0.000000 0.618647 0.601573
0.000000 0.651594 0.636701
0.000000 0.692256 0.663737
0.000000 0.731495 0.693085
0.381867 0.756166 0.715925
0.763261 0.776183 0.737366
0.904091 0.770594 0.724163
0.981086 0.775084 0.720284
1.000000 0.811237 0.734839
0.000000 0.832154 0.657836
0.000000 0.844423 0.686679
0.000000 0.856240 0.709236
0.000000 0.873640 0.733132
0.276562 0.884170 0.750931
0.711294 0.892239 0.763125
0.898005 0.895450 0.787304
0.970141 0.892509 0.785485
1.000000 0.894542 0.788566
0.000000 0.938282 0.736118
0.000000 0.944390 0.756600
0.000000 0.950741 0.773537
0.000000 0.955446 0.785664
0.357128 0.959227 0.804432
0.703356 0.959924 0.817892
0.868959 0.960768 0.831767
0.960677 0.964840 0.848767
1.000000 0.960287 0.848707
0.047808 0.994103 0.836711
0.298270 0.996786 0.845101
0.411750 0.997999 0.854270
0.505869 0.999146 0.863173
0.615986 1.000000 0.870077
0.749983 0.998922 0.879533
0.865016 0.998236 0.884828
0.946722 0.997640 0.894431
0.995771 0.997911 0.909405
0.000000 0.092411 0.465058
0.000000 0.111547 0.503473
0.000000 0.139496 0.539474
0.000000 0.167487 0.579958
0.000000 0.204225 0.629108
0.422205 0.239135 0.666482
0.742179 0.249796 0.710766
0.935430 0.323821 0.738810
1.000000 0.472278 0.750044
0.000000 0.100974 0.485154
0.000000 0.126322 0.522235
0.000000 0.157364 0.561887
0.000000 0.185086 0.602588
0.173008 0.223338 0.649023
0.505301 0.260280 0.685572
0.807043 0.277526 0.728237
0.968409 0.358054 0.746478
1.000000 0.534725 0.769899
0.000000 0.130253 0.516868
0.000000 0.159124 0.554998
0.000000 0.187712 0.585144
0.000000 0.222808 0.629697
0.267633 0.261686 0.663087
0.589157 0.289992 0.710894
0.860507 0.354108 0.753574
0.986348 0.429570 0.756305
1.000000 0.599890 0.783178
0.000000 0.195303 0.563528
0.000000 0.219947 0.595466
0.000000 0.249199 0.631972
0.000000 0.287383 0.657258
0.336183 0.332670 0.706018
0.669294 0.381494 0.740973
0.910789 0.448783 0.776712
0.995856 0.529222 0.778059
1.000000 0.666873 0.793334
0.000000 0.366156 0.637247
0.000000 0.402035 0.663110
0.000000 0.428541 0.699001
0.000000 0.466907 0.724482
0.342107 0.514353 0.758217
0.710011 0.555192 0.784280
0.924784 0.604698 0.804621
0.990931 0.661107 0.802908
1.000000 0.741442 0.802712
0.000000 0.600364 0.711028
0.000000 0.620797 0.735302
0.000000 0.656988 0.760117
0.000000 0.702431 0.780776
0.265802 0.733951 0.801932
0.703208 0.762704 0.817656
0.899763 0.791721 0.834738
0.972359 0.795661 0.829114
1.000000 0.826889 0.830845
0.000000 0.829504 0.768669
0.000000 0.848312 0.790169
0.000000 0.860279 0.812259
0.000000 0.877250 0.826018
0.265990 0.887271 0.837252
0.708396 0.896317 0.852705
0.886508 0.900663 0.865920
0.963185 0.899905 0.860900
1.000000 0.898110 0.855475
0.000000 0.939127 0.807505
0.000000 0.946306 0.826371
0.000000 0.952448 0.840575
0.000000 0.956164 0.852417
0.347544 0.959008 0.862737
0.706221 0.961625 0.873438
0.868684 0.962453 0.884788
0.954466 0.967115 0.892965
1.000000 0.962531 0.892224
0.000000 0.994015 0.862146
0.253512 0.995848 0.871498
0.397431 0.997877 0.882844
0.500980 0.998918 0.889783
0.611718 0.999953 0.899090
0.750449 0.998952 0.904769
0.867575 0.997853 0.912253
0.945832 0.997700 0.921173
0.994428 0.998583 0.932045
0.000000 0.190964 0.641202
0.000000 0.219484 0.674514
0.000000 0.251704 0.715273
0.000000 0.294481 0.747871
0.000000 0.346321 0.778385
0.280505 0.404454 0.807684
0.618320 0.447950 0.826478
0.885206 0.508690 0.849901
1.000000 0.594366 0.865341
0.000000 0.203934 0.655913
0.000000 0.234213 0.693227
0.000000 0.272157 0.726740
0.000000 0.318181 0.764180
0.000000 0.376437 0.790408
0.369050 0.421033 0.817822
0.704173 0.472764 0.839085
0.930761 0.539280 0.859263
1.000000 0.629592 0.871737
0.000000 0.228047 0.677654
0.000000 0.265176 0.714845
0.000000 0.305444 0.749871
0.000000 0.351386 0.776738
0.076875 0.408984 0.806196
0.454489 0.453199 0.829187
0.778746 0.512605 0.848645
0.964553 0.574995 0.866229
1.000000 0.661656 0.876303
0.000000 0.276410 0.706552
0.000000 0.313477 0.741641
0.000000 0.352845 0.771371
0.000000 0.405679 0.793681
0.196929 0.457970 0.820478
0.547743 0.498681 0.841405
0.837882 0.554762 0.857531
0.981783 0.637383 0.878206
1.000000 0.713875 0.881459
0.000000 0.389306 0.751630
0.000000 0.418851 0.774313
0.000000 0.455556 0.797967
0.000000 0.493028 0.819810
0.241383 0.537991 0.838385
0.614252 0.590305 0.856769
0.878489 0.638272 0.874511
0.984524 0.721050 0.890562
1.000000 0.770908 0.891387
0.000000 0.606861 0.804596
0.000000 0.630195 0.819687
0.000000 0.659917 0.835196
0.000000 0.686867 0.850716
0.000000 0.725642 0.864017
0.629987 0.756992 0.876225
0.873888 0.782878 0.891490
0.971847 0.822599 0.903433
1.000000 0.849389 0.903936
0.000000 0.818879 0.839001
0.000000 0.830464 0.855108
0.000000 0.845022 0.869869
0.000000 0.861129 0.880484
0.000000 0.875750 0.891402
0.650171 0.885937 0.902068
0.867429 0.894179 0.910333
0.959810 0.908252 0.921594
1.000000 0.910260 0.919045
0.000000 0.941344 0.877245
0.000000 0.948410 0.889745
0.000000 0.953709 0.900984
0.000000 0.957515 0.909536
0.355748 0.961273 0.916951
0.703984 0.961646 0.923167
0.860328 0.965261 0.930300
0.952046 0.969396 0.939122
0.997258 0.966611 0.938628
0.000000 0.995181 0.897750
0.181095 0.997999 0.906977
0.355202 0.998706 0.916466
0.479357 0.999990 0.924564
0.608371 1.000000 0.934704
0.749395 0.999134 0.939805
0.863107 0.998459 0.944514
0.944105 0.998108 0.952076
0.991889 0.999133 0.958869
0.000000 0.342738 0.794921
0.000000 0.387776 0.820503
0.000000 0.431276 0.840774
0.000000 0.473048 0.859036
0.000000 0.524978 0.874856
0.218836 0.580676 0.893526
0.502420 0.631106 0.909072
0.767425 0.686769 0.916646
0.932480 0.737963 0.927361
0.000000 0.361717 0.807921
0.000000 0.406169 0.829817
0.000000 0.450395 0.849050
0.000000 0.495611 0.866186
0.000000 0.554690 0.884310
0.305425 0.607008 0.901530
0.563460 0.650031 0.913313
0.832452 0.713320 0.921317
0.961235 0.757421 0.931995
0.000000 0.387610 0.820286
0.000000 0.434062 0.840400
0.000000 0.472928 0.858773
0.000000 0.521855 0.876323
0.000000 0.581107 0.891639
0.394155 0.629655 0.907617
0.631054 0.672004 0.918314
0.874574 0.733289 0.926044
0.982410 0.778078 0.937250
0.000000 0.423911 0.833414
0.000000 0.465692 0.850349
0.000000 0.508325 0.867424
0.000000 0.561371 0.885422
0.119374 0.614451 0.900903
0.455943 0.659030 0.912777
0.707438 0.705475 0.922507
0.906614 0.755030 0.930457
1.000000 0.803405 0.942889
0.000000 0.483381 0.847004
0.000000 0.523666 0.864469
0.000000 0.573991 0.881223
0.000000 0.614710 0.897539
0.236489 0.657629 0.908725
0.510957 0.704303 0.917906
0.777936 0.747701 0.927116
0.935907 0.784765 0.936253
1.000000 0.837402 0.948331
0.000000 0.626991 0.870674
0.000000 0.652368 0.884022
0.000000 0.677118 0.895844
0.000000 0.707793 0.909649
0.258165 0.740956 0.919264
0.565110 0.770320 0.925834
0.812316 0.805748 0.935438
0.947827 0.836176 0.943942
1.000000 0.874623 0.955102
0.000000 0.821003 0.895720
0.000000 0.832940 0.905884
0.000000 0.845507 0.915194
0.000000 0.858483 0.925835
0.205913 0.871840 0.932565
0.596877 0.878865 0.940600
0.826148 0.891060 0.946969
0.942355 0.907284 0.955164
1.000000 0.923540 0.962444
0.000000 0.933586 0.916809
0.000000 0.938959 0.927170
0.000000 0.945459 0.936605
0.000000 0.950822 0.943559
0.381060 0.954309 0.949741
0.663403 0.955028 0.956051
0.842728 0.959670 0.960220
0.938677 0.965623 0.967276
0.991964 0.972114 0.973954
0.000000 0.995849 0.939709
0.119249 0.998642 0.947954
0.348160 0.999624 0.954807
0.484463 1.000000 0.960535
0.614668 1.000000 0.965340
0.751169 1.000000 0.971398
0.864641 1.000000 0.974449
0.943638 0.999443 0.978344
0.989075 1.000000 0.982276
