Assets/Lutify-Free-LUTs-Pack/Lutify Free LUTs Pack/Film Tone Pro - Film Tone 3/Lutify.me-FilmTone3-SLog3Venice-to-Rec709.cube
# Created with: fylm.ai - Colour Grading and Collaboration Software in Cloud 
# Website: https://fylm.ai 
# META
# Option: Gamut compress
# Block 1: IDT | Sony Venice S-Log3 S-Gamut3
# Block 2: colourMatch | Blending Mode: Normal | {"ColorSpace":0,"CrossCovarianceLimit":50,"ReshapingIterations":1,"PercentSaturationShift":100,"PercentShadingShift":100,"ExtraShading":true,"PercentTint":100,"PercentModified":100}
# Block 3: subtractiveColour | Blending Mode: Normal | {"sliders":{"gainY":0.6,"C":0.3,"M":0.3,"Y":0.3}}
# Block 4: LUT | Filmic Curve Response: Low Contrast 2 (100%)
# Block 5: logPrimaries | Blending Mode: Normal | {"wheels":{"shadows":{"Y":"0","R":"1","G":"1","B":"1"},"midtones":{"Y":"0","R":"1","G":"1","B":"1"},"highlights":{"Y":"0","R":"1","G":"1","B":"1"},"offset":{"Y":"0","R":"1","G":"1","B":"1"}},"sliders":{"shadows":{"Y":0,"R":-0.026,"G":0.03,"B":0.1},"midtones":{"Y":0,"R":0.024,"G":-0.036,"B":0.036},"highlights":{"Y":0,"R":0,"G":0.044,"B":-0.128},"offset":{"Y":0,"R":0,"G":0,"B":0}}}
# Block 6: hueSaturation | Blending Mode: Normal | {"hue":0,"saturation":-0.1}
# Block 7: ODT | Rec709
TITLE "Lutify.me-FilmTone3-SLog3Venice-to-Rec709" 
LUT_3D_SIZE 33
0.000000 0.000000 0.000000
0.000000 0.000000 0.000000
0.000000 0.000000 0.000000
0.000000 0.000000 0.000000
0.005358 0.000000 0.000000
0.053350 0.000000 0.000000
0.080039 0.000000 0.000000
0.111528 0.000000 0.000000
0.136131 0.000000 0.000000
0.166537 0.000000 0.000000
0.201360 0.000000 0.000000
0.237761 0.000000 0.000000
0.284811 0.000000 0.000000
0.338678 0.000000 0.000000
0.393081 0.000000 0.000000
0.453496 0.000000 0.000000
0.535538 0.000000 0.000000
0.618863 0.000000 0.000000
0.691505 0.000000 0.000000
0.771885 0.000000 0.031129
0.857684 0.000000 0.057299
0.923652 0.000000 0.084453
0.977109 0.000000 0.116541
1.000000 0.000000 0.153588
1.000000 0.161223 0.203884
1.000000 0.282574 0.253279
1.000000 0.390269 0.303714
1.000000 0.482132 0.371842
1.000000 0.576713 0.445789
1.000000 0.650230 0.505775
1.000000 0.719847 0.570438
1.000000 0.781923 0.640051
1.000000 0.824132 0.703840
0.000000 0.000000 0.000000
0.000000 0.000000 0.000000
0.000000 0.000000 0.000000
0.000000 0.000000 0.000000
0.003368 0.000000 0.000000
0.053293 0.000000 0.000000
0.080284 0.000000 0.000000
0.111528 0.000000 0.000000
0.136131 0.000000 0.000000
0.168522 0.000000 0.000000
0.203931 0.000000 0.000000
0.245764 0.000000 0.000000
0.290397 0.000000 0.000000
0.345840 0.000000 0.000000
0.401542 0.000000 0.000000
0.457797 0.000000 0.000000
0.540326 0.000000 0.000000
0.619910 0.000000 0.000000
0.696381 0.000000 0.000000
0.772654 0.000000 0.029820
0.858115 0.000000 0.056701
0.923849 0.000000 0.084026
0.977295 0.000000 0.118519
1.000000 0.000000 0.153704
1.000000 0.173602 0.203572
1.000000 0.286733 0.253130
1.000000 0.390269 0.303714
1.000000 0.482132 0.371842
1.000000 0.576713 0.445789
1.000000 0.650230 0.505775
1.000000 0.719847 0.570438
1.000000 0.781923 0.640051
1.000000 0.824132 0.703840
0.000000 0.000000 0.000000
0.000000 0.000000 0.000000
0.000000 0.000000 0.000000
0.000000 0.000000 0.000000
0.000000 0.000000 0.000000
0.053855 0.000000 0.000000
0.081395 0.000000 0.000000
0.113074 0.000000 0.000000
0.137972 0.000000 0.000000
0.171697 0.000000 0.000000
0.208197 0.000000 0.000000
0.251034 0.000000 0.000000
0.292782 0.000000 0.000000
0.348828 0.000000 0.000000
0.405273 0.000000 0.000000
0.467994 0.000000 0.000000
0.545001 0.000000 0.000000
0.624411 0.000000 0.000000
0.697573 0.000000 0.000000
0.773301 0.000000 0.030070
0.858541 0.000000 0.056039
0.924041 0.000000 0.083568
0.977308 0.000000 0.118251
1.000000 0.000000 0.153704
1.000000 0.173602 0.203572
1.000000 0.286733 0.253130
1.000000 0.390406 0.305904
1.000000 0.482132 0.371842
1.000000 0.576713 0.445789
1.000000 0.650230 0.505775
1.000000 0.719847 0.570438
1.000000 0.781923 0.640051
1.000000 0.824132 0.703840
0.000000 0.000000 0.000000
0.000000 0.000000 0.000000
0.000000 0.000000 0.000000
0.000000 0.000000 0.000000
0.005188 0.000000 0.000000
0.055940 0.000000 0.000000
0.084067 0.000000 0.000000
0.114815 0.000000 0.000000
0.139773 0.000000 0.000000
0.173987 0.000000 0.000000
0.212582 0.000000 0.000000
0.256684 0.000000 0.000000
0.299020 0.000000 0.000000
0.356343 0.000000 0.000000
0.411694 0.000000 0.000000
0.475553 0.000000 0.000000
0.546140 0.000000 0.000000
0.625332 0.000000 0.000000
0.698501 0.000000 0.000000
0.777665 0.000000 0.028418
0.859113 0.000000 0.057397
0.924211 0.000000 0.084399
0.982097 0.000000 0.118514
1.000000 0.000000 0.156058
1.000000 0.180360 0.204021
1.000000 0.294951 0.252823
1.000000 0.390406 0.305904
1.000000 0.485434 0.371760
1.000000 0.579842 0.445733
1.000000 0.650230 0.505775
1.000000 0.722195 0.570470
1.000000 0.781923 0.640051
1.000000 0.824132 0.703840
0.000000 0.022126 0.000000
0.000000 0.022242 0.000000
0.000000 0.022442 0.000000
0.000000 0.023191 0.000000
0.000000 0.027076 0.000000
0.050798 0.014304 0.000000
0.086955 0.000000 0.000000
0.118086 0.000000 0.000000
0.144556 0.000000 0.000000
0.180963 0.000000 0.000000
0.218935 0.000000 0.000000
0.262551 0.000000 0.000000
0.305337 0.000000 0.000000
0.362020 0.000000 0.000000
0.415458 0.000000 0.000000
0.483352 0.000000 0.000000
0.550585 0.000000 0.000000
0.630113 0.000000 0.000000
0.703116 0.000000 0.000000
0.778318 0.000000 0.030160
0.859321 0.000000 0.057031
0.930302 0.000000 0.084308
0.982097 0.000000 0.118229
1.000000 0.000000 0.155907
1.000000 0.180360 0.204021
1.000000 0.294951 0.252823
1.000000 0.397513 0.305647
1.000000 0.485434 0.371760
1.000000 0.579842 0.445733
1.000000 0.650230 0.505775
1.000000 0.722195 0.570470
1.000000 0.781923 0.640051
1.000000 0.824132 0.703840
0.000000 0.047889 0.000000
0.000000 0.047619 0.000000
0.000000 0.047813 0.000000
0.000000 0.048483 0.000000
0.000000 0.049981 0.000000
0.041001 0.050627 0.000000
0.081505 0.040748 0.000000
0.121179 0.018111 0.000000
0.154336 0.000000 0.000000
0.193804 0.000000 0.000000
0.228871 0.000000 0.000000
0.270708 0.000000 0.000000
0.314046 0.000000 0.000000
0.367652 0.000000 0.000000
0.422287 0.000000 0.000000
0.487693 0.000000 0.000000
0.555175 0.000000 0.000000
0.631435 0.000000 0.000000
0.704442 0.000000 0.000000
0.779094 0.000000 0.031509
0.866711 0.000000 0.056232
0.930736 0.000000 0.085641
0.982256 0.000000 0.120374
1.000000 0.000000 0.155593
1.000000 0.186455 0.207041
1.000000 0.294951 0.252823
1.000000 0.397513 0.305647
1.000000 0.485434 0.371760
1.000000 0.579842 0.445733
1.000000 0.650230 0.505775
1.000000 0.722195 0.570470
1.000000 0.781923 0.640051
1.000000 0.824132 0.703840
0.000000 0.064218 0.000000
0.000000 0.065297 0.000000
0.000000 0.064489 0.000000
0.000000 0.065766 0.000000
0.000000 0.070549 0.000000
0.000000 0.073744 0.000000
0.072403 0.072168 0.000000
0.119443 0.058476 0.000000
0.159881 0.036816 0.000000
0.204510 0.000000 0.000000
0.243636 0.000000 0.000000
0.284980 0.000000 0.000000
0.321712 0.000000 0.000000
0.374303 0.000000 0.000000
0.429772 0.000000 0.000000
0.492535 0.000000 0.000000
0.556464 0.000000 0.000000
0.640106 0.000000 0.000000
0.709322 0.000000 0.000000
0.779721 0.000000 0.029870
0.867107 0.000000 0.055365
0.930790 0.000000 0.085466
0.982248 0.000000 0.120080
1.000000 0.000000 0.155263
1.000000 0.197407 0.206708
1.000000 0.303197 0.254383
1.000000 0.401054 0.305515
1.000000 0.493523 0.372641
1.000000 0.579842 0.445733
1.000000 0.653086 0.505750
1.000000 0.722195 0.570470
1.000000 0.781923 0.640051
1.000000 0.824132 0.703840
0.000000 0.084250 0.000000
0.000000 0.086886 0.000000
0.000000 0.087035 0.000000
0.000000 0.087208 0.000000
0.000000 0.091776 0.000000
0.000000 0.095801 0.000000
0.016000 0.099105 0.000000
0.114774 0.093690 0.000000
0.166512 0.075759 0.000000
0.213005 0.055443 0.000000
0.259908 0.000000 0.000000
0.299061 0.000000 0.000000
0.335556 0.000000 0.000000
0.384578 0.000000 0.000000
0.437863 0.000000 0.000000
0.497777 0.000000 0.000000
0.562256 0.000000 0.000000
0.645453 0.000000 0.000000
0.710643 0.000000 0.000000
0.784207 0.000000 0.029105
0.867842 0.000000 0.056211
0.930999 0.000000 0.084723
0.982225 0.000000 0.119612
1.000000 0.000000 0.155357
1.000000 0.202699 0.206536
1.000000 0.311797 0.254421
1.000000 0.401054 0.305515
1.000000 0.493652 0.375206
1.000000 0.582971 0.445676
1.000000 0.653086 0.505750
1.000000 0.722195 0.570470
1.000000 0.781923 0.640051
1.000000 0.824132 0.703840
0.000000 0.108366 0.000000
0.000000 0.110860 0.000000
0.000000 0.114400 0.000000
0.000000 0.114654 0.000000
0.000000 0.116918 0.000000
0.000000 0.124430 0.000000
0.000000 0.132110 0.000000
0.086225 0.131224 0.000000
0.163190 0.120392 0.000000
0.222733 0.099408 0.000000
0.271815 0.076392 0.000000
0.310686 0.022872 0.000000
0.353106 0.000000 0.000000
0.404610 0.000000 0.000000
0.450149 0.000000 0.000000
0.510787 0.000000 0.000000
0.575581 0.000000 0.000000
0.655118 0.000000 0.000000
0.715786 0.000000 0.000000
0.785453 0.000000 0.026347
0.872120 0.000000 0.053748
0.934115 0.000000 0.084038
0.982333 0.000000 0.121301
1.000000 0.000000 0.155996
1.000000 0.213416 0.206487
1.000000 0.315743 0.254255
1.000000 0.405256 0.305812
1.000000 0.496935 0.375123
1.000000 0.582971 0.445676
1.000000 0.653086 0.505750
1.000000 0.722195 0.570470
1.000000 0.783699 0.640148
1.000000 0.825592 0.703943
0.000000 0.139015 0.000000
0.000000 0.141122 0.000000
0.000000 0.145550 0.000000
0.000000 0.149189 0.000000
0.000000 0.149710 0.000000
0.000000 0.158856 0.000000
0.000000 0.166138 0.000000
0.000000 0.170451 0.000000
0.125807 0.173595 0.000000
0.218364 0.160150 0.000000
0.282364 0.133413 0.000000
0.329724 0.107821 0.000000
0.372745 0.074208 0.000000
0.421864 0.000000 0.000000
0.475499 0.000000 0.000000
0.526159 0.000000 0.000000
0.589780 0.000000 0.000000
0.668730 0.000000 0.000000
0.728582 0.000000 0.000000
0.790779 0.000000 0.022158
0.872777 0.000000 0.052901
0.934574 0.000000 0.084825
0.984597 0.000000 0.120796
1.000000 0.036780 0.155480
1.000000 0.213775 0.209729
1.000000 0.323569 0.253916
1.000000 0.412564 0.309992
1.000000 0.496935 0.375123
1.000000 0.586859 0.446175
1.000000 0.653086 0.505750
1.000000 0.724530 0.570505
1.000000 0.783699 0.640148
1.000000 0.825592 0.703943
0.000000 0.174331 0.000000
0.000000 0.172974 0.000000
0.000000 0.176973 0.000000
0.000000 0.181387 0.000000
0.000000 0.181970 0.000000
0.000000 0.189751 0.000000
0.000000 0.196211 0.000000
0.000000 0.210747 0.000000
0.000000 0.212804 0.000000
0.182948 0.212257 0.000000
0.277468 0.192129 0.000000
0.339044 0.165594 0.000000
0.388867 0.144807 0.000000
0.437770 0.118223 0.000000
0.495537 0.056174 0.000000
0.550697 0.000000 0.000000
0.605545 0.000000 0.000000
0.676190 0.000000 0.000000
0.738458 0.000000 0.000000
0.803727 0.000000 0.000000
0.877486 0.000000 0.053856
0.935061 0.000000 0.085008
0.986896 0.000000 0.122258
1.000000 0.104194 0.156013
1.000000 0.228525 0.209176
1.000000 0.331602 0.257394
1.000000 0.416073 0.309859
1.000000 0.500218 0.375039
1.000000 0.586981 0.448875
1.000000 0.655931 0.505727
1.000000 0.724530 0.570505
1.000000 0.783766 0.642844
1.000000 0.825592 0.703943
0.000000 0.208493 0.000000
0.000000 0.209969 0.000000
0.000000 0.209968 0.000000
0.000000 0.218161 0.000000
0.000000 0.223493 0.000000
0.000000 0.225686 0.000000
0.000000 0.235170 0.000000
0.000000 0.245166 0.000000
0.000000 0.259240 0.000000
0.087937 0.260637 0.000000
0.249697 0.253834 0.000000
0.334727 0.233345 0.000000
0.400163 0.209244 0.000000
0.462404 0.179630 0.000000
0.513348 0.152976 0.000000
0.575417 0.115676 0.000000
0.623753 0.021239 0.000000
0.688547 0.000000 0.000000
0.749608 0.000000 0.000000
0.813368 0.000000 0.000000
0.882275 0.000000 0.052998
0.938441 0.000000 0.085966
0.988863 0.000000 0.121675
1.000000 0.152466 0.157706
1.000000 0.243463 0.212199
1.000000 0.343216 0.258806
1.000000 0.424371 0.310463
1.000000 0.510059 0.374779
1.000000 0.590104 0.448818
1.000000 0.658763 0.505705
1.000000 0.726941 0.573275
1.000000 0.785535 0.642941
1.000000 0.825592 0.703943
0.000000 0.244991 0.000000
0.000000 0.249855 0.000000
0.000000 0.249855 0.000000
0.000000 0.255290 0.000000
0.000000 0.262715 0.000000
0.000000 0.263578 0.000000
0.000000 0.272559 0.000000
0.000000 0.285011 0.000000
0.000000 0.293573 0.000000
0.000000 0.303154 0.000000
0.161243 0.301646 0.000000
0.312384 0.297728 0.000000
0.395078 0.283530 0.000000
0.470117 0.253690 0.000000
0.528977 0.232861 0.000000
0.591015 0.206340 0.000000
0.648470 0.169080 0.000000
0.705864 0.110827 0.000000
0.761822 0.000000 0.000000
0.823727 0.000000 0.000000
0.893498 0.000000 0.051992
0.944494 0.000000 0.086177
0.990529 0.059744 0.121426
1.000000 0.188665 0.160497
1.000000 0.270514 0.212613
1.000000 0.355091 0.258631
1.000000 0.438529 0.314444
1.000000 0.517451 0.377715
1.000000 0.590104 0.448818
1.000000 0.661585 0.505684
1.000000 0.729248 0.573314
1.000000 0.785535 0.642941
1.000000 0.827044 0.704049
0.000000 0.287078 0.000000
0.000000 0.290762 0.000000
0.000000 0.296631 0.000000
0.000000 0.296912 0.000000
0.000000 0.303418 0.000000
0.000000 0.314826 0.000000
0.000000 0.320939 0.000000
0.000000 0.332831 0.000000
0.000000 0.344175 0.000000
0.000000 0.358877 0.000000
0.000000 0.370460 0.000000
0.201115 0.365821 0.000000
0.350597 0.368343 0.000000
0.467748 0.343183 0.000000
0.548097 0.312713 0.000000
0.608347 0.285853 0.000000
0.671063 0.267973 0.000000
0.724062 0.237448 0.000000
0.779201 0.204275 0.000000
0.838562 0.145114 0.000000
0.904512 0.058037 0.043617
0.949955 0.089567 0.085713
0.993983 0.165248 0.121835
1.000000 0.224843 0.165021
1.000000 0.300363 0.216152
1.000000 0.374879 0.260400
1.000000 0.449520 0.314467
1.000000 0.530525 0.377351
1.000000 0.599718 0.454074
1.000000 0.664394 0.505664
1.000000 0.733821 0.573398
1.000000 0.787298 0.643042
1.000000 0.827098 0.706418
0.000000 0.331170 0.000000
0.000000 0.342285 0.000000
0.000000 0.346807 0.000000
0.000000 0.354048 0.000000
0.000000 0.354389 0.000000
0.000000 0.360209 0.000000
0.000000 0.376804 0.000000
0.000000 0.380177 0.000000
0.000000 0.397674 0.000000
0.000000 0.408012 0.000000
0.000000 0.419883 0.000000
0.000000 0.429145 0.000000
0.237740 0.429789 0.000000
0.411687 0.426645 0.000000
0.535997 0.404854 0.000000
0.609726 0.382184 0.000000
0.678332 0.366045 0.000000
0.740231 0.340358 0.000000
0.794968 0.311064 0.000000
0.851910 0.285475 0.000000
0.910773 0.229230 0.000000
0.956912 0.205651 0.084625
0.997004 0.226642 0.125965
1.000000 0.275117 0.167894
1.000000 0.332573 0.214456
1.000000 0.393674 0.267472
1.000000 0.467431 0.316496
1.000000 0.543839 0.382190
1.000000 0.605967 0.453961
1.000000 0.672856 0.508352
1.000000 0.736087 0.573444
1.000000 0.789053 0.643143
1.000000 0.828543 0.706523
0.000000 0.392692 0.000000
0.000000 0.394910 0.000000
0.000000 0.397430 0.000000
0.000000 0.402326 0.000000
0.000000 0.413889 0.000000
0.000000 0.414890 0.000000
0.000000 0.424792 0.000000
0.000000 0.436370 0.000000
0.000000 0.449261 0.000000
0.000000 0.463192 0.000000
0.000000 0.483266 0.000000
0.000000 0.494911 0.000000
0.000000 0.503845 0.000000
0.286849 0.503331 0.000000
0.469164 0.502435 0.000000
0.598795 0.473502 0.000000
0.680941 0.443798 0.000000
0.755025 0.428217 0.000000
0.807392 0.404650 0.000000
0.861008 0.389856 0.000000
0.913640 0.361880 0.000000
0.958056 0.317582 0.066068
0.995620 0.308230 0.126913
1.000000 0.332536 0.167612
1.000000 0.375295 0.218906
1.000000 0.426607 0.268075
1.000000 0.492140 0.320591
1.000000 0.560781 0.382246
1.000000 0.619283 0.457012
1.000000 0.679759 0.509573
1.000000 0.743568 0.579741
1.000000 0.790866 0.645945
1.000000 0.831412 0.706738
0.000000 0.453393 0.000000
0.000000 0.464782 0.000000
0.000000 0.470189 0.000000
0.000000 0.470081 0.000000
0.000000 0.479211 0.000000
0.000000 0.488948 0.000000
0.000000 0.490260 0.000000
0.000000 0.505363 0.000000
0.000000 0.515554 0.000000
0.000000 0.526319 0.000000
0.000000 0.537337 0.000000
0.000000 0.557739 0.000000
0.000000 0.564574 0.000000
0.000000 0.572594 0.000000
0.358030 0.573915 0.000000
0.537969 0.566013 0.000000
0.663064 0.546363 0.000000
0.751873 0.516166 0.000000
0.817264 0.506057 0.000000
0.864482 0.483443 0.000000
0.914094 0.457911 0.000000
0.957348 0.432420 0.000000
0.992639 0.403128 0.113318
1.000000 0.393919 0.171042
1.000000 0.423987 0.221168
1.000000 0.459718 0.273239
1.000000 0.520834 0.329965
1.000000 0.574166 0.389771
1.000000 0.631871 0.459520
1.000000 0.690631 0.512290
1.000000 0.750193 0.582659
1.000000 0.795337 0.647576
1.000000 0.832836 0.706848
0.000000 0.513489 0.000000
0.000000 0.525561 0.000000
0.000000 0.531065 0.000000
0.000000 0.530616 0.000000
0.000000 0.540645 0.000000
0.000000 0.547659 0.000000
0.000000 0.558438 0.000000
0.000000 0.563999 0.000000
0.000000 0.577440 0.000000
0.000000 0.591140 0.000000
0.000000 0.599140 0.000000
0.000000 0.616736 0.000000
0.000000 0.629908 0.000000
0.000000 0.636029 0.000000
0.000000 0.649207 0.000000
0.420681 0.643475 0.000000
0.595632 0.642103 0.000000
0.728662 0.618461 0.000000
0.808385 0.595841 0.000000
0.867987 0.573306 0.000000
0.907588 0.563226 0.000000
0.950030 0.545789 0.000000
0.986006 0.519111 0.109023
1.000000 0.499098 0.164521
1.000000 0.492514 0.228593
1.000000 0.519808 0.280729
1.000000 0.555311 0.336408
1.000000 0.601548 0.395396
1.000000 0.647235 0.459254
1.000000 0.698562 0.512295
1.000000 0.756596 0.582855
1.000000 0.798816 0.650485
1.000000 0.836152 0.710096
0.000000 0.574950 0.115118
0.000000 0.580907 0.099051
0.000000 0.587102 0.087599
0.000000 0.592508 0.000000
0.000000 0.605637 0.000000
0.000000 0.606903 0.000000
0.000000 0.614053 0.000000
0.000000 0.632997 0.000000
0.000000 0.636783 0.000000
0.000000 0.650751 0.000000
0.000000 0.668024 0.000000
0.000000 0.672370 0.000000
0.000000 0.686067 0.000000
0.000000 0.698817 0.000000
0.000000 0.703816 0.000000
0.239161 0.715343 0.000000
0.499074 0.712376 0.000000
0.663702 0.706939 0.000000
0.784878 0.684875 0.000000
0.850868 0.667489 0.000000
0.902717 0.643347 0.000000
0.944330 0.629807 0.000000
0.977227 0.613649 0.081082
1.000000 0.588338 0.173567
1.000000 0.573547 0.229024
1.000000 0.568862 0.285089
1.000000 0.589395 0.340506
1.000000 0.624948 0.400636
1.000000 0.666012 0.465064
1.000000 0.714901 0.521250
1.000000 0.767946 0.584586
1.000000 0.805557 0.650950
1.000000 0.838982 0.712651
0.000000 0.637460 0.202048
0.000000 0.643494 0.190096
0.000000 0.646398 0.181264
0.000000 0.659046 0.166661
0.000000 0.665672 0.140933
0.000000 0.672523 0.121599
0.000000 0.677500 0.117462
0.000000 0.692565 0.064319
0.000000 0.703072 0.011839
0.000000 0.706943 0.000000
0.000000 0.721127 0.000000
0.000000 0.733833 0.000000
0.000000 0.734529 0.000000
0.000000 0.746707 0.000000
0.000000 0.756843 0.000000
0.000000 0.765180 0.000000
0.371687 0.768230 0.000000
0.583077 0.763909 0.000000
0.731779 0.761172 0.000000
0.833655 0.745338 0.000000
0.886688 0.724966 0.000000
0.933223 0.709217 0.000000
0.964924 0.697500 0.064215
0.991853 0.686235 0.163551
1.000000 0.663615 0.241928
1.000000 0.644269 0.292776
1.000000 0.636817 0.344698
1.000000 0.663488 0.405584
1.000000 0.695752 0.468717
1.000000 0.737042 0.524304
1.000000 0.778004 0.593270
1.000000 0.810529 0.651320
1.000000 0.843090 0.713001
0.000000 0.702657 0.276374
0.000000 0.711640 0.257865
0.000000 0.711308 0.249254
0.000000 0.717444 0.239712
0.000000 0.724293 0.227765
0.000000 0.733688 0.202897
0.000000 0.744052 0.195944
0.000000 0.748926 0.174892
0.000000 0.757977 0.162786
0.000000 0.767105 0.146387
0.000000 0.773873 0.134170
0.000000 0.785836 0.118642
0.000000 0.796112 0.086012
0.000000 0.798981 0.081128
0.000000 0.805303 0.000000
0.000000 0.812871 0.000000
0.000000 0.817684 0.000000
0.479252 0.818125 0.000000
0.649495 0.815529 0.000000
0.781942 0.808330 0.000000
0.868908 0.795377 0.000000
0.917311 0.780676 0.000000
0.952424 0.768419 0.101901
0.978133 0.758444 0.183089
1.000000 0.741688 0.257890
1.000000 0.728230 0.320139
1.000000 0.711556 0.362498
1.000000 0.710626 0.410913
1.000000 0.730925 0.477765
1.000000 0.761073 0.537270
1.000000 0.789704 0.594592
1.000000 0.821111 0.656216
1.000000 0.847173 0.715674
0.000000 0.757431 0.344490
0.000000 0.762886 0.334569
0.000000 0.770778 0.315038
0.000000 0.776230 0.305437
0.000000 0.779370 0.293522
0.000000 0.785437 0.281726
0.000000 0.791561 0.273139
0.000000 0.796078 0.262920
0.000000 0.803821 0.253360
0.000000 0.816264 0.246740
0.000000 0.821505 0.231649
0.000000 0.827261 0.230400
0.000000 0.835879 0.214381
0.000000 0.843739 0.194525
0.000000 0.845273 0.196247
0.000000 0.849555 0.180259
0.000000 0.856123 0.167572
0.306641 0.856565 0.142950
0.575723 0.855239 0.131905
0.717391 0.852232 0.109249
0.828334 0.845940 0.091020
0.900281 0.837245 0.040726
0.938872 0.823351 0.117605
0.967381 0.816972 0.210153
0.990049 0.805082 0.275490
1.000000 0.793901 0.340537
1.000000 0.782887 0.388514
1.000000 0.772145 0.435986
1.000000 0.769409 0.490610
1.000000 0.786361 0.547472
1.000000 0.804295 0.601081
1.000000 0.830914 0.663058
1.000000 0.855853 0.724536
0.000000 0.802570 0.410817
0.000000 0.807449 0.407540
0.000000 0.814313 0.391276
0.000000 0.821218 0.375385
0.000000 0.826204 0.366576
0.000000 0.826998 0.364581
0.000000 0.834090 0.346513
0.000000 0.842043 0.343023
0.000000 0.846039 0.330474
0.000000 0.852500 0.331747
0.000000 0.858641 0.320152
0.000000 0.865158 0.309917
0.000000 0.867045 0.304569
0.000000 0.875972 0.300463
0.000000 0.880375 0.285851
0.000000 0.882596 0.288209
0.000000 0.883183 0.267528
0.000000 0.889382 0.268214
0.458564 0.887676 0.247630
0.657976 0.883798 0.236867
0.773037 0.882546 0.237670
0.869363 0.875494 0.225497
0.923931 0.868481 0.204235
0.956330 0.858737 0.237967
0.979734 0.851764 0.308950
1.000000 0.843491 0.364043
1.000000 0.833924 0.407903
1.000000 0.823149 0.465380
1.000000 0.812544 0.515209
1.000000 0.811762 0.559594
1.000000 0.824258 0.612963
1.000000 0.842873 0.669514
1.000000 0.865215 0.731153
0.000000 0.846890 0.480490
0.000000 0.848656 0.467462
0.000000 0.852587 0.464425
0.000000 0.858627 0.455590
0.000000 0.862580 0.437100
0.000000 0.867081 0.435609
0.000000 0.867685 0.427255
0.000000 0.876398 0.421282
0.000000 0.881469 0.418501
0.000000 0.883404 0.409882
0.000000 0.888711 0.405099
0.000000 0.894152 0.398218
0.000000 0.900470 0.391005
0.000000 0.901868 0.389368
0.000000 0.907263 0.388774
0.000000 0.910199 0.375150
0.000000 0.914886 0.375635
0.000000 0.913201 0.364117
0.290170 0.914651 0.356924
0.576665 0.912842 0.350553
0.713773 0.909387 0.336760
0.825925 0.906061 0.336100
0.896747 0.902905 0.327999
0.939876 0.897412 0.310309
0.968685 0.887255 0.345605
0.992538 0.880142 0.399540
1.000000 0.873377 0.439162
1.000000 0.865640 0.484197
1.000000 0.857087 0.547072
1.000000 0.847593 0.582408
1.000000 0.848028 0.624659
1.000000 0.858837 0.682963
1.000000 0.874513 0.736636
0.000000 0.881949 0.552242
0.000000 0.885239 0.542744
0.000000 0.888373 0.526729
0.000000 0.890464 0.524627
0.000000 0.894004 0.512958
0.000000 0.897726 0.508253
0.000000 0.900005 0.510098
0.000000 0.904183 0.497428
0.000000 0.908280 0.488121
0.000000 0.914042 0.483368
0.000000 0.915716 0.487851
0.000000 0.921245 0.480869
0.000000 0.925139 0.476911
0.000000 0.928646 0.473135
0.000000 0.929235 0.468351
0.000000 0.933924 0.474981
0.000000 0.935185 0.461641
0.000000 0.939257 0.461838
0.000000 0.936516 0.451139
0.469950 0.935047 0.449814
0.661447 0.932811 0.440348
0.781156 0.929309 0.434031
0.863221 0.926800 0.432527
0.919759 0.924296 0.424457
0.955648 0.918735 0.410957
0.981109 0.909803 0.423348
1.000000 0.903756 0.467791
1.000000 0.899456 0.518081
1.000000 0.892162 0.567061
1.000000 0.883236 0.611299
1.000000 0.877057 0.648780
1.000000 0.878064 0.695301
1.000000 0.886559 0.743204
0.000000 0.915552 0.615684
0.000000 0.919499 0.603445
0.000000 0.920878 0.591215
0.000000 0.922554 0.592481
0.000000 0.926650 0.578438
0.000000 0.929395 0.570528
0.000000 0.931136 0.569387
0.000000 0.932027 0.569017
0.000000 0.937521 0.563871
0.000000 0.940819 0.558836
0.000000 0.945263 0.558019
0.000000 0.946523 0.550652
0.000000 0.949524 0.552494
0.000000 0.952324 0.551667
0.000000 0.954691 0.544876
0.000000 0.955538 0.546900
0.000000 0.956442 0.537018
0.000000 0.957699 0.530323
0.000000 0.958520 0.529459
0.362580 0.954480 0.519724
