Assets/Lutify-Free-LUTs-Pack/Lutify Free LUTs Pack/Film Tone Pro - Film Tone 3/Lutify.me-FilmTone3-FLog2-to-Rec709.cube
# Created with: fylm.ai - Colour Grading and Collaboration Software in Cloud 
# Website: https://fylm.ai 
# META
# Option: Gamut compress
# Block 1: IDT | Fujifilm F-Gamut F-Log2
# Block 2: colourMatch | Blending Mode: Normal | {"ColorSpace":0,"CrossCovarianceLimit":50,"ReshapingIterations":1,"PercentSaturationShift":100,"PercentShadingShift":100,"ExtraShading":true,"PercentTint":100,"PercentModified":100}
# Block 3: subtractiveColour | Blending Mode: Normal | {"sliders":{"gainY":0.6,"C":0.3,"M":0.3,"Y":0.3}}
# Block 4: LUT | Filmic Curve Response: Low Contrast 2 (100%)
# Block 5: logPrimaries | Blending Mode: Normal | {"wheels":{"shadows":{"Y":"0","R":"1","G":"1","B":"1"},"midtones":{"Y":"0","R":"1","G":"1","B":"1"},"highlights":{"Y":"0","R":"1","G":"1","B":"1"},"offset":{"Y":"0","R":"1","G":"1","B":"1"}},"sliders":{"shadows":{"Y":0,"R":-0.026,"G":0.03,"B":0.1},"midtones":{"Y":0,"R":0.024,"G":-0.036,"B":0.036},"highlights":{"Y":0,"R":0,"G":0.044,"B":-0.128},"offset":{"Y":0,"R":0,"G":0,"B":0}}}
# Block 6: hueSaturation | Blending Mode: Normal | {"hue":0,"saturation":-0.1}
# Block 7: ODT | Rec709
TITLE "Lutify.me-FilmTone3-FLog2-to-Rec709" 
LUT_3D_SIZE 33
0.000000 0.000000 0.000000
0.000000 0.000000 0.000000
0.000000 0.000000 0.000000
0.000000 0.000000 0.000000
0.000000 0.000000 0.000000
0.024226 0.000000 0.000000
0.067338 0.000000 0.000000
0.100429 0.000000 0.000000
0.126849 0.000000 0.000000
0.160698 0.000000 0.000000
0.200168 0.000000 0.000000
0.245989 0.000000 0.000000
0.290871 0.000000 0.000000
0.346971 0.000000 0.000000
0.412725 0.000000 0.000000
0.485130 0.000000 0.000000
0.572007 0.000000 0.000000
0.654844 0.000000 0.012680
0.734264 0.000000 0.042720
0.817132 0.000000 0.065195
0.904211 0.000000 0.093631
0.960783 0.000000 0.129759
1.000000 0.032792 0.167435
1.000000 0.231783 0.220015
1.000000 0.340313 0.273988
1.000000 0.435199 0.337058
1.000000 0.537214 0.402684
1.000000 0.616400 0.481609
1.000000 0.687255 0.538847
1.000000 0.757382 0.608186
1.000000 0.808274 0.681167
1.000000 0.845193 0.738654
1.000000 0.879248 0.785235
0.000000 0.000000 0.000000
0.000000 0.000000 0.000000
0.000000 0.000000 0.000000
0.000000 0.000000 0.000000
0.000000 0.000000 0.000000
0.027273 0.000000 0.000000
0.069116 0.000000 0.000000
0.101506 0.000000 0.000000
0.128389 0.000000 0.000000
0.162736 0.000000 0.000000
0.204217 0.000000 0.000000
0.247813 0.000000 0.000000
0.293139 0.000000 0.000000
0.349792 0.000000 0.000000
0.416086 0.000000 0.000000
0.485948 0.000000 0.000000
0.572650 0.000000 0.000000
0.658878 0.000000 0.013409
0.738230 0.000000 0.042267
0.817633 0.000000 0.066675
0.904341 0.000000 0.093328
0.960786 0.000000 0.129486
1.000000 0.035409 0.170307
1.000000 0.231783 0.220015
1.000000 0.341081 0.278443
1.000000 0.435199 0.337058
1.000000 0.537214 0.402684
1.000000 0.616400 0.481609
1.000000 0.687255 0.538847
1.000000 0.757382 0.608186
1.000000 0.808274 0.681167
1.000000 0.845193 0.738654
1.000000 0.879248 0.785235
0.000000 0.000000 0.000000
0.000000 0.000000 0.000000
0.000000 0.000000 0.000000
0.000000 0.000000 0.000000
0.000000 0.000000 0.000000
0.031586 0.000000 0.000000
0.071656 0.000000 0.000000
0.103577 0.000000 0.000000
0.130096 0.000000 0.000000
0.166710 0.000000 0.000000
0.207047 0.000000 0.000000
0.251480 0.000000 0.000000
0.299020 0.000000 0.000000
0.354932 0.000000 0.000000
0.416886 0.000000 0.000000
0.489937 0.000000 0.000000
0.573421 0.000000 0.000000
0.659539 0.000000 0.014021
0.738885 0.000000 0.043567
0.817861 0.000000 0.066360
0.904467 0.000000 0.093011
0.960783 0.000000 0.129198
1.000000 0.062338 0.170141
1.000000 0.231783 0.220015
1.000000 0.348713 0.278147
1.000000 0.442205 0.336834
1.000000 0.537214 0.402684
1.000000 0.616400 0.481609
1.000000 0.687255 0.538847
1.000000 0.757382 0.608186
1.000000 0.808274 0.681167
1.000000 0.845193 0.738654
1.000000 0.879248 0.785235
0.000000 0.000000 0.000000
0.000000 0.000000 0.000000
0.000000 0.000000 0.000000
0.000000 0.000000 0.000000
0.000000 0.000000 0.000000
0.037312 0.000000 0.000000
0.073631 0.000000 0.000000
0.105532 0.000000 0.000000
0.133133 0.000000 0.000000
0.169833 0.000000 0.000000
0.208689 0.000000 0.000000
0.256963 0.000000 0.000000
0.301443 0.000000 0.000000
0.357920 0.000000 0.000000
0.420696 0.000000 0.000000
0.490880 0.000000 0.000000
0.577683 0.000000 0.000000
0.660200 0.000000 0.014479
0.739141 0.000000 0.043225
0.818087 0.000000 0.066031
0.904467 0.000000 0.093011
0.960783 0.000000 0.129198
1.000000 0.062338 0.170141
1.000000 0.236496 0.219841
1.000000 0.348713 0.278147
1.000000 0.443328 0.337653
1.000000 0.537214 0.402684
1.000000 0.616400 0.481609
1.000000 0.687255 0.538847
1.000000 0.757382 0.608186
1.000000 0.808274 0.681167
1.000000 0.845193 0.738654
1.000000 0.879248 0.785235
0.000000 0.000000 0.000000
0.000000 0.000000 0.000000
0.000000 0.000000 0.000000
0.000000 0.000000 0.000000
0.000000 0.000000 0.000000
0.043124 0.000000 0.000000
0.078565 0.000000 0.000000
0.110060 0.000000 0.000000
0.136734 0.000000 0.000000
0.174271 0.000000 0.000000
0.213221 0.000000 0.000000
0.262551 0.000000 0.000000
0.305857 0.000000 0.000000
0.363221 0.000000 0.000000
0.424545 0.000000 0.000000
0.495011 0.000000 0.000000
0.578978 0.000000 0.000000
0.661127 0.000000 0.013730
0.739650 0.000000 0.042485
0.818561 0.000000 0.066429
0.904754 0.000000 0.094912
0.960780 0.000000 0.129049
1.000000 0.091643 0.169796
1.000000 0.236821 0.223274
1.000000 0.348713 0.278147
1.000000 0.443328 0.337653
1.000000 0.540519 0.402604
1.000000 0.616400 0.481609
1.000000 0.687255 0.538847
1.000000 0.757382 0.608186
1.000000 0.808274 0.681167
1.000000 0.845193 0.738654
1.000000 0.879248 0.785235
0.000000 0.026215 0.000000
0.000000 0.027993 0.000000
0.000000 0.029756 0.000000
0.000000 0.032250 0.000000
0.000000 0.034995 0.000000
0.039583 0.033134 0.000000
0.076894 0.013112 0.000000
0.115053 0.000000 0.000000
0.144948 0.000000 0.000000
0.185123 0.000000 0.000000
0.221219 0.000000 0.000000
0.270708 0.000000 0.000000
0.314463 0.000000 0.000000
0.369243 0.000000 0.000000
0.431426 0.000000 0.000000
0.499401 0.000000 0.000000
0.583911 0.000000 0.000000
0.669476 0.000000 0.013367
0.744012 0.000000 0.043622
0.818786 0.000000 0.066067
0.904936 0.000000 0.094418
0.960768 0.000000 0.128740
1.000000 0.103139 0.172535
1.000000 0.241476 0.223101
1.000000 0.352507 0.277995
1.000000 0.443328 0.337653
1.000000 0.540519 0.402604
1.000000 0.616400 0.481609
1.000000 0.687255 0.538847
1.000000 0.757382 0.608186
1.000000 0.808274 0.681167
1.000000 0.846544 0.738752
1.000000 0.879248 0.785235
0.000000 0.053735 0.000000
0.000000 0.053886 0.000000
0.000000 0.054856 0.000000
0.000000 0.055540 0.000000
0.000000 0.057125 0.000000
0.000000 0.059892 0.000000
0.074925 0.056052 0.000000
0.118777 0.044203 0.000000
0.156267 0.013458 0.000000
0.198688 0.000000 0.000000
0.238524 0.000000 0.000000
0.279712 0.000000 0.000000
0.324307 0.000000 0.000000
0.383251 0.000000 0.000000
0.436136 0.000000 0.000000
0.501209 0.000000 0.000000
0.585353 0.000000 0.000000
0.670803 0.000000 0.012921
0.744644 0.000000 0.042555
0.823434 0.000000 0.066767
0.908363 0.000000 0.096442
0.963508 0.000000 0.131230
1.000000 0.112045 0.172593
1.000000 0.241476 0.223101
1.000000 0.352507 0.277995
1.000000 0.443328 0.337653
1.000000 0.540519 0.402604
1.000000 0.619555 0.481560
1.000000 0.687255 0.538847
1.000000 0.757382 0.608186
1.000000 0.808274 0.681167
1.000000 0.846544 0.738752
1.000000 0.879248 0.785235
0.000000 0.076894 0.000000
0.000000 0.077006 0.000000
0.000000 0.077119 0.000000
0.000000 0.078494 0.000000
0.000000 0.082613 0.000000
0.000000 0.087556 0.000000
0.052231 0.090919 0.000000
0.118564 0.079969 0.000000
0.164732 0.068019 0.000000
0.214115 0.037914 0.000000
0.256370 0.000000 0.000000
0.294023 0.000000 0.000000
0.335802 0.000000 0.000000
0.395853 0.000000 0.000000
0.450054 0.000000 0.000000
0.513349 0.000000 0.000000
0.597900 0.000000 0.000000
0.675650 0.000000 0.003565
0.745661 0.000000 0.041806
0.824350 0.000000 0.067416
0.908635 0.000000 0.095555
0.963467 0.000000 0.130746
1.000000 0.128851 0.172226
1.000000 0.250933 0.223022
1.000000 0.356285 0.277840
1.000000 0.443458 0.340111
1.000000 0.540519 0.402604
1.000000 0.619555 0.481560
1.000000 0.689973 0.538847
1.000000 0.757382 0.608186
1.000000 0.808274 0.681167
1.000000 0.846544 0.738752
1.000000 0.879248 0.785235
0.000000 0.102994 0.000000
0.000000 0.104649 0.000000
0.000000 0.104791 0.000000
0.000000 0.106677 0.000000
0.000000 0.110378 0.000000
0.000000 0.115099 0.000000
0.000000 0.120264 0.000000
0.109905 0.121859 0.000000
0.168612 0.109022 0.000000
0.222844 0.089938 0.000000
0.271575 0.071276 0.000000
0.312985 0.035420 0.000000
0.356243 0.000000 0.000000
0.408726 0.000000 0.000000
0.466016 0.000000 0.000000
0.527025 0.000000 0.000000
0.607810 0.000000 0.000000
0.677649 0.000000 0.000000
0.750885 0.000000 0.040726
0.829027 0.000000 0.067733
0.909213 0.000000 0.097834
0.966033 0.000000 0.132403
1.000000 0.150415 0.173128
1.000000 0.264507 0.224199
1.000000 0.363801 0.277524
1.000000 0.446944 0.340000
1.000000 0.543822 0.402524
1.000000 0.619555 0.481560
1.000000 0.690594 0.539398
1.000000 0.761599 0.608325
1.000000 0.808274 0.681167
1.000000 0.846544 0.738752
1.000000 0.879248 0.785235
0.000000 0.137209 0.000000
0.000000 0.139435 0.000000
0.000000 0.139660 0.000000
0.000000 0.142193 0.000000
0.000000 0.149327 0.000000
0.000000 0.152213 0.000000
0.000000 0.165359 0.000000
0.025854 0.169715 0.000000
0.152424 0.169034 0.000000
0.230274 0.148565 0.000000
0.288221 0.129702 0.000000
0.330047 0.112190 0.000000
0.376471 0.088603 0.000000
0.431981 0.000000 0.000000
0.482485 0.000000 0.000000
0.549182 0.000000 0.000000
0.625761 0.000000 0.000000
0.688292 0.000000 0.000000
0.756591 0.000000 0.038872
0.830483 0.000000 0.070777
0.912848 0.000000 0.100241
0.966065 0.000000 0.134226
1.000000 0.169106 0.175756
1.000000 0.268885 0.224004
1.000000 0.371998 0.281755
1.000000 0.450425 0.339887
1.000000 0.547123 0.402442
1.000000 0.622830 0.484330
1.000000 0.690594 0.539398
1.000000 0.761599 0.608325
1.000000 0.809938 0.681269
1.000000 0.846544 0.738752
1.000000 0.879248 0.785235
0.000000 0.173490 0.000000
0.000000 0.177737 0.000000
0.000000 0.178166 0.000000
0.000000 0.178596 0.000000
0.000000 0.186264 0.000000
0.000000 0.195018 0.000000
0.000000 0.202326 0.000000
0.000000 0.209500 0.000000
0.106499 0.209584 0.000000
0.219505 0.209066 0.000000
0.292225 0.184345 0.000000
0.341394 0.171772 0.000000
0.392646 0.154754 0.000000
0.457409 0.127079 0.000000
0.509377 0.086969 0.000000
0.570891 0.000000 0.000000
0.638167 0.000000 0.000000
0.706536 0.000000 0.000000
0.770166 0.000000 0.034704
0.842667 0.000000 0.072482
0.913411 0.000000 0.100238
0.968383 0.000000 0.135591
1.000000 0.191470 0.176416
1.000000 0.282060 0.226945
1.000000 0.375707 0.281595
1.000000 0.461392 0.339959
1.000000 0.551626 0.403316
1.000000 0.622830 0.484330
1.000000 0.693288 0.539400
1.000000 0.761599 0.608325
1.000000 0.809938 0.681269
1.000000 0.846544 0.738752
1.000000 0.880253 0.785327
0.000000 0.214062 0.000000
0.000000 0.219243 0.000000
0.000000 0.224331 0.000000
0.000000 0.224912 0.000000
0.000000 0.230651 0.000000
0.000000 0.236890 0.000000
0.000000 0.246005 0.000000
0.000000 0.253675 0.000000
0.000000 0.255576 0.000000
0.183913 0.256378 0.000000
0.274265 0.258660 0.000000
0.354478 0.229755 0.000000
0.409322 0.216241 0.000000
0.477473 0.192060 0.000000
0.534808 0.174651 0.000000
0.588998 0.151238 0.000000
0.655880 0.106095 0.000000
0.722470 0.000000 0.000000
0.784294 0.000000 0.033623
0.851597 0.000000 0.073003
0.920057 0.000000 0.102545
0.972755 0.113589 0.136503
1.000000 0.216879 0.178340
1.000000 0.303367 0.229802
1.000000 0.386907 0.283239
1.000000 0.464852 0.339842
1.000000 0.558451 0.408566
1.000000 0.625984 0.484281
1.000000 0.693288 0.539400
1.000000 0.763683 0.608398
1.000000 0.809938 0.681269
1.000000 0.847886 0.738852
1.000000 0.880253 0.785327
0.000000 0.262318 0.000000
0.000000 0.264638 0.000000
0.000000 0.270646 0.000000
0.000000 0.271706 0.000000
0.000000 0.274544 0.000000
0.000000 0.281886 0.000000
0.000000 0.291981 0.000000
0.000000 0.295257 0.000000
0.000000 0.301828 0.000000
0.000000 0.305313 0.000000
0.224326 0.310726 0.000000
0.341960 0.306366 0.000000
0.415988 0.282634 0.000000
0.488984 0.262422 0.000000
0.549873 0.248887 0.000000
0.610988 0.231072 0.000000
0.674425 0.209497 0.000000
0.736602 0.185608 0.000000
0.799894 0.134761 0.000000
0.863877 0.064252 0.071825
0.926421 0.104910 0.105124
0.974363 0.177770 0.138017
1.000000 0.245030 0.182031
1.000000 0.327457 0.230324
1.000000 0.401794 0.286898
1.000000 0.479186 0.339779
1.000000 0.565023 0.408404
1.000000 0.632286 0.484183
1.000000 0.695968 0.539403
1.000000 0.765825 0.611286
1.000000 0.811593 0.681375
1.000000 0.847980 0.743261
1.000000 0.880253 0.785327
0.000000 0.321813 0.000000
0.000000 0.322728 0.000000
0.000000 0.323877 0.000000
0.000000 0.331485 0.000000
0.000000 0.335091 0.000000
0.000000 0.343701 0.000000
0.000000 0.348240 0.000000
0.000000 0.358612 0.000000
0.000000 0.364382 0.000000
0.000000 0.377726 0.000000
0.037851 0.378794 0.000000
0.265253 0.378075 0.000000
0.394033 0.383620 0.000000
0.496320 0.346415 0.000000
0.572861 0.333594 0.000000
0.632030 0.324293 0.000000
0.692891 0.305231 0.000000
0.757033 0.283296 0.000000
0.815673 0.256162 0.000000
0.878671 0.223508 0.058139
0.934491 0.213206 0.106416
0.975576 0.230864 0.141776
1.000000 0.292615 0.182276
1.000000 0.355310 0.236515
1.000000 0.420433 0.288579
1.000000 0.493178 0.344312
1.000000 0.571714 0.410963
1.000000 0.636044 0.484631
1.000000 0.703919 0.539426
1.000000 0.767873 0.611365
1.000000 0.811593 0.681375
1.000000 0.847980 0.743261
1.000000 0.880253 0.785327
0.000000 0.387697 0.000000
0.000000 0.388539 0.000000
0.000000 0.389852 0.000000
0.000000 0.391450 0.000000
0.000000 0.395178 0.000000
0.000000 0.405028 0.000000
0.000000 0.409838 0.000000
0.000000 0.418133 0.000000
0.000000 0.427084 0.000000
0.000000 0.436614 0.000000
0.000000 0.444963 0.000000
0.120581 0.449151 0.000000
0.317952 0.448423 0.000000
0.473992 0.444089 0.000000
0.566737 0.417124 0.000000
0.636216 0.408482 0.000000
0.706404 0.390071 0.000000
0.768139 0.374039 0.000000
0.828567 0.357998 0.000000
0.884610 0.345719 0.015470
0.937294 0.309655 0.098058
0.979324 0.306328 0.145578
1.000000 0.341108 0.188702
1.000000 0.389695 0.240441
1.000000 0.446127 0.292135
1.000000 0.514313 0.346542
1.000000 0.582367 0.416667
1.000000 0.645339 0.484496
1.000000 0.709142 0.539452
1.000000 0.770370 0.612048
1.000000 0.813299 0.684099
1.000000 0.851365 0.744534
1.000000 0.881256 0.785421
0.000000 0.459353 0.000000
0.000000 0.460628 0.000000
0.000000 0.461583 0.000000
0.000000 0.462748 0.000000
0.000000 0.463913 0.000000
0.000000 0.468194 0.000000
0.000000 0.479097 0.000000
0.000000 0.487174 0.000000
0.000000 0.499272 0.000000
0.000000 0.508370 0.000000
0.000000 0.514320 0.000000
0.000000 0.522360 0.000000
0.183236 0.525716 0.000000
0.400169 0.527110 0.000000
0.551038 0.522866 0.000000
0.629812 0.498248 0.000000
0.708094 0.479694 0.000000
0.779392 0.457827 0.000000
0.835342 0.443941 0.000000
0.890693 0.433818 0.000000
0.937135 0.413681 0.095673
0.977229 0.401407 0.145864
1.000000 0.402157 0.195908
1.000000 0.427021 0.246196
1.000000 0.479073 0.298044
1.000000 0.538958 0.353906
1.000000 0.592429 0.421932
1.000000 0.654733 0.490045
1.000000 0.716954 0.542341
1.000000 0.774434 0.615030
1.000000 0.816566 0.684314
1.000000 0.852668 0.744634
1.000000 0.882290 0.787265
0.000000 0.539527 0.000000
0.000000 0.543463 0.000000
0.000000 0.544344 0.000000
0.000000 0.545338 0.000000
0.000000 0.546101 0.000000
0.000000 0.547195 0.000000
0.000000 0.548488 0.000000
0.000000 0.556880 0.000000
0.000000 0.565524 0.000000
0.000000 0.573815 0.000000
0.000000 0.580020 0.000000
0.000000 0.581914 0.000000
0.000000 0.592275 0.000000
0.295615 0.594558 0.000000
0.471474 0.595081 0.000000
0.616283 0.590853 0.000000
0.708405 0.568441 0.000000
0.785883 0.550390 0.000000
0.843467 0.537488 0.000000
0.890916 0.525048 0.000000
0.934829 0.519955 0.062459
0.973314 0.502776 0.148981
1.000000 0.492812 0.195078
1.000000 0.496324 0.258655
1.000000 0.525361 0.307828
1.000000 0.560529 0.362058
1.000000 0.612795 0.427473
1.000000 0.670233 0.490384
1.000000 0.730153 0.548723
1.000000 0.780288 0.615310
1.000000 0.819798 0.684538
1.000000 0.854007 0.746898
1.000000 0.883582 0.787847
0.000000 0.618816 0.000000
0.000000 0.619487 0.000000
0.000000 0.620262 0.000000
0.000000 0.620927 0.000000
0.000000 0.621797 0.000000
0.000000 0.622549 0.000000
0.000000 0.623505 0.000000
0.000000 0.628122 0.000000
0.000000 0.632989 0.000000
0.000000 0.638391 0.000000
0.000000 0.649416 0.000000
0.000000 0.654988 0.000000
0.000000 0.659452 0.000000
0.143774 0.668567 0.000000
0.373809 0.670843 0.000000
0.544844 0.667895 0.000000
0.675014 0.666942 0.000000
0.774499 0.645039 0.000000
0.837350 0.624951 0.000000
0.890624 0.616037 0.000000
0.931651 0.601200 0.065358
0.967755 0.587805 0.153950
0.997171 0.582087 0.210039
1.000000 0.577909 0.266728
1.000000 0.578350 0.320796
1.000000 0.598232 0.369288
1.000000 0.643310 0.436118
1.000000 0.687728 0.493105
1.000000 0.740002 0.554585
1.000000 0.786061 0.618427
1.000000 0.823429 0.687955
1.000000 0.857833 0.747209
1.000000 0.884570 0.787942
0.000000 0.692974 0.000000
0.000000 0.693407 0.000000
0.000000 0.696962 0.000000
0.000000 0.697391 0.000000
0.000000 0.697579 0.000000
0.000000 0.698317 0.000000
0.000000 0.699024 0.000000
0.000000 0.700031 0.000000
0.000000 0.701087 0.000000
0.000000 0.705731 0.000000
0.000000 0.713677 0.000000
0.000000 0.721186 0.000000
0.000000 0.728432 0.000000
0.000000 0.728730 0.000000
0.286750 0.733153 0.000000
0.471448 0.734214 0.000000
0.617642 0.733456 0.000000
0.746853 0.731930 0.000000
0.828471 0.713270 0.000000
0.879817 0.694883 0.000000
0.923956 0.683742 0.063380
0.956087 0.677029 0.154047
0.987118 0.661764 0.216998
1.000000 0.657985 0.286547
1.000000 0.650757 0.331545
1.000000 0.648812 0.378988
1.000000 0.677960 0.441619
1.000000 0.716559 0.505572
1.000000 0.757114 0.558958
1.000000 0.794421 0.625685
1.000000 0.828134 0.688312
1.000000 0.860339 0.747425
1.000000 0.887511 0.788232
0.000000 0.755394 0.132836
0.000000 0.761512 0.130934
0.000000 0.761864 0.131425
0.000000 0.762026 0.127545
0.000000 0.762371 0.128053
0.000000 0.762711 0.128563
0.000000 0.763261 0.120925
0.000000 0.763745 0.121749
0.000000 0.764423 0.118572
0.000000 0.765201 0.115634
0.000000 0.768732 0.106433
0.000000 0.775172 0.106467
0.000000 0.778222 0.078477
0.000000 0.783198 0.000000
0.087008 0.782371 0.039671
0.384148 0.788092 0.000000
0.562013 0.787292 0.000000
0.694479 0.785725 0.000000
0.800640 0.784036 0.000000
0.860179 0.774024 0.000000
0.912332 0.753146 0.100893
0.948022 0.741283 0.179463
0.975532 0.735811 0.234504
0.996725 0.729014 0.308045
1.000000 0.725092 0.350329
1.000000 0.717205 0.399162
1.000000 0.721506 0.456115
1.000000 0.745282 0.517982
1.000000 0.774951 0.568746
1.000000 0.803543 0.629092
1.000000 0.835063 0.695093
1.000000 0.864376 0.750419
1.000000 0.889487 0.790142
0.000000 0.817952 0.213474
0.000000 0.818136 0.213846
0.000000 0.818257 0.214094
0.000000 0.818317 0.214218
0.000000 0.818552 0.214718
0.000000 0.818724 0.215094
0.000000 0.818893 0.215472
0.000000 0.819190 0.213005
0.000000 0.819336 0.207011
0.000000 0.819680 0.201621
0.000000 0.822297 0.199441
0.000000 0.827006 0.197259
0.000000 0.829367 0.199465
0.000000 0.833181 0.195622
0.000000 0.837905 0.173699
0.306864 0.836117 0.186177
0.504776 0.836782 0.169559
0.642111 0.833070 0.168620
0.755600 0.831035 0.170164
0.842619 0.827682 0.174902
0.894145 0.821538 0.164008
0.936352 0.807320 0.223798
0.964605 0.797946 0.272824
0.986091 0.791790 0.337608
1.000000 0.787927 0.379521
1.000000 0.780890 0.427971
1.000000 0.781017 0.479445
1.000000 0.780158 0.531844
1.000000 0.793711 0.582309
1.000000 0.817944 0.636384
1.000000 0.843956 0.698406
1.000000 0.870339 0.753107
1.000000 0.892935 0.793077
0.000000 0.862528 0.296622
0.000000 0.862594 0.296894
0.000000 0.862626 0.297029
0.000000 0.862688 0.297303
0.000000 0.862777 0.297714
0.000000 0.862805 0.297851
0.000000 0.862887 0.298263
0.000000 0.863009 0.298955
0.000000 0.863052 0.296358
0.000000 0.863164 0.297340
0.000000 0.863119 0.291894
0.000000 0.864902 0.290547
0.000000 0.866515 0.289107
0.000000 0.867732 0.285215
0.000000 0.872039 0.278896
0.194754 0.871828 0.273320
0.456994 0.872315 0.278944
0.600460 0.870476 0.274519
0.715090 0.866724 0.274151
0.806188 0.864965 0.279402
0.871178 0.866998 0.271659
0.921979 0.856905 0.265064
0.952544 0.845284 0.318478
0.974876 0.839148 0.365194
0.996579 0.833675 0.409482
1.000000 0.827393 0.454976
1.000000 0.823288 0.502633
1.000000 0.819932 0.553860
1.000000 0.819918 0.596359
1.000000 0.835078 0.647556
1.000000 0.855758 0.703203
1.000000 0.876527 0.754771
1.000000 0.896760 0.796791
0.000000 0.897138 0.390739
0.000000 0.897140 0.390876
0.000000 0.897140 0.391152
0.000000 0.897139 0.391289
0.000000 0.897139 0.391289
0.000000 0.897129 0.391704
0.000000 0.897118 0.391980
0.000000 0.897010 0.385837
0.000000 0.896940 0.386675
0.000000 0.896826 0.384028
0.000000 0.898224 0.385248
0.000000 0.897943 0.383192
0.000000 0.900464 0.375702
0.000000 0.901436 0.377609
0.000000 0.900374 0.380056
0.109798 0.900146 0.377017
0.432536 0.899794 0.363330
0.571800 0.899429 0.368338
0.681788 0.898607 0.364822
0.779298 0.894958 0.365255
0.854136 0.893212 0.371024
0.900170 0.894988 0.372037
0.939954 0.885890 0.369335
0.965523 0.877670 0.405272
0.988811 0.871228 0.445851
1.000000 0.868323 0.487300
1.000000 0.861725 0.536234
1.000000 0.858386 0.578225
1.000000 0.856416 0.617874
1.000000 0.857973 0.659916
1.000000 0.867847 0.714911
1.000000 0.884521 0.758793
1.000000 0.903441 0.799614
0.000000 0.925012 0.476015
0.000000 0.925012 0.476015
0.000000 0.924935 0.476291
0.000000 0.926120 0.476749
0.000000 0.926080 0.476887
0.000000 0.926080 0.476887
0.000000 0.926039 0.477026
0.000000 0.925953 0.477304
0.000000 0.925817 0.477721
0.000000 0.926784 0.472301
0.000000 0.926544 0.469716
0.000000 0.926137 0.470710
0.000000 0.926818 0.462645
0.000000 0.927273 0.461336
0.000000 0.926413 0.462820
0.210122 0.924548 0.465563
0.421218 0.923205 0.462911
0.557897 0.923462 0.455680
0.665070 0.922397 0.454733
0.754174 0.919139 0.453633
0.829823 0.917145 0.454791
0.880925 0.918182 0.460523
0.922352 0.917495 0.460939
0.957103 0.910879 0.458814
0.979750 0.902867 0.482097
0.998400 0.899960 0.523162
1.000000 0.893064 0.564205
1.000000 0.888916 0.607597
1.000000 0.886690 0.643124
1.000000 0.885014 0.682546
1.000000 0.885912 0.728531
1.000000 0.895061 0.768604
1.000000 0.910609 0.806923
0.000000 0.948213 0.543261
0.000000 0.948213 0.543261
0.000000 0.948146 0.543398
0.000000 0.948146 0.543398
0.000000 0.948078 0.543536
0.000000 0.948078 0.543536
0.000000 0.948008 0.543674
0.000000 0.948850 0.544481
0.000000 0.948756 0.541529
0.000000 0.948530 0.541946
0.000000 0.948375 0.542225
0.000000 0.949002 0.540246
0.000000 0.948548 0.537874
0.000000 0.949890 0.536788
0.000000 0.948732 0.535322
0.309977 0.947064 0.537396
0.439255 0.945149 0.539530
0.547454 0.944576 0.534180
0.645677 0.944437 0.530333
0.732386 0.943190 0.532861
0.805171 0.940247 0.526330
0.858231 0.938001 0.531786
0.902386 0.936993 0.536481
0.938586 0.938041 0.541418
0.969829 0.933362 0.535134
0.990150 0.928603 0.560097
1.000000 0.921606 0.601600
1.000000 0.919691 0.641821
1.000000 0.914474 0.677527
1.000000 0.911866 0.707301
1.000000 0.911925 0.750905
1.000000 0.912518 0.779758
1.000000 0.922146 0.813290
0.000000 0.968100 0.611440
0.000000 0.968100 0.611440
0.000000 0.968100 0.611440
0.000000 0.968100 0.611440
0.000000 0.968006 0.611576
0.000000 0.968006 0.611576
0.000000 0.967814 0.611848
0.000000 0.967716 0.611984
0.000000 0.967617 0.612120
0.000000 0.967314 0.612530
0.000000 0.967106 0.612804
0.000000 0.968201 0.611567
0.000000 0.967740 0.609132
0.239231 0.967663 0.610734
0.328075 0.966751 0.605775
0.412782 0.966982 0.602450
0.486719 0.965533 0.603928
0.559606 0.963761 0.605759
0.639279 0.962146 0.606052
0.721044 0.960726 0.602345
