Assets/Lutify-Free-LUTs-Pack/Lutify Free LUTs Pack/Film Tone Pro - Film Tone 3/Lutify.me-FilmTone3-SLog3Venice-to-Rec709.cube
# Created with: fylm.ai - Colour Grading and Collaboration Software in Cloud 
# Website: https://fylm.ai 
# META
# Option: Gamut compress
# Block 1: IDT | Sony Venice S-Log3 S-Gamut3
# Block 2: colourMatch | Blending Mode: Normal | {"ColorSpace":0,"CrossCovarianceLimit":50,"ReshapingIterations":1,"PercentSaturationShift":100,"PercentShadingShift":100,"ExtraShading":true,"PercentTint":100,"PercentModified":100}
# Block 3: subtractiveColour | Blending Mode: Normal | {"sliders":{"gainY":0.6,"C":0.3,"M":0.3,"Y":0.3}}
# Block 4: LUT | Filmic Curve Response: Low Contrast 2 (100%)
# Block 5: logPrimaries | Blending Mode: Normal | {"wheels":{"shadows":{"Y":"0","R":"1","G":"1","B":"1"},"midtones":{"Y":"0","R":"1","G":"1","B":"1"},"highlights":{"Y":"0","R":"1","G":"1","B":"1"},"offset":{"Y":"0","R":"1","G":"1","B":"1"}},"sliders":{"shadows":{"Y":0,"R":-0.026,"G":0.03,"B":0.1},"midtones":{"Y":0,"R":0.024,"G":-0.036,"B":0.036},"highlights":{"Y":0,"R":0,"G":0.044,"B":-0.128},"offset":{"Y":0,"R":0,"G":0,"B":0}}}
# Block 6: hueSaturation | Blending Mode: Normal | {"hue":0,"saturation":-0.1}
# Block 7: ODT | Rec709
TITLE "Lutify.me-FilmTone3-SLog3Venice-to-Rec709" 
LUT_3D_SIZE 9
0.000000 0.000000 0.000000
0.005358 0.000000 0.000000
0.136131 0.000000 0.000000
0.284811 0.000000 0.000000
0.535538 0.000000 0.000000
0.857684 0.000000 0.057299
1.000000 0.161223 0.203884
1.000000 0.576713 0.445789
1.000000 0.824132 0.703840
0.000000 0.022126 0.000000
0.000000 0.027076 0.000000
0.144556 0.000000 0.000000
0.305337 0.000000 0.000000
0.550585 0.000000 0.000000
0.859321 0.000000 0.057031
1.000000 0.180360 0.204021
1.000000 0.579842 0.445733
1.000000 0.824132 0.703840
0.000000 0.108366 0.000000
0.000000 0.116918 0.000000
0.163190 0.120392 0.000000
0.353106 0.000000 0.000000
0.575581 0.000000 0.000000
0.872120 0.000000 0.053748
1.000000 0.213416 0.206487
1.000000 0.582971 0.445676
1.000000 0.825592 0.703943
0.000000 0.244991 0.000000
0.000000 0.262715 0.000000
0.000000 0.293573 0.000000
0.395078 0.283530 0.000000
0.648470 0.169080 0.000000
0.893498 0.000000 0.051992
1.000000 0.270514 0.212613
1.000000 0.590104 0.448818
1.000000 0.827044 0.704049
0.000000 0.453393 0.000000
0.000000 0.479211 0.000000
0.000000 0.515554 0.000000
0.000000 0.564574 0.000000
0.663064 0.546363 0.000000
0.914094 0.457911 0.000000
1.000000 0.423987 0.221168
1.000000 0.631871 0.459520
1.000000 0.832836 0.706848
0.000000 0.702657 0.276374
0.000000 0.724293 0.227765
0.000000 0.757977 0.162786
0.000000 0.796112 0.086012
0.000000 0.817684 0.000000
0.868908 0.795377 0.000000
1.000000 0.741688 0.257890
1.000000 0.730925 0.477765
1.000000 0.847173 0.715674
0.000000 0.881949 0.552242
0.000000 0.894004 0.512958
0.000000 0.908280 0.488121
0.000000 0.925139 0.476911
0.000000 0.935185 0.461641
0.661447 0.932811 0.440348
0.955648 0.918735 0.410957
1.000000 0.892162 0.567061
1.000000 0.886559 0.743204
0.000000 0.983895 0.765021
0.000000 0.987500 0.753639
0.000000 0.992493 0.746717
0.000000 0.998213 0.743709
0.000000 0.999561 0.744985
0.464635 0.995497 0.733662
0.853336 0.987697 0.729753
0.996185 0.979712 0.726693
1.000000 0.966906 0.807468
0.000000 1.000000 0.893183
0.000000 1.000000 0.891687
0.000000 1.000000 0.889082
0.000000 1.000000 0.889070
0.209803 1.000000 0.888049
0.604898 1.000000 0.888198
0.806084 1.000000 0.884964
0.945016 1.000000 0.886124
1.000000 1.000000 0.894312
0.000000 0.000000 0.000000
0.000000 0.000000 0.000000
0.129898 0.000000 0.000000
0.275000 0.000000 0.000000
0.538302 0.000000 0.012748
0.859546 0.000000 0.071573
1.000000 0.162541 0.213471
1.000000 0.576836 0.448489
1.000000 0.824132 0.703840
0.000000 0.000000 0.027350
0.000000 0.011044 0.021326
0.136138 0.000000 0.000000
0.295574 0.000000 0.000000
0.551159 0.000000 0.019248
0.861167 0.000000 0.071974
1.000000 0.180888 0.214678
1.000000 0.579964 0.448434
1.000000 0.824132 0.703840
0.000000 0.106083 0.016093
0.000000 0.114700 0.000000
0.138510 0.128976 0.000000
0.341620 0.000000 0.000000
0.569721 0.000000 0.014942
0.871007 0.000000 0.075541
1.000000 0.214046 0.215995
1.000000 0.583094 0.448378
1.000000 0.825592 0.703943
0.000000 0.249176 0.000000
0.000000 0.262753 0.000000
0.000000 0.301443 0.000000
0.370060 0.300338 0.000000
0.648406 0.188435 0.000000
0.889455 0.000000 0.080353
1.000000 0.271302 0.221144
1.000000 0.596595 0.454130
1.000000 0.827098 0.706418
0.000000 0.456803 0.097947
0.000000 0.482806 0.000000
0.000000 0.522143 0.000000
0.000000 0.571704 0.000000
0.658212 0.563540 0.000000
0.914411 0.474825 0.000000
1.000000 0.424937 0.234902
1.000000 0.632111 0.465018
1.000000 0.832888 0.709201
0.000000 0.703992 0.311412
0.000000 0.725260 0.259695
0.000000 0.759184 0.205653
0.000000 0.797199 0.155068
0.000000 0.816752 0.068614
0.866500 0.799182 0.000000
1.000000 0.742177 0.271629
1.000000 0.731113 0.483362
1.000000 0.847268 0.720260
0.000000 0.880308 0.558653
0.000000 0.894130 0.529074
0.000000 0.908308 0.497601
0.000000 0.925246 0.486499
0.000000 0.935300 0.474123
0.661539 0.932880 0.449226
0.955509 0.918878 0.424194
1.000000 0.892197 0.569784
1.000000 0.886559 0.743204
0.000000 0.983140 0.766856
0.000000 0.986768 0.755403
0.000000 0.992466 0.748903
0.000000 0.998222 0.746056
0.000000 0.999650 0.744794
0.464633 0.995498 0.735915
0.853280 0.987700 0.731865
0.995911 0.980134 0.729326
1.000000 0.966906 0.807468
0.000000 1.000000 0.893142
0.000000 1.000000 0.891645
0.000000 1.000000 0.891114
0.000000 1.000000 0.889988
0.209803 1.000000 0.888049
0.604898 1.000000 0.888198
0.806084 1.000000 0.884964
0.944996 1.000000 0.886915
1.000000 1.000000 0.894312
0.000000 0.000000 0.061204
0.000000 0.000000 0.053675
0.126160 0.000000 0.039192
0.276446 0.000000 0.034959
0.536445 0.000000 0.045026
0.859523 0.000000 0.093256
1.000000 0.163838 0.226398
1.000000 0.577203 0.456629
1.000000 0.824187 0.706213
0.000000 0.000000 0.084699
0.000000 0.000000 0.073557
0.123177 0.000000 0.057539
0.294997 0.000000 0.051256
0.556974 0.000000 0.050390
0.864854 0.000000 0.096207
1.000000 0.181863 0.226032
1.000000 0.580331 0.456577
1.000000 0.824187 0.706213
0.000000 0.090968 0.164566
0.000000 0.106293 0.154271
0.115798 0.132215 0.139665
0.338444 0.000000 0.077892
0.575795 0.000000 0.056774
0.874863 0.000000 0.103256
1.000000 0.214453 0.227206
1.000000 0.583460 0.456525
1.000000 0.825646 0.706314
0.000000 0.264217 0.186067
0.000000 0.277352 0.168923
0.000000 0.312080 0.130193
0.358023 0.328187 0.093128
0.651324 0.186057 0.054216
0.892284 0.000000 0.108836
1.000000 0.272554 0.235211
1.000000 0.596838 0.459584
1.000000 0.827098 0.706418
0.000000 0.468792 0.210439
0.000000 0.495155 0.173420
0.000000 0.528952 0.122505
0.000000 0.582063 0.000000
0.646912 0.579699 0.000000
0.916424 0.467606 0.084986
1.000000 0.426018 0.251088
1.000000 0.632351 0.470541
1.000000 0.832888 0.709201
0.000000 0.705639 0.357280
0.000000 0.723849 0.313214
0.000000 0.760764 0.269564
0.000000 0.796232 0.218496
0.000000 0.818466 0.172208
0.859925 0.807515 0.097819
1.000000 0.743246 0.302268
1.000000 0.731300 0.488981
1.000000 0.847268 0.720260
0.000000 0.878807 0.574963
0.000000 0.892674 0.548276
0.000000 0.908414 0.516714
0.000000 0.925390 0.505455
0.000000 0.935386 0.483505
0.652330 0.934277 0.461386
0.954493 0.921082 0.441743
1.000000 0.892265 0.575246
1.000000 0.886593 0.745290
0.000000 0.983123 0.771186
0.000000 0.986728 0.759796
0.000000 0.992431 0.753324
0.000000 0.997089 0.747570
0.000000 0.999659 0.749344
0.464630 0.995498 0.738154
0.851478 0.987783 0.733812
0.995768 0.980145 0.733065
1.000000 0.966918 0.808887
0.000000 1.000000 0.894072
0.000000 1.000000 0.892175
0.000000 1.000000 0.891031
0.000000 1.000000 0.889988
0.210326 1.000000 0.889023
0.604898 1.000000 0.888198
0.806096 1.000000 0.885852
0.944996 1.000000 0.886915
1.000000 1.000000 0.894943
0.000000 0.000000 0.129003
0.000000 0.000000 0.105303
0.111886 0.000000 0.096472
0.275503 0.000000 0.064685
0.531361 0.000000 0.113453
0.863343 0.000000 0.151680
1.000000 0.160807 0.258097
1.000000 0.577810 0.470330
1.000000 0.824242 0.708578
0.000000 0.000000 0.174760
0.000000 0.000000 0.150122
0.097909 0.000000 0.143655
0.284072 0.000000 0.104598
0.557264 0.000000 0.136979
0.868529 0.000000 0.155546
1.000000 0.185250 0.261549
1.000000 0.577810 0.470330
1.000000 0.824242 0.708578
0.000000 0.039252 0.269902
0.000000 0.050362 0.243816
0.018973 0.059387 0.239029
0.336987 0.000000 0.197606
0.586194 0.000000 0.169749
0.881303 0.000000 0.164701
1.000000 0.207511 0.265317
1.000000 0.584188 0.472999
1.000000 0.825701 0.708678
0.000000 0.215412 0.381019
0.000000 0.236940 0.360361
0.000000 0.294315 0.348972
0.312397 0.335579 0.341623
0.644466 0.192338 0.237384
0.895404 0.000000 0.184367
1.000000 0.270445 0.272705
1.000000 0.591318 0.476196
1.000000 0.827207 0.711131
0.000000 0.487161 0.438478
0.000000 0.502022 0.419709
0.000000 0.537387 0.369850
0.000000 0.597391 0.334647
0.622193 0.604868 0.305922
0.916170 0.468235 0.220042
1.000000 0.428425 0.289810
1.000000 0.629839 0.484507
1.000000 0.832993 0.713882
0.000000 0.709379 0.468584
0.000000 0.727048 0.429185
0.000000 0.760259 0.390988
0.000000 0.802126 0.358451
0.000000 0.823958 0.324515
0.854755 0.815526 0.291543
1.000000 0.747402 0.348339
1.000000 0.729333 0.505934
1.000000 0.848690 0.724925
0.000000 0.881260 0.621251
0.000000 0.892779 0.586711
0.000000 0.907071 0.560951
0.000000 0.925701 0.543640
0.000000 0.935840 0.530521
0.652578 0.934601 0.506281
0.952969 0.923553 0.492044
1.000000 0.892433 0.594007
1.000000 0.886694 0.751485
0.000000 0.980851 0.783065
0.000000 0.986541 0.767941
0.000000 0.991716 0.763824
0.000000 0.997103 0.758679
0.000000 0.999674 0.756049
0.463115 0.995056 0.746439
0.847730 0.987955 0.741833
0.994010 0.981025 0.741147
1.000000 0.966930 0.810303
0.000000 1.000000 0.895518
0.000000 1.000000 0.894072
0.000000 1.000000 0.892883
0.000000 1.000000 0.891895
0.203320 1.000000 0.889954
0.605071 1.000000 0.890067
0.806109 1.000000 0.886737
0.944954 1.000000 0.888493
1.000000 1.000000 0.895574
0.000000 0.000000 0.215276
0.000000 0.000000 0.205520
0.057212 0.000000 0.198957
0.283413 0.000000 0.163187
0.482916 0.000000 0.111811
0.864239 0.000000 0.306014
1.000000 0.148936 0.360019
1.000000 0.570096 0.509650
1.000000 0.824570 0.722583
0.000000 0.000000 0.283497
0.000000 0.000000 0.268338
0.000000 0.000000 0.265936
0.295722 0.000000 0.251341
0.503036 0.000000 0.176504
0.873649 0.000000 0.314398
1.000000 0.174998 0.362592
1.000000 0.573224 0.509618
1.000000 0.824570 0.722583
0.000000 0.000000 0.364803
0.000000 0.022518 0.354553
0.000000 0.027973 0.346596
0.285991 0.000000 0.347419
0.561550 0.000000 0.286040
0.880042 0.000000 0.329879
1.000000 0.208924 0.368030
1.000000 0.579480 0.509554
1.000000 0.824570 0.722583
0.000000 0.133326 0.508370
0.000000 0.156049 0.486892
0.000000 0.180411 0.482589
0.212976 0.211044 0.487857
0.666364 0.000000 0.435163
0.901245 0.000000 0.371925
1.000000 0.266695 0.376099
1.000000 0.592864 0.512744
1.000000 0.827476 0.722762
0.000000 0.399684 0.621673
0.000000 0.408342 0.621626
0.000000 0.470048 0.591515
0.000000 0.578713 0.593426
0.594801 0.608253 0.582115
0.908151 0.470172 0.477243
1.000000 0.425478 0.408981
1.000000 0.628376 0.524287
1.000000 0.833253 0.725427
0.000000 0.712975 0.688854
0.000000 0.725449 0.685354
0.000000 0.760138 0.632323
0.000000 0.806917 0.609093
0.000000 0.833544 0.591007
0.838725 0.823322 0.567817
0.996493 0.751409 0.478827
1.000000 0.728185 0.549135
1.000000 0.847601 0.736013
0.000000 0.879322 0.721959
0.000000 0.887617 0.704769
0.000000 0.905117 0.667296
0.000000 0.927474 0.648659
0.000000 0.939186 0.634869
0.633610 0.934896 0.615235
0.944781 0.926575 0.599394
1.000000 0.893959 0.633119
1.000000 0.886795 0.757581
0.000000 0.977171 0.817501
0.000000 0.983402 0.800601
0.000000 0.989457 0.790861
0.000000 0.997117 0.783491
0.000000 0.999871 0.783089
0.450221 0.995326 0.769448
0.847132 0.987982 0.763833
0.991659 0.982698 0.769774
1.000000 0.966930 0.819411
0.000000 1.000000 0.899337
0.000000 1.000000 0.900161
0.000000 1.000000 0.897170
0.000000 1.000000 0.897085
0.181696 1.000000 0.894637
0.605420 1.000000 0.893769
0.805911 1.000000 0.890901
0.944100 1.000000 0.891575
1.000000 1.000000 0.898732
0.000000 0.000000 0.416400
0.000000 0.000000 0.412328
0.000000 0.000000 0.414798
0.205435 0.000000 0.401087
0.526963 0.000000 0.321278
0.750573 0.000000 0.225729
1.000000 0.000000 0.555694
1.000000 0.569131 0.603971
1.000000 0.821284 0.748347
0.000000 0.000000 0.476609
0.000000 0.000000 0.471572
0.000000 0.000000 0.471266
0.180232 0.000000 0.466555
0.562900 0.000000 0.425354
0.786319 0.000000 0.322217
1.000000 0.000000 0.556172
1.000000 0.572306 0.603956
1.000000 0.821284 0.748347
0.000000 0.000000 0.524754
0.000000 0.000000 0.528907
0.000000 0.000000 0.526674
0.153168 0.000000 0.528718
0.593552 0.000000 0.518696
0.832687 0.000000 0.413528
1.000000 0.000000 0.562967
1.000000 0.580135 0.604652
1.000000 0.822765 0.748411
0.000000 0.107016 0.613966
0.000000 0.117316 0.609486
0.000000 0.121968 0.612501
0.000000 0.129099 0.618614
0.591288 0.000000 0.617865
0.893598 0.000000 0.540376
1.000000 0.205928 0.583463
1.000000 0.592884 0.607592
1.000000 0.825222 0.749504
0.000000 0.331665 0.724112
0.000000 0.360492 0.722591
0.000000 0.385151 0.723096
0.000000 0.426532 0.724815
0.468257 0.462178 0.725266
0.926413 0.350201 0.683385
1.000000 0.398414 0.623300
1.000000 0.630601 0.617879
1.000000 0.832460 0.752007
0.000000 0.620512 0.821478
0.000000 0.620512 0.821478
0.000000 0.620512 0.821478
0.000000 0.758447 0.791410
0.000000 0.823613 0.795346
0.808260 0.824229 0.786972
0.983672 0.749648 0.702073
1.000000 0.729898 0.646168
1.000000 0.846889 0.763757
0.000000 0.869849 0.852449
0.000000 0.869849 0.852449
0.000000 0.869792 0.850713
0.000000 0.924623 0.815283
0.000000 0.940061 0.808062
0.615484 0.937443 0.792682
0.928212 0.931125 0.782853
1.000000 0.894900 0.726321
1.000000 0.886202 0.782626
0.000000 0.974721 0.879809
0.000000 0.974721 0.879809
0.000000 0.982892 0.859039
0.000000 0.996285 0.840262
0.000000 1.000000 0.834799
0.429631 0.997177 0.826384
0.845709 0.987245 0.817614
0.988325 0.983278 0.818488
1.000000 0.967463 0.837821
0.000000 1.000000 0.913967
0.000000 1.000000 0.912502
0.000000 1.000000 0.909802
0.000000 1.000000 0.909000
0.074924 1.000000 0.907244
0.598951 1.000000 0.903100
0.803628 1.000000 0.900518
0.943873 1.000000 0.900127
1.000000 1.000000 0.907321
0.000000 0.000000 0.701430
0.000000 0.000000 0.702970
0.000000 0.000000 0.698460
0.186666 0.000000 0.699617
0.453239 0.000000 0.689383
0.856811 0.000000 0.628287
1.000000 0.000000 0.505313
1.000000 0.503444 0.773786
1.000000 0.819392 0.805742
0.000000 0.027632 0.712871
0.000000 0.011464 0.714401
0.000000 0.000000 0.713092
0.178824 0.000000 0.711757
0.454197 0.000000 0.708402
0.868347 0.000000 0.661264
1.000000 0.000000 0.552296
1.000000 0.506835 0.778650
1.000000 0.819392 0.805742
0.000000 0.081287 0.734908
0.000000 0.076475 0.736178
0.000000 0.072786 0.737921
0.142133 0.039925 0.739756
0.451168 0.000000 0.730564
0.880036 0.000000 0.705122
1.000000 0.000000 0.601653
1.000000 0.513206 0.778606
1.000000 0.820883 0.805755
0.000000 0.151836 0.771705
0.000000 0.153239 0.769987
0.000000 0.155586 0.772019
0.000000 0.155423 0.776403
0.437185 0.093373 0.774206
0.895292 0.000000 0.767175
1.000000 0.000000 0.680639
1.000000 0.535711 0.783203
1.000000 0.822367 0.805768
0.000000 0.299583 0.822402
0.000000 0.304923 0.823401
0.000000 0.308354 0.824914
0.000000 0.324480 0.824153
0.348142 0.325825 0.827149
0.881323 0.250100 0.821538
1.000000 0.043990 0.774646
1.000000 0.598277 0.796432
1.000000 0.828752 0.807923
0.000000 0.617451 0.875188
0.000000 0.633863 0.874624
0.000000 0.640934 0.873029
0.000000 0.661756 0.876255
0.000000 0.708031 0.871614
0.740375 0.724428 0.868618
1.000000 0.665377 0.850439
1.000000 0.706469 0.809510
1.000000 0.846542 0.817483
0.000000 0.818350 0.924204
0.000000 0.818350 0.924204
0.000000 0.818350 0.924204
0.000000 0.818350 0.924204
0.000000 0.922417 0.906591
0.559243 0.936584 0.902875
0.916550 0.930299 0.898206
1.000000 0.892495 0.853759
1.000000 0.886928 0.830126
0.000000 0.964072 0.940928
0.000000 0.964072 0.940928
0.000000 0.964072 0.940928
0.000000 0.964072 0.940928
0.000000 1.000000 0.919053
0.326290 0.999058 0.911554
0.834943 0.988743 0.903284
0.979540 0.984947 0.899040
1.000000 0.967771 0.875219
0.000000 1.000000 0.956826
0.000000 1.000000 0.956826
0.000000 1.000000 0.956826
0.000000 1.000000 0.938208
0.000000 1.000000 0.932846
0.579921 1.000000 0.929642
0.798841 1.000000 0.925394
0.939507 1.000000 0.923188
1.000000 1.000000 0.925379
0.252386 0.176577 0.886184
0.266437 0.175354 0.886279
0.289214 0.173113 0.886429
0.346906 0.163583 0.885008
0.517743 0.118259 0.883942
0.777045 0.000000 0.877364
1.000000 0.000000 0.849976
1.000000 0.000000 0.775542
1.000000 0.794688 0.894821
0.249332 0.186858 0.889737
0.254155 0.186494 0.889768
0.286842 0.183699 0.889975
0.345325 0.177040 0.886884
0.513107 0.136866 0.885795
0.777139 0.000000 0.879331
1.000000 0.000000 0.854485
1.000000 0.000000 0.787126
1.000000 0.796310 0.894774
0.238874 0.203777 0.894873
0.248936 0.203155 0.894933
0.277952 0.201102 0.895104
0.342678 0.194894 0.890448
0.507893 0.165188 0.887700
0.777127 0.000000 0.883094
1.000000 0.000000 0.862810
1.000000 0.000000 0.798525
1.000000 0.796310 0.894774
0.188811 0.254131 0.899669
0.207760 0.253577 0.899763
0.242064 0.252333 0.899941
0.316493 0.252961 0.900316
0.490266 0.230003 0.897782
0.776090 0.130274 0.893467
1.000000 0.000000 0.881574
1.000000 0.000000 0.828539
1.000000 0.800178 0.895914
0.000000 0.362975 0.920049
0.000000 0.362879 0.920102
0.000000 0.362593 0.920230
0.218843 0.366784 0.917782
0.434024 0.374660 0.915403
0.752756 0.334890 0.913251
1.000000 0.262773 0.905910
1.000000 0.230721 0.862441
1.000000 0.809873 0.899013
0.000000 0.578254 0.933007
0.000000 0.578391 0.933082
0.000000 0.581878 0.933088
0.000000 0.585506 0.933266
0.216083 0.594355 0.932459
0.639090 0.605697 0.930068
1.000000 0.581759 0.926435
1.000000 0.558365 0.899795
1.000000 0.833511 0.901837
0.000000 0.858829 0.953311
0.000000 0.859225 0.952714
0.000000 0.861762 0.952134
0.000000 0.864952 0.952754
0.000000 0.878979 0.949832
0.397662 0.885186 0.948510
0.885926 0.882167 0.945366
1.000000 0.858992 0.934297
1.000000 0.879083 0.913692
0.000000 0.937731 0.982174
0.000000 0.937731 0.982174
0.000000 0.936606 0.982245
0.000000 0.936606 0.982245
0.000000 0.936606 0.982245
0.000000 0.995877 0.966390
0.813121 0.990227 0.963839
0.972624 0.985693 0.959158
1.000000 0.967098 0.938554
0.000000 1.000000 0.989860
0.000000 1.000000 0.989860
0.000000 1.000000 0.989860
0.000000 1.000000 0.989860
0.000000 1.000000 0.989860
0.491882 1.000000 0.976188
0.786935 1.000000 0.969780
0.935149 1.000000 0.966208
1.000000 1.000000 0.964872
0.596322 0.420651 0.971797
0.605485 0.420012 0.971769
0.610050 0.419687 0.971755
0.628210 0.418349 0.971697
0.691140 0.409606 0.970754
0.815046 0.396696 0.970247
0.986570 0.362124 0.966876
1.000000 0.267295 0.953756
1.000000 0.349567 0.914269
0.595687 0.424307 0.973307
0.604721 0.423326 0.971678
0.609294 0.423005 0.971664
0.627486 0.421687 0.971607
0.690596 0.413200 0.971474
0.814537 0.400306 0.970166
0.986132 0.366369 0.967616
1.000000 0.276248 0.954602
1.000000 0.362303 0.915464
0.593269 0.434228 0.973025
0.593269 0.434228 0.973025
0.607104 0.433319 0.972984
0.620840 0.432379 0.972941
0.688833 0.423794 0.972796
0.813019 0.411298 0.970713
0.984797 0.378540 0.968200
1.000000 0.289329 0.956297
1.000000 0.373691 0.916615
0.584455 0.451417 0.974114
0.589140 0.451142 0.974101
0.589140 0.451142 0.974101
0.612379 0.449718 0.974033
0.675966 0.445291 0.973820
0.809828 0.433349 0.972522
0.978924 0.410112 0.968367
1.000000 0.349265 0.960872
1.000000 0.421291 0.921057
0.561504 0.512383 0.975894
0.566427 0.512172 0.975883
0.571332 0.511959 0.975871
0.590777 0.511077 0.975823
0.645687 0.514961 0.975426
0.786752 0.498918 0.974455
0.962488 0.479576 0.971279
1.000000 0.455471 0.966205
1.000000 0.495538 0.934114
0.491987 0.635533 0.980496
0.491987 0.635533 0.980496
0.503525 0.635279 0.980478
0.520514 0.634882 0.980451
0.589022 0.636323 0.980162
0.733294 0.640592 0.977396
0.925047 0.626431 0.975315
1.000000 0.629430 0.971521
1.000000 0.659177 0.948673
0.206295 0.811575 0.984735
0.223314 0.811484 0.984731
0.253149 0.811297 0.984724
0.310442 0.813017 0.984572
0.423403 0.815880 0.984251
0.626950 0.819411 0.983020
0.842630 0.819964 0.980259
1.000000 0.815744 0.977937
1.000000 0.817841 0.963014
0.000000 0.964969 0.993411
0.000000 0.964803 0.993415
0.000000 0.964630 0.993420
0.000000 0.963920 0.993428
0.000000 0.963739 0.993301
0.420351 0.965124 0.991350
0.767552 0.962044 0.989351
0.954740 0.959332 0.987472
1.000000 0.948134 0.981906
0.000000 0.999183 1.000000
0.000000 0.999183 1.000000
0.000000 0.999183 1.000000
0.000000 0.999183 1.000000
0.000000 0.999183 1.000000
0.000000 0.999183 1.000000
0.701790 1.000000 0.998703
0.927775 1.000000 0.997171
0.998895 1.000000 0.994971
