Assets/Lutify-Free-LUTs-Pack/Lutify Free LUTs Pack/Film Tone Pro - Film Tone 3/Lutify.me-FilmTone3-RWG-to-RWG.cube
# Created with: fylm.ai - Colour Grading and Collaboration Software in Cloud 
# Website: https://fylm.ai 
# META
# Option: Gamut compress
# Block 1: colourMatch | Blending Mode: Normal | {"ColorSpace":0,"CrossCovarianceLimit":50,"ReshapingIterations":1,"PercentSaturationShift":100,"PercentShadingShift":100,"ExtraShading":true,"PercentTint":100,"PercentModified":100}
# Block 2: subtractiveColour | Blending Mode: Normal | {"sliders":{"gainY":0.6,"C":0.3,"M":0.3,"Y":0.3}}
# Block 3: LUT | Filmic Curve Response: Low Contrast 2 (100%)
# Block 4: logPrimaries | Blending Mode: Normal | {"wheels":{"shadows":{"Y":"0","R":"1","G":"1","B":"1"},"midtones":{"Y":"0","R":"1","G":"1","B":"1"},"highlights":{"Y":"0","R":"1","G":"1","B":"1"},"offset":{"Y":"0","R":"1","G":"1","B":"1"}},"sliders":{"shadows":{"Y":0,"R":-0.026,"G":0.03,"B":0.1},"midtones":{"Y":0,"R":0.024,"G":-0.036,"B":0.036},"highlights":{"Y":0,"R":0,"G":0.044,"B":-0.128},"offset":{"Y":0,"R":0,"G":0,"B":0}}}
# Block 5: hueSaturation | Blending Mode: Normal | {"hue":0,"saturation":-0.1}
TITLE "ipp2" 
LUT_3D_SIZE 33
0.068354 0.076388 0.082875
0.068354 0.076388 0.082875
0.072009 0.076637 0.083184
0.085327 0.084637 0.088938
0.105798 0.081717 0.087012
0.129139 0.081738 0.089322
0.153985 0.084343 0.092637
0.183856 0.087566 0.097054
0.213989 0.091324 0.102408
0.241786 0.097693 0.108913
0.270194 0.105535 0.116952
0.301565 0.118130 0.128223
0.327667 0.131681 0.139596
0.355765 0.147855 0.153728
0.382404 0.163943 0.168672
0.406160 0.184547 0.186280
0.430204 0.207578 0.205537
0.457515 0.232261 0.227491
0.480961 0.258862 0.248730
0.506990 0.286250 0.273179
0.531025 0.314792 0.297791
0.558900 0.340642 0.324196
0.585958 0.368991 0.351629
0.614195 0.397052 0.380989
0.644032 0.423195 0.409191
0.675926 0.449849 0.438628
0.707036 0.479739 0.468889
0.739885 0.505757 0.498699
0.773744 0.532727 0.528976
0.814065 0.562992 0.564510
0.850278 0.594355 0.597909
0.886298 0.624443 0.630739
0.928781 0.658668 0.669102
0.068354 0.076388 0.082875
0.068354 0.076388 0.082875
0.072009 0.076637 0.083184
0.085439 0.085227 0.089453
0.105128 0.082608 0.087166
0.129951 0.082765 0.089656
0.156268 0.085038 0.093050
0.184559 0.088102 0.097277
0.215618 0.092879 0.103034
0.246106 0.099864 0.110271
0.273075 0.107768 0.118162
0.302668 0.119749 0.128936
0.328845 0.133415 0.140415
0.355882 0.148617 0.153969
0.382522 0.164919 0.168798
0.406320 0.185886 0.186684
0.430288 0.208820 0.205756
0.457599 0.233268 0.227790
0.480884 0.258768 0.248503
0.507076 0.287444 0.273543
0.531115 0.316145 0.298237
0.558900 0.340642 0.324196
0.585880 0.368871 0.351293
0.614331 0.399204 0.381687
0.644032 0.423195 0.409191
0.675926 0.449849 0.438628
0.707036 0.479739 0.468889
0.739885 0.505757 0.498699
0.773705 0.532657 0.528790
0.814065 0.562992 0.564510
0.850278 0.594355 0.597909
0.886298 0.624443 0.630739
0.928781 0.658668 0.669102
0.069075 0.081738 0.084221
0.069597 0.081773 0.084266
0.073252 0.082023 0.084576
0.085095 0.086613 0.089767
0.105269 0.084050 0.087526
0.130146 0.085142 0.090246
0.157547 0.087024 0.093662
0.187411 0.090709 0.098283
0.217360 0.095652 0.103967
0.247162 0.102154 0.111016
0.276069 0.111092 0.119686
0.304867 0.122677 0.130285
0.330100 0.135747 0.141410
0.357164 0.150686 0.154996
0.383709 0.166310 0.169685
0.406362 0.186594 0.186749
0.430330 0.209629 0.205851
0.457525 0.233644 0.227572
0.480850 0.259243 0.248447
0.506998 0.287338 0.273292
0.531115 0.316145 0.298237
0.558911 0.341878 0.324316
0.585925 0.369581 0.351532
0.614331 0.399204 0.381687
0.643992 0.423122 0.408968
0.675926 0.449849 0.438628
0.707036 0.479739 0.468889
0.739885 0.505757 0.498699
0.773748 0.533319 0.528988
0.814065 0.562992 0.564510
0.850278 0.594355 0.597909
0.886298 0.624443 0.630739
0.928781 0.658668 0.669102
0.076361 0.094154 0.091148
0.077390 0.094216 0.091233
0.078420 0.094277 0.091319
0.085140 0.094606 0.091505
0.108013 0.092322 0.089906
0.132792 0.090547 0.091846
0.160143 0.091170 0.094967
0.191726 0.094788 0.099854
0.220027 0.100042 0.105457
0.251871 0.106865 0.113130
0.279174 0.115481 0.121502
0.307250 0.126881 0.132000
0.333432 0.139124 0.143398
0.359648 0.154328 0.156868
0.383983 0.168176 0.170274
0.407675 0.189955 0.188051
0.430416 0.211249 0.206039
0.458585 0.234941 0.228275
0.481948 0.260673 0.249306
0.507127 0.289138 0.273850
0.531043 0.316661 0.297993
0.558911 0.341878 0.324316
0.585925 0.369581 0.351532
0.614331 0.399204 0.381687
0.644037 0.423850 0.409204
0.675926 0.449849 0.438628
0.707036 0.479739 0.468889
0.739928 0.506418 0.498897
0.773748 0.533319 0.528988
0.814065 0.562992 0.564510
0.850278 0.594355 0.597909
0.886298 0.624443 0.630739
0.928781 0.658668 0.669102
0.077085 0.115381 0.094998
0.078554 0.115384 0.094764
0.080024 0.115387 0.094531
0.085262 0.116602 0.095266
0.113210 0.119831 0.098449
0.143515 0.114572 0.099681
0.171082 0.111900 0.101864
0.202568 0.111016 0.105614
0.231650 0.110772 0.110205
0.258123 0.115709 0.116688
0.285619 0.123459 0.125166
0.312586 0.132660 0.135022
0.338010 0.144336 0.146308
0.363026 0.157517 0.158965
0.385492 0.172470 0.172028
0.407919 0.192937 0.188598
0.430504 0.212971 0.206274
0.458678 0.236970 0.228695
0.481995 0.261763 0.249536
0.507054 0.289591 0.273675
0.530964 0.316546 0.297677
0.559001 0.343259 0.324778
0.587034 0.370605 0.352435
0.614331 0.399204 0.381687
0.644037 0.423850 0.409204
0.675969 0.450501 0.438824
0.707036 0.479739 0.468889
0.739928 0.506418 0.498897
0.773748 0.533319 0.528988
0.814065 0.562992 0.564510
0.850278 0.594355 0.597909
0.886298 0.624443 0.630739
0.928781 0.658668 0.669102
0.079662 0.136591 0.101699
0.081140 0.136671 0.101819
0.083110 0.136778 0.101980
0.088528 0.139699 0.103370
0.111162 0.143762 0.106469
0.152148 0.145984 0.110935
0.185569 0.139048 0.112073
0.216686 0.136477 0.115330
0.244405 0.135126 0.119489
0.268314 0.133925 0.123940
0.291650 0.134222 0.129604
0.317654 0.141571 0.138965
0.340747 0.150245 0.148806
0.364547 0.161447 0.160587
0.389062 0.177445 0.174891
0.409197 0.196935 0.189538
0.431768 0.216994 0.207614
0.459836 0.240799 0.229978
0.482006 0.263326 0.249698
0.507105 0.291294 0.273995
0.531022 0.318508 0.298073
0.558923 0.343140 0.324451
0.586956 0.370484 0.352099
0.614297 0.399778 0.381481
0.644037 0.423850 0.409204
0.675969 0.450501 0.438824
0.707079 0.480397 0.469086
0.739928 0.506418 0.498897
0.773748 0.533319 0.528988
0.814065 0.562992 0.564510
0.850278 0.594355 0.597909
0.886298 0.624443 0.630739
0.928781 0.658668 0.669102
0.084221 0.160783 0.111180
0.085619 0.160865 0.111296
0.087717 0.159909 0.111032
0.092969 0.162378 0.112346
0.110606 0.166265 0.115090
0.150663 0.172529 0.120936
0.194671 0.169956 0.124240
0.228060 0.164226 0.126384
0.257246 0.160002 0.129837
0.281390 0.156046 0.133485
0.305399 0.155782 0.139423
0.326877 0.153413 0.145108
0.346505 0.157515 0.152715
0.367393 0.168752 0.163564
0.390653 0.182744 0.176976
0.412463 0.201068 0.191596
0.434041 0.221731 0.209542
0.459975 0.243834 0.230590
0.482065 0.265984 0.250130
0.507122 0.293542 0.274293
0.533111 0.319709 0.299316
0.559990 0.344097 0.325169
0.587001 0.371194 0.352338
0.614297 0.399778 0.381481
0.644128 0.425305 0.409678
0.675969 0.450501 0.438824
0.707079 0.480397 0.469086
0.739928 0.506418 0.498897
0.773748 0.533319 0.528988
0.814065 0.562992 0.564510
0.850278 0.594355 0.597909
0.886298 0.624443 0.630739
0.928781 0.658668 0.669102
0.090660 0.187740 0.123170
0.092496 0.189770 0.124191
0.095335 0.190594 0.124722
0.100684 0.190950 0.125185
0.113930 0.194211 0.127543
0.146897 0.202509 0.133895
0.197166 0.207801 0.140732
0.235966 0.203512 0.143294
0.267506 0.195337 0.144757
0.292804 0.189583 0.147578
0.316662 0.186333 0.152237
0.339309 0.181173 0.157113
0.359792 0.180821 0.164106
0.376846 0.183954 0.171439
0.396786 0.194217 0.182763
0.414978 0.206946 0.194370
0.436321 0.227739 0.211642
0.461178 0.248675 0.231985
0.483219 0.269562 0.251429
0.508210 0.296919 0.275481
0.533084 0.320943 0.299415
0.560047 0.346107 0.325556
0.587053 0.372553 0.352648
0.614263 0.400367 0.381300
0.644088 0.425233 0.409454
0.675933 0.451006 0.438567
0.707039 0.480323 0.468858
0.739928 0.506418 0.498897
0.773748 0.533319 0.528988
0.814065 0.562992 0.564510
0.850278 0.594355 0.597909
0.886298 0.624443 0.630739
0.928781 0.658668 0.669102
0.097303 0.211662 0.135227
0.099420 0.213268 0.136155
0.101516 0.213424 0.136345
0.107143 0.214573 0.137229
0.118810 0.219464 0.140471
0.143861 0.227741 0.146552
0.188664 0.232412 0.152413
0.241203 0.236858 0.159965
0.273242 0.229916 0.161041
0.299575 0.226157 0.164061
0.321216 0.218567 0.165562
0.345898 0.215224 0.170899
0.367103 0.208698 0.175499
0.386808 0.206688 0.182155
0.403011 0.207925 0.189289
0.421002 0.218147 0.200374
0.439524 0.233563 0.213808
0.461260 0.254034 0.232712
0.483337 0.274086 0.252399
0.508177 0.301166 0.276081
0.533032 0.323411 0.299626
0.559987 0.347951 0.325476
0.587065 0.373853 0.352790
0.614234 0.401625 0.381172
0.644133 0.425960 0.409691
0.675933 0.451006 0.438567
0.707082 0.480981 0.469055
0.739928 0.506418 0.498897
0.773748 0.533319 0.528988
0.814065 0.562992 0.564510
0.850278 0.594355 0.597909
0.886298 0.624443 0.630739
0.928742 0.658603 0.668951
0.105732 0.236611 0.149276
0.107855 0.238386 0.150394
0.110461 0.239406 0.151105
0.116280 0.241513 0.152603
0.127463 0.246739 0.156263
0.145912 0.251515 0.160260
0.181973 0.258538 0.166833
0.234651 0.262276 0.173409
0.279470 0.266231 0.180918
0.305186 0.258972 0.181135
0.328547 0.250420 0.181504
0.353074 0.245630 0.185388
0.373285 0.238983 0.188701
0.394125 0.236889 0.195252
0.412840 0.230683 0.200498
0.427121 0.231383 0.207268
0.445471 0.244706 0.220039
0.463217 0.259055 0.234190
0.484470 0.282388 0.254703
0.509042 0.304938 0.276964
0.534002 0.326139 0.300392
0.560011 0.350593 0.325850
0.587044 0.375752 0.352839
0.614206 0.402883 0.381044
0.645167 0.426864 0.410136
0.675936 0.451585 0.438536
0.707082 0.480981 0.469055
0.739971 0.507080 0.499096
0.773791 0.533983 0.529188
0.814026 0.562922 0.564323
0.850278 0.594355 0.597909
0.886298 0.624443 0.630739
0.928783 0.659089 0.669081
0.116823 0.262724 0.165555
0.119037 0.264640 0.166879
0.121748 0.264886 0.167159
0.127166 0.266325 0.168337
0.137878 0.269237 0.170743
0.152654 0.274535 0.174950
0.176301 0.279945 0.179940
0.224986 0.286425 0.187501
0.275689 0.289805 0.194560
0.311890 0.290604 0.200007
0.336963 0.282871 0.200052
0.361473 0.278450 0.203220
0.380556 0.271745 0.205116
0.399304 0.267992 0.209473
0.420971 0.259749 0.214148
0.439264 0.258229 0.221565
0.453509 0.257343 0.227931
0.467832 0.270555 0.239502
0.489689 0.291804 0.259213
0.509919 0.310199 0.278259
0.533930 0.330530 0.300924
0.560980 0.353390 0.326543
0.588014 0.378558 0.353338
0.614138 0.404083 0.380788
0.645172 0.427519 0.410149
0.676066 0.453555 0.439127
0.707086 0.481564 0.469024
0.741003 0.507410 0.499577
0.773791 0.533983 0.529188
0.814110 0.564074 0.564645
0.850362 0.595510 0.598233
0.886423 0.626179 0.631225
0.928783 0.659089 0.669081
0.128898 0.287523 0.182341
0.131482 0.289584 0.183893
0.135137 0.290916 0.184989
0.140452 0.292463 0.186317
0.150459 0.296458 0.189598
0.163622 0.300120 0.192852
0.180321 0.305755 0.197670
0.215597 0.310670 0.203193
0.267281 0.314150 0.209581
0.311423 0.317094 0.216563
0.341186 0.317393 0.221254
0.366041 0.310266 0.221672
0.387884 0.303661 0.223269
0.406427 0.298113 0.225784
0.427308 0.293503 0.230599
0.446519 0.290447 0.236824
0.463697 0.286015 0.242852
0.480099 0.284439 0.250306
0.492519 0.300433 0.262024
0.513789 0.317484 0.281544
0.534662 0.336268 0.301853
0.560915 0.358553 0.327167
0.588044 0.381933 0.353832
0.616250 0.406652 0.382198
0.645144 0.428779 0.409991
0.677020 0.454320 0.439123
0.709231 0.482951 0.470402
0.741046 0.508071 0.499776
0.773878 0.535311 0.529586
0.814110 0.564074 0.564645
0.850323 0.595440 0.598045
0.886423 0.626179 0.631225
0.928783 0.659089 0.669081
0.142558 0.310597 0.199270
0.145188 0.311868 0.200318
0.147675 0.312199 0.200672
0.155455 0.316046 0.203850
0.162961 0.317182 0.205053
0.174558 0.320822 0.208315
0.190196 0.326479 0.213249
0.214125 0.329585 0.216763
0.255458 0.334394 0.222917
0.303166 0.337421 0.229376
0.340154 0.340825 0.236379
0.372265 0.336647 0.239048
0.393221 0.332950 0.241321
0.412520 0.326726 0.242664
0.434415 0.323120 0.247412
0.453348 0.317218 0.251105
0.470698 0.314693 0.257382
0.490935 0.308227 0.264133
0.506531 0.308560 0.272399
0.515226 0.325385 0.283364
0.538094 0.343971 0.304542
0.561606 0.364357 0.327764
0.590053 0.386401 0.355256
0.616111 0.408400 0.381734
0.645081 0.430663 0.409702
0.677116 0.456424 0.439600
0.709194 0.483461 0.470143
0.741093 0.509321 0.499944
0.773878 0.535311 0.529586
0.814151 0.564650 0.564807
0.850323 0.595440 0.598045
0.886423 0.626179 0.631225
0.928783 0.659089 0.669081
0.158945 0.334708 0.218010
0.162699 0.336162 0.219274
0.167197 0.338703 0.221405
0.172494 0.342313 0.224441
0.179307 0.343543 0.225727
0.188512 0.345972 0.228068
0.201651 0.349506 0.231440
0.220707 0.351310 0.233756
0.251777 0.356586 0.239563
0.290988 0.359115 0.244270
0.334035 0.361819 0.250561
0.375217 0.365574 0.258902
0.398902 0.363561 0.261909
0.416878 0.356587 0.261397
0.438473 0.351321 0.264011
0.459239 0.344002 0.266644
0.476559 0.342111 0.272119
0.497914 0.336739 0.278844
0.516521 0.335287 0.287354
0.531021 0.334216 0.294459
0.538269 0.352062 0.306127
0.565920 0.368803 0.329757
0.589727 0.392725 0.355374
0.616938 0.412435 0.381896
0.647090 0.434429 0.410768
0.677179 0.459200 0.439985
0.709161 0.484555 0.469854
0.741140 0.510570 0.500113
0.773921 0.535976 0.529786
0.814154 0.565157 0.564781
0.850364 0.596018 0.598207
0.886465 0.626757 0.631387
0.928783 0.659089 0.669081
0.179641 0.359093 0.237979
0.182187 0.360437 0.239168
0.185253 0.361963 0.240536
0.189957 0.362855 0.241459
0.195617 0.364793 0.243269
0.203045 0.366815 0.245214
0.215608 0.371169 0.249263
0.230639 0.372607 0.251073
0.255013 0.376489 0.255401
0.284685 0.379475 0.259611
0.323831 0.381913 0.264629
0.366743 0.386615 0.272912
0.400503 0.388947 0.279653
0.422297 0.384759 0.280831
0.444647 0.379060 0.282370
0.465358 0.372879 0.284615
0.483629 0.371454 0.289818
0.503798 0.364597 0.294011
0.524416 0.362401 0.302211
0.541889 0.358288 0.309405
0.557587 0.359100 0.318128
0.565601 0.380231 0.331865
0.593880 0.396314 0.356496
0.617580 0.416939 0.381798
0.647048 0.438367 0.410925
0.677085 0.461734 0.439771
0.709213 0.486438 0.470041
0.741146 0.511745 0.500054
0.776074 0.537986 0.531325
0.814156 0.565663 0.564755
0.850367 0.596525 0.598181
0.886465 0.626757 0.631387
0.928825 0.659996 0.669190
0.202196 0.385277 0.260411
0.204448 0.385730 0.260882
0.205744 0.384127 0.259598
0.210373 0.386789 0.262007
0.215121 0.388428 0.263565
0.221319 0.390222 0.265305
0.232839 0.394429 0.269278
0.245248 0.395612 0.270783
0.264951 0.398176 0.273813
0.286880 0.401699 0.277877
0.316448 0.402556 0.280495
0.354577 0.404864 0.285578
0.394559 0.409409 0.293893
0.426970 0.411671 0.300670
0.449780 0.404644 0.300346
0.469329 0.398733 0.301380
0.487266 0.394077 0.303915
0.509558 0.389542 0.309151
0.527996 0.386902 0.315054
0.546598 0.384384 0.322564
0.567314 0.381697 0.332053
0.585148 0.382487 0.342378
0.592898 0.403359 0.356149
0.620744 0.419599 0.381952
0.648839 0.443953 0.411583
0.679135 0.465603 0.441038
0.710103 0.488508 0.470099
0.741154 0.512926 0.500048
0.776121 0.539245 0.531537
0.814198 0.566239 0.564916
0.850450 0.597680 0.598505
0.886507 0.627336 0.631549
0.928825 0.659996 0.669190
0.223909 0.407702 0.280169
0.225260 0.407929 0.280411
0.227422 0.408271 0.280782
0.230894 0.409683 0.282113
0.236179 0.411339 0.283737
0.242430 0.413046 0.285453
0.251880 0.414031 0.286664
0.262944 0.414996 0.287947
0.276623 0.418099 0.291225
0.294191 0.419355 0.293147
0.317474 0.421878 0.296614
0.346717 0.423657 0.300196
0.385472 0.427036 0.306690
0.420787 0.431342 0.314599
0.454318 0.430751 0.319845
0.473735 0.427344 0.321445
0.492418 0.422233 0.322751
0.514656 0.418937 0.327585
0.533775 0.412186 0.330660
0.552297 0.409588 0.336906
0.572930 0.405631 0.344769
0.599076 0.405256 0.358670
0.612752 0.406126 0.367101
0.621940 0.429241 0.383079
0.652032 0.449399 0.412109
0.683184 0.472021 0.443455
0.710094 0.491872 0.470319
0.743151 0.515267 0.500882
0.776089 0.540364 0.531376
0.814163 0.567197 0.564683
0.850495 0.598766 0.598641
0.886551 0.628428 0.631722
0.928827 0.660417 0.669170
0.248436 0.432276 0.302458
0.249922 0.432470 0.302680
0.252411 0.433746 0.303880
0.255267 0.434095 0.304283
0.258949 0.434524 0.304787
0.265199 0.435154 0.305567
0.272093 0.435825 0.306404
0.282266 0.437674 0.308423
0.292343 0.439486 0.310409
0.306949 0.441527 0.312856
0.323871 0.442643 0.314710
0.345219 0.446008 0.318876
0.377305 0.447929 0.322962
0.412632 0.451108 0.329181
0.448099 0.452407 0.335028
0.477394 0.454548 0.341819
0.498640 0.448310 0.341933
0.520584 0.444488 0.345126
0.539716 0.439055 0.348067
0.560285 0.437183 0.354737
0.579862 0.433897 0.361318
0.603821 0.432335 0.372159
0.626745 0.429746 0.383860
0.642621 0.432248 0.394420
0.650958 0.456831 0.410833
0.685452 0.475877 0.443168
0.715131 0.497806 0.472942
0.743013 0.518040 0.500323
0.777098 0.543033 0.531835
0.816407 0.571133 0.566638
0.851655 0.600930 0.599739
0.888745 0.630536 0.633573
0.928828 0.660838 0.669149
0.276056 0.456110 0.324594
0.277616 0.456269 0.324791
0.278828 0.456388 0.324940
0.281252 0.456627 0.325239
0.284081 0.456905 0.325588
0.288214 0.457303 0.326090
0.293725 0.457786 0.326727
0.300213 0.458316 0.327455
0.309365 0.462084 0.331187
0.320751 0.463927 0.333332
0.333650 0.464812 0.334710
0.353167 0.466043 0.336876
0.377679 0.467521 0.339786
0.406131 0.469209 0.343596
0.438832 0.473258 0.350480
0.476828 0.475766 0.357903
0.502143 0.474627 0.361761
0.524690 0.469548 0.363292
0.543591 0.464468 0.364995
0.563865 0.460073 0.368991
0.584403 0.456419 0.375018
0.608270 0.454164 0.384568
0.632265 0.452313 0.396037
0.655377 0.452533 0.409341
0.674390 0.454669 0.421978
0.685270 0.482958 0.441428
0.717596 0.501914 0.473234
0.748039 0.522559 0.502746
0.776995 0.545274 0.531422
0.816340 0.572806 0.566337
0.851701 0.602523 0.599849
0.888829 0.631693 0.633897
0.928873 0.661901 0.669312
0.302047 0.476617 0.343949
0.302471 0.476657 0.343999
0.303742 0.476776 0.344150
0.305437 0.476936 0.344352
0.307556 0.477135 0.344604
0.310365 0.479400 0.346741
0.315479 0.479807 0.347305
0.320643 0.481227 0.348788
0.327375 0.482772 0.350447
0.336619 0.483440 0.351448
0.347769 0.484203 0.352644
0.365187 0.486351 0.355488
0.382986 0.488481 0.358418
0.402932 0.489662 0.360858
0.429413 0.491228 0.364499
0.468636 0.493632 0.370922
0.501566 0.496886 0.378579
0.527100 0.495787 0.382726
0.547754 0.490551 0.383877
0.569831 0.485870 0.387044
0.593193 0.480052 0.391607
0.616971 0.477047 0.399774
0.640911 0.474450 0.410178
0.662972 0.474550 0.422344
0.689299 0.475726 0.438641
0.711647 0.481042 0.454891
0.717489 0.509018 0.471262
0.750678 0.528876 0.503854
0.782142 0.550005 0.534481
0.817315 0.576097 0.566939
0.853783 0.605489 0.601293
0.888840 0.633756 0.633952
0.928962 0.664112 0.669684
0.328902 0.501234 0.367427
0.329781 0.501314 0.367530
0.330220 0.501354 0.367581
0.331152 0.501435 0.367688
0.333213 0.502618 0.368849
0.335817 0.502823 0.369136
0.338421 0.503027 0.369422
0.342100 0.504333 0.370758
0.348463 0.506863 0.373316
0.355076 0.507358 0.374026
0.367002 0.508162 0.375290
0.379425 0.508976 0.376617
0.392453 0.509775 0.378056
0.409379 0.511831 0.380930
0.429355 0.515074 0.385210
0.459693 0.516855 0.389446
0.491070 0.518780 0.394709
0.525832 0.521110 0.401876
0.553149 0.517107 0.404266
0.575909 0.511151 0.405773
0.597107 0.506528 0.409222
0.621807 0.503899 0.416616
0.644525 0.499947 0.424153
0.668555 0.498300 0.435271
0.695886 0.498283 0.450741
0.724408 0.500934 0.469637
0.743537 0.505435 0.484046
0.749959 0.535461 0.501857
0.785926 0.557060 0.536442
0.823701 0.582148 0.571793
0.855706 0.607723 0.602165
0.890919 0.636220 0.635402
0.931120 0.666714 0.671545
0.359591 0.530230 0.395304
0.359591 0.530230 0.395304
0.360128 0.530271 0.395362
0.360664 0.530312 0.395420
0.362275 0.530436 0.395594
0.363885 0.530559 0.395768
0.366032 0.530724 0.396001
0.370327 0.531054 0.396465
0.374163 0.531342 0.396874
0.379454 0.531718 0.397437
0.386864 0.533249 0.399179
0.394962 0.534823 0.400991
0.405372 0.536532 0.403057
0.419248 0.537379 0.404594
0.435326 0.538339 0.406452
0.456536 0.539574 0.409058
0.484669 0.541224 0.413069
0.518442 0.545375 0.420576
0.552644 0.549735 0.429389
0.579865 0.544659 0.430846
0.600675 0.539469 0.432312
0.624846 0.533126 0.435471
0.650516 0.528779 0.442444
0.678593 0.526027 0.453580
0.705831 0.524755 0.467241
0.734292 0.525877 0.484565
0.759601 0.527704 0.501706
0.777804 0.534174 0.516272
0.786722 0.566904 0.536675
0.824473 0.589519 0.572410
0.859867 0.612830 0.605149
0.891887 0.638639 0.635889
0.931213 0.669464 0.672027
0.387629 0.554931 0.419324
0.387629 0.554931 0.419324
0.388177 0.554972 0.419382
0.388725 0.555014 0.419440
0.390314 0.557190 0.421538
0.391959 0.557314 0.421714
0.393604 0.557438 0.421890
0.395248 0.557562 0.422067
0.397442 0.557727 0.422302
0.401285 0.558016 0.422714
0.405639 0.558312 0.423175
0.412746 0.558782 0.423926
0.419853 0.559251 0.424678
0.430180 0.559905 0.425793
0.445287 0.561864 0.428428
0.463088 0.565007 0.432429
0.484467 0.566248 0.435075
0.510170 0.567754 0.438782
0.545573 0.569925 0.444817
0.581810 0.573416 0.453410
0.606115 0.567129 0.453598
0.632024 0.560463 0.455669
0.658465 0.554642 0.460702
0.683353 0.552484 0.469538
0.710405 0.549065 0.480595
0.740959 0.550011 0.497791
0.768355 0.550908 0.515070
0.795934 0.555997 0.535305
0.814104 0.562166 0.549910
0.827303 0.596861 0.573278
0.860633 0.619011 0.605887
0.895967 0.642961 0.638738
0.933416 0.673182 0.674128
0.412830 0.579466 0.443315
0.412830 0.579466 0.443315
0.413386 0.579507 0.443374
0.413386 0.579507 0.443374
0.414499 0.579590 0.443492
0.415055 0.579631 0.443551
0.416723 0.579755 0.443728
0.417836 0.579837 0.443846
0.420026 0.581030 0.445048
0.423364 0.581277 0.445402
0.426767 0.582554 0.446733
0.431290 0.582852 0.447211
0.438032 0.585371 0.449858
0.448493 0.586054 0.450957
0.459972 0.586761 0.452211
0.473381 0.587566 0.453693
0.491024 0.588597 0.455812
0.511100 0.589760 0.458374
0.538700 0.591371 0.462363
0.574052 0.596683 0.471265
0.608604 0.601108 0.480464
0.635555 0.590925 0.478206
0.662715 0.585467 0.481814
0.687170 0.579530 0.486498
0.715041 0.574163 0.495136
0.745533 0.574571 0.510612
0.774986 0.574229 0.527416
0.805781 0.579345 0.549042
0.835330 0.583246 0.570951
0.853695 0.593234 0.587117
0.863621 0.626569 0.607288
0.900112 0.651786 0.642424
0.937698 0.678890 0.677854
0.442034 0.609465 0.472716
0.442034 0.609465 0.472716
0.442034 0.609465 0.472716
0.442590 0.609507 0.472775
0.442590 0.609507 0.472775
0.443704 0.609589 0.472894
0.445322 0.611772 0.475022
0.446446 0.611855 0.475141
0.448132 0.611979 0.475320
0.449818 0.612103 0.475498
0.452628 0.612310 0.475796
0.456104 0.612560 0.476164
0.460682 0.612860 0.476646
0.468556 0.613373 0.477475
0.476458 0.617009 0.481241
0.485030 0.618597 0.483132
0.499241 0.619449 0.484705
0.516343 0.620459 0.486685
0.539580 0.621798 0.489568
0.565472 0.623308 0.493322
0.600270 0.626480 0.500191
0.639378 0.629118 0.508549
0.668729 0.621240 0.508895
0.696861 0.613988 0.511901
0.724537 0.608632 0.518565
0.755746 0.605230 0.530633
0.784021 0.603186 0.544560
0.812550 0.605019 0.562312
0.843154 0.607431 0.583423
0.877201 0.617174 0.610622
0.889157 0.624663 0.621415
0.900282 0.660517 0.642897
0.940887 0.687821 0.681201
0.471997 0.641614 0.504332
0.471997 0.641614 0.504332
0.471997 0.641614 0.504332
0.471997 0.641614 0.504332
0.473122 0.641697 0.504452
0.473684 0.641738 0.504511
0.473684 0.641738 0.504511
0.474246 0.641780 0.504571
0.474808 0.641821 0.504631
0.477057 0.641987 0.504870
0.478751 0.642111 0.505049
0.481015 0.642277 0.505288
0.483846 0.642485 0.505587
0.488287 0.642782 0.506055
0.494441 0.645267 0.508674
0.503031 0.645824 0.509576
0.513291 0.646474 0.510669
0.527554 0.647326 0.512250
0.546470 0.648436 0.514465
0.568171 0.649686 0.517183
0.593225 0.651145 0.520823
0.632200 0.656667 0.530266
0.672265 0.657351 0.537450
0.700567 0.647434 0.536382
