Assets/Lutify-Free-LUTs-Pack/Lutify Free LUTs Pack/Film Tone Pro - Film Tone 3/Lutify.me-FilmTone3-SLog3Cine-to-Rec709.cube
# Created with: fylm.ai - Colour Grading and Collaboration Software in Cloud 
# Website: https://fylm.ai 
# META
# Option: Gamut compress
# Block 1: IDT | Sony S-Log3 S-Gamut3.Cine
# Block 2: colourMatch | Blending Mode: Normal | {"ColorSpace":0,"CrossCovarianceLimit":50,"ReshapingIterations":1,"PercentSaturationShift":100,"PercentShadingShift":100,"ExtraShading":true,"PercentTint":100,"PercentModified":100}
# Block 3: subtractiveColour | Blending Mode: Normal | {"sliders":{"gainY":0.6,"C":0.3,"M":0.3,"Y":0.3}}
# Block 4: LUT | Filmic Curve Response: Low Contrast 2 (100%)
# Block 5: logPrimaries | Blending Mode: Normal | {"wheels":{"shadows":{"Y":"0","R":"1","G":"1","B":"1"},"midtones":{"Y":"0","R":"1","G":"1","B":"1"},"highlights":{"Y":"0","R":"1","G":"1","B":"1"},"offset":{"Y":"0","R":"1","G":"1","B":"1"}},"sliders":{"shadows":{"Y":0,"R":-0.026,"G":0.03,"B":0.1},"midtones":{"Y":0,"R":0.024,"G":-0.036,"B":0.036},"highlights":{"Y":0,"R":0,"G":0.044,"B":-0.128},"offset":{"Y":0,"R":0,"G":0,"B":0}}}
# Block 6: hueSaturation | Blending Mode: Normal | {"hue":0,"saturation":-0.1}
# Block 7: ODT | Rec709
TITLE "Lutify.me-FilmTone3-SLog3Cine-to-Rec709" 
LUT_3D_SIZE 33
0.000000 0.000000 0.000000
0.000000 0.000000 0.000000
0.000000 0.000000 0.000000
0.000000 0.000000 0.000000
0.000000 0.000000 0.000000
0.009293 0.000000 0.000000
0.054791 0.000000 0.000000
0.085481 0.000000 0.000000
0.114934 0.000000 0.000000
0.140753 0.000000 0.000000
0.173631 0.000000 0.000000
0.207858 0.000000 0.000000
0.250340 0.000000 0.000000
0.291661 0.000000 0.000000
0.351356 0.000000 0.000000
0.407898 0.000000 0.000000
0.463537 0.000000 0.000000
0.546374 0.000000 0.000000
0.630307 0.000000 0.000000
0.699325 0.000000 0.000000
0.778385 0.000000 0.000000
0.867538 0.000000 0.034305
0.932338 0.000000 0.063260
0.984752 0.000000 0.094820
1.000000 0.000000 0.130749
1.000000 0.101453 0.172448
1.000000 0.252035 0.220979
1.000000 0.365496 0.267466
1.000000 0.456757 0.333287
1.000000 0.550768 0.404769
1.000000 0.632762 0.471891
1.000000 0.702569 0.538191
1.000000 0.767495 0.603397
0.000000 0.000000 0.000000
0.000000 0.000000 0.000000
0.000000 0.000000 0.000000
0.000000 0.000000 0.000000
0.000000 0.000000 0.000000
0.022593 0.000000 0.000000
0.060545 0.000000 0.000000
0.089677 0.000000 0.000000
0.118502 0.000000 0.000000
0.144778 0.000000 0.000000
0.177875 0.000000 0.000000
0.211867 0.000000 0.000000
0.255412 0.000000 0.000000
0.299282 0.000000 0.000000
0.358751 0.000000 0.000000
0.414058 0.000000 0.000000
0.471015 0.000000 0.000000
0.551206 0.000000 0.000000
0.631491 0.000000 0.000000
0.703951 0.000000 0.000000
0.779164 0.000000 0.000000
0.867973 0.000000 0.033180
0.932690 0.000000 0.064855
0.984767 0.000000 0.094647
1.000000 0.000000 0.130584
1.000000 0.101453 0.172448
1.000000 0.256484 0.220793
1.000000 0.369092 0.267296
1.000000 0.456757 0.333287
1.000000 0.550768 0.404769
1.000000 0.638512 0.471814
1.000000 0.707371 0.538231
1.000000 0.767495 0.603397
0.000000 0.000000 0.000000
0.000000 0.000000 0.000000
0.000000 0.000000 0.000000
0.000000 0.000000 0.000000
0.000000 0.000000 0.000000
0.034966 0.000000 0.000000
0.065529 0.000000 0.000000
0.095554 0.000000 0.000000
0.122609 0.000000 0.000000
0.148357 0.000000 0.000000
0.181276 0.000000 0.000000
0.219017 0.000000 0.000000
0.264241 0.000000 0.000000
0.307248 0.000000 0.000000
0.364170 0.000000 0.000000
0.423145 0.000000 0.000000
0.484813 0.000000 0.000000
0.552862 0.000000 0.000000
0.636151 0.000000 0.000000
0.705012 0.000000 0.000000
0.780076 0.000000 0.000000
0.871860 0.000000 0.031801
0.932961 0.000000 0.064062
0.984946 0.000000 0.096566
1.000000 0.000000 0.131628
1.000000 0.111752 0.172259
1.000000 0.256484 0.220793
1.000000 0.369092 0.267296
1.000000 0.463330 0.333060
1.000000 0.553854 0.404699
1.000000 0.638512 0.471814
1.000000 0.707371 0.538231
1.000000 0.767495 0.603397
0.000000 0.000000 0.000000
0.000000 0.000000 0.000000
0.000000 0.000000 0.000000
0.000000 0.000000 0.000000
0.000000 0.000000 0.000000
0.049429 0.000000 0.000000
0.074389 0.000000 0.000000
0.102319 0.000000 0.000000
0.127638 0.000000 0.000000
0.154629 0.000000 0.000000
0.189577 0.000000 0.000000
0.225151 0.000000 0.000000
0.270194 0.000000 0.000000
0.313763 0.000000 0.000000
0.371998 0.000000 0.000000
0.427319 0.000000 0.000000
0.489164 0.000000 0.000000
0.564502 0.000000 0.000000
0.640956 0.000000 0.000000
0.713606 0.000000 0.000000
0.788451 0.000000 0.000000
0.872531 0.000000 0.033244
0.936021 0.000000 0.063758
0.987318 0.000000 0.096430
1.000000 0.000000 0.131286
1.000000 0.129487 0.171864
1.000000 0.265228 0.220411
1.000000 0.369092 0.267296
1.000000 0.463330 0.333060
1.000000 0.553980 0.407247
1.000000 0.638512 0.471814
1.000000 0.707371 0.538231
1.000000 0.767495 0.603397
0.000000 0.029003 0.000000
0.000000 0.029170 0.000000
0.000000 0.029448 0.000000
0.000000 0.030989 0.000000
0.000000 0.033696 0.000000
0.048666 0.024195 0.000000
0.078161 0.000000 0.000000
0.109322 0.000000 0.000000
0.134211 0.000000 0.000000
0.163328 0.000000 0.000000
0.196254 0.000000 0.000000
0.234931 0.000000 0.000000
0.279872 0.000000 0.000000
0.322434 0.000000 0.000000
0.380378 0.000000 0.000000
0.436866 0.000000 0.000000
0.497089 0.000000 0.000000
0.569130 0.000000 0.000000
0.641749 0.000000 0.000000
0.714803 0.000000 0.000000
0.788963 0.000000 0.000000
0.872946 0.000000 0.031741
0.936334 0.000000 0.062600
0.987337 0.000000 0.096063
1.000000 0.000000 0.131397
1.000000 0.129487 0.171864
1.000000 0.265228 0.220411
1.000000 0.372820 0.269070
1.000000 0.463330 0.333060
1.000000 0.553980 0.407247
1.000000 0.638512 0.471814
1.000000 0.707371 0.538231
1.000000 0.767495 0.603397
0.000000 0.051339 0.000000
0.000000 0.050646 0.000000
0.000000 0.051717 0.000000
0.000000 0.052546 0.000000
0.000000 0.054077 0.000000
0.046172 0.054452 0.000000
0.079637 0.046165 0.000000
0.115327 0.031027 0.000000
0.145240 0.000000 0.000000
0.179638 0.000000 0.000000
0.210535 0.000000 0.000000
0.248622 0.000000 0.000000
0.287805 0.000000 0.000000
0.327592 0.000000 0.000000
0.383982 0.000000 0.000000
0.441001 0.000000 0.000000
0.501733 0.000000 0.000000
0.573516 0.000000 0.000000
0.646433 0.000000 0.000000
0.719572 0.000000 0.000000
0.789873 0.000000 0.000000
0.876570 0.000000 0.030814
0.936394 0.000000 0.062351
0.987345 0.000000 0.095871
1.000000 0.000000 0.131030
1.000000 0.138609 0.174850
1.000000 0.265228 0.220411
1.000000 0.372820 0.269070
1.000000 0.463330 0.333060
1.000000 0.553980 0.407247
1.000000 0.638512 0.471814
1.000000 0.707371 0.538231
1.000000 0.767495 0.603397
0.000000 0.068604 0.000000
0.000000 0.068802 0.000000
0.000000 0.070088 0.000000
0.000000 0.073907 0.000000
0.000000 0.075974 0.000000
0.020712 0.077548 0.000000
0.079631 0.073116 0.000000
0.116205 0.063977 0.000000
0.153912 0.044051 0.000000
0.192658 0.000000 0.000000
0.227138 0.000000 0.000000
0.266428 0.000000 0.000000
0.300442 0.000000 0.000000
0.341758 0.000000 0.000000
0.395716 0.000000 0.000000
0.446056 0.000000 0.000000
0.506641 0.000000 0.000000
0.578308 0.000000 0.000000
0.651393 0.000000 0.000000
0.720766 0.000000 0.000000
0.794509 0.000000 0.000000
0.877070 0.000000 0.028376
0.936571 0.000000 0.061568
0.987365 0.000000 0.095065
1.000000 0.000000 0.130446
1.000000 0.152926 0.174441
1.000000 0.269529 0.220215
1.000000 0.379961 0.268723
1.000000 0.463330 0.333060
1.000000 0.553980 0.407247
1.000000 0.638512 0.471814
1.000000 0.707371 0.538231
1.000000 0.767495 0.603397
0.000000 0.092507 0.000000
0.000000 0.092664 0.000000
0.000000 0.094327 0.000000
0.000000 0.098457 0.000000
0.000000 0.101135 0.000000
0.000000 0.104307 0.000000
0.072020 0.102974 0.000000
0.121718 0.097305 0.000000
0.166149 0.079092 0.000000
0.207154 0.061498 0.000000
0.246991 0.015967 0.000000
0.286899 0.000000 0.000000
0.321521 0.000000 0.000000
0.360790 0.000000 0.000000
0.406754 0.000000 0.000000
0.457442 0.000000 0.000000
0.522062 0.000000 0.000000
0.590805 0.000000 0.000000
0.660940 0.000000 0.000000
0.729899 0.000000 0.000000
0.795525 0.000000 0.000000
0.877902 0.000000 0.028538
0.939882 0.000000 0.062767
0.987367 0.000000 0.094851
1.000000 0.000000 0.133992
1.000000 0.159576 0.174228
1.000000 0.278747 0.220201
1.000000 0.380721 0.269185
1.000000 0.463330 0.333060
1.000000 0.560154 0.407107
1.000000 0.641372 0.471777
1.000000 0.707371 0.538231
1.000000 0.767495 0.603397
0.000000 0.120715 0.000000
0.000000 0.119136 0.000000
0.000000 0.123261 0.000000
0.000000 0.129802 0.000000
0.000000 0.133071 0.000000
0.000000 0.137488 0.000000
0.025173 0.136461 0.000000
0.121114 0.135922 0.000000
0.174170 0.125928 0.000000
0.225873 0.106467 0.000000
0.265159 0.082371 0.000000
0.303610 0.049400 0.000000
0.338551 0.000000 0.000000
0.377420 0.000000 0.000000
0.426870 0.000000 0.000000
0.469810 0.000000 0.000000
0.532307 0.000000 0.000000
0.600933 0.000000 0.000000
0.666873 0.000000 0.000000
0.735057 0.000000 0.000000
0.804102 0.000000 0.000000
0.881939 0.000000 0.023360
0.940139 0.000000 0.061262
0.989676 0.000000 0.093939
1.000000 0.000000 0.133973
1.000000 0.172108 0.173789
1.000000 0.283076 0.221664
1.000000 0.384270 0.269009
1.000000 0.467012 0.339943
1.000000 0.560154 0.407107
1.000000 0.641372 0.471777
1.000000 0.709755 0.538254
1.000000 0.769348 0.603482
0.000000 0.153785 0.000000
0.000000 0.156620 0.000000
0.000000 0.160859 0.000000
0.000000 0.165881 0.000000
0.000000 0.171366 0.000000
0.000000 0.177120 0.000000
0.000000 0.175905 0.000000
0.091034 0.176546 0.000000
0.170779 0.178131 0.000000
0.229822 0.159032 0.000000
0.282058 0.141587 0.000000
0.317813 0.118108 0.000000
0.359715 0.091627 0.000000
0.409191 0.000000 0.000000
0.454195 0.000000 0.000000
0.498326 0.000000 0.000000
0.547423 0.000000 0.000000
0.615542 0.000000 0.000000
0.684336 0.000000 0.000000
0.747894 0.000000 0.000000
0.809173 0.000000 0.000000
0.883079 0.000000 0.017535
0.940421 0.000000 0.059177
0.989786 0.000000 0.094934
1.000000 0.000000 0.135731
1.000000 0.184240 0.176245
1.000000 0.287205 0.221458
1.000000 0.387812 0.268830
1.000000 0.470294 0.339835
1.000000 0.563243 0.407036
1.000000 0.641372 0.471777
1.000000 0.709755 0.538254
1.000000 0.769348 0.603482
0.000000 0.188982 0.000000
0.000000 0.193911 0.000000
0.000000 0.202509 0.000000
0.000000 0.204084 0.000000
0.000000 0.210738 0.000000
0.000000 0.217085 0.000000
0.000000 0.218193 0.000000
0.000000 0.218873 0.000000
0.149875 0.217907 0.000000
0.229411 0.211628 0.000000
0.293153 0.192183 0.000000
0.341295 0.173363 0.000000
0.386664 0.148739 0.000000
0.430249 0.128674 0.000000
0.477759 0.088334 0.000000
0.522175 0.000000 0.000000
0.577928 0.000000 0.000000
0.627370 0.000000 0.000000
0.691147 0.000000 0.000000
0.758047 0.000000 0.000000
0.818431 0.000000 0.000000
0.890653 0.000000 0.000000
0.943666 0.000000 0.057271
0.991968 0.000000 0.093499
1.000000 0.000000 0.134526
1.000000 0.201758 0.176230
1.000000 0.304102 0.220993
1.000000 0.391625 0.272603
1.000000 0.478487 0.340738
1.000000 0.566333 0.406964
1.000000 0.644223 0.471741
1.000000 0.712128 0.538278
1.000000 0.769348 0.603482
0.000000 0.233792 0.000000
0.000000 0.243107 0.000000
0.000000 0.247681 0.000000
0.000000 0.249462 0.000000
0.000000 0.256433 0.000000
0.000000 0.259627 0.000000
0.000000 0.261089 0.000000
0.000000 0.262205 0.000000
0.110102 0.262381 0.000000
0.208343 0.262800 0.000000
0.291069 0.255476 0.000000
0.351241 0.231827 0.000000
0.402981 0.208865 0.000000
0.451322 0.189701 0.000000
0.504446 0.163884 0.000000
0.553926 0.126573 0.000000
0.599628 0.062756 0.000000
0.645047 0.000000 0.000000
0.706438 0.000000 0.000000
0.768660 0.000000 0.000000
0.831672 0.000000 0.000000
0.901383 0.000000 0.000000
0.949674 0.000000 0.055246
0.994054 0.000000 0.092841
1.000000 0.097439 0.135576
1.000000 0.222414 0.178192
1.000000 0.316245 0.223728
1.000000 0.402902 0.272531
1.000000 0.485009 0.340513
1.000000 0.569424 0.406891
1.000000 0.647062 0.471705
1.000000 0.712128 0.538278
1.000000 0.771333 0.608764
0.000000 0.286612 0.000000
0.000000 0.289890 0.000000
0.000000 0.291562 0.000000
0.000000 0.293337 0.000000
0.000000 0.298891 0.000000
0.000000 0.302301 0.000000
0.000000 0.303738 0.000000
0.000000 0.305174 0.000000
0.000000 0.306183 0.000000
0.184620 0.305718 0.000000
0.273805 0.308205 0.000000
0.350439 0.295661 0.000000
0.419921 0.270205 0.000000
0.480064 0.252562 0.000000
0.538231 0.231053 0.000000
0.579910 0.214370 0.000000
0.625419 0.184094 0.000000
0.683833 0.130275 0.000000
0.723276 0.000000 0.000000
0.779730 0.000000 0.000000
0.841620 0.000000 0.000000
0.908833 0.000000 0.000000
0.958000 0.000000 0.050959
1.000000 0.000000 0.096050
1.000000 0.161843 0.136114
1.000000 0.241662 0.178620
1.000000 0.332355 0.223201
1.000000 0.416854 0.271777
1.000000 0.495708 0.343122
1.000000 0.573472 0.410016
1.000000 0.649893 0.471671
1.000000 0.714585 0.540941
1.000000 0.773157 0.608853
0.000000 0.343442 0.000000
0.000000 0.345128 0.000000
0.000000 0.351400 0.000000
0.000000 0.355011 0.000000
0.000000 0.358783 0.000000
0.000000 0.365210 0.000000
0.000000 0.369051 0.000000
0.000000 0.368360 0.000000
0.000000 0.372439 0.000000
0.058962 0.373179 0.000000
0.215057 0.375571 0.000000
0.314590 0.371456 0.000000
0.418639 0.356791 0.000000
0.495173 0.332894 0.000000
0.561568 0.310833 0.000000
0.606548 0.292315 0.000000
0.653424 0.267141 0.000000
0.698747 0.246825 0.000000
0.751941 0.209359 0.000000
0.796214 0.161166 0.000000
0.855137 0.000000 0.000000
0.916239 0.000000 0.000000
0.963098 0.000000 0.038597
1.000000 0.123756 0.091637
1.000000 0.201868 0.136730
1.000000 0.273278 0.179628
1.000000 0.355589 0.222111
1.000000 0.432357 0.276014
1.000000 0.502205 0.342890
1.000000 0.582728 0.409797
1.000000 0.653663 0.474956
1.000000 0.716933 0.540970
1.000000 0.774968 0.608944
0.000000 0.410116 0.000000
0.000000 0.411439 0.000000
0.000000 0.412746 0.000000
0.000000 0.413938 0.000000
0.000000 0.417831 0.000000
0.000000 0.418691 0.000000
0.000000 0.422800 0.000000
0.000000 0.430401 0.000000
0.000000 0.432213 0.000000
0.000000 0.433295 0.000000
0.092316 0.436847 0.000000
0.259666 0.433612 0.000000
0.385118 0.431413 0.000000
0.485637 0.421654 0.000000
0.571836 0.392003 0.000000
0.626709 0.369162 0.000000
0.674175 0.355860 0.000000
0.724516 0.336680 0.000000
0.777876 0.309805 0.000000
0.825219 0.275585 0.000000
0.874490 0.237364 0.000000
0.922449 0.191105 0.000000
0.967215 0.183752 0.000000
1.000000 0.207278 0.085505
1.000000 0.254759 0.135262
1.000000 0.315098 0.178230
1.000000 0.375503 0.225167
1.000000 0.446904 0.277768
1.000000 0.519446 0.347721
1.000000 0.591991 0.409571
1.000000 0.659244 0.474898
1.000000 0.724622 0.541824
1.000000 0.778550 0.609136
0.000000 0.483560 0.000000
0.000000 0.484686 0.000000
0.000000 0.485685 0.000000
0.000000 0.486772 0.000000
0.000000 0.487818 0.000000
0.000000 0.488750 0.000000
0.000000 0.492714 0.000000
0.000000 0.496978 0.000000
0.000000 0.498006 0.000000
0.000000 0.499283 0.000000
0.000000 0.503043 0.000000
0.138309 0.506330 0.000000
0.324627 0.502200 0.000000
0.458085 0.496029 0.000000
0.556873 0.488622 0.000000
0.634682 0.454767 0.000000
0.687809 0.435182 0.000000
0.742030 0.416395 0.000000
0.790131 0.398244 0.000000
0.842523 0.383558 0.000000
0.888571 0.355542 0.000000
0.930978 0.322845 0.000000
0.969218 0.280994 0.000000
1.000000 0.283781 0.080468
1.000000 0.310218 0.130445
1.000000 0.358312 0.177663
1.000000 0.408925 0.228543
1.000000 0.471672 0.281017
1.000000 0.542094 0.346874
1.000000 0.605118 0.409907
1.000000 0.664894 0.477468
1.000000 0.729276 0.544540
1.000000 0.781559 0.613469
0.000000 0.550909 0.000000
0.000000 0.551590 0.000000
0.000000 0.552158 0.000000
0.000000 0.552806 0.000000
0.000000 0.553432 0.000000
0.000000 0.557071 0.000000
0.000000 0.557743 0.000000
0.000000 0.561462 0.000000
0.000000 0.565332 0.000000
0.000000 0.569402 0.000000
0.000000 0.573097 0.000000
0.000000 0.570164 0.000000
0.228265 0.572798 0.000000
0.394676 0.570852 0.000000
0.505654 0.567979 0.000000
0.614404 0.556834 0.000000
0.684731 0.528887 0.000000
0.752922 0.505386 0.000000
0.796734 0.495238 0.000000
0.852284 0.478718 0.000000
0.898536 0.452849 0.000000
0.933301 0.424548 0.000000
0.970777 0.402932 0.000000
1.000000 0.374388 0.059904
1.000000 0.372961 0.127237
1.000000 0.407663 0.174718
1.000000 0.449345 0.233713
1.000000 0.504027 0.282753
1.000000 0.565385 0.346577
1.000000 0.620669 0.412098
1.000000 0.677337 0.478808
1.000000 0.736021 0.544674
1.000000 0.785033 0.613676
0.000000 0.626478 0.000000
0.000000 0.626946 0.000000
0.000000 0.626992 0.000000
0.000000 0.627444 0.000000
0.000000 0.627709 0.000000
0.000000 0.628029 0.000000
0.000000 0.628501 0.000000
0.000000 0.628752 0.000000
0.000000 0.635881 0.000000
0.000000 0.639401 0.000000
0.000000 0.642750 0.000000
0.000000 0.646148 0.000000
0.000000 0.645710 0.000000
0.311853 0.644436 0.000000
0.448537 0.642385 0.000000
0.564040 0.635684 0.000000
0.672006 0.630951 0.000000
0.757867 0.591176 0.000000
0.806122 0.576032 0.000000
0.859240 0.564299 0.000000
0.900741 0.553733 0.000000
0.939025 0.533208 0.000000
0.971741 0.517747 0.000000
1.000000 0.494762 0.000000
1.000000 0.461378 0.116471
1.000000 0.469470 0.175461
1.000000 0.502183 0.235218
1.000000 0.541897 0.289632
1.000000 0.586257 0.352037
1.000000 0.637591 0.415610
1.000000 0.690834 0.484015
1.000000 0.744995 0.550183
1.000000 0.788550 0.616486
0.000000 0.701806 0.000000
0.000000 0.702059 0.000000
0.000000 0.702226 0.000000
0.000000 0.702632 0.000000
0.000000 0.702946 0.000000
0.000000 0.702946 0.000000
0.000000 0.703313 0.000000
0.000000 0.703661 0.000000
0.000000 0.697515 0.000000
0.000000 0.704113 0.000000
0.000000 0.707445 0.000000
0.000000 0.710434 0.000000
0.000000 0.713295 0.000000
0.223573 0.712379 0.000000
0.384849 0.710635 0.000000
0.522387 0.707628 0.000000
0.626801 0.700920 0.000000
0.732405 0.695463 0.000000
0.801059 0.667458 0.000000
0.851152 0.653196 0.000000
0.895957 0.632786 0.000000
0.934247 0.616762 0.000000
0.965224 0.604973 0.000000
0.995652 0.586803 0.000000
1.000000 0.572813 0.115612
1.000000 0.548349 0.182236
1.000000 0.551959 0.242266
1.000000 0.579980 0.297427
1.000000 0.615839 0.354043
1.000000 0.659409 0.421024
1.000000 0.707185 0.490033
1.000000 0.754808 0.554603
1.000000 0.793674 0.616820
0.000000 0.760203 0.000000
0.000000 0.760257 0.000000
0.000000 0.760213 0.000000
0.000000 0.760263 0.000000
0.000000 0.760409 0.000000
0.000000 0.760546 0.000000
0.000000 0.760673 0.000000
0.000000 0.760866 0.000000
0.000000 0.760988 0.000000
0.000000 0.761179 0.000000
0.000000 0.761057 0.000000
0.000000 0.763120 0.000000
0.000000 0.765220 0.000000
0.178107 0.767106 0.000000
0.344287 0.765905 0.000000
0.476174 0.763475 0.000000
0.598096 0.762440 0.000000
0.693536 0.756073 0.000000
0.788363 0.748702 0.000000
0.846917 0.729444 0.000000
0.886451 0.714570 0.000000
0.929039 0.696843 0.000000
0.959500 0.686703 0.000000
0.983172 0.678855 0.000000
1.000000 0.665442 0.083327
1.000000 0.642238 0.180708
1.000000 0.613888 0.245695
1.000000 0.624117 0.302832
1.000000 0.651583 0.361031
1.000000 0.686584 0.427203
1.000000 0.728211 0.494304
1.000000 0.767686 0.558492
1.000000 0.800982 0.620709
0.000000 0.816517 0.000000
0.000000 0.816535 0.000000
0.000000 0.816552 0.000000
0.000000 0.816396 0.000000
0.000000 0.816398 0.000000
0.000000 0.816395 0.000000
0.000000 0.816300 0.000000
0.000000 0.816273 0.000000
0.000000 0.816220 0.000000
0.000000 0.816103 0.000000
0.000000 0.815786 0.000000
0.000000 0.815494 0.000000
0.000000 0.819353 0.000000
0.189380 0.820498 0.000000
0.339960 0.821161 0.000000
0.448191 0.819336 0.000000
0.578568 0.813884 0.000000
0.670504 0.812579 0.000000
0.747631 0.808865 0.000000
0.828301 0.800613 0.000000
0.878777 0.787303 0.000000
0.917590 0.772412 0.000000
0.949278 0.761453 0.000000
0.974077 0.752555 0.000000
0.994595 0.741024 0.076293
1.000000 0.729191 0.173338
1.000000 0.707335 0.250865
1.000000 0.688641 0.313493
1.000000 0.697912 0.374816
1.000000 0.724715 0.435700
1.000000 0.754299 0.503584
1.000000 0.780415 0.565919
1.000000 0.811883 0.628306
0.000000 0.858192 0.000000
0.000000 0.858156 0.000000
0.000000 0.858081 0.000000
0.000000 0.858042 0.000000
0.000000 0.859758 0.000000
0.000000 0.859716 0.000000
0.000000 0.859628 0.000000
0.000000 0.859583 0.000000
0.000000 0.859387 0.000000
0.000000 0.859281 0.000000
0.000000 0.858810 0.000000
0.000000 0.858292 0.000000
0.096641 0.857301 0.000000
0.285203 0.856341 0.000000
0.379595 0.857036 0.000000
0.481646 0.856877 0.000000
0.568831 0.854650 0.000000
0.648903 0.851870 0.000000
0.728236 0.850591 0.000000
0.802483 0.847128 0.000000
0.866997 0.842170 0.000000
0.909317 0.831172 0.000000
0.939609 0.819751 0.000000
0.965561 0.812124 0.000000
0.985982 0.800462 0.043662
1.000000 0.793393 0.193205
1.000000 0.784780 0.273640
1.000000 0.769158 0.331475
1.000000 0.754010 0.387532
1.000000 0.762113 0.449218
1.000000 0.777974 0.510680
1.000000 0.799512 0.571345
1.000000 0.822972 0.631900
0.000000 0.889896 0.156130
0.000000 0.889896 0.156130
0.000000 0.889826 0.156383
0.000000 0.889826 0.156383
0.000000 0.891324 0.157260
0.000000 0.891226 0.148470
0.000000 0.891153 0.148740
0.000000 0.891003 0.149279
0.000000 0.890848 0.149822
0.000000 0.890556 0.146138
0.000000 0.890214 0.147273
0.000000 0.889894 0.143563
0.257835 0.888863 0.131973
0.347266 0.887932 0.129719
0.439258 0.886477 0.123509
0.520756 0.886157 0.107041
0.579716 0.887533 0.095503
0.647862 0.885292 0.062631
0.718634 0.882665 0.000000
0.785776 0.881316 0.000000
0.845619 0.878506 0.000000
0.899076 0.874331 0.000000
0.930775 0.864573 0.000000
0.956921 0.854574 0.000000
0.977855 0.847991 0.093101
0.996895 0.839868 0.207558
1.000000 0.830718 0.294602
1.000000 0.824796 0.354530
1.000000 0.811793 0.405261
1.000000 0.801880 0.466676
1.000000 0.807547 0.525731
1.000000 0.820548 0.581877
1.000000 0.837762 0.640992
0.000000 0.917628 0.270326
0.000000 0.917628 0.270326
0.000000 0.917423 0.270724
0.000000 0.917319 0.270925
0.000000 0.918535 0.271742
0.099230 0.918429 0.271943
0.099230 0.918429 0.271943
0.166113 0.918213 0.272348
0.224977 0.917778 0.263312
0.255525 0.917549 0.263732
0.293877 0.917128 0.257921
0.327338 0.916763 0.258569
0.384484 0.915963 0.256671
0.441268 0.914941 0.251828
0.491473 0.913821 0.243811
0.549698 0.912396 0.242867
0.600505 0.912149 0.243018
0.650295 0.911685 0.237280
0.718883 0.909130 0.226511
0.784163 0.906424 0.214749
0.829352 0.905549 0.204294
0.877226 0.903266 0.190504
0.920801 0.899915 0.168484
0.948977 0.892089 0.098021
0.970099 0.884099 0.125634
0.989735 0.878771 0.235174
1.000000 0.869471 0.310696
1.000000 0.863201 0.383256
1.000000 0.858357 0.436410
1.000000 0.847853 0.486738
1.000000 0.838959 0.542300
1.000000 0.844977 0.592412
1.000000 0.856503 0.650279
0.387342 0.938847 0.363886
0.404529 0.938574 0.364264
0.404529 0.938574 0.364264
0.412842 0.938436 0.364455
0.412842 0.938436 0.364455
0.420984 0.938296 0.364646
0.420984 0.938296 0.364646
0.428969 0.938155 0.364838
0.436807 0.938012 0.365030
0.451967 0.937699 0.362469
0.459416 0.937553 0.362665
0.473661 0.938246 0.361009
0.501415 0.937644 0.361809
0.527162 0.936986 0.356769
0.557397 0.935130 0.348121
0.596304 0.934029 0.346744
0.636322 0.933804 0.346635
0.681158 0.932242 0.340422
0.727339 0.932507 0.337062
0.783066 0.929285 0.332662
0.829947 0.927137 0.316239
0.866580 0.927430 0.311423
0.905000 0.924670 0.304041
0.938290 0.921969 0.282072
0.963719 0.916409 0.243785
0.985323 0.907566 0.261174
1.000000 0.901951 0.336747
1.000000 0.895432 0.402577
1.000000 0.890274 0.464719
1.000000 0.884274 0.517164
1.000000 0.877738 0.564818
1.000000 0.870524 0.607981
1.000000 0.875837 0.663678
0.528055 0.956000 0.455357
0.528055 0.956000 0.455357
0.540099 0.955701 0.455722
0.540099 0.955701 0.455722
0.540099 0.955701 0.455722
0.540038 0.955684 0.452886
0.545927 0.955534 0.453070
0.545927 0.955534 0.453070
0.545927 0.955534 0.453070
0.551731 0.955384 0.453256
0.557553 0.956885 0.455272
0.568718 0.956586 0.455646
0.579523 0.956270 0.453211
0.595273 0.955822 0.453785
0.620084 0.955046 0.449161
0.643356 0.954278 0.444595
0.673594 0.953237 0.440516
0.708747 0.951979 0.439745
0.749173 0.952048 0.439105
0.787966 0.951261 0.438058
