Assets/Lutify-Free-LUTs-Pack/Lutify Free LUTs Pack/Film Tone Pro - Film Tone 3/Lutify.me-FilmTone3-SLog1-to-Rec709.cube
# Created with: fylm.ai - Colour Grading and Collaboration Software in Cloud 
# Website: https://fylm.ai 
# META
# Option: Gamut compress
# Block 1: IDT | Sony S-Log S-Gamut 10-bit
# Block 2: colourMatch | Blending Mode: Normal | {"ColorSpace":0,"CrossCovarianceLimit":50,"ReshapingIterations":1,"PercentSaturationShift":100,"PercentShadingShift":100,"ExtraShading":true,"PercentTint":100,"PercentModified":100}
# Block 3: subtractiveColour | Blending Mode: Normal | {"sliders":{"gainY":0.6,"C":0.3,"M":0.3,"Y":0.3}}
# Block 4: LUT | Filmic Curve Response: Low Contrast 2 (100%)
# Block 5: logPrimaries | Blending Mode: Normal | {"wheels":{"shadows":{"Y":"0","R":"1","G":"1","B":"1"},"midtones":{"Y":"0","R":"1","G":"1","B":"1"},"highlights":{"Y":"0","R":"1","G":"1","B":"1"},"offset":{"Y":"0","R":"1","G":"1","B":"1"}},"sliders":{"shadows":{"Y":0,"R":-0.026,"G":0.03,"B":0.1},"midtones":{"Y":0,"R":0.024,"G":-0.036,"B":0.036},"highlights":{"Y":0,"R":0,"G":0.044,"B":-0.128},"offset":{"Y":0,"R":0,"G":0,"B":0}}}
# Block 6: hueSaturation | Blending Mode: Normal | {"hue":0,"saturation":-0.1}
# Block 7: ODT | Rec709
TITLE "Lutify.me-FilmTone3-SLog1-to-Rec709" 
LUT_3D_SIZE 9
0.000000 0.000000 0.000000
0.041326 0.000000 0.000000
0.175736 0.000000 0.000000
0.317919 0.000000 0.000000
0.503177 0.000000 0.000000
0.738507 0.000000 0.022902
0.949751 0.000000 0.104714
1.000000 0.216206 0.228398
1.000000 0.492929 0.389748
0.000000 0.044292 0.000000
0.041059 0.047695 0.000000
0.209045 0.000000 0.000000
0.351467 0.000000 0.000000
0.540202 0.000000 0.000000
0.750917 0.000000 0.023250
0.950442 0.000000 0.106433
1.000000 0.226540 0.228403
1.000000 0.499650 0.392226
0.000000 0.155614 0.000000
0.000000 0.173475 0.000000
0.259253 0.166970 0.000000
0.425757 0.078664 0.000000
0.581330 0.000000 0.000000
0.775092 0.000000 0.000000
0.959183 0.000000 0.108280
1.000000 0.255697 0.234726
1.000000 0.514228 0.392930
0.000000 0.285444 0.000000
0.000000 0.312557 0.000000
0.000000 0.347372 0.000000
0.473366 0.308307 0.000000
0.651701 0.256046 0.000000
0.816341 0.159112 0.000000
0.968953 0.133971 0.113304
1.000000 0.324081 0.241544
1.000000 0.540668 0.397584
0.000000 0.464995 0.000000
0.000000 0.498132 0.000000
0.000000 0.532420 0.000000
0.173859 0.556063 0.000000
0.661938 0.524099 0.000000
0.849331 0.476142 0.000000
0.973187 0.409260 0.094328
1.000000 0.426593 0.249711
1.000000 0.574917 0.405792
0.000000 0.678279 0.000000
0.000000 0.700414 0.000000
0.000000 0.714240 0.000000
0.000000 0.738856 0.000000
0.452905 0.747912 0.000000
0.829550 0.722956 0.000000
0.951585 0.686386 0.000000
1.000000 0.638891 0.270639
1.000000 0.654478 0.421706
0.000000 0.845277 0.238270
0.000000 0.852683 0.238088
0.000000 0.859972 0.212771
0.000000 0.863447 0.210471
0.000000 0.873540 0.184561
0.699030 0.867153 0.155072
0.919089 0.851425 0.126451
0.990087 0.829716 0.328219
1.000000 0.802090 0.466931
0.000000 0.936245 0.472357
0.000000 0.937398 0.474348
0.000000 0.938289 0.471327
0.000000 0.941594 0.462216
0.000000 0.942324 0.457160
0.553297 0.939066 0.447305
0.840417 0.933591 0.440179
0.961980 0.923623 0.431767
1.000000 0.906244 0.541402
0.000000 0.988234 0.670668
0.000000 0.987881 0.671277
0.000000 0.987505 0.671887
0.000000 0.987758 0.669011
0.175064 0.986228 0.659886
0.538473 0.983290 0.659842
0.768165 0.978459 0.654379
0.911328 0.974199 0.655729
0.992523 0.968453 0.655239
0.000000 0.000000 0.019796
0.021003 0.000000 0.003154
0.169967 0.000000 0.000000
0.307773 0.000000 0.000000
0.504444 0.000000 0.024716
0.743371 0.000000 0.056334
0.948669 0.000000 0.122748
1.000000 0.216957 0.240318
1.000000 0.493183 0.395001
0.000000 0.031604 0.047726
0.015473 0.038263 0.041162
0.190493 0.000000 0.000000
0.343153 0.000000 0.000000
0.535996 0.000000 0.028080
0.752393 0.000000 0.060174
0.952080 0.000000 0.125262
1.000000 0.227251 0.240354
1.000000 0.499903 0.397501
0.000000 0.155206 0.032448
0.000000 0.173479 0.000000
0.225226 0.187168 0.000000
0.409186 0.100066 0.000000
0.578250 0.000000 0.020486
0.773480 0.000000 0.061853
0.955526 0.000000 0.129142
1.000000 0.256345 0.247067
1.000000 0.511203 0.398280
0.000000 0.290981 0.000000
0.000000 0.324394 0.000000
0.000000 0.366793 0.000000
0.439901 0.353967 0.000000
0.647198 0.275176 0.000000
0.821316 0.159238 0.040216
0.970123 0.137203 0.135479
1.000000 0.324659 0.249111
1.000000 0.541044 0.405592
0.000000 0.473221 0.000000
0.000000 0.511774 0.000000
0.000000 0.539829 0.000000
0.000000 0.573059 0.000000
0.650809 0.547751 0.000000
0.849894 0.488975 0.000000
0.973910 0.411473 0.131633
1.000000 0.427671 0.266406
1.000000 0.575291 0.413892
0.000000 0.688455 0.096142
0.000000 0.705125 0.064790
0.000000 0.722098 0.000000
0.000000 0.743293 0.000000
0.449192 0.754781 0.000000
0.825579 0.731004 0.000000
0.951784 0.688322 0.106546
1.000000 0.639401 0.280794
1.000000 0.654831 0.430006
0.000000 0.845964 0.274417
0.000000 0.853294 0.274265
0.000000 0.860711 0.256589
0.000000 0.864291 0.257855
0.000000 0.874314 0.230655
0.699460 0.869519 0.208162
0.918779 0.854085 0.191660
0.989872 0.830093 0.345365
1.000000 0.804180 0.472807
0.000000 0.936386 0.487821
0.000000 0.937547 0.490045
0.000000 0.938392 0.480567
0.000000 0.941729 0.477673
0.000000 0.944486 0.473671
0.553490 0.939152 0.459182
0.837965 0.933829 0.456812
0.961780 0.923783 0.447489
1.000000 0.906337 0.549468
0.000000 0.989496 0.677298
0.000000 0.989219 0.677777
0.000000 0.988697 0.678616
0.000000 0.987769 0.674496
0.174668 0.986238 0.665388
0.538430 0.983297 0.665240
0.765248 0.978588 0.662076
0.909869 0.974272 0.657954
0.992377 0.968472 0.659805
0.000000 0.000000 0.093193
0.000000 0.000000 0.066415
0.167885 0.000000 0.046360
0.305099 0.000000 0.049253
0.509831 0.000000 0.065046
0.746492 0.000000 0.093488
0.951401 0.000000 0.153184
1.000000 0.207922 0.256677
1.000000 0.493688 0.405595
0.000000 0.000000 0.131591
0.000000 0.000000 0.111874
0.181122 0.000000 0.085950
0.340166 0.000000 0.083866
0.544245 0.000000 0.081282
0.759560 0.000000 0.102661
0.954438 0.000000 0.154143
1.000000 0.228459 0.258434
1.000000 0.496985 0.405532
0.000000 0.133546 0.242592
0.000000 0.166517 0.226006
0.175680 0.205334 0.216261
0.407433 0.112310 0.149293
0.580463 0.000000 0.105881
0.781109 0.000000 0.113577
0.957514 0.000000 0.156860
1.000000 0.257147 0.261848
1.000000 0.510411 0.410622
0.000000 0.305285 0.272915
0.000000 0.332151 0.237293
0.000000 0.387833 0.200078
0.406537 0.397974 0.185333
0.653191 0.288967 0.127722
0.813218 0.163342 0.128845
0.971875 0.148660 0.172701
1.000000 0.326230 0.270781
1.000000 0.541419 0.413661
0.000000 0.486183 0.238257
0.000000 0.524651 0.202274
0.000000 0.556840 0.163836
0.000000 0.591657 0.132495
0.643986 0.581957 0.104110
0.853198 0.499459 0.114355
0.974632 0.418871 0.187490
1.000000 0.432468 0.285799
1.000000 0.575787 0.424785
0.000000 0.689415 0.239800
0.000000 0.709307 0.231591
0.000000 0.729587 0.204212
0.000000 0.748459 0.180022
0.421665 0.759980 0.139966
0.819420 0.744861 0.094868
0.951845 0.691278 0.192068
1.000000 0.644534 0.317267
1.000000 0.661578 0.443849
0.000000 0.852467 0.329464
0.000000 0.854345 0.333331
0.000000 0.859949 0.319001
0.000000 0.867200 0.317307
0.000000 0.875425 0.300210
0.687999 0.871077 0.282995
0.911565 0.860499 0.263405
0.989412 0.830779 0.376908
1.000000 0.804453 0.484224
0.000000 0.936619 0.512947
0.000000 0.937782 0.514855
0.000000 0.938621 0.505653
0.000000 0.941914 0.499398
0.000000 0.944735 0.494935
0.553833 0.939341 0.486073
0.837843 0.934008 0.479603
0.960212 0.926941 0.476334
1.000000 0.908476 0.560483
0.000000 0.989583 0.685314
0.000000 0.989308 0.685782
0.000000 0.988792 0.686602
0.000000 0.987792 0.685331
0.173649 0.986261 0.678962
0.538361 0.983309 0.673266
0.765107 0.978602 0.669883
0.909535 0.974305 0.670324
0.991585 0.969579 0.670550
0.000000 0.000000 0.158024
0.000000 0.000000 0.120851
0.159041 0.000000 0.102771
0.304798 0.000000 0.071990
0.495694 0.000000 0.129290
0.753511 0.000000 0.170065
0.955778 0.000000 0.215081
1.000000 0.205803 0.292337
1.000000 0.487589 0.432231
0.000000 0.000000 0.226414
0.000000 0.000000 0.196528
0.161212 0.000000 0.190144
0.330342 0.000000 0.139224
0.540021 0.000000 0.174449
0.767541 0.000000 0.189177
0.956303 0.000000 0.219941
1.000000 0.221163 0.294251
1.000000 0.498230 0.432537
0.000000 0.079138 0.343634
0.000000 0.107306 0.320332
0.103819 0.129842 0.318794
0.419162 0.000000 0.295626
0.590188 0.000000 0.232164
0.789542 0.000000 0.208779
0.962010 0.000000 0.228427
1.000000 0.250548 0.300529
1.000000 0.508236 0.435125
0.000000 0.249977 0.430884
0.000000 0.295650 0.412289
0.000000 0.380375 0.408791
0.370933 0.401795 0.391592
0.636199 0.299097 0.315732
0.814664 0.151529 0.250106
0.967985 0.152519 0.246782
1.000000 0.327608 0.310656
1.000000 0.535993 0.438355
0.000000 0.488124 0.469443
0.000000 0.527954 0.434668
0.000000 0.565616 0.409680
0.000000 0.602057 0.384949
0.616257 0.600850 0.372111
0.838462 0.513622 0.298144
0.976001 0.420617 0.271799
1.000000 0.438062 0.327523
1.000000 0.576523 0.454824
0.000000 0.696309 0.416339
0.000000 0.713283 0.401102
0.000000 0.738102 0.391332
0.000000 0.757043 0.376270
0.405736 0.771641 0.357438
0.804236 0.765595 0.343311
0.945547 0.705525 0.319165
1.000000 0.650108 0.367382
1.000000 0.656576 0.472297
0.000000 0.854113 0.442739
0.000000 0.859811 0.446667
0.000000 0.863900 0.442588
0.000000 0.871017 0.434272
0.000000 0.875652 0.419449
0.685305 0.872919 0.400125
0.909445 0.862592 0.386646
0.987458 0.831774 0.425848
1.000000 0.807128 0.516173
0.000000 0.938086 0.554103
0.000000 0.938148 0.555654
0.000000 0.939104 0.555762
0.000000 0.942422 0.545874
0.000000 0.945075 0.541197
0.548221 0.939793 0.531224
0.837460 0.934328 0.522979
0.958625 0.929232 0.523793
1.000000 0.908768 0.590184
0.000000 0.990399 0.701466
0.000000 0.990134 0.701912
0.000000 0.989635 0.702692
0.000000 0.988586 0.704140
0.171767 0.986301 0.702678
0.533305 0.984032 0.697283
0.761870 0.978758 0.692675
0.909054 0.974350 0.687368
0.990583 0.970193 0.693571
0.000000 0.000000 0.244604
0.000000 0.000000 0.216661
0.105802 0.000000 0.211059
0.314622 0.000000 0.169353
0.459558 0.000000 0.117916
0.741048 0.000000 0.281555
0.956198 0.000000 0.324118
1.000000 0.210170 0.376442
1.000000 0.485465 0.476496
0.000000 0.000000 0.328050
0.000000 0.000000 0.304614
0.052388 0.000000 0.299823
0.342819 0.000000 0.291606
0.509406 0.000000 0.216518
0.767011 0.000000 0.307934
0.959555 0.000000 0.332105
1.000000 0.226320 0.379680
1.000000 0.496133 0.476812
0.000000 0.037388 0.418327
0.000000 0.058926 0.395886
0.000000 0.073878 0.395510
0.346388 0.000000 0.400599
0.594371 0.000000 0.338761
0.788527 0.000000 0.347809
0.965337 0.000000 0.347923
1.000000 0.263876 0.385033
1.000000 0.509342 0.476678
0.000000 0.198483 0.540616
0.000000 0.238246 0.513814
0.000000 0.285641 0.515309
0.266044 0.317933 0.521922
0.663578 0.247168 0.503499
0.822473 0.045572 0.417228
0.971059 0.132619 0.373434
1.000000 0.331615 0.399035
1.000000 0.534653 0.483374
0.000000 0.396761 0.618412
0.000000 0.462263 0.586650
0.000000 0.533994 0.583066
0.000000 0.601775 0.587040
0.588174 0.601614 0.575505
0.824026 0.523294 0.500670
0.966628 0.420453 0.424709
1.000000 0.434047 0.418248
1.000000 0.578202 0.494767
0.000000 0.688551 0.623781
0.000000 0.716268 0.612303
0.000000 0.742322 0.604068
0.000000 0.765117 0.586475
0.307888 0.783091 0.572764
0.781215 0.774341 0.564800
0.935622 0.711653 0.491607
1.000000 0.646914 0.454876
1.000000 0.655191 0.515869
0.000000 0.855541 0.604573
0.000000 0.861685 0.602819
0.000000 0.865898 0.595383
0.000000 0.875025 0.586551
0.000000 0.881575 0.574819
0.656075 0.879132 0.564977
0.898267 0.873092 0.562124
0.980014 0.840621 0.521512
1.000000 0.808249 0.566212
0.000000 0.939839 0.636654
0.000000 0.939919 0.638026
0.000000 0.944129 0.635678
0.000000 0.945478 0.630701
0.000000 0.943889 0.627423
0.529358 0.941719 0.617218
0.833834 0.934956 0.602698
0.952810 0.930906 0.604698
1.000000 0.909166 0.631742
0.000000 0.990099 0.735909
0.000000 0.990421 0.736737
0.000000 0.989938 0.737424
0.000000 0.989480 0.734343
0.000000 0.986691 0.727480
0.533020 0.984071 0.727046
0.758482 0.980007 0.725328
0.906294 0.975550 0.721270
0.988208 0.971868 0.723132
0.000000 0.000000 0.400562
0.000000 0.000000 0.390547
0.000000 0.000000 0.384978
0.261146 0.000000 0.382152
0.522505 0.000000 0.324680
0.673994 0.000000 0.232700
0.954185 0.000000 0.462781
1.000000 0.182542 0.512968
1.000000 0.486688 0.545809
0.000000 0.000000 0.461874
0.000000 0.000000 0.460154
0.000000 0.000000 0.459609
0.242857 0.000000 0.457576
0.560672 0.000000 0.432436
0.726644 0.000000 0.341872
0.958603 0.000000 0.482597
1.000000 0.215860 0.519538
1.000000 0.496687 0.545770
0.000000 0.049799 0.521116
0.000000 0.066608 0.513823
0.000000 0.073522 0.522095
0.221524 0.018793 0.527657
0.600607 0.000000 0.522532
0.777118 0.000000 0.453247
0.964859 0.000000 0.503954
1.000000 0.250024 0.525902
1.000000 0.510207 0.551694
0.000000 0.140039 0.600216
0.000000 0.164970 0.598818
0.000000 0.186707 0.598311
0.115471 0.202170 0.603585
0.587710 0.130699 0.606019
0.833693 0.000000 0.546872
0.971108 0.000000 0.535771
1.000000 0.320013 0.539311
1.000000 0.538242 0.558233
0.000000 0.368136 0.697170
0.000000 0.418694 0.690487
0.000000 0.456768 0.689660
0.000000 0.499611 0.697483
0.481870 0.535412 0.694144
0.843347 0.473854 0.680618
0.969612 0.383940 0.600092
1.000000 0.438459 0.561661
1.000000 0.579257 0.567671
0.000000 0.572804 0.766825
0.000000 0.629172 0.747580
0.000000 0.697626 0.743138
0.000000 0.750479 0.743226
0.203426 0.782307 0.740278
0.763261 0.776183 0.737366
0.921549 0.718177 0.679525
1.000000 0.648461 0.608544
1.000000 0.660421 0.587261
0.000000 0.850812 0.761015
0.000000 0.859954 0.762996
0.000000 0.867374 0.761122
0.000000 0.877359 0.759700
0.000000 0.885939 0.747403
0.621228 0.885043 0.737323
0.880782 0.877058 0.731052
0.971623 0.843405 0.678048
1.000000 0.805783 0.637774
0.000000 0.944009 0.761885
0.000000 0.944120 0.760519
0.000000 0.944202 0.762034
0.000000 0.945627 0.753661
0.000000 0.948079 0.751508
0.501005 0.943003 0.743452
0.812150 0.939201 0.733811
0.945165 0.934557 0.734185
1.000000 0.911932 0.703708
0.000000 0.989332 0.785969
0.000000 0.990248 0.784811
0.000000 0.990360 0.785626
0.000000 0.989779 0.785052
0.000000 0.988804 0.779988
0.520649 0.983883 0.777590
0.754757 0.980208 0.769219
0.898864 0.976467 0.769953
0.983980 0.972648 0.773940
0.000000 0.000000 0.598333
0.000000 0.000000 0.600725
0.000000 0.000000 0.602296
0.153381 0.000000 0.604867
0.473662 0.000000 0.594162
0.774489 0.000000 0.556626
0.904168 0.000000 0.452153
1.000000 0.000000 0.647000
1.000000 0.469312 0.679865
0.000000 0.039420 0.620976
0.000000 0.049727 0.627183
0.000000 0.051294 0.627959
0.119655 0.000000 0.634010
0.464426 0.000000 0.627242
0.781529 0.000000 0.603291
0.922371 0.000000 0.512022
1.000000 0.000000 0.654188
1.000000 0.473527 0.683210
0.000000 0.094410 0.659152
0.000000 0.100011 0.657999
0.000000 0.109274 0.662416
0.000000 0.103022 0.665170
0.465968 0.000000 0.662303
0.811539 0.000000 0.655966
0.947998 0.000000 0.573265
1.000000 0.103536 0.667959
1.000000 0.487000 0.686310
0.000000 0.164455 0.700442
0.000000 0.175036 0.702269
0.000000 0.183205 0.709431
0.000000 0.197288 0.712812
0.452402 0.167440 0.713729
0.829914 0.000000 0.708997
0.976506 0.000000 0.647844
1.000000 0.241452 0.688656
1.000000 0.517963 0.695662
0.000000 0.305407 0.758925
0.000000 0.320521 0.760703
0.000000 0.332831 0.764361
0.000000 0.355902 0.766870
0.369037 0.380038 0.767291
0.808210 0.340312 0.766179
0.984668 0.227188 0.722721
1.000000 0.385630 0.712060
1.000000 0.579067 0.704812
0.000000 0.584507 0.820394
0.000000 0.609193 0.816707
0.000000 0.634834 0.817833
0.000000 0.677053 0.818878
0.000000 0.714386 0.815843
0.684564 0.723646 0.814392
0.927144 0.689068 0.799085
1.000000 0.607927 0.754323
1.000000 0.659867 0.724941
0.000000 0.750433 0.857123
0.000000 0.794444 0.848270
0.000000 0.828531 0.844039
0.000000 0.857318 0.842293
0.000000 0.877491 0.844981
0.599512 0.884431 0.844692
0.862386 0.878085 0.842201
0.957802 0.849648 0.805617
1.000000 0.807860 0.759733
0.000000 0.940047 0.863225
0.000000 0.941611 0.861243
0.000000 0.945324 0.859824
0.000000 0.947406 0.860778
0.000000 0.949846 0.854515
0.450311 0.946763 0.848533
0.798561 0.941405 0.841955
0.931561 0.937594 0.839606
0.997501 0.915123 0.805683
0.000000 0.992220 0.858777
0.000000 0.991912 0.859079
0.000000 0.991960 0.859648
0.000000 0.991893 0.859264
0.000000 0.989356 0.856205
0.469687 0.986916 0.852956
0.742139 0.981417 0.848223
0.891779 0.977950 0.844004
0.976481 0.975540 0.844307
0.000000 0.113939 0.768056
0.000000 0.114820 0.767029
0.000000 0.118539 0.769944
0.057886 0.111576 0.771908
0.382955 0.042814 0.771816
0.716720 0.000000 0.765223
0.966766 0.000000 0.733944
1.000000 0.000000 0.650866
1.000000 0.386720 0.782551
0.000000 0.131450 0.777594
0.000000 0.135516 0.776736
0.000000 0.140223 0.779541
0.000000 0.139712 0.778808
0.377174 0.105087 0.781315
0.717375 0.000000 0.777698
0.970311 0.000000 0.747876
1.000000 0.000000 0.673732
1.000000 0.398270 0.785129
0.000000 0.163427 0.792561
0.000000 0.168256 0.791707
0.000000 0.174255 0.789352
0.000000 0.178592 0.793808
0.357657 0.153699 0.793071
0.717636 0.000000 0.789871
0.975903 0.000000 0.773054
1.000000 0.000000 0.704063
1.000000 0.415751 0.789917
0.000000 0.219490 0.809672
0.000000 0.221868 0.811212
0.000000 0.227876 0.813665
0.000000 0.238416 0.814853
0.331619 0.232979 0.812262
0.719730 0.158467 0.809400
0.976752 0.000000 0.801541
1.000000 0.000000 0.745937
1.000000 0.448601 0.797059
0.000000 0.325125 0.837246
0.000000 0.331497 0.838677
0.000000 0.338390 0.840669
0.000000 0.353416 0.841853
0.263000 0.367535 0.841089
0.684331 0.349383 0.838381
0.971632 0.300425 0.835992
1.000000 0.189422 0.793268
1.000000 0.517296 0.807673
0.000000 0.502407 0.865859
0.000000 0.511290 0.865361
0.000000 0.527213 0.865100
0.000000 0.544507 0.864124
0.000000 0.569525 0.861302
0.602269 0.570947 0.862640
0.934737 0.553681 0.860821
1.000000 0.498186 0.835989
1.000000 0.626550 0.820486
0.000000 0.784462 0.895323
0.000000 0.792535 0.896389
0.000000 0.810724 0.893437
0.000000 0.817194 0.894554
0.000000 0.836378 0.893838
0.420410 0.848029 0.891793
0.831530 0.845289 0.888905
0.961071 0.828342 0.881843
1.000000 0.783793 0.846878
0.000000 0.887677 0.914878
0.000000 0.901230 0.911599
0.000000 0.912388 0.910832
0.000000 0.931498 0.910768
0.000000 0.940688 0.910661
0.277416 0.944632 0.910758
0.779594 0.940473 0.906621
0.922145 0.936392 0.906163
0.989539 0.916598 0.880692
0.000000 0.992452 0.920758
0.000000 0.993283 0.921123
0.000000 0.993364 0.920566
0.000000 0.993856 0.918410
0.000000 0.991387 0.919315
0.404851 0.988542 0.913867
0.721736 0.982558 0.909913
0.879166 0.980281 0.908038
0.968368 0.977094 0.903324
0.000000 0.252005 0.884220
0.000000 0.253781 0.884557
0.000000 0.252910 0.883410
0.151211 0.250198 0.880868
0.365753 0.251141 0.882243
0.618603 0.204067 0.878052
0.914159 0.000000 0.875884
1.000000 0.000000 0.859009
1.000000 0.000000 0.806560
0.000000 0.268983 0.887652
0.000000 0.264468 0.888000
0.000000 0.263846 0.886785
0.135014 0.265744 0.884369
0.357165 0.268546 0.883935
0.617233 0.225946 0.881596
0.913544 0.085100 0.877687
1.000000 0.000000 0.861082
1.000000 0.000000 0.812073
0.000000 0.289118 0.892552
0.000000 0.289002 0.892920
0.000000 0.288664 0.893404
0.083741 0.289091 0.889357
0.340093 0.294438 0.888867
0.610461 0.257587 0.888337
0.911816 0.171988 0.882841
1.000000 0.000000 0.866897
1.000000 0.000000 0.821911
0.000000 0.332530 0.896922
0.000000 0.332609 0.897190
0.000000 0.332609 0.897747
0.000000 0.331910 0.898612
0.307527 0.338125 0.896487
0.603965 0.313605 0.897628
0.907674 0.260694 0.890779
1.000000 0.181187 0.880887
1.000000 0.000000 0.841619
0.000000 0.393080 0.906475
0.000000 0.399210 0.906566
0.000000 0.402620 0.906997
0.000000 0.411716 0.906163
0.246290 0.422203 0.906887
0.562775 0.413445 0.902099
0.884153 0.385033 0.901542
1.000000 0.366189 0.899862
1.000000 0.288658 0.861406
0.000000 0.519724 0.918853
0.000000 0.520286 0.919122
0.000000 0.527340 0.919238
0.000000 0.541342 0.919526
0.000000 0.553966 0.916192
0.491252 0.558920 0.916767
0.852638 0.547850 0.912452
1.000000 0.547830 0.910595
1.000000 0.485921 0.884617
0.000000 0.695598 0.931452
0.000000 0.699727 0.931563
0.000000 0.710568 0.930459
0.000000 0.724578 0.928385
0.000000 0.728581 0.929003
0.342547 0.746688 0.925714
0.765894 0.750654 0.924855
0.969048 0.743195 0.922503
1.000000 0.719579 0.904870
0.000000 0.899640 0.946120
0.000000 0.901636 0.946349
0.000000 0.903707 0.945129
0.000000 0.911385 0.945477
0.000000 0.914647 0.945430
0.000000 0.918569 0.944332
0.687442 0.917177 0.941511
0.897287 0.916646 0.940302
0.986351 0.910925 0.933582
0.000000 0.963706 0.958111
0.000000 0.969222 0.958732
0.000000 0.976929 0.956945
0.000000 0.980906 0.957672
0.000000 0.985681 0.957115
0.000000 0.986129 0.955999
0.656365 0.981755 0.954116
0.869774 0.979802 0.952871
0.962721 0.977789 0.948379
