Assets/Lutify-Free-LUTs-Pack/Lutify Free LUTs Pack/Film Tone Pro - Film Tone 3/Lutify.me-FilmTone3-BMDFilmGen4-to-Rec709.cube
# Created with: fylm.ai - Colour Grading and Collaboration Software in Cloud 
# Website: https://fylm.ai 
# META
# Option: Gamut compress
# Block 1: IDT | BMD Wide Gamut BMDFilm Gen 4
# Block 2: colourMatch | Blending Mode: Normal | {"ColorSpace":0,"CrossCovarianceLimit":50,"ReshapingIterations":1,"PercentSaturationShift":100,"PercentShadingShift":100,"ExtraShading":true,"PercentTint":100,"PercentModified":100}
# Block 3: subtractiveColour | Blending Mode: Normal | {"sliders":{"gainY":0.6,"C":0.3,"M":0.3,"Y":0.3}}
# Block 4: LUT | Filmic Curve Response: Low Contrast 2 (100%)
# Block 5: logPrimaries | Blending Mode: Normal | {"wheels":{"shadows":{"Y":"0","R":"1","G":"1","B":"1"},"midtones":{"Y":"0","R":"1","G":"1","B":"1"},"highlights":{"Y":"0","R":"1","G":"1","B":"1"},"offset":{"Y":"0","R":"1","G":"1","B":"1"}},"sliders":{"shadows":{"Y":0,"R":-0.026,"G":0.03,"B":0.1},"midtones":{"Y":0,"R":0.024,"G":-0.036,"B":0.036},"highlights":{"Y":0,"R":0,"G":0.044,"B":-0.128},"offset":{"Y":0,"R":0,"G":0,"B":0}}}
# Block 6: hueSaturation | Blending Mode: Normal | {"hue":0,"saturation":-0.1}
# Block 7: ODT | Rec709
TITLE "Lutify.me-FilmTone3-BMDFilmGen4-to-Rec709" 
LUT_3D_SIZE 9
0.000000 0.000000 0.000000
0.076072 0.000000 0.000000
0.181400 0.000000 0.000000
0.312482 0.000000 0.000000
0.475585 0.000000 0.000000
0.673720 0.000000 0.000000
0.860389 0.000000 0.000000
1.000000 0.127560 0.105118
1.000000 0.393087 0.208407
0.000000 0.074687 0.000000
0.093818 0.084356 0.000000
0.241871 0.000000 0.000000
0.356519 0.000000 0.000000
0.508358 0.000000 0.000000
0.692685 0.000000 0.000000
0.871752 0.000000 0.000000
0.999213 0.172525 0.098681
1.000000 0.400374 0.207716
0.000000 0.189435 0.000000
0.000000 0.218402 0.000000
0.289201 0.200673 0.000000
0.430277 0.155427 0.000000
0.572823 0.091989 0.000000
0.715037 0.000000 0.000000
0.883754 0.000000 0.000000
1.000000 0.223202 0.095629
1.000000 0.426185 0.207400
0.000000 0.327309 0.000000
0.000000 0.349035 0.000000
0.227289 0.362260 0.000000
0.488204 0.330709 0.000000
0.630888 0.297679 0.000000
0.765613 0.269968 0.000000
0.900796 0.256963 0.000000
1.000000 0.316639 0.078539
1.000000 0.462516 0.204197
0.000000 0.491880 0.000000
0.000000 0.509689 0.000000
0.000000 0.520191 0.000000
0.445976 0.517692 0.000000
0.681145 0.481450 0.000000
0.806424 0.464822 0.000000
0.910934 0.463078 0.000000
0.996644 0.479321 0.000000
1.000000 0.540120 0.198702
0.000000 0.662296 0.000000
0.000000 0.669922 0.000000
0.000000 0.672058 0.000000
0.290161 0.681064 0.000000
0.619558 0.674978 0.000000
0.838645 0.625453 0.000000
0.907206 0.641231 0.000000
0.985619 0.645302 0.000000
1.000000 0.663517 0.184861
0.000000 0.811206 0.000000
0.000000 0.813305 0.000000
0.000000 0.812673 0.000000
0.117943 0.813002 0.000000
0.524981 0.814397 0.000000
0.758669 0.807752 0.000000
0.906803 0.771830 0.000000
0.964100 0.784334 0.000000
1.000000 0.793029 0.158623
0.000000 0.896339 0.000000
0.000000 0.897525 0.000000
0.000000 0.898079 0.000000
0.311749 0.899071 0.000000
0.535649 0.897499 0.000000
0.715508 0.891210 0.000000
0.867086 0.883808 0.000000
0.952863 0.864093 0.000000
0.997588 0.871625 0.000000
0.509265 0.951574 0.174303
0.515707 0.952307 0.177136
0.533990 0.951810 0.171802
0.574071 0.951585 0.170682
0.638502 0.950301 0.149375
0.736727 0.950082 0.153197
0.840520 0.945453 0.134333
0.927458 0.941725 0.111442
0.987977 0.929059 0.000000
0.000000 0.000000 0.050808
0.057042 0.000000 0.040890
0.175059 0.000000 0.029441
0.300818 0.000000 0.030594
0.468816 0.000000 0.032149
0.673084 0.000000 0.041427
0.858411 0.000000 0.072655
0.999273 0.124828 0.130009
1.000000 0.387165 0.227399
0.000000 0.059709 0.097852
0.066432 0.080812 0.085924
0.222080 0.015268 0.054820
0.340725 0.000000 0.037986
0.498960 0.000000 0.030822
0.684724 0.000000 0.038202
0.863318 0.000000 0.071069
1.000000 0.170502 0.127870
1.000000 0.401761 0.226247
0.000000 0.192068 0.057401
0.000000 0.223566 0.000000
0.247196 0.230787 0.000000
0.412725 0.180172 0.000000
0.564049 0.106546 0.000000
0.722011 0.000000 0.000000
0.885415 0.000000 0.067572
1.000000 0.221666 0.126935
1.000000 0.420246 0.225093
0.000000 0.334463 0.000000
0.000000 0.365430 0.000000
0.059348 0.380490 0.000000
0.436512 0.376225 0.000000
0.619055 0.326537 0.000000
0.763608 0.290854 0.000000
0.904652 0.250259 0.000000
1.000000 0.315463 0.117822
1.000000 0.464002 0.225774
0.000000 0.511564 0.000000
0.000000 0.525458 0.000000
0.000000 0.532883 0.000000
0.346890 0.544116 0.000000
0.635436 0.520170 0.000000
0.799725 0.491231 0.000000
0.911644 0.472912 0.000000
0.997784 0.478507 0.072203
1.000000 0.537993 0.220493
0.000000 0.682799 0.000000
0.000000 0.684302 0.000000
0.000000 0.692380 0.000000
0.055820 0.705169 0.000000
0.562375 0.699327 0.000000
0.792803 0.671129 0.000000
0.910259 0.648355 0.000000
0.983001 0.648482 0.000000
1.000000 0.664732 0.210059
0.000000 0.816672 0.000000
0.000000 0.816665 0.000000
0.000000 0.820724 0.000000
0.000000 0.825498 0.000000
0.504375 0.822399 0.000000
0.740891 0.818049 0.000000
0.894392 0.798467 0.000000
0.964487 0.790133 0.000000
1.000000 0.793648 0.190460
0.000000 0.901467 0.000000
0.000000 0.901019 0.000000
0.000000 0.900170 0.000000
0.325312 0.901162 0.000000
0.538433 0.899756 0.000000
0.712364 0.896531 0.000000
0.864510 0.889239 0.000000
0.949673 0.873385 0.000000
0.996340 0.873937 0.089797
0.505756 0.952992 0.227438
0.518560 0.952694 0.228022
0.536880 0.952221 0.226055
0.576677 0.951992 0.224458
0.640951 0.950757 0.211091
0.738359 0.950536 0.210795
0.834085 0.947055 0.189640
0.928439 0.941502 0.170993
0.985829 0.933244 0.088834
0.000000 0.000000 0.099785
0.014321 0.000000 0.089052
0.168367 0.000000 0.067801
0.291347 0.000000 0.074153
0.474153 0.000000 0.093513
0.674810 0.000000 0.096481
0.864690 0.000000 0.122800
1.000000 0.114548 0.165612
1.000000 0.388661 0.254079
0.000000 0.000000 0.156434
0.000000 0.017617 0.150896
0.202310 0.000000 0.137432
0.339343 0.000000 0.120043
0.504030 0.000000 0.114169
0.691375 0.000000 0.104613
0.869109 0.000000 0.121479
1.000000 0.169691 0.167103
1.000000 0.400191 0.255774
0.000000 0.165398 0.257365
0.000000 0.211227 0.251904
0.203613 0.233937 0.244515
0.401345 0.188764 0.190639
0.560036 0.108660 0.142221
0.717683 0.000000 0.112684
0.883826 0.000000 0.119457
1.000000 0.221187 0.167857
1.000000 0.418699 0.254973
0.000000 0.351835 0.240140
0.000000 0.379034 0.222993
0.000000 0.402216 0.209114
0.400357 0.413380 0.186923
0.618667 0.348345 0.128971
0.768449 0.288027 0.096548
0.903293 0.265784 0.119052
1.000000 0.311457 0.165931
1.000000 0.462492 0.256828
0.000000 0.529944 0.140087
0.000000 0.541501 0.113721
0.000000 0.558475 0.074900
0.311263 0.564818 0.000000
0.618453 0.565912 0.000000
0.796224 0.508068 0.000000
0.914294 0.491363 0.043466
0.999926 0.471655 0.150844
1.000000 0.540227 0.257792
0.000000 0.691757 0.000000
0.000000 0.699755 0.000000
0.000000 0.707587 0.000000
0.000000 0.717167 0.000000
0.523689 0.719030 0.000000
0.783021 0.705429 0.000000
0.903910 0.675413 0.000000
0.979869 0.662773 0.084496
1.000000 0.663589 0.252770
0.000000 0.827480 0.000000
0.000000 0.829398 0.000000
0.000000 0.833051 0.000000
0.000000 0.831594 0.000000
0.476855 0.833304 0.000000
0.728717 0.829244 0.000000
0.885480 0.815146 0.000000
0.960284 0.802418 0.000000
1.000000 0.795050 0.246035
0.000000 0.903592 0.000000
0.000000 0.903094 0.000000
0.000000 0.902379 0.000000
0.316587 0.903413 0.000000
0.521558 0.902395 0.000000
0.700904 0.900460 0.000000
0.855202 0.895161 0.000000
0.947165 0.883184 0.000000
0.994066 0.876789 0.197708
0.496146 0.954632 0.290256
0.509232 0.954334 0.290743
0.534044 0.953715 0.288981
0.568802 0.952812 0.290515
0.634601 0.951640 0.284713
0.736543 0.952011 0.275038
0.835554 0.947784 0.269457
0.920458 0.946024 0.259212
0.984523 0.937484 0.210292
0.000000 0.000000 0.147684
0.000000 0.000000 0.132465
0.159224 0.000000 0.127207
0.287970 0.000000 0.100371
0.454985 0.000000 0.151598
0.678823 0.000000 0.197280
0.868524 0.000000 0.198972
0.995165 0.127735 0.233000
1.000000 0.391250 0.293968
0.000000 0.000000 0.223998
0.000000 0.000000 0.213356
0.164109 0.000000 0.216779
0.330942 0.000000 0.191813
0.501252 0.000000 0.205787
0.700352 0.000000 0.213201
0.873246 0.000000 0.203671
0.996279 0.183930 0.235909
1.000000 0.402197 0.293503
0.000000 0.100576 0.334674
0.000000 0.126186 0.327494
0.148420 0.145455 0.335099
0.403999 0.123101 0.330976
0.559310 0.000000 0.279407
0.719999 0.000000 0.238746
0.881081 0.000000 0.208152
1.000000 0.232528 0.238974
1.000000 0.424426 0.295102
0.000000 0.302357 0.409936
0.000000 0.340925 0.404227
0.000000 0.392632 0.412272
0.373780 0.404783 0.394545
0.594097 0.359862 0.343225
0.755925 0.286128 0.274358
0.902627 0.243442 0.221686
1.000000 0.325074 0.239610
1.000000 0.457161 0.298441
0.000000 0.536311 0.401121
0.000000 0.551745 0.394814
0.000000 0.567417 0.381389
0.238028 0.578237 0.364899
0.588703 0.587567 0.345368
0.786687 0.532379 0.287322
0.912287 0.486230 0.226604
0.998947 0.477308 0.242501
1.000000 0.535816 0.302725
0.000000 0.705550 0.314630
0.000000 0.713665 0.310340
0.000000 0.725287 0.301567
0.000000 0.731815 0.289125
0.483482 0.737127 0.273955
0.771356 0.733351 0.239508
0.897305 0.694336 0.199879
0.979629 0.668713 0.235711
1.000000 0.663409 0.317727
0.000000 0.830424 0.251463
0.000000 0.832631 0.252960
0.000000 0.834344 0.245444
0.000000 0.840771 0.220108
0.445653 0.838675 0.210950
0.710759 0.835037 0.191994
0.879349 0.829292 0.123008
0.958756 0.809040 0.216718
1.000000 0.797278 0.329926
0.000000 0.906182 0.279711
0.000000 0.908616 0.281694
0.000000 0.909355 0.283647
0.267084 0.908963 0.280945
0.515548 0.907428 0.266137
0.684927 0.904710 0.250769
0.841708 0.901929 0.240723
0.942153 0.893421 0.195458
0.992781 0.881335 0.310286
0.473555 0.956765 0.386694
0.487379 0.956470 0.387084
0.513525 0.955857 0.385118
0.549908 0.954958 0.386335
0.623464 0.952787 0.378402
0.725271 0.952467 0.370586
0.823806 0.951530 0.368168
0.916306 0.947175 0.352698
0.980147 0.943155 0.324409
0.000000 0.000000 0.191230
0.000000 0.000000 0.184090
0.117161 0.000000 0.187222
0.289452 0.000000 0.168082
0.422594 0.000000 0.142333
0.659630 0.000000 0.278272
0.863758 0.000000 0.325406
0.997524 0.000000 0.330505
1.000000 0.386458 0.373307
0.000000 0.000000 0.280928
0.000000 0.000000 0.276659
0.098766 0.000000 0.280372
0.318416 0.000000 0.293279
0.482788 0.000000 0.256294
0.687028 0.000000 0.318466
0.872499 0.000000 0.336417
0.999095 0.101834 0.335535
1.000000 0.394790 0.376539
0.000000 0.047761 0.385045
0.000000 0.060466 0.382487
0.000000 0.065945 0.393315
0.327872 0.000000 0.397193
0.559416 0.000000 0.370174
0.730883 0.000000 0.364150
0.884815 0.000000 0.360930
0.998644 0.210971 0.343017
1.000000 0.420258 0.376099
0.000000 0.226040 0.494643
0.000000 0.243775 0.496063
0.000000 0.276831 0.501001
0.293987 0.302620 0.506529
0.607675 0.282743 0.505548
0.762502 0.218984 0.437179
0.903328 0.197095 0.396805
1.000000 0.303708 0.355684
1.000000 0.457344 0.379082
0.000000 0.486641 0.564275
0.000000 0.518474 0.571108
0.000000 0.553049 0.568927
0.073602 0.575235 0.567555
0.568250 0.581834 0.558968
0.760951 0.542912 0.498059
0.903684 0.483211 0.443435
0.994704 0.458832 0.375785
1.000000 0.532653 0.386872
0.000000 0.708541 0.560951
0.000000 0.717216 0.560451
0.000000 0.732687 0.555460
0.000000 0.739714 0.548994
0.447046 0.747977 0.532037
0.743850 0.745342 0.520535
0.887715 0.703921 0.458570
0.972434 0.675460 0.400669
1.000000 0.670289 0.405037
0.000000 0.837554 0.504161
0.000000 0.839624 0.499454
0.000000 0.843424 0.498810
0.000000 0.845957 0.493305
0.425120 0.845840 0.483052
0.686267 0.844613 0.468240
0.862690 0.843269 0.451844
0.950419 0.817387 0.409257
1.000000 0.803735 0.425399
0.000000 0.912814 0.465097
0.000000 0.912504 0.465676
0.000000 0.911824 0.466847
0.245250 0.909888 0.460070
0.513272 0.910714 0.447939
0.678572 0.909405 0.442868
0.840075 0.904216 0.436977
0.933495 0.902278 0.402892
0.989109 0.884399 0.427685
0.469618 0.956796 0.504796
0.483708 0.957316 0.502989
0.510165 0.956722 0.503659
0.546846 0.957435 0.500495
0.615873 0.957095 0.501596
0.722773 0.954203 0.496251
0.818630 0.954120 0.494705
0.906947 0.950829 0.483074
0.976982 0.946894 0.466668
0.000000 0.000000 0.233425
0.000000 0.000000 0.233853
0.100586 0.000000 0.238476
0.266718 0.000000 0.249316
0.430995 0.000000 0.220579
0.592027 0.000000 0.216365
0.852045 0.000000 0.423443
0.998151 0.000000 0.491282
1.000000 0.372093 0.495703
0.000000 0.000000 0.340518
0.000000 0.000000 0.339002
0.033854 0.000000 0.349490
0.237950 0.000000 0.357558
0.480301 0.000000 0.359471
0.652545 0.000000 0.339641
0.865122 0.000000 0.450814
0.999335 0.000000 0.492304
1.000000 0.379694 0.498691
0.000000 0.018462 0.463040
0.000000 0.026700 0.462901
0.000000 0.027904 0.469804
0.223261 0.000000 0.476363
0.527907 0.000000 0.487196
0.712462 0.000000 0.455167
0.884368 0.000000 0.488616
0.999528 0.134669 0.502700
1.000000 0.398885 0.504930
0.000000 0.133178 0.556197
0.000000 0.143239 0.562725
0.000000 0.157854 0.565702
0.214152 0.165090 0.564973
0.531254 0.121855 0.577904
0.772345 0.000000 0.545573
0.904031 0.000000 0.528491
0.998841 0.266722 0.522596
1.000000 0.439771 0.505300
0.000000 0.396628 0.653612
0.000000 0.416099 0.649684
0.000000 0.433895 0.656928
0.000000 0.469325 0.662953
0.480077 0.489197 0.664774
0.780756 0.474645 0.662325
0.905548 0.433348 0.602914
0.994071 0.431428 0.545759
1.000000 0.523071 0.517846
0.000000 0.666726 0.711150
0.000000 0.680044 0.714437
0.000000 0.700899 0.707320
0.000000 0.726155 0.710529
0.392307 0.738733 0.710107
0.727011 0.741873 0.701275
0.870934 0.711065 0.653377
0.964872 0.672907 0.589548
1.000000 0.655057 0.541920
0.000000 0.838919 0.708098
0.000000 0.841221 0.709503
0.000000 0.847084 0.703037
0.000000 0.847748 0.697636
0.337618 0.850088 0.689906
0.645422 0.848989 0.680210
0.839538 0.849227 0.679212
0.939165 0.825522 0.623223
0.997321 0.806668 0.562951
0.000000 0.913777 0.666280
0.000000 0.913474 0.666765
0.000000 0.914000 0.668089
0.000000 0.916153 0.661278
0.447039 0.914928 0.646336
0.644978 0.913335 0.648739
0.812430 0.910453 0.632490
0.922604 0.906995 0.620132
0.980974 0.892402 0.580685
0.440711 0.960393 0.631016
0.463608 0.961533 0.632562
0.484554 0.961092 0.632995
0.541224 0.959756 0.634312
0.600847 0.958111 0.632979
0.703914 0.956992 0.620850
0.814732 0.954812 0.615200
0.896722 0.951905 0.611335
0.968839 0.951547 0.603277
0.000000 0.000000 0.295336
0.000000 0.000000 0.298421
0.119043 0.000000 0.302352
0.226302 0.000000 0.314566
0.416671 0.000000 0.322782
0.607151 0.000000 0.315839
0.763818 0.000000 0.347174
0.993318 0.000000 0.585148
1.000000 0.321300 0.637017
0.000000 0.000000 0.417499
0.000000 0.000000 0.422475
0.000000 0.000000 0.428764
0.189167 0.000000 0.435907
0.414750 0.000000 0.459739
0.659707 0.000000 0.461167
0.818291 0.000000 0.453064
0.996127 0.000000 0.599319
1.000000 0.337177 0.637145
0.000000 0.000000 0.546066
0.000000 0.000000 0.551383
0.000000 0.000000 0.555883
0.143791 0.000000 0.567239
0.408553 0.000000 0.570530
0.701046 0.000000 0.585874
0.858496 0.000000 0.536442
0.999824 0.000000 0.611102
1.000000 0.361030 0.643832
0.000000 0.110151 0.634858
0.000000 0.115318 0.635899
0.000000 0.125832 0.642458
0.000000 0.128066 0.650341
0.429391 0.073793 0.654151
0.732288 0.000000 0.662101
0.905848 0.000000 0.628061
1.000000 0.000000 0.643499
1.000000 0.402984 0.653750
0.000000 0.256351 0.708450
0.000000 0.260004 0.711980
0.000000 0.276027 0.710404
0.000000 0.292197 0.717213
0.402082 0.295680 0.719458
0.740417 0.270645 0.723475
0.930226 0.231117 0.701144
1.000000 0.340407 0.681792
1.000000 0.491457 0.667356
0.000000 0.575686 0.779900
0.000000 0.583873 0.778679
0.000000 0.600325 0.778987
0.000000 0.613727 0.782790
0.270121 0.640078 0.782600
0.655468 0.659119 0.781580
0.884981 0.657557 0.781492
0.965353 0.629310 0.736030
1.000000 0.625763 0.692630
0.000000 0.811468 0.812720
0.000000 0.816909 0.811577
0.000000 0.824598 0.811181
0.000000 0.830962 0.811421
0.196682 0.841941 0.808134
0.630649 0.844306 0.809283
0.828465 0.842872 0.804870
0.924757 0.825119 0.771605
0.988359 0.804189 0.728640
0.000000 0.916086 0.810057
0.000000 0.917145 0.810297
0.000000 0.916505 0.806804
0.000000 0.916444 0.801685
0.391395 0.917159 0.802164
0.627795 0.913868 0.794566
0.800271 0.911038 0.790382
0.905351 0.910113 0.787440
0.970333 0.894367 0.754190
0.387559 0.961876 0.785306
0.413629 0.961434 0.783444
0.437762 0.960998 0.783674
0.481499 0.960106 0.782037
0.567243 0.959555 0.777209
0.678251 0.959143 0.775944
0.792786 0.956939 0.771694
0.879483 0.955971 0.764835
0.956443 0.953309 0.759367
0.119269 0.000000 0.313017
0.153018 0.000000 0.314378
0.201463 0.000000 0.320433
0.277651 0.000000 0.333891
0.410100 0.000000 0.356156
0.591770 0.000000 0.368018
0.760033 0.000000 0.406722
0.937447 0.000000 0.501331
1.000000 0.000000 0.721410
0.000000 0.000000 0.452408
0.000000 0.000000 0.454454
0.111876 0.000000 0.457742
0.208363 0.000000 0.477438
0.358459 0.000000 0.498960
0.612970 0.000000 0.531875
0.814888 0.000000 0.549306
0.955122 0.000000 0.569641
1.000000 0.048682 0.727909
0.000000 0.000000 0.618034
0.000000 0.000000 0.621081
0.000000 0.000000 0.625050
0.157993 0.000000 0.627230
0.341005 0.000000 0.637458
0.610384 0.000000 0.651745
0.856381 0.000000 0.653309
0.977415 0.000000 0.631932
1.000000 0.163020 0.734501
0.000000 0.085656 0.708885
0.000000 0.091014 0.708735
0.000000 0.093416 0.712343
0.000000 0.086727 0.717451
0.335602 0.000000 0.721240
0.622060 0.000000 0.727841
0.895626 0.000000 0.735344
1.000000 0.000000 0.699934
1.000000 0.262196 0.752587
0.000000 0.212758 0.773168
0.000000 0.220243 0.774982
0.000000 0.227797 0.774887
0.000000 0.232078 0.778917
0.293973 0.238037 0.783506
0.633882 0.205482 0.783371
0.892268 0.147359 0.787864
1.000000 0.000000 0.754932
1.000000 0.383698 0.772139
0.000000 0.417664 0.824120
0.000000 0.421826 0.825141
0.000000 0.429427 0.826632
0.000000 0.446216 0.822405
0.222528 0.464206 0.824981
0.601275 0.462128 0.823992
0.879511 0.460937 0.826926
1.000000 0.455355 0.807029
1.000000 0.554045 0.795721
0.000000 0.743413 0.857595
0.000000 0.747342 0.858164
0.000000 0.754497 0.859015
0.000000 0.755721 0.860527
0.000000 0.769247 0.858394
0.518614 0.782409 0.856781
0.791030 0.788646 0.857114
0.929932 0.794169 0.851817
0.988004 0.774073 0.828291
0.000000 0.902662 0.880290
0.000000 0.902409 0.879164
0.000000 0.903415 0.878114
0.000000 0.907907 0.878740
0.195866 0.910854 0.880027
0.594265 0.909135 0.878779
0.778549 0.911953 0.873729
0.893923 0.907384 0.873504
0.960731 0.896277 0.852794
0.267142 0.962502 0.878056
0.306176 0.962104 0.878165
0.350107 0.961529 0.875644
0.422820 0.960371 0.874592
0.528085 0.961237 0.874016
0.657673 0.960454 0.872603
0.780203 0.957326 0.869001
0.873242 0.955451 0.866135
0.943643 0.955107 0.861816
0.233843 0.000000 0.387984
0.257081 0.000000 0.391619
0.293050 0.000000 0.398494
0.356065 0.000000 0.414899
0.446537 0.000000 0.440864
0.582312 0.000000 0.471112
0.760810 0.000000 0.532677
0.948782 0.000000 0.630796
1.000000 0.000000 0.681267
0.148317 0.000000 0.534465
0.173639 0.000000 0.538731
0.207685 0.000000 0.546557
0.275780 0.000000 0.558862
0.372894 0.000000 0.575425
0.541747 0.000000 0.616390
0.785416 0.000000 0.667642
0.965038 0.000000 0.685768
1.000000 0.000000 0.713774
0.000000 0.000000 0.697563
0.000000 0.000000 0.699159
0.123956 0.000000 0.701342
0.227464 0.000000 0.707871
0.346387 0.000000 0.708621
0.531910 0.000000 0.723633
0.786758 0.000000 0.745946
0.981767 0.000000 0.754453
1.000000 0.000000 0.746031
0.000000 0.063379 0.787691
0.000000 0.058610 0.788635
0.000000 0.047862 0.790291
0.184602 0.000000 0.790152
0.330488 0.000000 0.792897
0.533782 0.000000 0.798956
0.799695 0.000000 0.800806
0.996535 0.000000 0.806367
1.000000 0.000000 0.786598
0.000000 0.198683 0.835493
0.000000 0.198053 0.836296
0.000000 0.200268 0.837448
0.126978 0.206274 0.839076
0.306769 0.202918 0.840905
0.534754 0.177867 0.838732
0.804296 0.079026 0.842845
1.000000 0.000000 0.844425
1.000000 0.000000 0.820958
0.000000 0.370862 0.873830
0.000000 0.376739 0.874145
0.000000 0.379832 0.872955
0.000000 0.391470 0.872091
0.234116 0.395833 0.871514
0.497913 0.402600 0.872887
0.793324 0.389864 0.869069
0.987743 0.406819 0.871148
1.000000 0.396059 0.856545
0.000000 0.596993 0.896435
0.000000 0.597381 0.896710
0.000000 0.597878 0.897129
0.000000 0.601541 0.897504
0.000000 0.620856 0.894682
0.437885 0.631088 0.893923
0.753341 0.634381 0.891904
0.943836 0.648784 0.891700
1.000000 0.657546 0.882382
0.000000 0.859152 0.914192
0.000000 0.859086 0.914332
0.000000 0.862487 0.913335
0.000000 0.863794 0.913616
0.000000 0.867514 0.913991
0.404348 0.868808 0.913416
0.700190 0.872776 0.913924
0.872516 0.876856 0.910824
0.959059 0.880493 0.910674
0.000000 0.955648 0.926994
0.000000 0.955248 0.927076
0.000000 0.954612 0.927198
0.182792 0.955689 0.927393
0.410551 0.954924 0.927684
0.596990 0.954750 0.927229
0.756271 0.953197 0.925353
0.858597 0.954712 0.921973
0.938286 0.952740 0.922981
