Assets/Lutify-Free-LUTs-Pack/Lutify Free LUTs Pack/Film Tone Pro - Film Tone 3/Lutify.me-FilmTone3-VLog-to-Rec709.cube
# Created with: fylm.ai - Colour Grading and Collaboration Software in Cloud 
# Website: https://fylm.ai 
# META
# Option: Gamut compress
# Block 1: IDT | Panasonic V-Gamut V-Log
# Block 2: colourMatch | Blending Mode: Normal | {"ColorSpace":0,"CrossCovarianceLimit":50,"ReshapingIterations":1,"PercentSaturationShift":100,"PercentShadingShift":100,"ExtraShading":true,"PercentTint":100,"PercentModified":100}
# Block 3: subtractiveColour | Blending Mode: Normal | {"sliders":{"gainY":0.6,"C":0.3,"M":0.3,"Y":0.3}}
# Block 4: LUT | Filmic Curve Response: Low Contrast 2 (100%)
# Block 5: logPrimaries | Blending Mode: Normal | {"wheels":{"shadows":{"Y":"0","R":"1","G":"1","B":"1"},"midtones":{"Y":"0","R":"1","G":"1","B":"1"},"highlights":{"Y":"0","R":"1","G":"1","B":"1"},"offset":{"Y":"0","R":"1","G":"1","B":"1"}},"sliders":{"shadows":{"Y":0,"R":-0.026,"G":0.03,"B":0.1},"midtones":{"Y":0,"R":0.024,"G":-0.036,"B":0.036},"highlights":{"Y":0,"R":0,"G":0.044,"B":-0.128},"offset":{"Y":0,"R":0,"G":0,"B":0}}}
# Block 6: hueSaturation | Blending Mode: Normal | {"hue":0,"saturation":-0.1}
# Block 7: ODT | Rec709
TITLE "Lutify.me-FilmTone3-VLog-to-Rec709" 
LUT_3D_SIZE 5
0.000000 0.000000 0.000000
0.112646 0.000000 0.000000
0.477352 0.000000 0.000000
1.000000 0.161299 0.209654
1.000000 0.842484 0.737377
0.000000 0.089594 0.000000
0.147879 0.089530 0.000000
0.535919 0.000000 0.000000
1.000000 0.212674 0.213443
1.000000 0.842484 0.737377
0.000000 0.464869 0.000000
0.000000 0.507011 0.000000
0.661322 0.494823 0.000000
1.000000 0.408895 0.227236
1.000000 0.848205 0.740535
0.000000 0.935850 0.428500
0.000000 0.935430 0.429805
0.215718 0.936060 0.417084
0.962390 0.917271 0.391923
1.000000 0.895110 0.765751
0.830489 1.000000 0.890785
0.830489 1.000000 0.890785
0.838534 1.000000 0.890237
0.898187 1.000000 0.892225
1.000000 1.000000 0.904295
0.000000 0.000000 0.058406
0.092851 0.000000 0.033430
0.475603 0.000000 0.036367
1.000000 0.176298 0.234149
1.000000 0.842533 0.739549
0.000000 0.077520 0.134515
0.093277 0.108172 0.115110
0.530660 0.000000 0.050338
1.000000 0.214577 0.235321
1.000000 0.842533 0.739549
0.000000 0.488704 0.062336
0.000000 0.527519 0.000000
0.636891 0.543334 0.000000
1.000000 0.410791 0.255213
1.000000 0.848252 0.742680
0.000000 0.935075 0.458807
0.000000 0.935790 0.457383
0.198431 0.935373 0.446608
0.962038 0.917650 0.425946
1.000000 0.895174 0.769536
0.830497 1.000000 0.891604
0.830497 1.000000 0.891604
0.838540 1.000000 0.891056
0.898187 1.000000 0.892225
1.000000 1.000000 0.904295
0.000000 0.000000 0.268997
0.000000 0.000000 0.220730
0.443740 0.000000 0.126205
1.000000 0.168104 0.362039
1.000000 0.841498 0.752277
0.000000 0.000000 0.385403
0.000000 0.040306 0.353695
0.537981 0.000000 0.293025
1.000000 0.223414 0.370077
1.000000 0.842827 0.752357
0.000000 0.413536 0.595439
0.000000 0.507124 0.568987
0.573497 0.591732 0.562249
1.000000 0.420704 0.402544
1.000000 0.848535 0.755321
0.000000 0.938879 0.603319
0.000000 0.938442 0.604739
0.000000 0.940288 0.598961
0.952028 0.925229 0.580332
1.000000 0.895334 0.778795
0.830537 1.000000 0.895674
0.830537 1.000000 0.895674
0.838577 1.000000 0.895933
0.897348 1.000000 0.895661
1.000000 1.000000 0.907645
0.000000 0.162472 0.783136
0.000000 0.163524 0.787189
0.279423 0.164819 0.789167
1.000000 0.000000 0.692419
1.000000 0.839336 0.822179
0.000000 0.187258 0.794841
0.000000 0.188784 0.796287
0.271655 0.196454 0.797918
1.000000 0.000000 0.717730
1.000000 0.839336 0.822179
0.000000 0.332810 0.835220
0.000000 0.348534 0.837921
0.120296 0.389304 0.840023
1.000000 0.234738 0.800247
1.000000 0.846526 0.825881
0.000000 0.926187 0.906991
0.000000 0.927024 0.908080
0.000000 0.938352 0.908245
0.919583 0.932941 0.901690
1.000000 0.896924 0.843454
0.827476 1.000000 0.928694
0.827476 1.000000 0.928694
0.832722 1.000000 0.927442
0.892982 1.000000 0.927354
1.000000 1.000000 0.932191
0.265804 0.702905 0.988280
0.287216 0.702773 0.988267
0.406857 0.707857 0.987822
0.855031 0.707170 0.982885
1.000000 0.693538 0.960792
0.260727 0.706058 0.988111
0.282676 0.705927 0.988098
0.404113 0.710975 0.987656
0.853995 0.710238 0.982736
1.000000 0.697832 0.960624
0.215909 0.731135 0.988940
0.238119 0.733970 0.988764
0.397848 0.735532 0.988484
0.845879 0.734583 0.984306
1.000000 0.723116 0.961756
0.000000 0.859474 0.990991
0.000000 0.859385 0.990987
0.302884 0.859446 0.990788
0.798848 0.864001 0.987457
1.000000 0.858890 0.974185
0.694554 1.000000 1.000000
0.698228 1.000000 1.000000
0.727564 1.000000 1.000000
0.847572 1.000000 1.000000
1.000000 1.000000 0.997865
