Assets/Lutify-Free-LUTs-Pack/Lutify Free LUTs Pack/Film Tone Pro - Film Tone 3/Lutify.me-FilmTone3-LLog-to-Rec709.cube
# Created with: fylm.ai - Colour Grading and Collaboration Software in Cloud 
# Website: https://fylm.ai 
# META
# Option: Gamut compress
# Block 1: IDT | Leica BT2020 L-Log
# Block 2: colourMatch | Blending Mode: Normal | {"ColorSpace":0,"CrossCovarianceLimit":50,"ReshapingIterations":1,"PercentSaturationShift":100,"PercentShadingShift":100,"ExtraShading":true,"PercentTint":100,"PercentModified":100}
# Block 3: subtractiveColour | Blending Mode: Normal | {"sliders":{"gainY":0.6,"C":0.3,"M":0.3,"Y":0.3}}
# Block 4: LUT | Filmic Curve Response: Low Contrast 2 (100%)
# Block 5: logPrimaries | Blending Mode: Normal | {"wheels":{"shadows":{"Y":"0","R":"1","G":"1","B":"1"},"midtones":{"Y":"0","R":"1","G":"1","B":"1"},"highlights":{"Y":"0","R":"1","G":"1","B":"1"},"offset":{"Y":"0","R":"1","G":"1","B":"1"}},"sliders":{"shadows":{"Y":0,"R":-0.026,"G":0.03,"B":0.1},"midtones":{"Y":0,"R":0.024,"G":-0.036,"B":0.036},"highlights":{"Y":0,"R":0,"G":0.044,"B":-0.128},"offset":{"Y":0,"R":0,"G":0,"B":0}}}
# Block 6: hueSaturation | Blending Mode: Normal | {"hue":0,"saturation":-0.1}
# Block 7: ODT | Rec709
TITLE "Lutify.me-FilmTone3-LLog-to-Rec709" 
LUT_3D_SIZE 9
0.000000 0.000000 0.000000
0.000000 0.000000 0.000000
0.110172 0.000000 0.000000
0.233528 0.000000 0.000000
0.438709 0.000000 0.000000
0.733735 0.000000 0.041249
0.990707 0.000000 0.152266
1.000000 0.460024 0.348840
1.000000 0.749064 0.597768
0.000000 0.000000 0.000000
0.000000 0.000000 0.000000
0.119127 0.000000 0.000000
0.252490 0.000000 0.000000
0.448988 0.000000 0.000000
0.739379 0.000000 0.040595
0.992865 0.000000 0.153361
1.000000 0.463472 0.348734
1.000000 0.749064 0.597768
0.000000 0.084408 0.000000
0.000000 0.092021 0.000000
0.131667 0.090975 0.000000
0.291556 0.000000 0.000000
0.473211 0.000000 0.000000
0.746030 0.000000 0.039592
0.994601 0.000000 0.153545
1.000000 0.468073 0.349497
1.000000 0.751261 0.597827
0.000000 0.204602 0.000000
0.000000 0.221304 0.000000
0.000000 0.242556 0.000000
0.345418 0.217642 0.000000
0.552438 0.148533 0.000000
0.779634 0.000000 0.032997
0.999908 0.175014 0.160721
1.000000 0.485448 0.354052
1.000000 0.755684 0.600766
0.000000 0.408828 0.000000
0.000000 0.420206 0.000000
0.000000 0.441621 0.000000
0.000000 0.474537 0.000000
0.589437 0.445112 0.000000
0.828781 0.395696 0.000000
1.000000 0.351019 0.171995
1.000000 0.538541 0.366893
1.000000 0.766861 0.607356
0.000000 0.692527 0.000000
0.000000 0.694105 0.000000
0.000000 0.696957 0.000000
0.000000 0.720745 0.000000
0.357705 0.735321 0.000000
0.828405 0.713167 0.000000
0.974513 0.669530 0.188903
1.000000 0.651062 0.389607
1.000000 0.789360 0.615231
0.000000 0.883531 0.351346
0.000000 0.883541 0.348787
0.000000 0.885275 0.350215
0.000000 0.884845 0.340658
0.000000 0.888869 0.336239
0.690403 0.886821 0.323414
0.932535 0.877431 0.327984
1.000000 0.852033 0.479447
1.000000 0.845421 0.650468
0.000000 0.972184 0.630709
0.000000 0.971878 0.631114
0.000000 0.971668 0.631385
0.000000 0.971503 0.633083
0.389018 0.969641 0.627595
0.639426 0.965758 0.626920
0.865666 0.961584 0.629892
0.985685 0.955061 0.632866
1.000000 0.941948 0.737918
0.685029 1.000000 0.824596
0.685029 1.000000 0.824596
0.690906 1.000000 0.824735
0.696706 1.000000 0.824876
0.711542 1.000000 0.824176
0.757865 1.000000 0.824264
0.838136 1.000000 0.825883
0.941993 0.997943 0.827409
1.000000 0.995031 0.839868
0.000000 0.000000 0.000000
0.000000 0.000000 0.000000
0.107552 0.000000 0.000000
0.226799 0.000000 0.000000
0.441978 0.000000 0.012858
0.737395 0.000000 0.059614
0.990998 0.000000 0.157674
1.000000 0.460283 0.353907
1.000000 0.749146 0.600583
0.000000 0.000000 0.020794
0.000000 0.003549 0.017517
0.116379 0.000000 0.000000
0.244115 0.000000 0.000000
0.452608 0.000000 0.021501
0.743019 0.000000 0.060711
0.993163 0.000000 0.161285
1.000000 0.463730 0.353808
1.000000 0.749146 0.600583
0.000000 0.085651 0.020551
0.000000 0.093117 0.000000
0.121629 0.101534 0.000000
0.291649 0.000000 0.000000
0.474863 0.000000 0.022122
0.749864 0.000000 0.062037
0.995217 0.000000 0.166194
1.000000 0.468460 0.357135
1.000000 0.751342 0.600642
0.000000 0.208558 0.000000
0.000000 0.225766 0.000000
0.000000 0.253783 0.000000
0.321097 0.241302 0.000000
0.551123 0.157942 0.000000
0.779421 0.000000 0.061542
1.000000 0.181735 0.170922
1.000000 0.485833 0.361828
1.000000 0.755684 0.600766
0.000000 0.415711 0.000000
0.000000 0.435367 0.000000
0.000000 0.447736 0.000000
0.000000 0.481694 0.000000
0.591849 0.467283 0.000000
0.830908 0.398688 0.000000
1.000000 0.351695 0.180800
1.000000 0.538794 0.372235
1.000000 0.766861 0.607356
0.000000 0.694474 0.097379
0.000000 0.699761 0.097191
0.000000 0.702287 0.072399
0.000000 0.723141 0.000000
0.352307 0.737392 0.000000
0.825464 0.718281 0.000000
0.974460 0.670252 0.205123
1.000000 0.651303 0.395175
1.000000 0.789360 0.615231
0.000000 0.883795 0.367567
0.000000 0.883856 0.368251
0.000000 0.885533 0.366416
0.000000 0.885220 0.363182
0.000000 0.889099 0.352324
0.690717 0.887063 0.342235
0.932473 0.877648 0.342513
1.000000 0.852139 0.485158
1.000000 0.845421 0.650468
0.000000 0.972204 0.636682
0.000000 0.971888 0.634098
0.000000 0.971678 0.634369
0.000000 0.971512 0.636059
0.388919 0.969658 0.633509
0.639393 0.965766 0.629831
0.865666 0.961584 0.629892
0.985529 0.955086 0.638000
1.000000 0.941948 0.737918
0.685034 1.000000 0.826085
0.685034 1.000000 0.826085
0.690911 1.000000 0.826223
0.696710 1.000000 0.826362
0.711543 1.000000 0.825659
0.757858 1.000000 0.825722
0.838136 1.000000 0.825883
0.941993 0.997943 0.827409
1.000000 0.995031 0.839868
0.000000 0.000000 0.060784
0.000000 0.000000 0.055746
0.096304 0.000000 0.044609
0.230040 0.000000 0.040149
0.448062 0.000000 0.046490
0.741956 0.000000 0.082952
0.991687 0.000000 0.174053
1.000000 0.460669 0.361625
1.000000 0.749146 0.600583
0.000000 0.000000 0.079907
0.000000 0.000000 0.075762
0.103677 0.000000 0.064864
0.249752 0.000000 0.055035
0.459535 0.000000 0.052513
0.747813 0.000000 0.086466
0.993868 0.000000 0.176783
1.000000 0.464116 0.361534
1.000000 0.749309 0.606225
0.000000 0.085201 0.135719
0.000000 0.098608 0.132789
0.100846 0.115398 0.123787
0.291053 0.034602 0.080704
0.482117 0.000000 0.058354
0.754797 0.000000 0.090153
0.995717 0.061475 0.180474
1.000000 0.468845 0.364913
1.000000 0.751503 0.606283
0.000000 0.221937 0.154940
0.000000 0.244945 0.135558
0.000000 0.268154 0.121340
0.306545 0.278312 0.100586
0.558940 0.171880 0.062513
0.780029 0.000000 0.095151
1.000000 0.194112 0.187470
1.000000 0.486088 0.367087
1.000000 0.755842 0.606407
0.000000 0.426273 0.120838
0.000000 0.446043 0.107972
0.000000 0.461956 0.085961
0.000000 0.504986 0.000000
0.587323 0.479893 0.000000
0.833141 0.402455 0.088368
1.000000 0.356958 0.200157
1.000000 0.539173 0.380298
1.000000 0.766861 0.607356
0.000000 0.696877 0.178746
0.000000 0.702379 0.179570
0.000000 0.714401 0.166847
0.000000 0.725621 0.154782
0.322595 0.740132 0.105837
0.816409 0.724444 0.088155
0.974308 0.671576 0.234339
1.000000 0.651543 0.400765
1.000000 0.789427 0.618044
0.000000 0.884211 0.393442
0.000000 0.884270 0.394113
0.000000 0.885991 0.395480
0.000000 0.888842 0.386377
0.000000 0.889508 0.381132
0.685983 0.888905 0.361204
0.932304 0.878075 0.371572
1.000000 0.852244 0.490887
1.000000 0.845470 0.653254
0.000000 0.972224 0.642660
0.000000 0.971917 0.643060
0.000000 0.971707 0.643327
0.000000 0.971531 0.642014
0.388865 0.969666 0.636470
0.639286 0.965790 0.638581
0.865464 0.961614 0.638255
0.985370 0.955112 0.643128
1.000000 0.941966 0.740014
0.685041 1.000000 0.827567
0.685041 1.000000 0.827567
0.690916 1.000000 0.827704
0.696714 1.000000 0.827841
0.711545 1.000000 0.827136
0.757850 1.000000 0.827174
0.838107 1.000000 0.827303
0.941947 0.997943 0.828741
1.000000 0.995033 0.840998
0.000000 0.000000 0.142660
0.000000 0.000000 0.131521
0.085806 0.000000 0.130781
0.239864 0.000000 0.103051
0.458697 0.000000 0.131135
0.751229 0.000000 0.140168
0.991435 0.000000 0.219905
1.000000 0.461560 0.380093
1.000000 0.749390 0.609053
0.000000 0.000000 0.181669
0.000000 0.000000 0.175410
0.077415 0.000000 0.168210
0.269722 0.000000 0.145090
0.476949 0.000000 0.147090
0.757008 0.000000 0.145997
0.993320 0.000000 0.221423
1.000000 0.465133 0.382689
1.000000 0.749390 0.609053
0.000000 0.068210 0.251548
0.000000 0.080724 0.242503
0.000000 0.098213 0.244843
0.311307 0.035509 0.228875
0.501022 0.000000 0.169441
0.763381 0.000000 0.150771
0.992744 0.119517 0.224232
1.000000 0.469735 0.383446
1.000000 0.751583 0.609111
0.000000 0.210873 0.321704
0.000000 0.239512 0.311658
0.000000 0.277667 0.311556
0.270938 0.302312 0.311681
0.554832 0.207471 0.227037
0.788525 0.000000 0.171697
0.995326 0.214147 0.235225
1.000000 0.486975 0.385739
1.000000 0.755921 0.609234
0.000000 0.448201 0.336544
0.000000 0.465878 0.330410
0.000000 0.485774 0.323444
0.000000 0.517294 0.300223
0.567332 0.533176 0.291590
0.828979 0.428044 0.218533
0.996775 0.371823 0.252783
1.000000 0.539927 0.396597
1.000000 0.767084 0.615830
0.000000 0.705717 0.322330
0.000000 0.710927 0.318115
0.000000 0.720035 0.314560
0.000000 0.736984 0.310769
0.304719 0.754019 0.281292
0.810814 0.744584 0.279755
0.973564 0.674821 0.307222
1.000000 0.652620 0.426185
1.000000 0.789625 0.626509
0.000000 0.885275 0.461378
0.000000 0.886991 0.462279
0.000000 0.886932 0.456848
0.000000 0.891390 0.447541
0.000000 0.891938 0.445371
0.691063 0.889593 0.429886
0.931765 0.878906 0.430172
1.000000 0.852717 0.516870
1.000000 0.845569 0.658803
0.000000 0.972292 0.663284
0.000000 0.971985 0.663664
0.000000 0.971774 0.663917
0.000000 0.971593 0.662574
0.388506 0.969715 0.654140
0.634612 0.965979 0.655796
0.864971 0.961682 0.657592
0.983538 0.956527 0.659344
1.000000 0.942037 0.748295
0.685054 1.000000 0.830508
0.685054 1.000000 0.830508
0.690927 1.000000 0.830642
0.696723 1.000000 0.830777
0.711549 1.000000 0.830067
0.757843 1.000000 0.828619
0.838371 1.000000 0.831034
0.941901 0.997944 0.830069
1.000000 0.995040 0.844368
0.000000 0.024211 0.312207
0.000000 0.031877 0.311968
0.000000 0.035007 0.316357
0.247797 0.000000 0.324013
0.496415 0.000000 0.270759
0.771921 0.000000 0.308013
0.995423 0.000000 0.323270
1.000000 0.467600 0.437623
1.000000 0.749953 0.628955
0.000000 0.042744 0.339263
0.000000 0.049845 0.339222
0.000000 0.052270 0.338783
0.246495 0.000000 0.349993
0.522183 0.000000 0.302007
0.777342 0.000000 0.315646
0.997208 0.035443 0.328184
1.000000 0.471044 0.437577
1.000000 0.752141 0.629011
0.000000 0.071169 0.377768
0.000000 0.080963 0.375132
0.000000 0.088056 0.375053
0.242759 0.075605 0.382595
0.546416 0.000000 0.340910
0.787767 0.000000 0.333415
0.996366 0.128873 0.330585
1.000000 0.482604 0.441002
1.000000 0.752141 0.629011
0.000000 0.203643 0.460479
0.000000 0.213948 0.462667
0.000000 0.240148 0.462675
0.162410 0.274382 0.467566
0.585233 0.226358 0.454761
0.806293 0.000000 0.369240
0.996111 0.220813 0.342776
1.000000 0.500469 0.446798
1.000000 0.756468 0.629131
0.000000 0.441425 0.533672
0.000000 0.459078 0.530039
0.000000 0.490725 0.537141
0.000000 0.547410 0.533427
0.527605 0.555835 0.529207
0.824894 0.456504 0.445880
0.995635 0.381939 0.376354
1.000000 0.552602 0.455307
1.000000 0.767526 0.632881
0.000000 0.726248 0.565063
0.000000 0.727781 0.554023
0.000000 0.736309 0.556722
0.000000 0.752615 0.547038
0.246451 0.769442 0.532401
0.791929 0.765464 0.529446
0.961811 0.698912 0.448017
1.000000 0.664556 0.487061
1.000000 0.790082 0.646384
0.000000 0.891754 0.572541
0.000000 0.891765 0.570024
0.000000 0.891749 0.567889
0.000000 0.893059 0.570894
0.000000 0.896532 0.558458
0.676574 0.894162 0.549821
0.922271 0.887427 0.557696
1.000000 0.855066 0.574910
1.000000 0.845863 0.675237
0.000000 0.972433 0.705334
0.000000 0.972115 0.702969
0.000000 0.971903 0.703194
0.000000 0.971706 0.699113
0.396204 0.969696 0.699284
0.629831 0.968280 0.701397
0.862181 0.961887 0.692087
0.979731 0.956808 0.700096
1.000000 0.942022 0.755701
0.685096 1.000000 0.837726
0.685096 1.000000 0.837726
0.690964 1.000000 0.837854
0.696754 1.000000 0.837982
0.711571 1.000000 0.838678
0.757808 1.000000 0.837141
0.838232 1.000000 0.837908
0.940655 0.998247 0.838266
1.000000 0.995051 0.849913
0.000000 0.115563 0.557329
0.000000 0.120327 0.560424
0.000000 0.123880 0.564759
0.099196 0.131224 0.568598
0.516927 0.000000 0.568377
0.820163 0.000000 0.527068
0.998512 0.134225 0.542521
1.000000 0.488991 0.563983
1.000000 0.754598 0.676826
0.000000 0.127634 0.564782
0.000000 0.135323 0.565057
0.000000 0.139412 0.569383
0.079826 0.149198 0.576208
0.516375 0.070732 0.582502
0.821891 0.000000 0.534682
0.999947 0.161388 0.546051
1.000000 0.488991 0.563983
1.000000 0.756759 0.676874
0.000000 0.150577 0.579593
0.000000 0.159470 0.576699
0.000000 0.164414 0.580902
0.000000 0.173286 0.586712
0.515454 0.122004 0.593488
0.830504 0.000000 0.546464
0.998960 0.195803 0.552631
1.000000 0.499316 0.563936
1.000000 0.756759 0.676874
0.000000 0.217325 0.612891
0.000000 0.223654 0.615941
0.000000 0.228753 0.617015
0.000000 0.246479 0.619504
0.511814 0.234482 0.623034
0.848983 0.000000 0.598759
0.997797 0.267161 0.572316
1.000000 0.520598 0.570242
1.000000 0.764085 0.677954
0.000000 0.444109 0.685922
0.000000 0.455925 0.685715
0.000000 0.462526 0.686565
0.000000 0.483514 0.693764
0.393774 0.524599 0.695674
0.837951 0.484864 0.680453
0.992668 0.425711 0.602400
1.000000 0.569415 0.579702
1.000000 0.772788 0.681453
0.000000 0.710659 0.743064
0.000000 0.716174 0.742319
0.000000 0.731705 0.744909
0.000000 0.754876 0.745128
0.038650 0.782794 0.745366
0.765946 0.778570 0.737455
0.947783 0.724618 0.678770
1.000000 0.676919 0.610633
1.000000 0.796773 0.696920
0.000000 0.897497 0.766656
0.000000 0.897520 0.764872
0.000000 0.897491 0.763164
0.000000 0.900115 0.765443
0.000000 0.904701 0.754630
0.648098 0.900761 0.747298
0.905723 0.895963 0.751194
1.000000 0.864245 0.683446
1.000000 0.849742 0.724961
0.000000 0.974132 0.780857
0.000000 0.974029 0.780935
0.000000 0.973604 0.781246
0.000000 0.974069 0.782336
0.379588 0.972282 0.781966
0.615247 0.969586 0.775576
0.849660 0.964570 0.772655
0.975552 0.960364 0.776437
1.000000 0.942370 0.791551
0.683141 1.000000 0.855766
0.686080 1.000000 0.855821
0.686080 1.000000 0.855821
0.694783 1.000000 0.855986
0.713752 1.000000 0.857230
0.757783 1.000000 0.857220
0.837907 1.000000 0.854945
0.939815 0.999468 0.857554
1.000000 0.995085 0.864857
0.000000 0.288122 0.776351
0.000000 0.292728 0.777113
0.000000 0.299663 0.775570
0.000000 0.306288 0.778472
0.364654 0.308587 0.783171
0.806566 0.271266 0.781823
1.000000 0.166453 0.747423
1.000000 0.525989 0.757074
1.000000 0.766249 0.764288
0.000000 0.299271 0.776442
0.000000 0.301791 0.777270
0.000000 0.306635 0.778365
0.000000 0.315977 0.781236
0.362208 0.316483 0.783208
0.805971 0.278846 0.784465
1.000000 0.191777 0.747599
1.000000 0.529419 0.757044
1.000000 0.766249 0.764288
0.000000 0.310867 0.781971
0.000000 0.315835 0.780072
0.000000 0.318567 0.781311
0.000000 0.328367 0.781266
0.366756 0.329529 0.786032
0.804107 0.301316 0.787128
1.000000 0.219407 0.750635
1.000000 0.532845 0.757012
1.000000 0.766249 0.764288
0.000000 0.345481 0.792746
0.000000 0.350921 0.790711
0.000000 0.354047 0.789265
0.000000 0.368221 0.791965
0.346011 0.378533 0.796198
0.797292 0.364389 0.794644
1.000000 0.291015 0.767756
1.000000 0.550514 0.759619
1.000000 0.770451 0.766612
0.000000 0.449159 0.811692
0.000000 0.455842 0.812172
0.000000 0.459590 0.812854
0.000000 0.470511 0.812794
0.303081 0.481643 0.811913
0.769451 0.483632 0.812228
1.000000 0.444979 0.788355
1.000000 0.589027 0.767159
1.000000 0.779418 0.771724
0.000000 0.714761 0.843956
0.000000 0.715186 0.844249
0.000000 0.722330 0.844624
0.000000 0.724370 0.846381
0.000000 0.745919 0.842960
0.681072 0.761727 0.840747
0.943339 0.744520 0.831518
1.000000 0.711732 0.784720
1.000000 0.802550 0.778761
0.000000 0.892010 0.874226
0.000000 0.893699 0.874505
0.000000 0.896895 0.874967
0.000000 0.899668 0.875946
0.000000 0.907250 0.873266
0.644568 0.907468 0.872118
0.890766 0.902884 0.869042
0.988435 0.875409 0.832482
1.000000 0.857767 0.795595
0.000000 0.976887 0.884327
0.000000 0.976783 0.884362
0.000000 0.976462 0.884467
0.000000 0.976320 0.883529
0.348206 0.975303 0.880520
0.616687 0.972661 0.878556
0.843950 0.968370 0.874955
0.965690 0.965354 0.870213
1.000000 0.948388 0.843453
0.681866 1.000000 0.895332
0.681866 1.000000 0.895332
0.684751 1.000000 0.895368
0.690469 1.000000 0.895440
0.711375 1.000000 0.895028
0.757330 1.000000 0.893870
0.837606 1.000000 0.892081
0.937767 0.999540 0.892189
1.000000 0.997273 0.895726
0.000000 0.553013 0.904032
0.000000 0.552954 0.904121
0.000000 0.552873 0.904207
0.153401 0.552463 0.904481
0.368508 0.560437 0.904728
0.656797 0.564759 0.902498
0.962955 0.570695 0.899784
1.000000 0.553266 0.879274
1.000000 0.778411 0.878752
0.000000 0.556264 0.903912
0.000000 0.556208 0.904001
0.000000 0.556131 0.904088
0.144804 0.555733 0.904363
0.363505 0.567063 0.904489
0.655666 0.568315 0.903747
0.962955 0.570695 0.899784
1.000000 0.560200 0.880646
1.000000 0.778411 0.878752
0.000000 0.559502 0.903821
0.000000 0.559464 0.903880
0.000000 0.559390 0.903967
0.135337 0.559004 0.904243
0.360934 0.570378 0.904369
0.654525 0.571746 0.903631
0.961251 0.578209 0.902221
1.000000 0.563715 0.880556
1.000000 0.780432 0.880072
0.000000 0.576053 0.905973
0.000000 0.576025 0.906031
0.000000 0.575941 0.906143
0.000000 0.578920 0.906256
0.359537 0.580481 0.906738
0.648622 0.589014 0.904380
0.955018 0.596379 0.902920
1.000000 0.581614 0.883174
1.000000 0.782365 0.880018
0.000000 0.609264 0.910061
0.000000 0.612524 0.909975
0.000000 0.612494 0.910027
0.000000 0.615415 0.908841
0.327309 0.623975 0.908985
0.624480 0.627467 0.908140
0.942952 0.636152 0.906566
1.000000 0.624020 0.887888
1.000000 0.792668 0.881276
0.000000 0.711705 0.916434
0.000000 0.711701 0.916503
0.000000 0.711697 0.916526
0.000000 0.714716 0.916591
0.199174 0.728890 0.914003
0.585315 0.732592 0.913214
0.914046 0.739443 0.910734
1.000000 0.730257 0.897558
1.000000 0.814817 0.884710
0.000000 0.886858 0.930216
0.000000 0.886699 0.930278
0.000000 0.886529 0.930339
0.000000 0.887529 0.930438
0.000000 0.890175 0.930628
0.530394 0.891725 0.928077
0.848616 0.893023 0.926356
0.980227 0.891266 0.921623
1.000000 0.869755 0.894728
0.000000 0.978020 0.947917
0.000000 0.977924 0.947931
0.000000 0.977630 0.947973
0.000000 0.976772 0.946629
0.319239 0.974614 0.946172
0.604170 0.973919 0.945852
0.831167 0.972066 0.944868
0.954292 0.970378 0.940734
1.000000 0.953994 0.919286
0.688386 1.000000 0.952998
0.688296 1.000000 0.952382
0.691043 1.000000 0.952398
0.696487 1.000000 0.952428
0.715805 1.000000 0.952580
0.761525 1.000000 0.951025
0.830588 1.000000 0.949367
0.930777 1.000000 0.944811
0.994848 0.998586 0.945857
0.489246 0.783991 0.965237
0.495880 0.783861 0.965235
0.502440 0.783729 0.965234
0.521703 0.783325 0.965228
0.570484 0.782178 0.965207
0.676320 0.786228 0.963370
0.843124 0.787616 0.962376
0.998944 0.801043 0.960499
1.000000 0.799585 0.948996
0.489246 0.783991 0.965237
0.495880 0.783861 0.965235
0.502440 0.783729 0.965234
0.521703 0.783325 0.965228
0.570484 0.782178 0.965207
0.679794 0.788490 0.963240
0.842231 0.789922 0.962258
0.998944 0.801043 0.960499
1.000000 0.799558 0.949774
0.487433 0.786482 0.965099
0.494102 0.786352 0.965098
0.500694 0.786220 0.965096
0.520051 0.785815 0.965091
0.569031 0.784666 0.965071
0.679963 0.788672 0.964623
0.842231 0.789922 0.962258
0.998944 0.801043 0.960499
1.000000 0.801427 0.949690
0.490718 0.791349 0.965517
0.490718 0.791349 0.965517
0.497376 0.791216 0.965516
0.516914 0.790810 0.965510
0.566284 0.789657 0.965492
0.678833 0.791052 0.964496
0.840468 0.794450 0.962026
0.997519 0.805149 0.960298
1.000000 0.805131 0.949522
0.483948 0.800925 0.965675
0.483948 0.800925 0.965675
0.490739 0.800791 0.965674
0.517131 0.800241 0.965668
0.566779 0.799068 0.965651
0.674506 0.800382 0.964682
0.836243 0.805562 0.963518
0.994626 0.813335 0.961257
1.000000 0.812332 0.951476
0.473721 0.824934 0.966353
0.473721 0.824934 0.966353
0.486274 0.826704 0.966236
0.499996 0.826419 0.966234
0.557713 0.825002 0.965558
0.671771 0.825732 0.965316
0.828072 0.826313 0.965104
0.987352 0.836260 0.963437
1.000000 0.832903 0.954869
0.457671 0.881278 0.970689
0.465243 0.881132 0.970688
0.465243 0.881132 0.970688
0.494303 0.880537 0.970685
0.546687 0.879331 0.970679
0.656586 0.879215 0.969905
0.812237 0.878064 0.968010
0.966246 0.882690 0.966060
1.000000 0.879620 0.958924
0.500802 0.964254 0.979522
0.507059 0.964111 0.979521
0.507414 0.964823 0.979482
0.531354 0.964251 0.979482
0.570233 0.964658 0.979406
0.668032 0.964385 0.977927
0.795881 0.962258 0.977499
0.933438 0.963233 0.976129
1.000000 0.961853 0.973190
0.680693 1.000000 0.986748
0.686199 1.000000 0.986753
0.686199 1.000000 0.986753
0.694931 1.000000 0.986096
0.712314 1.000000 0.986111
0.747682 1.000000 0.986154
0.828681 1.000000 0.986331
0.930790 1.000000 0.984375
0.989384 1.000000 0.982649
