Assets/Lutify-Free-LUTs-Pack/Lutify Free LUTs Pack/Film Tone Pro - Film Tone 3/Lutify.me-FilmTone3-Rec709-to-Rec709.cube
# Created with: fylm.ai - Colour Grading and Collaboration Software in Cloud 
# Website: https://fylm.ai 
# META
# Option: Gamut compress
# Block 1: IDT | Rec709
# Block 2: colourMatch | Blending Mode: Normal | {"ColorSpace":0,"CrossCovarianceLimit":50,"ReshapingIterations":1,"PercentSaturationShift":100,"PercentShadingShift":100,"ExtraShading":true,"PercentTint":100,"PercentModified":100}
# Block 3: subtractiveColour | Blending Mode: Normal | {"sliders":{"gainY":0.6,"C":0.3,"M":0.3,"Y":0.3}}
# Block 4: LUT | Filmic Curve Response: Low Contrast 2 (100%)
# Block 5: logPrimaries | Blending Mode: Normal | {"wheels":{"shadows":{"Y":"0","R":"1","G":"1","B":"1"},"midtones":{"Y":"0","R":"1","G":"1","B":"1"},"highlights":{"Y":"0","R":"1","G":"1","B":"1"},"offset":{"Y":"0","R":"1","G":"1","B":"1"}},"sliders":{"shadows":{"Y":0,"R":-0.026,"G":0.03,"B":0.1},"midtones":{"Y":0,"R":0.024,"G":-0.036,"B":0.036},"highlights":{"Y":0,"R":0,"G":0.044,"B":-0.128},"offset":{"Y":0,"R":0,"G":0,"B":0}}}
# Block 6: hueSaturation | Blending Mode: Normal | {"hue":0,"saturation":-0.1}
# Block 7: ODT | Rec709
TITLE "Lutify.me-FilmTone3-Rec709-to-Rec709" 
LUT_3D_SIZE 5
0.000000 0.000000 0.000000
0.212207 0.000000 0.000000
0.425039 0.000000 0.017853
0.628105 0.000000 0.035275
0.849865 0.000000 0.090290
0.000000 0.234179 0.000000
0.278279 0.234752 0.000000
0.484639 0.190788 0.000000
0.661574 0.153939 0.026168
0.873068 0.058981 0.101625
0.140464 0.459624 0.067289
0.275914 0.465153 0.052078
0.540655 0.457227 0.000000
0.715201 0.423268 0.000000
0.917917 0.366244 0.132224
0.183024 0.668319 0.146680
0.294737 0.667942 0.147964
0.512842 0.674856 0.139484
0.742925 0.680378 0.118978
0.963846 0.603511 0.191277
0.000000 0.940733 0.463689
0.000000 0.943546 0.469075
0.273238 0.948116 0.495139
0.575699 0.961634 0.555158
0.951781 0.977734 0.694317
0.000000 0.000000 0.150494
0.231913 0.000000 0.184040
0.445739 0.000000 0.174160
0.642084 0.000000 0.162393
0.853517 0.000000 0.161645
0.000000 0.262556 0.283912
0.241289 0.276332 0.286645
0.493356 0.228768 0.218934
0.670097 0.190913 0.182229
0.872085 0.121005 0.171193
0.000000 0.482807 0.291839
0.227545 0.488844 0.288581
0.522021 0.498308 0.276148
0.715354 0.439825 0.225283
0.922293 0.370514 0.196292
0.154587 0.677345 0.292052
0.273372 0.676805 0.287518
0.491860 0.684257 0.287749
0.735906 0.693019 0.279530
0.965503 0.606685 0.251029
0.000000 0.941910 0.482659
0.000000 0.943687 0.487367
0.273209 0.949097 0.501814
0.581254 0.962987 0.556837
0.952753 0.977689 0.694609
0.000000 0.057867 0.320830
0.205586 0.050904 0.338656
0.473736 0.000000 0.376150
0.651433 0.051899 0.358110
0.870016 0.000000 0.320087
0.000000 0.229323 0.432436
0.186933 0.249971 0.439821
0.498676 0.265216 0.447033
0.673214 0.233471 0.399551
0.885625 0.159212 0.328171
0.000000 0.502811 0.508090
0.204387 0.509021 0.510306
0.495080 0.523346 0.503208
0.707113 0.480668 0.447620
0.923028 0.397741 0.358909
0.000000 0.697880 0.511658
0.222114 0.703843 0.506055
0.472261 0.707840 0.506724
0.723693 0.712954 0.494024
0.960981 0.627208 0.396073
0.000000 0.945340 0.552275
0.000000 0.946923 0.553878
0.272792 0.953126 0.564786
0.586522 0.963737 0.601345
0.962039 0.978630 0.708958
0.000000 0.123733 0.507805
0.160282 0.128495 0.508897
0.436842 0.129721 0.533137
0.682292 0.115279 0.551389
0.872446 0.107925 0.518700
0.000000 0.221182 0.554583
0.122813 0.232420 0.559652
0.436267 0.242620 0.575810
0.691226 0.269513 0.586940
0.884937 0.205176 0.533009
0.000000 0.465436 0.636225
0.000000 0.471876 0.638358
0.412085 0.490814 0.646975
0.702965 0.510803 0.650451
0.923437 0.432520 0.568812
0.000000 0.712833 0.691288
0.107331 0.715683 0.692179
0.441860 0.722734 0.695503
0.715046 0.730420 0.688557
0.962782 0.642363 0.588916
0.000000 0.947958 0.694896
0.000000 0.950403 0.696300
0.293312 0.956109 0.693205
0.586921 0.969582 0.705531
0.975152 0.982253 0.753489
0.000000 0.386443 0.828405
0.000000 0.395246 0.830980
0.230631 0.424522 0.838208
0.462880 0.453735 0.847533
0.814341 0.468323 0.857239
0.000000 0.425738 0.838639
0.000000 0.431743 0.839022
0.230137 0.452619 0.845917
0.460844 0.470131 0.853038
0.824053 0.492454 0.860522
0.000000 0.514421 0.861006
0.000000 0.517563 0.861101
0.218155 0.536484 0.866828
0.462517 0.552841 0.872845
0.858922 0.572736 0.879336
0.000000 0.654181 0.900647
0.066638 0.654031 0.900754
0.291105 0.669982 0.903114
0.503607 0.677492 0.907142
0.916090 0.706800 0.908511
0.283638 0.947841 0.957606
0.297035 0.949527 0.957527
0.397244 0.959347 0.959688
0.584653 0.974333 0.965165
0.980423 0.993707 0.970478
