Assets/Lutify-Free-LUTs-Pack/Lutify Free LUTs Pack/Film Tone Pro - Film Tone 3/Lutify.me-FilmTone3-SLog3CineVenice-to-Rec709.cube
# Created with: fylm.ai - Colour Grading and Collaboration Software in Cloud 
# Website: https://fylm.ai 
# META
# Option: Gamut compress
# Block 1: IDT | Sony Venice S-Log3 S-Gamut3.Cine
# Block 2: colourMatch | Blending Mode: Normal | {"ColorSpace":0,"CrossCovarianceLimit":50,"ReshapingIterations":1,"PercentSaturationShift":100,"PercentShadingShift":100,"ExtraShading":true,"PercentTint":100,"PercentModified":100}
# Block 3: subtractiveColour | Blending Mode: Normal | {"sliders":{"gainY":0.6,"C":0.3,"M":0.3,"Y":0.3}}
# Block 4: LUT | Filmic Curve Response: Low Contrast 2 (100%)
# Block 5: logPrimaries | Blending Mode: Normal | {"wheels":{"shadows":{"Y":"0","R":"1","G":"1","B":"1"},"midtones":{"Y":"0","R":"1","G":"1","B":"1"},"highlights":{"Y":"0","R":"1","G":"1","B":"1"},"offset":{"Y":"0","R":"1","G":"1","B":"1"}},"sliders":{"shadows":{"Y":0,"R":-0.026,"G":0.03,"B":0.1},"midtones":{"Y":0,"R":0.024,"G":-0.036,"B":0.036},"highlights":{"Y":0,"R":0,"G":0.044,"B":-0.128},"offset":{"Y":0,"R":0,"G":0,"B":0}}}
# Block 6: hueSaturation | Blending Mode: Normal | {"hue":0,"saturation":-0.1}
# Block 7: ODT | Rec709
TITLE "Lutify.me-FilmTone3-SLog3CineVenice-to-Rec709" 
LUT_3D_SIZE 9
0.000000 0.000000 0.000000
0.000000 0.000000 0.000000
0.120977 0.000000 0.000000
0.258557 0.000000 0.000000
0.478956 0.000000 0.000000
0.792647 0.000000 0.000000
1.000000 0.000000 0.124794
1.000000 0.459317 0.319799
1.000000 0.770540 0.597388
0.000000 0.031154 0.000000
0.000000 0.034842 0.000000
0.136508 0.000000 0.000000
0.286715 0.000000 0.000000
0.509724 0.000000 0.000000
0.799749 0.000000 0.000000
1.000000 0.000000 0.124348
1.000000 0.465826 0.319539
1.000000 0.770540 0.597388
0.000000 0.120549 0.000000
0.000000 0.132233 0.000000
0.166644 0.130765 0.000000
0.344760 0.000000 0.000000
0.542093 0.000000 0.000000
0.814099 0.000000 0.000000
1.000000 0.000000 0.127387
1.000000 0.469346 0.323857
1.000000 0.772338 0.597479
0.000000 0.275913 0.000000
0.000000 0.292999 0.000000
0.000000 0.309645 0.000000
0.416002 0.275016 0.000000
0.634870 0.175653 0.000000
0.854684 0.000000 0.000000
1.000000 0.147057 0.125793
1.000000 0.489925 0.328193
1.000000 0.774123 0.597572
0.000000 0.542265 0.000000
0.000000 0.552359 0.000000
0.000000 0.560088 0.000000
0.000000 0.577464 0.000000
0.679979 0.532714 0.000000
0.903469 0.448323 0.000000
1.000000 0.368745 0.115867
1.000000 0.567091 0.329690
1.000000 0.785975 0.607554
0.000000 0.809969 0.000000
0.000000 0.812675 0.000000
0.000000 0.815255 0.000000
0.000000 0.821758 0.000000
0.476824 0.819627 0.000000
0.873284 0.790275 0.000000
0.998880 0.737940 0.000000
1.000000 0.689885 0.356158
1.000000 0.811479 0.620432
0.000000 0.939438 0.401806
0.000000 0.939325 0.398943
0.000000 0.939984 0.397308
0.000000 0.939957 0.390705
0.474493 0.938440 0.384514
0.791307 0.931046 0.346918
0.960473 0.918724 0.257015
1.000000 0.890153 0.452725
1.000000 0.872917 0.653131
0.650924 0.993695 0.703756
0.650924 0.993695 0.703756
0.654655 0.993570 0.703887
0.672679 0.992956 0.702223
0.709527 0.992503 0.700731
0.790313 0.990941 0.694830
0.906836 0.987134 0.682589
1.000000 0.980577 0.639589
1.000000 0.966180 0.753781
0.859734 1.000000 0.876881
0.859734 1.000000 0.876881
0.861003 1.000000 0.876935
0.862267 1.000000 0.876132
0.867267 1.000000 0.876354
0.879383 1.000000 0.875208
0.914410 1.000000 0.876660
0.970746 1.000000 0.875344
1.000000 1.000000 0.870804
0.000000 0.000000 0.005180
0.000000 0.000000 0.000000
0.113944 0.000000 0.000000
0.245722 0.000000 0.000000
0.472177 0.000000 0.000000
0.795421 0.000000 0.027495
1.000000 0.000000 0.133130
1.000000 0.459855 0.328720
1.000000 0.768730 0.597300
0.000000 0.007461 0.029767
0.000000 0.011044 0.021326
0.126947 0.000000 0.000000
0.271385 0.000000 0.000000
0.500480 0.000000 0.000000
0.802770 0.000000 0.027208
1.000000 0.000000 0.135969
1.000000 0.466362 0.328483
1.000000 0.770540 0.597388
0.000000 0.112522 0.000000
0.000000 0.123325 0.000000
0.143388 0.134983 0.000000
0.326638 0.000000 0.000000
0.532486 0.000000 0.000000
0.814031 0.000000 0.027007
1.000000 0.000000 0.137411
1.000000 0.469614 0.328361
1.000000 0.770540 0.597388
0.000000 0.278391 0.000000
0.000000 0.294285 0.000000
0.000000 0.314366 0.000000
0.381447 0.297897 0.000000
0.626428 0.187637 0.000000
0.854264 0.000000 0.000000
1.000000 0.149693 0.140803
1.000000 0.490057 0.330483
1.000000 0.774196 0.600111
0.000000 0.544526 0.000000
0.000000 0.557384 0.000000
0.000000 0.570846 0.000000
0.000000 0.588216 0.000000
0.663584 0.559833 0.000000
0.898088 0.452690 0.000000
1.000000 0.369860 0.130608
1.000000 0.564535 0.341823
1.000000 0.785975 0.607554
0.000000 0.811415 0.000000
0.000000 0.811730 0.000000
0.000000 0.814372 0.000000
0.000000 0.823493 0.000000
0.472046 0.823465 0.000000
0.867034 0.795871 0.000000
0.996450 0.738760 0.096160
1.000000 0.693056 0.363844
1.000000 0.811479 0.620432
0.000000 0.939685 0.419815
0.000000 0.939458 0.414067
0.000000 0.940142 0.415402
0.000000 0.940086 0.405698
0.474963 0.938558 0.399241
0.788570 0.931342 0.366212
0.960479 0.918975 0.276641
1.000000 0.890266 0.460294
1.000000 0.872917 0.653131
0.650902 0.993695 0.706079
0.650902 0.993695 0.706079
0.654632 0.993571 0.706209
0.672625 0.992957 0.706863
0.709463 0.992505 0.705333
0.790233 0.990943 0.699351
0.906780 0.987137 0.684757
1.000000 0.980597 0.645263
1.000000 0.966180 0.753781
0.859734 1.000000 0.876881
0.859734 1.000000 0.876881
0.861003 1.000000 0.876935
0.862265 1.000000 0.876990
0.867267 1.000000 0.876354
0.879383 1.000000 0.875208
0.914410 1.000000 0.876660
0.970746 1.000000 0.875344
1.000000 1.000000 0.870804
0.000000 0.000000 0.063147
0.000000 0.000000 0.053385
0.102593 0.000000 0.039166
0.248584 0.000000 0.029413
0.469528 0.000000 0.030862
0.796323 0.000000 0.060922
1.000000 0.000000 0.150337
1.000000 0.459367 0.334978
1.000000 0.768805 0.599840
0.000000 0.000000 0.084003
0.000000 0.000000 0.073433
0.106981 0.000000 0.058133
0.265092 0.000000 0.045592
0.495523 0.000000 0.039235
0.807688 0.000000 0.066043
1.000000 0.000000 0.150135
1.000000 0.467162 0.342310
1.000000 0.770614 0.599928
0.000000 0.099813 0.163537
0.000000 0.113554 0.152751
0.115798 0.132215 0.139665
0.317127 0.000000 0.075570
0.535660 0.000000 0.045820
0.818596 0.000000 0.065603
1.000000 0.000000 0.154022
1.000000 0.467162 0.342310
1.000000 0.770614 0.599928
0.000000 0.284977 0.151198
0.000000 0.305131 0.130760
0.000000 0.326462 0.103776
0.354753 0.331765 0.059986
0.628367 0.194939 0.000000
0.849522 0.000000 0.070326
1.000000 0.152273 0.156083
1.000000 0.490849 0.344509
1.000000 0.774340 0.605208
0.000000 0.561450 0.000000
0.000000 0.571422 0.000000
0.000000 0.576560 0.000000
0.000000 0.594555 0.000000
0.657692 0.580875 0.000000
0.900475 0.476323 0.000000
1.000000 0.371949 0.157143
1.000000 0.565048 0.351653
1.000000 0.786043 0.610096
0.000000 0.813387 0.156296
0.000000 0.813693 0.145646
0.000000 0.816300 0.129573
0.000000 0.825518 0.109942
0.469523 0.825529 0.000000
0.867892 0.803584 0.000000
0.994514 0.742783 0.153291
1.000000 0.693602 0.376881
1.000000 0.811539 0.622981
0.000000 0.941164 0.441287
0.000000 0.940885 0.438703
0.000000 0.940441 0.439472
0.000000 0.939254 0.429082
0.475628 0.938743 0.422898
0.779122 0.933867 0.389682
0.960441 0.919346 0.306183
1.000000 0.890414 0.470473
1.000000 0.874110 0.655839
0.650879 0.993696 0.708393
0.650879 0.993696 0.708393
0.654609 0.993571 0.708521
0.672597 0.992958 0.709170
0.709399 0.992506 0.709901
0.787741 0.991049 0.703689
0.906494 0.987918 0.688949
1.000000 0.980617 0.650957
1.000000 0.966180 0.753781
0.859733 1.000000 0.877735
0.859733 1.000000 0.877735
0.861002 1.000000 0.877789
0.862265 1.000000 0.876990
0.867264 1.000000 0.877209
0.879377 1.000000 0.876065
0.914396 1.000000 0.877477
0.970658 1.000000 0.877184
1.000000 1.000000 0.870804
0.000000 0.000000 0.124241
0.000000 0.000000 0.098683
0.084919 0.000000 0.089395
0.246730 0.000000 0.052900
0.452149 0.000000 0.072309
0.800815 0.000000 0.120417
1.000000 0.000000 0.194682
1.000000 0.457562 0.361239
1.000000 0.769027 0.607498
0.000000 0.000000 0.160636
0.000000 0.000000 0.138883
0.075473 0.000000 0.129982
0.256659 0.000000 0.084356
0.487037 0.000000 0.109604
0.808569 0.000000 0.124925
1.000000 0.000000 0.196303
1.000000 0.460824 0.361160
1.000000 0.769027 0.607498
0.000000 0.030805 0.252971
0.000000 0.040080 0.236480
0.028238 0.044080 0.227650
0.307060 0.000000 0.187353
0.532571 0.000000 0.155374
0.821460 0.000000 0.135855
1.000000 0.000000 0.198875
1.000000 0.468347 0.364037
1.000000 0.770834 0.607585
0.000000 0.243896 0.365556
0.000000 0.276667 0.354560
0.000000 0.318814 0.352468
0.312397 0.335579 0.341623
0.619082 0.193416 0.235184
0.851928 0.000000 0.157698
1.000000 0.153393 0.211059
1.000000 0.488918 0.369120
1.000000 0.774412 0.607766
0.000000 0.568928 0.351165
0.000000 0.576805 0.343849
0.000000 0.589463 0.335286
0.000000 0.615486 0.312773
0.624938 0.606911 0.276326
0.902865 0.469897 0.183178
1.000000 0.373466 0.225730
1.000000 0.559213 0.376553
1.000000 0.786245 0.617758
0.000000 0.819328 0.319850
0.000000 0.821883 0.311347
0.000000 0.824598 0.306778
0.000000 0.825001 0.302515
0.441637 0.829896 0.269553
0.861142 0.815435 0.201242
0.994004 0.746077 0.252157
1.000000 0.691751 0.400742
1.000000 0.811661 0.628097
0.000000 0.942758 0.490548
0.000000 0.942594 0.490839
0.000000 0.942163 0.491570
0.000000 0.940829 0.484308
0.469541 0.939313 0.479554
0.780063 0.932448 0.453649
0.956735 0.922422 0.389505
1.000000 0.890783 0.496332
1.000000 0.874263 0.665610
0.648151 0.994656 0.723379
0.651884 0.994532 0.723499
0.655573 0.994409 0.723619
0.669919 0.993921 0.721878
0.706500 0.993041 0.719544
0.785067 0.991160 0.716848
0.904694 0.988005 0.705688
0.998643 0.981121 0.668118
1.000000 0.966215 0.758653
0.859733 1.000000 0.879432
0.859733 1.000000 0.879432
0.861001 1.000000 0.878639
0.862263 1.000000 0.878692
0.867262 1.000000 0.878060
0.879371 1.000000 0.876918
0.914117 1.000000 0.877309
0.970073 1.000000 0.877837
1.000000 1.000000 0.873229
0.000000 0.000000 0.171679
0.000000 0.000000 0.149635
0.059075 0.000000 0.143435
0.241858 0.000000 0.117589
0.447285 0.000000 0.080839
0.775384 0.000000 0.232314
1.000000 0.000000 0.300171
1.000000 0.450192 0.427908
1.000000 0.768251 0.626575
0.000000 0.000000 0.230084
0.000000 0.000000 0.215586
0.000000 0.000000 0.208616
0.245512 0.000000 0.178356
0.447285 0.000000 0.080839
0.791169 0.000000 0.263106
1.000000 0.000000 0.302481
1.000000 0.460897 0.428282
1.000000 0.770076 0.626658
0.000000 0.000000 0.331450
0.000000 0.000000 0.317221
0.000000 0.000000 0.312949
0.244448 0.000000 0.304306
0.471509 0.000000 0.181670
0.814225 0.000000 0.292068
1.000000 0.000000 0.313786
1.000000 0.470919 0.433544
1.000000 0.771559 0.633474
0.000000 0.129859 0.484561
0.000000 0.146709 0.475158
0.000000 0.161078 0.469093
0.209584 0.170586 0.473067
0.627085 0.000000 0.421867
0.853608 0.000000 0.352668
1.000000 0.089539 0.328568
1.000000 0.488140 0.436526
1.000000 0.775121 0.633649
0.000000 0.514847 0.595634
0.000000 0.530401 0.595291
0.000000 0.556930 0.599388
0.000000 0.608141 0.595484
0.594801 0.608253 0.582115
0.886361 0.467410 0.469895
1.000000 0.369530 0.368434
1.000000 0.559502 0.451117
1.000000 0.787234 0.634325
0.000000 0.824582 0.596453
0.000000 0.827262 0.594386
0.000000 0.829976 0.592692
0.000000 0.830853 0.588593
0.390610 0.839926 0.563326
0.842259 0.828671 0.542922
0.991618 0.749470 0.434868
1.000000 0.691714 0.472188
1.000000 0.813781 0.651507
0.000000 0.942828 0.608012
0.000000 0.943605 0.608826
0.000000 0.943156 0.606354
0.000000 0.944041 0.596190
0.454660 0.941339 0.596108
0.772533 0.935470 0.572791
0.948819 0.928826 0.542161
1.000000 0.893881 0.558893
1.000000 0.873456 0.687094
0.644761 0.995190 0.751914
0.644761 0.995190 0.751914
0.648527 0.995066 0.749942
0.663080 0.994578 0.750368
0.703756 0.993977 0.746677
0.782097 0.991279 0.744449
0.902408 0.988108 0.738294
0.995942 0.982460 0.715917
1.000000 0.966310 0.771400
0.859734 1.000000 0.883616
0.859734 1.000000 0.883616
0.859734 1.000000 0.883616
0.861000 1.000000 0.882833
0.864769 1.000000 0.882153
0.878749 1.000000 0.881962
0.914033 1.000000 0.882205
0.969409 1.000000 0.880715
1.000000 1.000000 0.878675
0.000000 0.000000 0.231239
0.000000 0.000000 0.230059
0.082444 0.000000 0.232840
0.228116 0.000000 0.231987
0.444119 0.000000 0.175756
0.697647 0.000000 0.128168
1.000000 0.000000 0.485504
1.000000 0.422619 0.548310
1.000000 0.767322 0.683976
0.000000 0.000000 0.269687
0.000000 0.000000 0.268444
0.054514 0.000000 0.266310
0.222171 0.000000 0.240125
0.446818 0.000000 0.175764
0.697647 0.000000 0.128168
1.000000 0.000000 0.496239
1.000000 0.432595 0.548331
1.000000 0.769155 0.684038
0.000000 0.000000 0.412954
0.000000 0.000000 0.399955
0.000000 0.000000 0.399393
0.151434 0.000000 0.383662
0.468656 0.000000 0.279038
0.697647 0.000000 0.128168
1.000000 0.000000 0.507122
1.000000 0.442546 0.548342
1.000000 0.769155 0.684038
0.000000 0.064212 0.581797
0.000000 0.070730 0.582310
0.000000 0.077424 0.578517
0.000000 0.065587 0.583080
0.511868 0.000000 0.576761
0.794940 0.000000 0.420233
1.000000 0.000000 0.536103
1.000000 0.473315 0.554629
1.000000 0.773430 0.684799
0.000000 0.343196 0.710965
0.000000 0.350977 0.714521
0.000000 0.364782 0.718907
0.000000 0.384470 0.721376
0.472978 0.398897 0.719041
0.910542 0.227629 0.677724
1.000000 0.288334 0.601757
1.000000 0.551170 0.570363
1.000000 0.786898 0.689152
0.000000 0.787975 0.796917
0.000000 0.791904 0.793617
0.000000 0.796550 0.795598
0.000000 0.816968 0.795310
0.214341 0.835571 0.793209
0.808260 0.824229 0.786972
0.976444 0.746397 0.701006
1.000000 0.689368 0.605949
1.000000 0.814942 0.702442
0.000000 0.944880 0.795928
0.000000 0.944639 0.794080
0.000000 0.945331 0.794476
0.000000 0.946244 0.793494
0.353788 0.945064 0.794275
0.742083 0.939604 0.783903
0.929462 0.932741 0.766255
1.000000 0.894233 0.701471
1.000000 0.871433 0.734108
0.624576 0.995424 0.810770
0.628541 0.995299 0.810842
0.636331 0.995050 0.810987
0.643934 0.994802 0.809429
0.680720 0.994811 0.811222
0.776613 0.992709 0.808611
0.893446 0.989281 0.801955
0.990084 0.984272 0.792800
1.000000 0.967483 0.804405
0.858473 1.000000 0.894293
0.858473 1.000000 0.894293
0.859741 1.000000 0.894339
0.861003 1.000000 0.894385
0.864757 1.000000 0.893709
0.878696 1.000000 0.893363
0.912223 1.000000 0.893331
0.969032 1.000000 0.891800
1.000000 1.000000 0.893726
0.151616 0.000000 0.329946
0.169948 0.000000 0.330645
0.199981 0.000000 0.331681
0.279840 0.000000 0.333944
0.459996 0.000000 0.316654
0.701521 0.000000 0.253618
0.947663 0.000000 0.197567
1.000000 0.222754 0.731459
1.000000 0.749189 0.770989
0.151616 0.000000 0.329946
0.169948 0.000000 0.330645
0.199981 0.000000 0.331681
0.279840 0.000000 0.333944
0.459996 0.000000 0.316654
0.701184 0.000000 0.251821
0.947663 0.000000 0.197567
1.000000 0.231879 0.734412
1.000000 0.751238 0.773168
0.136123 0.000000 0.360494
0.159869 0.000000 0.356492
0.195815 0.000000 0.348046
0.279840 0.000000 0.333944
0.459714 0.000000 0.312186
0.701184 0.000000 0.251821
0.947663 0.000000 0.197567
1.000000 0.255271 0.737672
1.000000 0.751238 0.773168
0.000000 0.000000 0.685763
0.000000 0.000000 0.684180
0.000000 0.000000 0.682789
0.079766 0.000000 0.677494
0.383445 0.000000 0.656963
0.753036 0.000000 0.465075
0.947663 0.000000 0.197567
1.000000 0.309243 0.746903
1.000000 0.760438 0.773844
0.000000 0.225394 0.806045
0.000000 0.227478 0.806839
0.000000 0.229669 0.808364
0.000000 0.238847 0.809138
0.326243 0.222681 0.807078
0.828255 0.000000 0.797882
1.000000 0.000000 0.691538
1.000000 0.428992 0.764175
1.000000 0.774182 0.778476
0.000000 0.626173 0.873047
0.000000 0.626730 0.871709
0.000000 0.631281 0.872302
0.000000 0.647236 0.873564
0.000000 0.668643 0.870724
0.745982 0.666906 0.867383
1.000000 0.578645 0.843241
1.000000 0.638239 0.803161
1.000000 0.807704 0.786527
0.000000 0.935316 0.907338
0.000000 0.935183 0.907498
0.000000 0.936095 0.907658
0.000000 0.937542 0.905865
0.000000 0.938058 0.904916
0.701364 0.936973 0.902581
0.916550 0.930299 0.898206
1.000000 0.890887 0.852875
1.000000 0.871481 0.809053
0.585983 0.996794 0.906183
0.585983 0.996794 0.906183
0.590252 0.996666 0.905202
0.607166 0.996166 0.905320
0.653857 0.995101 0.905766
0.758634 0.993588 0.901377
0.885084 0.989795 0.898505
0.979407 0.985983 0.892453
1.000000 0.967300 0.858534
0.854767 1.000000 0.919842
0.854767 1.000000 0.919842
0.854767 1.000000 0.919842
0.857307 1.000000 0.919910
0.862323 1.000000 0.920049
0.874485 1.000000 0.920399
0.909120 1.000000 0.918465
0.966442 1.000000 0.916897
1.000000 1.000000 0.916292
0.400322 0.000000 0.466855
0.412885 0.000000 0.467174
0.429029 0.000000 0.467572
0.466369 0.000000 0.468443
0.567498 0.000000 0.467723
0.722710 0.000000 0.415864
0.936121 0.000000 0.337591
1.000000 0.000000 0.280839
1.000000 0.646103 0.876842
0.406565 0.000000 0.467015
0.412885 0.000000 0.467174
0.429029 0.000000 0.467572
0.466369 0.000000 0.468443
0.567498 0.000000 0.467723
0.725970 0.000000 0.415970
0.936121 0.000000 0.337591
1.000000 0.000000 0.280839
1.000000 0.646103 0.876842
0.406565 0.000000 0.467015
0.412885 0.000000 0.467174
0.429029 0.000000 0.467572
0.466369 0.000000 0.468443
0.567498 0.000000 0.467723
0.725970 0.000000 0.415970
0.936121 0.000000 0.337591
1.000000 0.000000 0.280839
1.000000 0.648634 0.878227
0.406565 0.000000 0.467015
0.412885 0.000000 0.467174
0.429029 0.000000 0.467572
0.466369 0.000000 0.468443
0.567544 0.000000 0.461670
0.725970 0.000000 0.415970
0.936121 0.000000 0.337591
1.000000 0.000000 0.280839
1.000000 0.663098 0.878084
0.153484 0.137394 0.877551
0.177827 0.135767 0.877714
0.199886 0.131973 0.877834
0.262045 0.117899 0.878190
0.435905 0.000000 0.875400
0.702121 0.000000 0.860427
1.000000 0.000000 0.758809
1.000000 0.000000 0.280839
1.000000 0.686642 0.881903
0.000000 0.478782 0.930222
0.000000 0.478819 0.930295
0.000000 0.478707 0.929220
0.000000 0.481740 0.929376
0.313971 0.492222 0.928345
0.646669 0.476409 0.925408
1.000000 0.434669 0.919737
1.000000 0.180654 0.867006
1.000000 0.750753 0.889712
0.000000 0.859286 0.950228
0.000000 0.859256 0.950243
0.000000 0.859089 0.950316
0.000000 0.858663 0.950454
0.000000 0.857131 0.949924
0.523223 0.865111 0.947969
0.887587 0.854876 0.943314
1.000000 0.818225 0.931971
1.000000 0.850575 0.909146
0.326105 0.995072 0.967793
0.345209 0.994825 0.967805
0.363045 0.994576 0.967818
0.414642 0.994712 0.967833
0.518929 0.994391 0.966823
0.683446 0.991304 0.966557
0.867182 0.989302 0.964840
0.972624 0.985693 0.959158
1.000000 0.966300 0.937319
0.844487 1.000000 0.968132
0.844487 1.000000 0.968132
0.845760 1.000000 0.968146
0.848262 1.000000 0.967719
0.852029 1.000000 0.967761
0.864229 1.000000 0.966989
0.899298 1.000000 0.965358
0.959768 1.000000 0.963628
1.000000 1.000000 0.961329
0.726715 0.000000 0.594062
0.730599 0.000000 0.594157
0.730599 0.000000 0.594157
0.742230 0.000000 0.588015
0.768922 0.000000 0.579094
0.836009 0.000000 0.555683
0.940150 0.000000 0.516803
1.000000 0.000000 0.451231
1.000000 0.000000 0.404258
0.726715 0.000000 0.594062
0.730599 0.000000 0.594157
0.730599 0.000000 0.594157
0.742230 0.000000 0.588015
0.768922 0.000000 0.579094
0.836009 0.000000 0.555683
0.940150 0.000000 0.516803
1.000000 0.000000 0.451231
1.000000 0.000000 0.404258
0.726715 0.000000 0.594062
0.730599 0.000000 0.594157
0.730599 0.000000 0.594157
0.742230 0.000000 0.588015
0.768922 0.000000 0.579094
0.836009 0.000000 0.555683
0.940150 0.000000 0.516803
1.000000 0.000000 0.451231
1.000000 0.000000 0.404258
0.726715 0.000000 0.594062
0.730599 0.000000 0.594157
0.738359 0.000000 0.594347
0.742230 0.000000 0.588015
0.768922 0.000000 0.579094
0.839367 0.000000 0.555798
0.945112 0.000000 0.517092
1.000000 0.000000 0.451231
1.000000 0.000000 0.404258
0.730599 0.000000 0.594157
0.730599 0.000000 0.594157
0.738365 0.000000 0.587918
0.742220 0.000000 0.584805
0.768922 0.000000 0.579094
0.839367 0.000000 0.555798
0.945112 0.000000 0.517092
1.000000 0.000000 0.451231
1.000000 0.000000 0.404258
0.529416 0.355018 0.972179
0.534006 0.354661 0.972166
0.538586 0.354298 0.972152
0.561861 0.349045 0.971310
0.624182 0.342805 0.970241
0.758738 0.310787 0.968185
0.961044 0.196993 0.961943
1.000000 0.000000 0.917828
1.000000 0.000000 0.404258
0.382763 0.749282 0.984984
0.390293 0.748932 0.983861
0.398111 0.748834 0.983855
0.435202 0.748319 0.983822
0.495543 0.747161 0.983190
0.653348 0.754208 0.982316
0.848152 0.741858 0.979426
1.000000 0.731199 0.976268
1.000000 0.633058 0.953296
0.460298 0.955027 0.991585
0.460298 0.955027 0.991585
0.467381 0.954884 0.991580
0.494529 0.955126 0.991506
0.548777 0.954644 0.991408
0.653596 0.953149 0.990529
0.800815 0.950715 0.988531
0.956612 0.945855 0.987082
1.000000 0.927395 0.979752
0.785864 1.000000 0.998290
0.785864 1.000000 0.998290
0.787482 1.000000 0.998290
0.791443 1.000000 0.998289
0.800617 1.000000 0.998288
0.823810 1.000000 0.997917
0.874332 1.000000 0.997588
0.951556 1.000000 0.996335
0.998895 1.000000 0.994971
