Assets/Lutify-Free-LUTs-Pack/Lutify Free LUTs Pack/Film Tone Pro - Film Tone 3/Lutify.me-FilmTone3-Cineon-to-Rec709.cube
# Created with: fylm.ai - Colour Grading and Collaboration Software in Cloud 
# Website: https://fylm.ai 
# META
# Option: Gamut compress
# Block 1: IDT | ADX10
# Block 2: colourMatch | Blending Mode: Normal | {"ColorSpace":0,"CrossCovarianceLimit":50,"ReshapingIterations":1,"PercentSaturationShift":100,"PercentShadingShift":100,"ExtraShading":true,"PercentTint":100,"PercentModified":100}
# Block 3: subtractiveColour | Blending Mode: Normal | {"sliders":{"gainY":0.6,"C":0.3,"M":0.3,"Y":0.3}}
# Block 4: LUT | Filmic Curve Response: Low Contrast 2 (100%)
# Block 5: logPrimaries | Blending Mode: Normal | {"wheels":{"shadows":{"Y":"0","R":"1","G":"1","B":"1"},"midtones":{"Y":"0","R":"1","G":"1","B":"1"},"highlights":{"Y":"0","R":"1","G":"1","B":"1"},"offset":{"Y":"0","R":"1","G":"1","B":"1"}},"sliders":{"shadows":{"Y":0,"R":-0.026,"G":0.03,"B":0.1},"midtones":{"Y":0,"R":0.024,"G":-0.036,"B":0.036},"highlights":{"Y":0,"R":0,"G":0.044,"B":-0.128},"offset":{"Y":0,"R":0,"G":0,"B":0}}}
# Block 6: hueSaturation | Blending Mode: Normal | {"hue":0,"saturation":-0.1}
# Block 7: ODT | Rec709
TITLE "Lutify.me-FilmTone3-Cineon-to-Rec709" 
LUT_3D_SIZE 5
0.000000 0.000000 0.000000
0.077734 0.000000 0.000000
0.264787 0.000000 0.000000
0.638203 0.000000 0.046562
1.000000 0.311127 0.211130
0.000000 0.081545 0.000000
0.126692 0.111632 0.000000
0.402526 0.028661 0.000000
0.779685 0.000000 0.083643
1.000000 0.465616 0.313803
0.000000 0.371545 0.000000
0.000000 0.446824 0.000000
0.546824 0.514777 0.000000
0.915381 0.500278 0.170312
1.000000 0.661044 0.432914
0.000000 0.838988 0.422576
0.000000 0.861827 0.456945
0.093143 0.886566 0.475104
0.895970 0.894314 0.518907
1.000000 0.894609 0.656605
0.357414 0.999265 0.827947
0.487156 1.000000 0.845103
0.640827 1.000000 0.857150
0.846062 1.000000 0.867715
0.989876 1.000000 0.889653
0.000000 0.000000 0.047140
0.066339 0.000000 0.059999
0.285711 0.000000 0.072462
0.669021 0.000000 0.113252
1.000000 0.338892 0.268265
0.000000 0.084961 0.106238
0.110253 0.126095 0.135247
0.415250 0.069381 0.122787
0.794890 0.000000 0.154916
1.000000 0.485752 0.349195
0.000000 0.377683 0.168231
0.000000 0.451105 0.198803
0.545545 0.524441 0.225423
0.923122 0.500998 0.243847
1.000000 0.673188 0.469255
0.000000 0.832670 0.438024
0.000000 0.854454 0.472678
0.275312 0.879642 0.501013
0.903812 0.891864 0.552899
1.000000 0.890416 0.667955
0.280862 0.997879 0.821259
0.462134 1.000000 0.840196
0.631518 1.000000 0.851433
0.854855 0.999866 0.866379
0.993966 0.999193 0.888619
0.000000 0.000000 0.177220
0.000000 0.033850 0.223069
0.327201 0.000000 0.300625
0.714158 0.000000 0.350848
1.000000 0.380986 0.435176
0.000000 0.069349 0.263224
0.000000 0.106894 0.312265
0.459068 0.130697 0.394950
0.826665 0.149796 0.406842
1.000000 0.524890 0.498776
0.000000 0.383206 0.416235
0.000000 0.471058 0.475397
0.524351 0.552551 0.525953
0.918834 0.534085 0.505619
1.000000 0.689627 0.572191
0.000000 0.825742 0.545553
0.000000 0.856280 0.590249
0.300497 0.882638 0.638013
0.902943 0.894359 0.697253
1.000000 0.890004 0.721449
0.167531 0.995288 0.822550
0.424461 0.999088 0.843093
0.621326 1.000000 0.856105
0.862187 0.998367 0.871517
0.996239 0.998497 0.894689
0.000000 0.092411 0.465058
0.000000 0.139496 0.539474
0.000000 0.204225 0.629108
0.742179 0.249796 0.710766
1.000000 0.472278 0.750044
0.000000 0.130253 0.516868
0.000000 0.187712 0.585144
0.267633 0.261686 0.663087
0.860507 0.354108 0.753574
1.000000 0.599890 0.783178
0.000000 0.366156 0.637247
0.000000 0.428541 0.699001
0.342107 0.514353 0.758217
0.924784 0.604698 0.804621
1.000000 0.741442 0.802712
0.000000 0.829504 0.768669
0.000000 0.860279 0.812259
0.265990 0.887271 0.837252
0.886508 0.900663 0.865920
1.000000 0.898110 0.855475
0.000000 0.994015 0.862146
0.397431 0.997877 0.882844
0.611718 0.999953 0.899090
0.867575 0.997853 0.912253
0.994428 0.998583 0.932045
0.000000 0.342738 0.794921
0.000000 0.431276 0.840774
0.000000 0.524978 0.874856
0.502420 0.631106 0.909072
0.932480 0.737963 0.927361
0.000000 0.387610 0.820286
0.000000 0.472928 0.858773
0.000000 0.581107 0.891639
0.631054 0.672004 0.918314
0.982410 0.778078 0.937250
0.000000 0.483381 0.847004
0.000000 0.573991 0.881223
0.236489 0.657629 0.908725
0.777936 0.747701 0.927116
1.000000 0.837402 0.948331
0.000000 0.821003 0.895720
0.000000 0.845507 0.915194
0.205913 0.871840 0.932565
0.826148 0.891060 0.946969
1.000000 0.923540 0.962444
0.000000 0.995849 0.939709
0.348160 0.999624 0.954807
0.614668 1.000000 0.965340
0.864641 1.000000 0.974449
0.989075 1.000000 0.982276
