Assets/Lutify-Free-LUTs-Pack/Lutify Free LUTs Pack/Film Tone Pro - Film Tone 3/Lutify.me-FilmTone3-SLog2-to-Rec709.cube
# Created with: fylm.ai - Colour Grading and Collaboration Software in Cloud 
# Website: https://fylm.ai 
# META
# Option: Gamut compress
# Block 1: IDT | Sony S-Log2 S-Gamut Daylight 10-bit
# Block 2: colourMatch | Blending Mode: Normal | {"ColorSpace":0,"CrossCovarianceLimit":50,"ReshapingIterations":1,"PercentSaturationShift":100,"PercentShadingShift":100,"ExtraShading":true,"PercentTint":100,"PercentModified":100}
# Block 3: subtractiveColour | Blending Mode: Normal | {"sliders":{"gainY":0.6,"C":0.3,"M":0.3,"Y":0.3}}
# Block 4: LUT | Filmic Curve Response: Low Contrast 2 (100%)
# Block 5: logPrimaries | Blending Mode: Normal | {"wheels":{"shadows":{"Y":"0","R":"1","G":"1","B":"1"},"midtones":{"Y":"0","R":"1","G":"1","B":"1"},"highlights":{"Y":"0","R":"1","G":"1","B":"1"},"offset":{"Y":"0","R":"1","G":"1","B":"1"}},"sliders":{"shadows":{"Y":0,"R":-0.026,"G":0.03,"B":0.1},"midtones":{"Y":0,"R":0.024,"G":-0.036,"B":0.036},"highlights":{"Y":0,"R":0,"G":0.044,"B":-0.128},"offset":{"Y":0,"R":0,"G":0,"B":0}}}
# Block 6: hueSaturation | Blending Mode: Normal | {"hue":0,"saturation":-0.1}
# Block 7: ODT | Rec709
TITLE "Lutify.me-FilmTone3-SLog2-to-Rec709" 
LUT_3D_SIZE 33
0.000000 0.000000 0.000000
0.000000 0.000000 0.000000
0.000000 0.000000 0.000000
0.011969 0.000000 0.000000
0.086873 0.000000 0.000000
0.126849 0.000000 0.000000
0.162616 0.000000 0.000000
0.200090 0.000000 0.000000
0.233219 0.000000 0.000000
0.277640 0.000000 0.000000
0.320022 0.000000 0.000000
0.363739 0.000000 0.000000
0.416495 0.000000 0.000000
0.473311 0.000000 0.000000
0.541928 0.000000 0.017529
0.603831 0.000000 0.029357
0.669994 0.000000 0.046855
0.723078 0.000000 0.067950
0.782326 0.000000 0.089745
0.844180 0.000000 0.114300
0.900024 0.000000 0.140892
0.942036 0.000000 0.168549
0.974756 0.000000 0.199792
1.000000 0.140164 0.240968
1.000000 0.234887 0.278790
1.000000 0.297400 0.322768
1.000000 0.370418 0.357417
1.000000 0.430579 0.399576
1.000000 0.496629 0.449319
1.000000 0.560455 0.494644
1.000000 0.609243 0.534919
1.000000 0.657871 0.576650
1.000000 0.704918 0.619074
0.000000 0.000000 0.000000
0.000000 0.000000 0.000000
0.000000 0.000000 0.000000
0.000000 0.000000 0.000000
0.082729 0.000000 0.000000
0.126849 0.000000 0.000000
0.166537 0.000000 0.000000
0.203931 0.000000 0.000000
0.240949 0.000000 0.000000
0.285174 0.000000 0.000000
0.331179 0.000000 0.000000
0.377091 0.000000 0.000000
0.426762 0.000000 0.000000
0.478957 0.000000 0.000000
0.547596 0.000000 0.016896
0.609836 0.000000 0.027509
0.675204 0.000000 0.045962
0.731735 0.000000 0.067212
0.787134 0.000000 0.091069
0.845185 0.000000 0.115838
0.900302 0.000000 0.141916
0.942061 0.000000 0.168356
0.974594 0.000000 0.199572
1.000000 0.159893 0.240717
1.000000 0.239527 0.278702
1.000000 0.305591 0.322622
1.000000 0.370418 0.357417
1.000000 0.430579 0.399576
1.000000 0.496629 0.449319
1.000000 0.563758 0.494601
1.000000 0.612573 0.537838
1.000000 0.660956 0.579599
1.000000 0.704918 0.619074
0.000000 0.000000 0.000000
0.000000 0.000000 0.000000
0.000000 0.000000 0.000000
0.000000 0.000000 0.000000
0.080974 0.000000 0.000000
0.128473 0.000000 0.000000
0.169632 0.000000 0.000000
0.212264 0.000000 0.000000
0.256137 0.000000 0.000000
0.293348 0.000000 0.000000
0.340997 0.000000 0.000000
0.388815 0.000000 0.000000
0.440299 0.000000 0.000000
0.490762 0.000000 0.000000
0.552916 0.000000 0.014009
0.618793 0.000000 0.025051
0.677290 0.000000 0.046228
0.732880 0.000000 0.068206
0.788034 0.000000 0.090445
0.845367 0.000000 0.113350
0.900437 0.000000 0.140341
0.942077 0.000000 0.168071
0.976717 0.000000 0.199428
1.000000 0.165945 0.240628
1.000000 0.244115 0.278612
1.000000 0.309644 0.322546
1.000000 0.374405 0.362551
1.000000 0.434129 0.399521
1.000000 0.500039 0.449271
1.000000 0.563758 0.494601
1.000000 0.612573 0.537838
1.000000 0.660956 0.579599
1.000000 0.707547 0.619089
0.000000 0.000000 0.000000
0.000000 0.000000 0.000000
0.000000 0.000000 0.000000
0.000000 0.008766 0.000000
0.086174 0.000000 0.000000
0.132934 0.000000 0.000000
0.176578 0.000000 0.000000
0.226086 0.000000 0.000000
0.269706 0.000000 0.000000
0.305923 0.000000 0.000000
0.349434 0.000000 0.000000
0.403687 0.000000 0.000000
0.448347 0.000000 0.000000
0.496085 0.000000 0.000000
0.558787 0.000000 0.000000
0.624209 0.000000 0.021796
0.678718 0.000000 0.044942
0.737695 0.000000 0.067289
0.788589 0.000000 0.089983
0.845804 0.000000 0.112890
0.903751 0.000000 0.140218
0.942075 0.000000 0.167832
0.976799 0.000000 0.202485
1.000000 0.183142 0.242160
1.000000 0.253158 0.278422
1.000000 0.317676 0.322389
1.000000 0.378130 0.362488
1.000000 0.441213 0.399405
1.000000 0.500589 0.449642
1.000000 0.563758 0.494601
1.000000 0.612573 0.537838
1.000000 0.660956 0.579599
1.000000 0.707547 0.619089
0.000000 0.052473 0.000000
0.000000 0.053343 0.000000
0.000000 0.054895 0.000000
0.000000 0.059091 0.000000
0.068411 0.059971 0.000000
0.140856 0.037897 0.000000
0.198885 0.000000 0.000000
0.243749 0.000000 0.000000
0.285804 0.000000 0.000000
0.322986 0.000000 0.000000
0.368854 0.000000 0.000000
0.409577 0.000000 0.000000
0.459579 0.000000 0.000000
0.501839 0.000000 0.000000
0.564727 0.000000 0.000000
0.626328 0.000000 0.020062
0.684072 0.000000 0.042739
0.739066 0.000000 0.067853
0.793188 0.000000 0.089133
0.849783 0.000000 0.112434
0.903961 0.000000 0.139771
0.944837 0.000000 0.167816
0.978843 0.000000 0.202306
1.000000 0.188516 0.242061
1.000000 0.257619 0.278322
1.000000 0.321656 0.322307
1.000000 0.385547 0.362356
1.000000 0.441458 0.404925
1.000000 0.503991 0.449593
1.000000 0.567060 0.494558
1.000000 0.615787 0.537803
1.000000 0.663918 0.579584
1.000000 0.707547 0.619089
0.000000 0.082949 0.000000
0.000000 0.084250 0.000000
0.000000 0.086911 0.000000
0.000000 0.091439 0.000000
0.000000 0.101977 0.000000
0.142786 0.090021 0.000000
0.213165 0.063746 0.000000
0.266250 0.007063 0.000000
0.308319 0.000000 0.000000
0.348760 0.000000 0.000000
0.388335 0.000000 0.000000
0.430550 0.000000 0.000000
0.469626 0.000000 0.000000
0.517506 0.000000 0.000000
0.577856 0.000000 0.000000
0.635931 0.000000 0.000000
0.685645 0.000000 0.040048
0.743593 0.000000 0.064743
0.794161 0.000000 0.087943
0.850269 0.000000 0.111721
0.904147 0.000000 0.139264
0.944594 0.000000 0.164556
0.978642 0.096146 0.205105
1.000000 0.203751 0.241960
1.000000 0.270922 0.278247
1.000000 0.325918 0.322503
1.000000 0.389239 0.362288
1.000000 0.445481 0.405218
1.000000 0.507510 0.452396
1.000000 0.567060 0.494558
1.000000 0.615787 0.537803
1.000000 0.663918 0.579584
1.000000 0.707547 0.619089
0.000000 0.116016 0.000000
0.000000 0.116016 0.000000
0.000000 0.120482 0.000000
0.000000 0.124652 0.000000
0.000000 0.140082 0.000000
0.100365 0.147435 0.000000
0.210399 0.127331 0.000000
0.281850 0.099950 0.000000
0.329112 0.070050 0.000000
0.370447 0.017896 0.000000
0.412418 0.000000 0.000000
0.454491 0.000000 0.000000
0.491654 0.000000 0.000000
0.539482 0.000000 0.000000
0.591767 0.000000 0.000000
0.646029 0.000000 0.000000
0.698602 0.000000 0.034351
0.748721 0.000000 0.059906
0.798938 0.000000 0.086307
0.854155 0.000000 0.108459
0.910554 0.000000 0.138812
0.947347 0.000000 0.166720
0.980571 0.129550 0.204852
1.000000 0.213594 0.241734
1.000000 0.275511 0.282309
1.000000 0.337662 0.322242
1.000000 0.393329 0.362538
1.000000 0.449007 0.405161
1.000000 0.517696 0.452244
1.000000 0.570360 0.494514
1.000000 0.618999 0.537766
1.000000 0.663918 0.579584
1.000000 0.710158 0.619105
0.000000 0.153290 0.000000
0.000000 0.153290 0.000000
0.000000 0.155614 0.000000
0.000000 0.162060 0.000000
0.000000 0.169338 0.000000
0.000000 0.185779 0.000000
0.185703 0.186979 0.000000
0.282316 0.162809 0.000000
0.340709 0.141606 0.000000
0.386655 0.120971 0.000000
0.427937 0.105159 0.000000
0.470677 0.077893 0.000000
0.511135 0.027831 0.000000
0.559548 0.000000 0.000000
0.607285 0.000000 0.000000
0.660343 0.000000 0.000000
0.708584 0.000000 0.017855
0.753858 0.000000 0.053341
0.803793 0.000000 0.084008
0.861897 0.000000 0.109462
0.910702 0.000000 0.137859
0.949938 0.000000 0.168820
0.984534 0.166854 0.206114
1.000000 0.232467 0.243310
1.000000 0.292685 0.282359
1.000000 0.349675 0.324628
1.000000 0.404313 0.362320
1.000000 0.456043 0.405041
1.000000 0.521086 0.452191
1.000000 0.574336 0.497779
1.000000 0.620186 0.538570
1.000000 0.666866 0.579570
1.000000 0.710158 0.619105
0.000000 0.185004 0.000000
0.000000 0.185004 0.000000
0.000000 0.185004 0.000000
0.000000 0.192419 0.000000
0.000000 0.204508 0.000000
0.000000 0.218374 0.000000
0.099661 0.229704 0.000000
0.268563 0.217313 0.000000
0.340156 0.195250 0.000000
0.398956 0.172685 0.000000
0.445171 0.159687 0.000000
0.489819 0.148190 0.000000
0.530769 0.132845 0.000000
0.578134 0.107571 0.000000
0.615373 0.086578 0.000000
0.671978 0.023462 0.000000
0.722342 0.000000 0.000000
0.766744 0.000000 0.045524
0.816003 0.000000 0.081060
0.865870 0.000000 0.107702
0.913837 0.000000 0.136116
0.949578 0.124766 0.169040
0.983794 0.198782 0.206900
1.000000 0.250435 0.242988
1.000000 0.313058 0.281749
1.000000 0.364891 0.324241
1.000000 0.411594 0.362169
1.000000 0.463061 0.404917
1.000000 0.524996 0.452512
1.000000 0.574336 0.497779
1.000000 0.623386 0.538534
1.000000 0.669798 0.579558
1.000000 0.712754 0.619122
0.000000 0.217538 0.000000
0.000000 0.217538 0.000000
0.000000 0.222303 0.000000
0.000000 0.227047 0.000000
0.000000 0.236404 0.000000
0.000000 0.254551 0.000000
0.000000 0.267524 0.000000
0.225063 0.266111 0.000000
0.326826 0.255076 0.000000
0.402279 0.230283 0.000000
0.461945 0.205943 0.000000
0.508510 0.197833 0.000000
0.553823 0.191034 0.000000
0.587662 0.183824 0.000000
0.637209 0.163878 0.000000
0.687197 0.155885 0.000000
0.730248 0.144781 0.000000
0.780702 0.105521 0.000000
0.825140 0.066720 0.075357
0.873569 0.083967 0.106013
0.919665 0.122931 0.133949
0.953990 0.181721 0.167449
0.985110 0.226816 0.206089
1.000000 0.272162 0.242447
1.000000 0.329088 0.281471
1.000000 0.380196 0.324113
1.000000 0.423242 0.362582
1.000000 0.474018 0.405077
1.000000 0.535134 0.452347
1.000000 0.580920 0.497691
1.000000 0.626586 0.538498
1.000000 0.669798 0.579558
1.000000 0.717896 0.619164
0.000000 0.250885 0.000000
0.000000 0.250885 0.000000
0.000000 0.250885 0.000000
0.000000 0.259434 0.000000
0.000000 0.268041 0.000000
0.000000 0.283889 0.000000
0.000000 0.298683 0.000000
0.118111 0.304002 0.000000
0.286379 0.307768 0.000000
0.394090 0.288121 0.000000
0.470032 0.260492 0.000000
0.529555 0.246356 0.000000
0.575939 0.242029 0.000000
0.606730 0.244798 0.000000
0.650012 0.239653 0.000000
0.695015 0.231440 0.000000
0.745136 0.227299 0.000000
0.791579 0.219471 0.000000
0.834270 0.196975 0.057244
0.883922 0.188320 0.101492
0.925022 0.191473 0.131847
0.955538 0.223294 0.165449
0.986202 0.252926 0.203415
1.000000 0.301279 0.241229
1.000000 0.348654 0.281010
1.000000 0.395632 0.324256
1.000000 0.434547 0.365330
1.000000 0.480987 0.404942
1.000000 0.538509 0.452291
1.000000 0.584210 0.497646
1.000000 0.629785 0.538462
1.000000 0.675617 0.579538
1.000000 0.721458 0.620087
0.000000 0.284969 0.000000
0.000000 0.284969 0.000000
0.000000 0.284969 0.000000
0.000000 0.292746 0.000000
0.000000 0.301968 0.000000
0.000000 0.316892 0.000000
0.000000 0.339755 0.000000
0.000000 0.358732 0.000000
0.201969 0.359921 0.000000
0.373558 0.356046 0.000000
0.463241 0.327186 0.000000
0.540807 0.302211 0.000000
0.589403 0.294330 0.000000
0.624249 0.304089 0.000000
0.663567 0.300756 0.000000
0.705355 0.299050 0.000000
0.751173 0.290753 0.000000
0.797551 0.294329 0.000000
0.839009 0.278565 0.000000
0.886874 0.266595 0.092165
0.926744 0.262741 0.131234
0.958846 0.268908 0.162436
0.983848 0.298678 0.200739
1.000000 0.336875 0.239656
1.000000 0.367576 0.276181
1.000000 0.413942 0.323657
1.000000 0.452397 0.364898
1.000000 0.495777 0.405378
1.000000 0.551988 0.452058
1.000000 0.590786 0.497554
1.000000 0.636156 0.538390
1.000000 0.681576 0.585470
1.000000 0.723970 0.620114
0.000000 0.317462 0.000000
0.000000 0.317462 0.000000
0.000000 0.317462 0.000000
0.000000 0.326184 0.000000
0.000000 0.338174 0.000000
0.000000 0.354014 0.000000
0.000000 0.374424 0.000000
0.000000 0.392324 0.000000
0.000000 0.400493 0.000000
0.297632 0.400297 0.000000
0.436109 0.399453 0.000000
0.526625 0.367585 0.000000
0.594862 0.356433 0.000000
0.634672 0.356035 0.000000
0.673974 0.362111 0.000000
0.716047 0.355193 0.000000
0.762549 0.355540 0.000000
0.801592 0.356363 0.000000
0.848740 0.357024 0.000000
0.888306 0.346633 0.065415
0.923914 0.339052 0.119159
0.957910 0.335890 0.160721
0.984817 0.349105 0.197226
1.000000 0.363705 0.238534
1.000000 0.397809 0.279377
1.000000 0.428626 0.321006
1.000000 0.470489 0.364771
1.000000 0.513596 0.408159
1.000000 0.559321 0.455189
1.000000 0.600756 0.500347
1.000000 0.639434 0.541315
1.000000 0.684429 0.585466
1.000000 0.728942 0.620173
0.000000 0.353900 0.000000
0.000000 0.353900 0.000000
0.000000 0.353900 0.000000
0.000000 0.353900 0.000000
0.000000 0.363855 0.000000
0.000000 0.384919 0.000000
0.000000 0.404193 0.000000
0.000000 0.426195 0.000000
0.000000 0.436655 0.000000
0.171333 0.439660 0.000000
0.380489 0.440690 0.000000
0.510821 0.432896 0.000000
0.595334 0.412374 0.000000
0.645666 0.405666 0.000000
0.682865 0.402818 0.000000
0.720942 0.408328 0.000000
0.768236 0.409312 0.000000
0.808078 0.412153 0.000000
0.850273 0.413972 0.000000
0.891621 0.412930 0.000000
0.928202 0.403741 0.105407
0.958131 0.398667 0.155884
0.982737 0.401361 0.197941
1.000000 0.408230 0.235648
1.000000 0.423517 0.280260
1.000000 0.454201 0.322787
1.000000 0.491953 0.364516
1.000000 0.530763 0.407767
1.000000 0.566033 0.455068
1.000000 0.611624 0.500988
1.000000 0.652462 0.541600
1.000000 0.692889 0.585463
1.000000 0.734016 0.626145
0.000000 0.394754 0.000000
0.000000 0.394754 0.000000
0.000000 0.394754 0.000000
0.000000 0.394754 0.000000
0.000000 0.397466 0.000000
0.000000 0.413506 0.000000
0.000000 0.432454 0.000000
0.000000 0.465644 0.000000
0.000000 0.479219 0.000000
0.000000 0.494198 0.000000
0.274289 0.494945 0.000000
0.458514 0.491724 0.000000
0.581622 0.473943 0.000000
0.646043 0.457321 0.000000
0.693729 0.447654 0.000000
0.723259 0.452208 0.000000
0.767544 0.463631 0.000000
0.817813 0.473530 0.000000
0.850323 0.473875 0.000000
0.890374 0.477535 0.000000
0.925911 0.466769 0.068592
0.954952 0.459365 0.144603
0.978611 0.462482 0.190683
1.000000 0.466375 0.237257
1.000000 0.470545 0.280048
1.000000 0.483047 0.324395
1.000000 0.520462 0.369498
1.000000 0.551681 0.407636
1.000000 0.582777 0.454756
1.000000 0.621656 0.506728
1.000000 0.658602 0.541547
1.000000 0.698930 0.585891
1.000000 0.738846 0.626221
0.000000 0.437016 0.000000
0.000000 0.437016 0.000000
0.000000 0.437016 0.000000
0.000000 0.437016 0.000000
0.000000 0.437016 0.000000
0.000000 0.452845 0.000000
0.000000 0.483552 0.000000
0.000000 0.502703 0.000000
0.000000 0.513672 0.000000
0.000000 0.532812 0.000000
0.000000 0.536365 0.000000
0.355558 0.535460 0.000000
0.538097 0.537678 0.000000
0.623172 0.534241 0.000000
0.681888 0.517977 0.000000
0.735353 0.508196 0.000000
0.772986 0.520731 0.000000
0.814056 0.525010 0.000000
0.856889 0.529979 0.000000
0.888098 0.535340 0.000000
0.921424 0.535517 0.000000
0.949448 0.529144 0.118153
0.974389 0.529521 0.180649
0.994789 0.533622 0.232938
1.000000 0.538114 0.280730
1.000000 0.535769 0.324484
1.000000 0.548279 0.371379
1.000000 0.568815 0.410023
1.000000 0.600479 0.458090
1.000000 0.631438 0.506587
1.000000 0.670904 0.547394
1.000000 0.704401 0.585906
1.000000 0.743604 0.626307
0.000000 0.482146 0.000000
0.000000 0.482146 0.000000
0.000000 0.482146 0.000000
0.000000 0.482146 0.000000
0.000000 0.482146 0.000000
0.000000 0.488278 0.000000
0.000000 0.507815 0.000000
0.000000 0.536843 0.000000
0.000000 0.555509 0.000000
0.000000 0.568787 0.000000
0.000000 0.576972 0.000000
0.177427 0.578501 0.000000
0.452200 0.585858 0.000000
0.580946 0.589027 0.000000
0.657550 0.589443 0.000000
0.723931 0.566145 0.000000
0.775741 0.563440 0.000000
0.809394 0.575640 0.000000
0.850799 0.581913 0.000000
0.889040 0.580980 0.000000
0.917146 0.586621 0.000000
0.943730 0.587174 0.057083
0.970685 0.581518 0.166126
0.990580 0.582509 0.227777
1.000000 0.587280 0.282576
1.000000 0.588636 0.328103
1.000000 0.583237 0.370918
1.000000 0.596519 0.415370
1.000000 0.620397 0.457697
1.000000 0.651281 0.509674
1.000000 0.685629 0.547327
1.000000 0.720392 0.586003
1.000000 0.753303 0.626964
0.000000 0.516165 0.000000
0.000000 0.519292 0.000000
0.000000 0.519292 0.000000
0.000000 0.519292 0.000000
0.000000 0.519292 0.000000
0.000000 0.519292 0.000000
0.000000 0.533425 0.000000
0.000000 0.567630 0.000000
0.000000 0.590616 0.000000
0.000000 0.604989 0.000000
0.000000 0.623317 0.000000
0.000000 0.626959 0.000000
0.315174 0.626898 0.000000
0.517832 0.630571 0.000000
0.622372 0.634254 0.000000
0.698310 0.638123 0.000000
0.767024 0.618253 0.000000
0.806793 0.624134 0.000000
0.843257 0.632145 0.000000
0.876779 0.639588 0.000000
0.910752 0.636492 0.000000
0.937008 0.641227 0.000000
0.962257 0.642802 0.139074
0.983163 0.633565 0.211178
1.000000 0.635611 0.284254
1.000000 0.640112 0.333690
1.000000 0.641407 0.374875
1.000000 0.630461 0.414852
1.000000 0.647348 0.463394
1.000000 0.678981 0.509402
1.000000 0.703222 0.550703
1.000000 0.731573 0.589951
1.000000 0.762337 0.630160
0.000000 0.550830 0.000000
0.000000 0.550830 0.000000
0.000000 0.550830 0.000000
0.000000 0.554008 0.000000
0.000000 0.554008 0.000000
0.000000 0.554008 0.000000
0.000000 0.560376 0.000000
0.000000 0.588498 0.000000
0.000000 0.616721 0.000000
0.000000 0.641078 0.000000
0.000000 0.654168 0.000000
0.000000 0.664859 0.000000
0.000000 0.666894 0.000000
0.416788 0.668584 0.000000
0.558927 0.675911 0.000000
0.648242 0.683334 0.000000
0.743805 0.679902 0.000000
0.791415 0.678638 0.000000
0.839056 0.672468 0.000000
0.867873 0.685606 0.000000
0.896844 0.693313 0.000000
0.931855 0.686562 0.000000
0.954601 0.691271 0.092393
0.975288 0.689021 0.186633
0.991940 0.687409 0.264506
1.000000 0.688628 0.326270
1.000000 0.686859 0.374279
1.000000 0.688850 0.420131
1.000000 0.685237 0.466189
1.000000 0.708453 0.512685
1.000000 0.722255 0.550800
1.000000 0.746344 0.590204
1.000000 0.770977 0.630451
0.000000 0.589199 0.000000
0.000000 0.589199 0.000000
0.000000 0.589199 0.000000
0.000000 0.589199 0.000000
0.000000 0.589199 0.000000
0.000000 0.589199 0.000000
0.000000 0.589199 0.000000
0.000000 0.613154 0.000000
0.000000 0.649784 0.000000
0.000000 0.674042 0.000000
0.000000 0.684397 0.000000
0.000000 0.698963 0.000000
0.000000 0.702321 0.000000
0.186216 0.705814 0.000000
0.473340 0.709927 0.000000
0.599708 0.713478 0.000000
0.698078 0.719630 0.000000
0.777169 0.720205 0.000000
0.825580 0.717303 0.000000
0.860336 0.719025 0.000000
0.893004 0.722312 0.000000
0.922791 0.729786 0.000000
0.947897 0.729089 0.000000
0.967882 0.730161 0.164587
0.983378 0.731228 0.248065
0.997749 0.729668 0.322725
1.000000 0.730668 0.371652
1.000000 0.731938 0.420366
1.000000 0.733909 0.469957
1.000000 0.738751 0.519710
1.000000 0.746084 0.557937
1.000000 0.763057 0.594045
1.000000 0.781703 0.634290
0.000000 0.634433 0.000000
0.000000 0.634433 0.000000
0.000000 0.634433 0.000000
0.000000 0.634433 0.000000
0.000000 0.634433 0.000000
0.000000 0.634433 0.000000
0.000000 0.634433 0.000000
0.000000 0.644167 0.000000
0.000000 0.668745 0.000000
0.000000 0.701771 0.000000
0.000000 0.720418 0.000000
0.000000 0.735317 0.000000
0.000000 0.738762 0.000000
0.000000 0.746120 0.000000
0.281488 0.750943 0.000000
0.513572 0.751027 0.000000
0.631795 0.759269 0.000000
0.728537 0.761711 0.000000
0.795960 0.771376 0.000000
0.842750 0.772177 0.000000
0.877634 0.763407 0.000000
0.916349 0.766369 0.000000
0.935554 0.774676 0.000000
0.958884 0.773982 0.132537
0.974973 0.772093 0.226991
0.989574 0.768426 0.317747
1.000000 0.769088 0.372914
1.000000 0.769902 0.424708
1.000000 0.773523 0.477457
1.000000 0.774900 0.524230
1.000000 0.772082 0.562144
1.000000 0.780452 0.597713
1.000000 0.793566 0.637850
0.000000 0.673399 0.000000
0.000000 0.673399 0.000000
0.000000 0.673399 0.000000
0.000000 0.673399 0.000000
0.000000 0.673399 0.000000
0.000000 0.673399 0.000000
0.000000 0.673399 0.000000
0.000000 0.673399 0.000000
0.000000 0.686509 0.000000
0.000000 0.726267 0.000000
0.000000 0.753063 0.000000
0.000000 0.763135 0.000000
0.000000 0.775090 0.000000
0.000000 0.779604 0.000000
0.000000 0.784882 0.000000
0.352116 0.790648 0.000000
0.546550 0.787541 0.000000
0.664127 0.794006 0.000000
0.750721 0.799113 0.000000
0.817592 0.805323 0.000000
0.861164 0.810527 0.000000
0.903703 0.798797 0.000000
0.930904 0.803837 0.000000
0.949168 0.807960 0.000000
0.968783 0.806877 0.208506
0.983364 0.803516 0.306777
0.997983 0.801956 0.375950
1.000000 0.800351 0.424927
1.000000 0.803281 0.475066
1.000000 0.803969 0.523703
1.000000 0.805181 0.570550
1.000000 0.802751 0.608364
1.000000 0.809215 0.642672
0.000000 0.705857 0.000000
0.000000 0.705857 0.000000
0.000000 0.705857 0.000000
0.000000 0.705857 0.000000
0.000000 0.705857 0.000000
0.000000 0.705857 0.000000
0.000000 0.705857 0.000000
0.000000 0.705857 0.000000
0.000000 0.705857 0.000000
0.000000 0.736549 0.000000
0.000000 0.770211 0.000000
0.000000 0.790062 0.000000
0.000000 0.799979 0.000000
0.000000 0.807253 0.000000
0.000000 0.810152 0.000000
0.000000 0.815990 0.000000
0.428581 0.819859 0.000000
0.593832 0.820549 0.000000
0.700929 0.826030 0.000000
0.781011 0.828770 0.000000
0.838310 0.832946 0.000000
0.888479 0.835516 0.000000
0.921915 0.828931 0.000000
0.943814 0.831557 0.000000
0.961942 0.835069 0.165046
0.976216 0.835503 0.275111
0.991685 0.830642 0.366321
1.000000 0.830718 0.417605
1.000000 0.827937 0.475630
1.000000 0.830435 0.527924
1.000000 0.831281 0.574437
1.000000 0.830429 0.614603
1.000000 0.828932 0.650600
0.000000 0.743237 0.000000
0.000000 0.743237 0.000000
0.000000 0.743237 0.000000
0.000000 0.743237 0.000000
0.000000 0.743237 0.000000
0.000000 0.743237 0.000000
0.000000 0.743237 0.000000
0.000000 0.743237 0.000000
0.000000 0.743237 0.000000
0.000000 0.743237 0.000000
0.000000 0.781232 0.000000
0.000000 0.808663 0.000000
0.000000 0.824584 0.000000
0.000000 0.833887 0.000000
0.000000 0.836909 0.000000
0.000000 0.838037 0.000000
0.245207 0.842250 0.000000
0.484550 0.843150 0.000000
0.633235 0.847199 0.000000
0.729704 0.850945 0.000000
0.804957 0.855532 0.000000
0.862050 0.859112 0.000000
0.908409 0.861336 0.000000
0.933163 0.857716 0.000000
0.956460 0.854210 0.000000
0.970613 0.858547 0.239639
0.984562 0.857401 0.347562
0.999171 0.855924 0.412861
1.000000 0.853052 0.468992
1.000000 0.852163 0.532001
1.000000 0.852632 0.575163
1.000000 0.853472 0.618964
1.000000 0.854637 0.654561
0.000000 0.777677 0.000000
0.000000 0.777677 0.000000
0.000000 0.777677 0.000000
0.000000 0.777677 0.000000
0.000000 0.777677 0.000000
0.000000 0.777677 0.000000
0.000000 0.777677 0.000000
0.000000 0.777677 0.000000
0.000000 0.777677 0.000000
0.000000 0.777677 0.000000
0.000000 0.780403 0.000000
0.000000 0.821190 0.000000
0.000000 0.841119 0.000000
0.000000 0.851242 0.000000
0.000000 0.856703 0.000000
0.000000 0.860214 0.000000
0.000000 0.862400 0.000000
0.330737 0.867476 0.000000
0.551102 0.865385 0.000000
0.673835 0.867951 0.000000
0.764110 0.873008 0.000000
0.830315 0.877142 0.000000
0.891039 0.878410 0.000000
0.923971 0.882164 0.000000
0.946815 0.878724 0.000000
0.964290 0.876765 0.165491
0.979405 0.878825 0.315590
0.994139 0.877582 0.404340
1.000000 0.875003 0.470322
1.000000 0.873817 0.526048
1.000000 0.872962 0.580505
1.000000 0.873307 0.620454
1.000000 0.872772 0.658183
0.000000 0.808808 0.000000
0.000000 0.808808 0.000000
0.000000 0.808808 0.000000
0.000000 0.808808 0.000000
0.000000 0.808808 0.000000
0.000000 0.808808 0.000000
0.000000 0.808808 0.000000
0.000000 0.808808 0.000000
0.000000 0.808808 0.000000
0.000000 0.808808 0.000000
0.000000 0.808808 0.000000
0.000000 0.816037 0.000000
0.000000 0.854538 0.000000
0.000000 0.870409 0.000000
0.000000 0.874761 0.000000
0.000000 0.878674 0.000000
0.000000 0.882231 0.000000
0.131160 0.885424 0.000000
0.405684 0.889302 0.000000
0.596284 0.891466 0.000000
