Assets/Lutify-Free-LUTs-Pack/Lutify Free LUTs Pack/Film Tone Pro - Film Tone 3/Lutify.me-FilmTone3-BMDFilmGen5-to-Rec709.cube
# Created with: fylm.ai - Colour Grading and Collaboration Software in Cloud 
# Website: https://fylm.ai 
# META
# Option: Gamut compress
# Block 1: IDT | BMD Wide Gamut BMDFilm Gen 5
# Block 2: colourMatch | Blending Mode: Normal | {"ColorSpace":0,"CrossCovarianceLimit":50,"ReshapingIterations":1,"PercentSaturationShift":100,"PercentShadingShift":100,"ExtraShading":true,"PercentTint":100,"PercentModified":100}
# Block 3: subtractiveColour | Blending Mode: Normal | {"sliders":{"gainY":0.6,"C":0.3,"M":0.3,"Y":0.3}}
# Block 4: LUT | Filmic Curve Response: Low Contrast 2 (100%)
# Block 5: logPrimaries | Blending Mode: Normal | {"wheels":{"shadows":{"Y":"0","R":"1","G":"1","B":"1"},"midtones":{"Y":"0","R":"1","G":"1","B":"1"},"highlights":{"Y":"0","R":"1","G":"1","B":"1"},"offset":{"Y":"0","R":"1","G":"1","B":"1"}},"sliders":{"shadows":{"Y":0,"R":-0.026,"G":0.03,"B":0.1},"midtones":{"Y":0,"R":0.024,"G":-0.036,"B":0.036},"highlights":{"Y":0,"R":0,"G":0.044,"B":-0.128},"offset":{"Y":0,"R":0,"G":0,"B":0}}}
# Block 6: hueSaturation | Blending Mode: Normal | {"hue":0,"saturation":-0.1}
# Block 7: ODT | Rec709
TITLE "Lutify.me-FilmTone3-BMDFilmGen5-to-Rec709" 
LUT_3D_SIZE 9
0.000000 0.000000 0.000000
0.000000 0.000000 0.000000
0.114934 0.000000 0.000000
0.298604 0.000000 0.000000
0.655676 0.000000 0.000000
1.000000 0.127076 0.102341
1.000000 0.622986 0.369231
1.000000 0.876740 0.725347
1.000000 0.974465 0.915097
0.000000 0.011576 0.000000
0.000000 0.021626 0.000000
0.132334 0.000000 0.000000
0.322663 0.000000 0.000000
0.669438 0.000000 0.000000
0.999456 0.160866 0.099797
1.000000 0.622986 0.369231
1.000000 0.876740 0.725347
1.000000 0.974465 0.915097
0.000000 0.111138 0.000000
0.000000 0.124742 0.000000
0.164656 0.126565 0.000000
0.381828 0.000000 0.000000
0.681715 0.000000 0.000000
1.000000 0.198439 0.092796
1.000000 0.629374 0.368997
1.000000 0.877803 0.725515
1.000000 0.974465 0.915097
0.000000 0.315499 0.000000
0.000000 0.331130 0.000000
0.000000 0.347234 0.000000
0.479905 0.312900 0.000000
0.753370 0.261527 0.000000
1.000000 0.312412 0.075340
1.000000 0.645980 0.374267
1.000000 0.878858 0.725685
1.000000 0.974769 0.915164
0.000000 0.648302 0.000000
0.000000 0.652182 0.000000
0.000000 0.660375 0.000000
0.314407 0.667259 0.000000
0.828776 0.612158 0.000000
0.987643 0.635594 0.000000
1.000000 0.720028 0.379874
1.000000 0.886555 0.726244
1.000000 0.975371 0.915299
0.000000 0.899538 0.000000
0.000000 0.899283 0.000000
0.000000 0.898829 0.000000
0.364479 0.900618 0.000000
0.712352 0.894900 0.000000
0.953781 0.868167 0.000000
1.000000 0.877315 0.416101
1.000000 0.911355 0.739048
1.000000 0.977650 0.916575
0.756019 0.987231 0.494219
0.756019 0.987231 0.494219
0.758832 0.987117 0.494452
0.769842 0.986666 0.495400
0.810089 0.985846 0.492471
0.909452 0.983335 0.487340
1.000000 0.974932 0.439904
1.000000 0.974511 0.788123
1.000000 0.986728 0.922389
0.922725 1.000000 0.851498
0.922725 1.000000 0.851498
0.923590 1.000000 0.851586
0.923590 1.000000 0.851586
0.927870 1.000000 0.850574
0.944053 1.000000 0.853952
0.982261 1.000000 0.858843
1.000000 1.000000 0.861676
1.000000 1.000000 0.944405
0.985774 1.000000 0.966807
0.985774 1.000000 0.966807
0.985774 1.000000 0.966807
0.985774 1.000000 0.966807
0.985990 1.000000 0.966834
0.987257 1.000000 0.967343
0.991435 1.000000 0.968356
1.000000 1.000000 0.972152
1.000000 1.000000 0.976028
0.000000 0.000000 0.001980
0.000000 0.000000 0.001585
0.110435 0.000000 0.000000
0.288451 0.000000 0.000000
0.651867 0.000000 0.000000
1.000000 0.129476 0.116150
1.000000 0.623361 0.377037
1.000000 0.876740 0.725347
1.000000 0.974465 0.915097
0.000000 0.000000 0.017505
0.000000 0.000000 0.013143
0.124236 0.000000 0.000000
0.307819 0.000000 0.000000
0.662199 0.000000 0.000000
1.000000 0.150589 0.116344
1.000000 0.623361 0.377037
1.000000 0.876740 0.725347
1.000000 0.974465 0.915097
0.000000 0.107037 0.000000
0.000000 0.118725 0.000000
0.144620 0.130245 0.000000
0.363973 0.000000 0.000000
0.685449 0.000000 0.000000
1.000000 0.190217 0.112029
1.000000 0.629749 0.376817
1.000000 0.877803 0.725515
1.000000 0.974465 0.915097
0.000000 0.320691 0.000000
0.000000 0.336262 0.000000
0.000000 0.355068 0.000000
0.446717 0.339467 0.000000
0.747006 0.266639 0.000000
1.000000 0.313951 0.098189
1.000000 0.646102 0.376887
1.000000 0.878858 0.725685
1.000000 0.974769 0.915164
0.000000 0.653388 0.000000
0.000000 0.657571 0.000000
0.000000 0.668806 0.000000
0.220126 0.679178 0.000000
0.796092 0.642643 0.000000
0.986364 0.637314 0.000000
1.000000 0.720230 0.385207
1.000000 0.886588 0.728342
1.000000 0.975371 0.915299
0.000000 0.900611 0.000000
0.000000 0.900352 0.000000
0.000000 0.899940 0.000000
0.370461 0.901662 0.000000
0.710917 0.897546 0.000000
0.951708 0.874245 0.000000
1.000000 0.877444 0.423652
1.000000 0.911355 0.739048
1.000000 0.977650 0.916575
0.756135 0.987266 0.504865
0.756135 0.987266 0.504865
0.758943 0.987152 0.505095
0.769903 0.986687 0.501752
0.810127 0.985868 0.498599
0.909432 0.983361 0.492689
1.000000 0.975087 0.445885
1.000000 0.974520 0.789438
1.000000 0.986728 0.922389
0.922725 1.000000 0.851498
0.922725 1.000000 0.851498
0.922725 1.000000 0.851498
0.923590 1.000000 0.851586
0.927870 1.000000 0.850574
0.944053 1.000000 0.853952
0.982261 1.000000 0.858843
1.000000 1.000000 0.861997
1.000000 1.000000 0.944405
0.985774 1.000000 0.966807
0.985774 1.000000 0.966807
0.985774 1.000000 0.966807
0.985774 1.000000 0.966807
0.985990 1.000000 0.966834
0.987257 1.000000 0.967343
0.991432 1.000000 0.968501
1.000000 1.000000 0.972152
1.000000 1.000000 0.976028
0.000000 0.000000 0.065667
0.000000 0.000000 0.058553
0.093196 0.000000 0.047328
0.285511 0.000000 0.044910
0.654992 0.000000 0.056481
1.000000 0.125839 0.139922
1.000000 0.623736 0.384901
1.000000 0.876776 0.727483
1.000000 0.974465 0.915097
0.000000 0.000000 0.080152
0.000000 0.000000 0.073308
0.101348 0.000000 0.062865
0.308621 0.000000 0.056943
0.665872 0.000000 0.056038
1.000000 0.147770 0.141875
1.000000 0.623736 0.384901
1.000000 0.876776 0.727483
1.000000 0.974465 0.915097
0.000000 0.092293 0.153615
0.000000 0.106909 0.149396
0.113909 0.130162 0.138549
0.357558 0.000000 0.075840
0.682648 0.000000 0.057171
1.000000 0.188226 0.139939
1.000000 0.626930 0.384796
1.000000 0.877839 0.727648
1.000000 0.974465 0.915097
0.000000 0.332805 0.074978
0.000000 0.343976 0.048602
0.000000 0.372619 0.000000
0.413222 0.382067 0.000000
0.751656 0.282929 0.000000
1.000000 0.308959 0.136356
1.000000 0.646586 0.387426
1.000000 0.878893 0.727815
1.000000 0.974769 0.915164
0.000000 0.674424 0.000000
0.000000 0.677982 0.000000
0.000000 0.683084 0.000000
0.128037 0.696676 0.000000
0.778369 0.677078 0.000000
0.985156 0.640168 0.000000
1.000000 0.720632 0.395936
1.000000 0.886588 0.728342
1.000000 0.975371 0.915299
0.000000 0.902114 0.000000
0.000000 0.901853 0.000000
0.000000 0.904133 0.000000
0.359861 0.903271 0.000000
0.702805 0.899499 0.000000
0.948940 0.881244 0.000000
1.000000 0.877616 0.433802
1.000000 0.911411 0.742955
1.000000 0.977650 0.916575
0.753558 0.987885 0.519221
0.756380 0.987771 0.519444
0.759177 0.987658 0.519668
0.770116 0.987202 0.518401
0.810176 0.985904 0.508969
0.907957 0.983497 0.506934
1.000000 0.975787 0.462789
1.000000 0.974530 0.790752
1.000000 0.986728 0.922389
0.922716 1.000000 0.852233
0.922716 1.000000 0.852233
0.922716 1.000000 0.852233
0.923581 1.000000 0.852321
0.927850 1.000000 0.852035
0.944029 1.000000 0.855317
0.982226 1.000000 0.859989
1.000000 1.000000 0.863299
1.000000 1.000000 0.944405
0.985772 1.000000 0.966963
0.985772 1.000000 0.966963
0.985772 1.000000 0.966963
0.985772 1.000000 0.966963
0.985989 1.000000 0.966990
0.987257 1.000000 0.967343
0.991432 1.000000 0.968501
1.000000 1.000000 0.972152
1.000000 1.000000 0.976028
0.000000 0.000000 0.144393
0.000000 0.000000 0.127488
0.053712 0.000000 0.120145
0.279391 0.000000 0.090371
0.657561 0.000000 0.184966
0.996921 0.141028 0.227799
1.000000 0.622398 0.425147
1.000000 0.876886 0.733841
1.000000 0.974465 0.915097
0.000000 0.000000 0.174478
0.000000 0.000000 0.161329
0.045609 0.000000 0.157047
0.289632 0.000000 0.131941
0.673070 0.000000 0.197725
0.996463 0.166520 0.229143
1.000000 0.622398 0.425147
1.000000 0.876886 0.733841
1.000000 0.974465 0.915097
0.000000 0.000000 0.262246
0.000000 0.023688 0.241977
0.000000 0.034106 0.246333
0.346927 0.000000 0.231080
0.691158 0.000000 0.213645
1.000000 0.203407 0.232505
1.000000 0.625592 0.425070
1.000000 0.876886 0.733841
1.000000 0.974465 0.915097
0.000000 0.288440 0.399564
0.000000 0.312187 0.397253
0.000000 0.355228 0.398510
0.361160 0.395879 0.382757
0.744747 0.278213 0.268128
1.000000 0.316975 0.236416
1.000000 0.644605 0.424617
1.000000 0.879000 0.734157
1.000000 0.974769 0.915164
0.000000 0.695628 0.312467
0.000000 0.699672 0.307369
0.000000 0.707850 0.303192
0.000000 0.719200 0.281447
0.759053 0.724857 0.236833
0.982951 0.651947 0.232492
1.000000 0.719174 0.428636
1.000000 0.885712 0.736490
1.000000 0.975371 0.915299
0.000000 0.909883 0.282531
0.000000 0.909712 0.282901
0.000000 0.909355 0.283647
0.323253 0.910941 0.280155
0.679664 0.907357 0.255400
0.942705 0.895904 0.204663
1.000000 0.878289 0.475329
1.000000 0.911494 0.748757
1.000000 0.977671 0.917703
0.748196 0.988677 0.562989
0.753871 0.988449 0.563402
0.756672 0.988336 0.563610
0.767645 0.987882 0.562147
0.807850 0.986147 0.556609
0.904648 0.983831 0.557387
1.000000 0.977721 0.525115
1.000000 0.974501 0.795023
1.000000 0.986728 0.922389
0.921219 1.000000 0.855252
0.921219 1.000000 0.855252
0.922698 1.000000 0.853704
0.922698 1.000000 0.853704
0.926976 1.000000 0.854142
0.943237 1.000000 0.857962
0.982118 1.000000 0.863449
1.000000 1.000000 0.867347
1.000000 1.000000 0.944711
0.985781 1.000000 0.967617
0.985781 1.000000 0.967617
0.985781 1.000000 0.967617
0.985781 1.000000 0.967617
0.985996 1.000000 0.967644
0.987254 1.000000 0.967497
0.991429 1.000000 0.968647
1.000000 1.000000 0.972152
1.000000 1.000000 0.976156
0.000000 0.000000 0.224210
0.000000 0.000000 0.221931
0.000000 0.000000 0.225390
0.251960 0.000000 0.233936
0.574319 0.000000 0.197785
0.999736 0.000000 0.479698
1.000000 0.616522 0.526834
1.000000 0.877286 0.756450
1.000000 0.974500 0.916837
0.000000 0.000000 0.276836
0.000000 0.000000 0.277597
0.000000 0.000000 0.278294
0.229391 0.000000 0.292526
0.600276 0.000000 0.265747
0.999241 0.000000 0.480147
1.000000 0.619723 0.526796
1.000000 0.877286 0.756450
1.000000 0.974500 0.916837
0.000000 0.000000 0.386120
0.000000 0.000000 0.384524
0.000000 0.000000 0.387794
0.217726 0.000000 0.402611
0.654639 0.000000 0.372865
1.000000 0.000000 0.487024
1.000000 0.622924 0.526758
1.000000 0.877286 0.756450
1.000000 0.974500 0.916837
0.000000 0.123827 0.547476
0.000000 0.131602 0.548226
0.000000 0.146619 0.545695
0.199580 0.161633 0.554489
0.764505 0.000000 0.538963
1.000000 0.266321 0.507450
1.000000 0.639653 0.532866
1.000000 0.879390 0.756709
1.000000 0.974803 0.916902
0.000000 0.652872 0.698501
0.000000 0.661404 0.700389
0.000000 0.677964 0.700774
0.000000 0.716528 0.701173
0.718072 0.733320 0.691768
0.969011 0.655993 0.576952
1.000000 0.715371 0.552004
1.000000 0.885072 0.758526
1.000000 0.975405 0.917032
0.000000 0.914512 0.648046
0.000000 0.914268 0.648428
0.000000 0.915076 0.646109
0.210566 0.916622 0.639905
0.645387 0.913177 0.626580
0.924164 0.907913 0.602576
1.000000 0.882501 0.602475
1.000000 0.910922 0.769181
1.000000 0.978251 0.918407
0.738362 0.989185 0.693362
0.738362 0.989185 0.693362
0.741260 0.989070 0.693512
0.755421 0.988504 0.691906
0.794556 0.988206 0.689813
0.896039 0.985665 0.684518
0.998453 0.981139 0.673850
1.000000 0.974625 0.812068
1.000000 0.986750 0.923941
0.920495 1.000000 0.868867
0.920495 1.000000 0.868867
0.921353 1.000000 0.868940
0.921353 1.000000 0.868940
0.925598 1.000000 0.868609
0.940028 1.000000 0.868625
0.981797 1.000000 0.873385
1.000000 1.000000 0.880688
1.000000 1.000000 0.945942
0.985774 1.000000 0.968244
0.985774 1.000000 0.968244
0.985774 1.000000 0.968244
0.985774 1.000000 0.968244
0.985989 1.000000 0.968270
0.987036 1.000000 0.968401
0.991414 1.000000 0.969384
1.000000 1.000000 0.972731
1.000000 1.000000 0.976752
0.086044 0.000000 0.334119
0.106363 0.000000 0.334976
0.145260 0.000000 0.336630
0.248265 0.000000 0.352167
0.562906 0.000000 0.394260
0.943134 0.000000 0.520851
1.000000 0.581116 0.763456
1.000000 0.875928 0.808954
1.000000 0.974905 0.922087
0.000000 0.000000 0.403962
0.000000 0.000000 0.405217
0.081678 0.000000 0.407222
0.209770 0.000000 0.427960
0.566275 0.000000 0.491475
0.952489 0.000000 0.558338
1.000000 0.584374 0.763417
1.000000 0.875928 0.808954
1.000000 0.974905 0.922087
0.000000 0.000000 0.546170
0.000000 0.000000 0.548057
0.000000 0.000000 0.550479
0.164922 0.000000 0.558971
0.563227 0.000000 0.599163
0.966155 0.000000 0.605190
1.000000 0.588243 0.763550
1.000000 0.875928 0.808954
1.000000 0.974905 0.922087
0.000000 0.081898 0.710920
0.000000 0.082954 0.709131
0.000000 0.088303 0.708754
0.000000 0.084512 0.716446
0.578364 0.000000 0.726698
1.000000 0.000000 0.702901
1.000000 0.607951 0.768299
1.000000 0.877283 0.809375
1.000000 0.974905 0.922087
0.000000 0.399369 0.821676
0.000000 0.400096 0.822341
0.000000 0.401154 0.823362
0.000000 0.421612 0.820081
0.566650 0.441121 0.821790
1.000000 0.428257 0.804874
1.000000 0.691257 0.781972
1.000000 0.883546 0.811450
1.000000 0.975802 0.922264
0.000000 0.903990 0.880414
0.000000 0.903857 0.880576
0.000000 0.905007 0.879375
0.000000 0.909148 0.880189
0.583357 0.909473 0.880074
0.895119 0.908479 0.874951
1.000000 0.881701 0.820096
1.000000 0.906043 0.818234
1.000000 0.978141 0.923324
0.704139 0.991921 0.862306
0.707243 0.991806 0.862358
0.710321 0.991692 0.862410
0.725947 0.991953 0.863039
0.777200 0.989886 0.858674
0.879139 0.986947 0.854773
0.985157 0.984918 0.850241
1.000000 0.976092 0.856449
1.000000 0.986354 0.929445
0.919242 1.000000 0.901868
0.919242 1.000000 0.901868
0.920095 1.000000 0.901919
0.920095 1.000000 0.901919
0.924327 1.000000 0.900812
0.939045 1.000000 0.901557
0.977546 1.000000 0.903009
1.000000 1.000000 0.912640
1.000000 1.000000 0.949903
0.985170 1.000000 0.972254
0.985170 1.000000 0.972254
0.985170 1.000000 0.972254
0.985381 1.000000 0.972277
0.985800 1.000000 0.972322
0.986621 1.000000 0.972257
0.991335 1.000000 0.972561
1.000000 1.000000 0.975041
1.000000 1.000000 0.978652
0.412603 0.000000 0.473277
0.422249 0.000000 0.473516
0.435392 0.000000 0.473834
0.483852 0.000000 0.474942
0.630905 0.000000 0.481441
0.923761 0.000000 0.717361
1.000000 0.000000 0.829794
1.000000 0.861397 0.908701
1.000000 0.974156 0.938820
0.408813 0.000000 0.485485
0.411846 0.000000 0.488653
0.421395 0.000000 0.491986
0.461484 0.000000 0.508494
0.614923 0.000000 0.568978
0.935572 0.000000 0.762253
1.000000 0.000000 0.834445
1.000000 0.861397 0.908701
1.000000 0.974156 0.938820
0.302522 0.000000 0.641163
0.308054 0.000000 0.644607
0.319904 0.000000 0.648338
0.366405 0.000000 0.663019
0.552930 0.000000 0.704944
0.934181 0.000000 0.801174
1.000000 0.000000 0.841257
1.000000 0.861397 0.908701
1.000000 0.974156 0.938820
0.227474 0.000000 0.843810
0.231663 0.000000 0.843857
0.256179 0.000000 0.844125
0.326810 0.000000 0.844970
0.540708 0.000000 0.849631
0.938671 0.000000 0.863907
1.000000 0.000000 0.860429
1.000000 0.865060 0.910649
1.000000 0.974156 0.938820
0.000000 0.327861 0.917994
0.000000 0.327641 0.918076
0.083830 0.327395 0.918156
0.228777 0.325707 0.918512
0.508944 0.333758 0.917525
0.938340 0.316829 0.914840
1.000000 0.404962 0.900582
1.000000 0.872352 0.912579
1.000000 0.974464 0.938855
0.000000 0.742329 0.944556
0.000000 0.742300 0.944584
0.000000 0.745191 0.944456
0.000000 0.750634 0.944306
0.408268 0.756107 0.942406
0.852977 0.772580 0.938051
1.000000 0.787170 0.931252
1.000000 0.898501 0.918336
1.000000 0.977392 0.940169
0.581626 0.989902 0.965312
0.587667 0.990689 0.965306
0.592111 0.990562 0.965313
0.619497 0.991147 0.965344
0.691050 0.988778 0.965509
0.852837 0.987272 0.964108
0.972486 0.986047 0.959179
1.000000 0.973540 0.937197
1.000000 0.985737 0.944719
0.909868 1.000000 0.958954
0.909868 1.000000 0.958954
0.910720 1.000000 0.958975
0.911570 1.000000 0.958995
0.914931 1.000000 0.958599
0.930161 1.000000 0.959001
0.969991 1.000000 0.957969
1.000000 1.000000 0.957694
1.000000 1.000000 0.963126
0.983544 1.000000 0.980951
0.983544 1.000000 0.980951
0.983544 1.000000 0.980951
0.983764 1.000000 0.980794
0.983979 1.000000 0.980810
0.985039 1.000000 0.980721
0.989294 1.000000 0.981190
1.000000 1.000000 0.983263
1.000000 1.000000 0.986177
0.804137 0.000000 0.631508
0.807977 0.000000 0.631608
0.807901 0.000000 0.625143
0.819224 0.000000 0.622220
0.851279 0.000000 0.613521
0.937124 0.000000 0.578943
1.000000 0.000000 0.937853
1.000000 0.530959 0.955710
1.000000 0.968433 0.978431
0.804137 0.000000 0.631508
0.807977 0.000000 0.631608
0.807901 0.000000 0.625143
0.819224 0.000000 0.622220
0.851279 0.000000 0.613521
0.937124 0.000000 0.578943
1.000000 0.000000 0.940265
1.000000 0.535034 0.956442
1.000000 0.968776 0.978426
0.804137 0.000000 0.631508
0.807977 0.000000 0.631608
0.807901 0.000000 0.625143
0.819224 0.000000 0.622220
0.858116 0.000000 0.613746
0.948509 0.000000 0.755682
1.000000 0.000000 0.943837
1.000000 0.541443 0.956291
1.000000 0.968776 0.978426
0.696568 0.000000 0.894587
0.700898 0.000000 0.894695
0.704956 0.000000 0.894693
0.721870 0.000000 0.898170
0.780831 0.000000 0.903713
0.912949 0.000000 0.926461
1.000000 0.000000 0.958535
1.000000 0.564967 0.958157
1.000000 0.968776 0.978426
0.679894 0.206072 0.976716
0.679894 0.206072 0.976716
0.688312 0.203676 0.976665
0.704948 0.202296 0.976535
0.771183 0.187949 0.976852
0.909840 0.204664 0.976341
1.000000 0.330293 0.976055
1.000000 0.652048 0.964450
1.000000 0.969460 0.978418
0.596882 0.663324 0.992854
0.596882 0.663324 0.992854
0.602120 0.663172 0.992839
0.622673 0.662373 0.992259
0.689748 0.663424 0.991872
0.825306 0.678107 0.989900
1.000000 0.710679 0.986920
1.000000 0.798072 0.974294
1.000000 0.972108 0.979569
0.642477 0.920288 0.996005
0.642477 0.920288 0.996005
0.646946 0.920148 0.995998
0.650978 0.921092 0.995921
0.683775 0.921085 0.995799
0.783835 0.920461 0.994176
0.948361 0.927829 0.992431
1.000000 0.935962 0.988474
1.000000 0.982537 0.982503
0.876425 1.000000 1.000000
0.876425 1.000000 1.000000
0.876425 1.000000 1.000000
0.879545 1.000000 1.000000
0.885260 1.000000 1.000000
0.910625 1.000000 1.000000
0.960581 1.000000 1.000000
1.000000 1.000000 1.000000
1.000000 1.000000 0.991423
0.982047 1.000000 0.999300
0.982047 1.000000 0.999300
0.982047 1.000000 0.999300
0.982047 1.000000 0.999300
0.982248 1.000000 0.999305
0.983234 1.000000 0.999096
0.987415 1.000000 0.999225
1.000000 1.000000 0.998626
1.000000 1.000000 0.998907
1.000000 0.000000 0.743109
1.000000 0.000000 0.743235
1.000000 0.000000 0.743235
1.000000 0.000000 0.743235
1.000000 0.000000 0.740694
1.000000 0.000000 0.736127
1.000000 0.000000 0.710536
1.000000 0.375059 1.000000
1.000000 0.887359 0.997340
1.000000 0.000000 0.743109
1.000000 0.000000 0.743235
1.000000 0.000000 0.743235
1.000000 0.000000 0.743235
1.000000 0.000000 0.740694
1.000000 0.000000 0.736127
1.000000 0.000000 0.710536
1.000000 0.378582 1.000000
1.000000 0.887359 0.997340
1.000000 0.000000 0.743235
1.000000 0.000000 0.743235
1.000000 0.000000 0.743235
1.000000 0.000000 0.743235
1.000000 0.000000 0.740694
1.000000 0.000000 0.736127
1.000000 0.000000 0.710536
1.000000 0.384814 1.000000
1.000000 0.887876 0.997864
1.000000 0.000000 0.743235
1.000000 0.000000 0.743235
1.000000 0.000000 0.743235
1.000000 0.000000 0.743235
1.000000 0.000000 0.740694
1.000000 0.000000 0.736263
1.000000 0.000000 0.932973
1.000000 0.421544 1.000000
1.000000 0.889356 0.997796
1.000000 0.000000 1.000000
1.000000 0.000000 1.000000
1.000000 0.000000 1.000000
1.000000 0.000000 1.000000
1.000000 0.000000 1.000000
1.000000 0.000000 1.000000
1.000000 0.000000 1.000000
1.000000 0.543065 1.000000
1.000000 0.895865 0.999073
0.934932 0.602881 1.000000
0.937066 0.602852 1.000000
0.937066 0.602852 1.000000
0.939178 0.602826 1.000000
0.948581 0.606178 1.000000
0.972736 0.619871 1.000000
1.000000 0.642652 1.000000
1.000000 0.749069 1.000000
1.000000 0.912086 1.000000
0.856245 0.884023 1.000000
0.856245 0.884023 1.000000
0.856245 0.884023 1.000000
0.860440 0.883874 1.000000
0.866550 0.883659 1.000000
0.887764 0.885515 1.000000
0.945946 0.889803 1.000000
1.000000 0.903488 1.000000
1.000000 0.948299 1.000000
0.878922 0.991903 1.000000
0.878922 0.991903 1.000000
0.878922 0.991903 1.000000
0.878922 0.991903 1.000000
0.882941 0.992044 1.000000
0.895539 0.991747 1.000000
0.930683 0.991022 1.000000
0.995766 0.992668 1.000000
1.000000 0.995178 1.000000
0.973740 1.000000 1.000000
0.973740 1.000000 1.000000
0.973740 1.000000 1.000000
0.973740 1.000000 1.000000
0.974181 1.000000 1.000000
0.975714 1.000000 1.000000
0.980945 1.000000 1.000000
0.996917 1.000000 1.000000
1.000000 1.000000 1.000000
