Assets/Lutify-Free-LUTs-Pack/Lutify Free LUTs Pack/Film Tone Pro - Film Tone 3/Lutify.me-FilmTone3-ProTune-to-Rec709.cube
# Created with: fylm.ai - Colour Grading and Collaboration Software in Cloud 
# Website: https://fylm.ai 
# META
# Option: Gamut compress
# Block 1: IDT | GoPro ProTune Native ProTune Flat
# Block 2: colourMatch | Blending Mode: Normal | {"ColorSpace":0,"CrossCovarianceLimit":50,"ReshapingIterations":1,"PercentSaturationShift":100,"PercentShadingShift":100,"ExtraShading":true,"PercentTint":100,"PercentModified":100}
# Block 3: subtractiveColour | Blending Mode: Normal | {"sliders":{"gainY":0.6,"C":0.3,"M":0.3,"Y":0.3}}
# Block 4: LUT | Filmic Curve Response: Low Contrast 2 (100%)
# Block 5: logPrimaries | Blending Mode: Normal | {"wheels":{"shadows":{"Y":"0","R":"1","G":"1","B":"1"},"midtones":{"Y":"0","R":"1","G":"1","B":"1"},"highlights":{"Y":"0","R":"1","G":"1","B":"1"},"offset":{"Y":"0","R":"1","G":"1","B":"1"}},"sliders":{"shadows":{"Y":0,"R":-0.026,"G":0.03,"B":0.1},"midtones":{"Y":0,"R":0.024,"G":-0.036,"B":0.036},"highlights":{"Y":0,"R":0,"G":0.044,"B":-0.128},"offset":{"Y":0,"R":0,"G":0,"B":0}}}
# Block 6: hueSaturation | Blending Mode: Normal | {"hue":0,"saturation":-0.1}
# Block 7: ODT | Rec709
TITLE "Lutify.me-FilmTone3-ProTune-to-Rec709" 
LUT_3D_SIZE 9
0.000000 0.000000 0.000000
0.000000 0.000000 0.000000
0.069605 0.000000 0.000000
0.121876 0.000000 0.000000
0.178471 0.000000 0.000000
0.254030 0.000000 0.000000
0.355518 0.000000 0.024006
0.471161 0.000000 0.041583
0.638338 0.000000 0.069331
0.000000 0.033136 0.000000
0.003601 0.032022 0.000000
0.082892 0.000000 0.000000
0.129202 0.000000 0.000000
0.190211 0.000000 0.000000
0.266603 0.000000 0.000000
0.366208 0.000000 0.028094
0.486536 0.000000 0.045383
0.648835 0.000000 0.075396
0.000000 0.082967 0.000000
0.000000 0.085162 0.000000
0.090509 0.077792 0.000000
0.157041 0.047834 0.000000
0.223852 0.000000 0.000000
0.286434 0.000000 0.000000
0.388795 0.000000 0.031245
0.507255 0.000000 0.049399
0.661404 0.000000 0.082049
0.000000 0.155111 0.000000
0.000000 0.161770 0.000000
0.079623 0.158283 0.000000
0.192096 0.141777 0.000000
0.274482 0.096845 0.000000
0.339509 0.000000 0.000000
0.419179 0.000000 0.028299
0.537520 0.000000 0.049589
0.681871 0.000000 0.087661
0.000000 0.239926 0.000000
0.000000 0.242616 0.000000
0.068544 0.241396 0.000000
0.219067 0.244174 0.000000
0.328658 0.208633 0.000000
0.401186 0.166915 0.000000
0.488010 0.099862 0.000000
0.576762 0.000000 0.043499
0.713311 0.000000 0.092124
0.000000 0.347003 0.000000
0.000000 0.347466 0.000000
0.151219 0.345143 0.000000
0.255713 0.344074 0.000000
0.389956 0.329054 0.000000
0.496603 0.278887 0.000000
0.570510 0.257754 0.000000
0.651656 0.205389 0.000000
0.747642 0.000000 0.080305
0.000000 0.467036 0.000000
0.138913 0.464084 0.000000
0.228463 0.464033 0.000000
0.325909 0.463259 0.000000
0.427976 0.461058 0.000000
0.564252 0.430089 0.000000
0.668803 0.394273 0.000000
0.722987 0.363734 0.000000
0.805022 0.346083 0.000000
0.281867 0.594420 0.000000
0.302858 0.594289 0.000000
0.353745 0.593856 0.000000
0.421700 0.592959 0.000000
0.517070 0.594244 0.000000
0.608841 0.588038 0.000000
0.704682 0.560381 0.000000
0.807024 0.520874 0.000000
0.861956 0.500905 0.000000
0.497745 0.715744 0.000000
0.509038 0.715536 0.000000
0.520177 0.715320 0.000000
0.550945 0.717757 0.000000
0.604801 0.713341 0.000000
0.673927 0.711244 0.000000
0.764127 0.701732 0.000000
0.841656 0.676277 0.000000
0.908570 0.634124 0.000000
0.000000 0.000000 0.027608
0.000000 0.000000 0.027911
0.057575 0.000000 0.019381
0.117677 0.000000 0.013774
0.176918 0.000000 0.015959
0.253519 0.000000 0.024219
0.352241 0.000000 0.033184
0.472343 0.000000 0.046633
0.638972 0.000000 0.072547
0.000000 0.029131 0.034916
0.000000 0.028645 0.033996
0.079885 0.000000 0.024720
0.126775 0.000000 0.015009
0.189934 0.000000 0.016835
0.264931 0.000000 0.029329
0.367375 0.000000 0.035386
0.488146 0.000000 0.052155
0.649666 0.000000 0.080134
0.000000 0.080895 0.000000
0.000000 0.083072 0.000000
0.082627 0.081433 0.000000
0.156039 0.045725 0.000000
0.217722 0.000000 0.020322
0.288129 0.000000 0.030908
0.387916 0.000000 0.039756
0.508613 0.000000 0.055647
0.662247 0.000000 0.087083
0.000000 0.152793 0.000000
0.000000 0.159348 0.000000
0.053635 0.158646 0.000000
0.183078 0.145145 0.000000
0.266556 0.102062 0.000000
0.336776 0.000000 0.012351
0.420790 0.000000 0.038406
0.539805 0.000000 0.059328
0.682961 0.000000 0.093051
0.000000 0.244276 0.000000
0.000000 0.248936 0.000000
0.000000 0.246542 0.000000
0.193703 0.245008 0.000000
0.312854 0.213672 0.000000
0.400236 0.178620 0.000000
0.487487 0.102685 0.000000
0.578344 0.000000 0.054808
0.710706 0.000000 0.099779
0.000000 0.346929 0.000000
0.000000 0.345039 0.000000
0.141591 0.345168 0.000000
0.245110 0.344272 0.000000
0.363798 0.343133 0.000000
0.474538 0.298152 0.000000
0.562029 0.267296 0.000000
0.654308 0.207101 0.000000
0.749003 0.000000 0.091440
0.000000 0.463941 0.000000
0.138913 0.464084 0.000000
0.228463 0.464033 0.000000
0.316260 0.463387 0.000000
0.419015 0.461315 0.000000
0.564252 0.430089 0.000000
0.668803 0.394273 0.000000
0.716890 0.388061 0.000000
0.806771 0.351325 0.000000
0.281867 0.594420 0.000000
0.302858 0.594289 0.000000
0.353745 0.593856 0.000000
0.421700 0.592959 0.000000
0.517070 0.594244 0.000000
0.608841 0.588038 0.000000
0.704682 0.560381 0.000000
0.807407 0.517443 0.000000
0.849989 0.516456 0.000000
0.497745 0.715744 0.000000
0.509038 0.715536 0.000000
0.520177 0.715320 0.000000
0.552768 0.714631 0.000000
0.604801 0.713341 0.000000
0.673927 0.711244 0.000000
0.764127 0.701732 0.000000
0.841656 0.676277 0.000000
0.908570 0.634124 0.000000
0.000000 0.000000 0.056903
0.000000 0.000000 0.056319
0.053533 0.000000 0.056181
0.106717 0.000000 0.044813
0.175459 0.000000 0.040563
0.255008 0.000000 0.041457
0.352320 0.000000 0.045869
0.468497 0.000000 0.055892
0.633553 0.000000 0.081261
0.000000 0.000000 0.071641
0.000000 0.000000 0.068422
0.063203 0.000000 0.063974
0.118236 0.000000 0.051559
0.186684 0.000000 0.047575
0.265113 0.000000 0.047150
0.368250 0.000000 0.050927
0.484082 0.000000 0.061658
0.647754 0.000000 0.089380
0.000000 0.079952 0.092718
0.000000 0.085442 0.090618
0.067766 0.083509 0.088042
0.146386 0.050079 0.074036
0.216850 0.000000 0.063095
0.290055 0.000000 0.055369
0.391996 0.000000 0.058344
0.505563 0.000000 0.070521
0.663848 0.000000 0.096939
0.000000 0.156298 0.037089
0.000000 0.163005 0.035827
0.000000 0.168815 0.035182
0.164718 0.164579 0.048507
0.258073 0.116262 0.055816
0.333036 0.000000 0.060554
0.423020 0.000000 0.062054
0.543771 0.000000 0.076651
0.681559 0.000000 0.104463
0.000000 0.248540 0.000000
0.000000 0.249928 0.000000
0.000000 0.253088 0.000000
0.155006 0.251282 0.000000
0.291315 0.233901 0.000000
0.389252 0.193066 0.000000
0.492151 0.102627 0.039612
0.582392 0.000000 0.077728
0.713141 0.000000 0.114190
0.000000 0.350348 0.000000
0.000000 0.351445 0.000000
0.000000 0.352369 0.000000
0.177111 0.352469 0.000000
0.309969 0.353007 0.000000
0.443456 0.321462 0.000000
0.553681 0.282368 0.000000
0.657735 0.204406 0.000000
0.751388 0.000000 0.112367
0.000000 0.463941 0.000000
0.118999 0.464064 0.000000
0.222712 0.464049 0.000000
0.318494 0.460272 0.000000
0.419015 0.461315 0.000000
0.549576 0.440384 0.000000
0.632672 0.419401 0.000000
0.706302 0.406144 0.000000
0.809469 0.354552 0.000000
0.281867 0.594420 0.000000
0.306371 0.591005 0.000000
0.356570 0.590561 0.000000
0.421700 0.592959 0.000000
0.512148 0.594371 0.000000
0.608841 0.588038 0.000000
0.704682 0.560381 0.000000
0.803988 0.517638 0.000000
0.841956 0.537769 0.000000
0.497745 0.715744 0.000000
0.503412 0.715641 0.000000
0.520177 0.715320 0.000000
0.552768 0.714631 0.000000
0.604801 0.713341 0.000000
0.673927 0.711244 0.000000
0.764127 0.701732 0.000000
0.843442 0.669555 0.000000
0.904004 0.634144 0.000000
0.000000 0.000000 0.090052
0.000000 0.000000 0.087722
0.031305 0.000000 0.084754
0.100544 0.000000 0.078308
0.171796 0.000000 0.061276
0.254299 0.000000 0.058749
0.349957 0.000000 0.059515
0.467834 0.000000 0.068880
0.636212 0.000000 0.097240
0.000000 0.000000 0.105346
0.000000 0.000000 0.104346
0.041408 0.000000 0.098791
0.112727 0.000000 0.089291
0.184752 0.000000 0.072709
0.264728 0.000000 0.068624
0.363578 0.000000 0.068034
0.484364 0.000000 0.081272
0.650611 0.000000 0.104209
0.000000 0.056754 0.152974
0.000000 0.059305 0.151045
0.028315 0.058298 0.147153
0.135690 0.038050 0.142649
0.213373 0.000000 0.108880
0.288493 0.000000 0.090193
0.386322 0.000000 0.088169
0.509905 0.000000 0.095832
0.663815 0.000000 0.119052
0.000000 0.158052 0.174704
0.000000 0.163069 0.169868
0.000000 0.168859 0.167434
0.137168 0.163190 0.170812
0.248431 0.116371 0.145990
0.337635 0.000000 0.125892
0.427987 0.000000 0.108656
0.547334 0.000000 0.113775
0.685390 0.000000 0.126314
0.000000 0.259673 0.107594
0.000000 0.261080 0.105059
0.000000 0.266817 0.109265
0.096173 0.269826 0.110919
0.266871 0.266909 0.120045
0.385972 0.209479 0.116535
0.487097 0.120283 0.120022
0.586103 0.000000 0.121756
0.716548 0.000000 0.138444
0.000000 0.366036 0.000000
0.000000 0.367411 0.000000
0.000000 0.369140 0.000000
0.000000 0.378813 0.000000
0.225532 0.379703 0.000000
0.416287 0.365741 0.000000
0.550327 0.296983 0.000000
0.660287 0.215719 0.100872
0.754687 0.000000 0.140657
0.000000 0.480950 0.000000
0.000000 0.481587 0.000000
0.000000 0.485424 0.000000
0.049437 0.486200 0.000000
0.283975 0.486440 0.000000
0.455905 0.484452 0.000000
0.595456 0.458401 0.000000
0.707727 0.418368 0.000000
0.812712 0.355864 0.087357
0.271232 0.591218 0.000000
0.299632 0.591052 0.000000
0.350592 0.590624 0.000000
0.413144 0.589821 0.000000
0.513838 0.591029 0.000000
0.608841 0.588038 0.000000
0.704682 0.560381 0.000000
0.775072 0.546476 0.000000
0.846738 0.556167 0.000000
0.497745 0.715744 0.000000
0.503412 0.715641 0.000000
0.520177 0.715320 0.000000
0.552768 0.714631 0.000000
0.604801 0.713341 0.000000
0.673927 0.711244 0.000000
0.764127 0.701732 0.000000
0.843442 0.669555 0.000000
0.904004 0.634144 0.000000
0.000000 0.000000 0.131591
0.000000 0.000000 0.130011
0.000000 0.000000 0.125045
0.086289 0.000000 0.121826
0.171828 0.000000 0.099344
0.254785 0.000000 0.073336
0.349508 0.000000 0.073377
0.463899 0.000000 0.085557
0.630955 0.000000 0.118940
0.000000 0.000000 0.152467
0.000000 0.000000 0.149638
0.000000 0.000000 0.143966
0.091793 0.000000 0.138347
0.184962 0.000000 0.117139
0.259692 0.000000 0.090551
0.359573 0.000000 0.090034
0.477337 0.000000 0.102548
0.642123 0.000000 0.131123
0.000000 0.027650 0.193751
0.000000 0.029288 0.187616
0.000000 0.029302 0.182303
0.093441 0.000000 0.181379
0.205518 0.000000 0.162007
0.287852 0.000000 0.127912
0.383365 0.000000 0.121856
0.506698 0.000000 0.126046
0.658757 0.000000 0.147175
0.000000 0.113974 0.248103
0.000000 0.117460 0.248353
0.000000 0.124685 0.249189
0.085290 0.120388 0.248341
0.245958 0.094593 0.243732
0.340182 0.000000 0.196957
0.430528 0.000000 0.164281
0.545675 0.000000 0.157676
0.689295 0.000000 0.167470
0.000000 0.261079 0.274255
0.000000 0.262911 0.276432
0.000000 0.266724 0.269142
0.000000 0.273904 0.266597
0.236060 0.269998 0.276076
0.372888 0.213867 0.247280
0.489388 0.106137 0.211530
0.593796 0.000000 0.186433
0.719740 0.000000 0.193897
0.000000 0.390813 0.204640
0.000000 0.386614 0.202620
0.000000 0.393695 0.199732
0.000000 0.395745 0.201762
0.161881 0.402582 0.203597
0.393346 0.394459 0.222760
0.538243 0.317655 0.210448
0.650605 0.227942 0.204300
0.757702 0.000000 0.205357
0.000000 0.513498 0.000000
0.000000 0.514098 0.000000
0.000000 0.514983 0.000000
0.000000 0.516766 0.000000
0.110098 0.521106 0.000000
0.370882 0.524160 0.000000
0.576067 0.507480 0.000000
0.701990 0.447410 0.112952
0.808757 0.369571 0.182075
0.000000 0.619245 0.000000
0.000000 0.619490 0.000000
0.000000 0.623103 0.000000
0.000000 0.623454 0.000000
0.265507 0.630337 0.000000
0.413721 0.630539 0.000000
0.578480 0.630122 0.000000
0.732322 0.608857 0.000000
0.841308 0.571016 0.000000
0.488468 0.712802 0.000000
0.505489 0.712496 0.000000
0.520177 0.715320 0.000000
0.547415 0.714750 0.000000
0.604801 0.713341 0.000000
0.675299 0.708086 0.000000
0.765272 0.698521 0.000000
0.843442 0.669555 0.000000
0.870390 0.675455 0.000000
0.000000 0.000000 0.194911
0.000000 0.000000 0.192809
0.000000 0.000000 0.183568
0.042504 0.000000 0.180592
0.166663 0.000000 0.171792
0.260386 0.000000 0.129054
0.348981 0.000000 0.083809
0.455489 0.000000 0.094464
0.612917 0.000000 0.132665
0.000000 0.000000 0.217226
0.000000 0.000000 0.210695
0.000000 0.000000 0.206905
0.037626 0.000000 0.202467
0.171172 0.000000 0.195374
0.270548 0.000000 0.153231
0.354322 0.000000 0.102199
0.468680 0.000000 0.116278
0.632202 0.000000 0.155278
0.000000 0.012137 0.249892
0.000000 0.017878 0.245861
0.000000 0.022550 0.241697
0.000000 0.000000 0.243017
0.169358 0.000000 0.234627
0.293688 0.000000 0.198244
0.373675 0.000000 0.146293
0.494440 0.000000 0.157231
0.650927 0.000000 0.186345
0.000000 0.070923 0.301558
0.000000 0.073950 0.301363
0.000000 0.075812 0.298588
0.000000 0.072289 0.297683
0.191514 0.040900 0.291364
0.331872 0.000000 0.271159
0.427866 0.000000 0.225614
0.546031 0.000000 0.218914
0.690457 0.000000 0.216347
0.000000 0.200195 0.357885
0.000000 0.204498 0.357739
0.000000 0.211457 0.362288
0.000000 0.225242 0.363599
0.177216 0.220819 0.369351
0.367836 0.188089 0.364038
0.508382 0.000000 0.309512
0.599947 0.000000 0.263501
0.721654 0.000000 0.254648
0.000000 0.388155 0.387813
0.000000 0.389632 0.389523
0.000000 0.394865 0.392520
0.000000 0.397055 0.384831
0.101686 0.404280 0.386243
0.362573 0.392880 0.382817
0.527441 0.322381 0.362878
0.655310 0.214375 0.321125
0.759116 0.000000 0.299734
0.000000 0.533930 0.312698
0.000000 0.537541 0.307974
0.000000 0.538425 0.306552
0.000000 0.539720 0.305971
0.000000 0.547240 0.310522
0.319504 0.549828 0.314121
0.551610 0.541926 0.329992
0.695107 0.468847 0.316392
0.802208 0.378430 0.315611
0.000000 0.661251 0.000000
0.000000 0.664929 0.000000
0.000000 0.665209 0.000000
0.000000 0.665637 0.000000
0.000000 0.665686 0.000000
0.331597 0.665484 0.063890
0.521399 0.667078 0.109841
0.709406 0.659866 0.171104
0.831486 0.595428 0.222945
0.000000 0.751543 0.000000
0.082624 0.751703 0.000000
0.183424 0.751736 0.000000
0.251019 0.751788 0.000000
0.337274 0.751929 0.000000
0.438087 0.755297 0.000000
0.570579 0.754807 0.000000
0.718428 0.753511 0.000000
0.839830 0.737031 0.000000
0.000000 0.000000 0.272641
0.000000 0.000000 0.268026
0.000000 0.000000 0.268436
0.000000 0.000000 0.262877
0.113678 0.000000 0.250839
0.259398 0.000000 0.228663
0.358951 0.000000 0.152303
0.452944 0.000000 0.079541
0.601640 0.000000 0.116833
0.000000 0.000000 0.297438
0.000000 0.000000 0.294298
0.000000 0.000000 0.290749
0.000000 0.000000 0.284670
0.111453 0.000000 0.279039
0.268546 0.000000 0.258528
0.371877 0.000000 0.184040
0.453421 0.000000 0.099698
0.604725 0.000000 0.137197
0.000000 0.012820 0.325604
0.000000 0.014466 0.324828
0.000000 0.019293 0.320630
0.000000 0.010399 0.320107
0.107783 0.000000 0.313920
0.273876 0.000000 0.303684
0.401035 0.000000 0.236999
0.466823 0.000000 0.140277
0.629191 0.000000 0.188324
0.000000 0.051973 0.367403
0.000000 0.054872 0.364317
0.000000 0.056204 0.364642
0.000000 0.055969 0.361379
0.120501 0.038373 0.359609
0.287173 0.000000 0.354959
0.441842 0.000000 0.313092
0.524798 0.000000 0.242519
0.671852 0.000000 0.255818
0.000000 0.137964 0.435755
0.000000 0.139645 0.437629
0.000000 0.145326 0.432173
0.000000 0.151413 0.428702
0.110942 0.144802 0.427894
0.307617 0.099255 0.421824
0.496898 0.000000 0.395956
0.607214 0.000000 0.337536
0.719466 0.000000 0.328761
0.000000 0.311836 0.491281
0.000000 0.317613 0.493175
0.000000 0.320045 0.493876
0.000000 0.325058 0.495685
0.000000 0.333802 0.491685
0.290120 0.329295 0.497648
0.535899 0.294740 0.494394
0.673607 0.155654 0.444339
0.769245 0.000000 0.389211
0.000000 0.536864 0.521090
0.000000 0.540903 0.522133
0.000000 0.545122 0.520412
0.000000 0.552703 0.512992
0.000000 0.547745 0.516732
0.252881 0.553940 0.520523
0.514514 0.542815 0.519407
0.669242 0.477539 0.492838
0.804292 0.365492 0.448635
0.000000 0.678610 0.447605
0.000000 0.682094 0.447928
0.000000 0.682230 0.442372
0.000000 0.689249 0.443599
0.000000 0.692671 0.442622
0.248230 0.692184 0.445378
0.473578 0.690178 0.452443
0.677825 0.681994 0.467423
0.817034 0.619366 0.455098
0.000000 0.783486 0.212932
0.000000 0.786033 0.212838
0.000000 0.786010 0.216487
0.000000 0.785799 0.217205
0.209907 0.785262 0.218682
0.357217 0.784245 0.220852
0.521128 0.782169 0.240654
0.690156 0.780790 0.274535
0.825952 0.774416 0.320130
0.000000 0.000000 0.384602
0.000000 0.000000 0.380561
0.000000 0.000000 0.377477
0.000000 0.000000 0.378374
0.000000 0.000000 0.374087
0.199734 0.000000 0.354935
0.384879 0.000000 0.311193
0.471691 0.000000 0.185259
0.595579 0.000000 0.100734
0.000000 0.000000 0.400257
0.000000 0.000000 0.401263
0.000000 0.000000 0.395531
0.000000 0.000000 0.390467
0.000000 0.000000 0.388898
0.190883 0.000000 0.378900
0.396997 0.000000 0.340021
0.484013 0.000000 0.216352
0.595452 0.000000 0.099942
0.000000 0.025396 0.421420
0.000000 0.022391 0.422363
0.000000 0.020693 0.424766
0.000000 0.019945 0.428628
0.000000 0.000000 0.417885
0.191242 0.000000 0.410217
0.390004 0.000000 0.389206
0.514369 0.000000 0.283480
0.598092 0.000000 0.116804
0.000000 0.054335 0.459647
0.000000 0.052624 0.460736
0.000000 0.054757 0.457044
0.000000 0.057605 0.458603
0.000000 0.054900 0.456364
0.203177 0.000000 0.448461
0.421331 0.000000 0.445239
0.556992 0.000000 0.374550
0.626723 0.000000 0.218904
0.000000 0.108399 0.502529
0.000000 0.109755 0.500830
0.000000 0.112208 0.499885
0.000000 0.112641 0.500615
0.000000 0.112662 0.506568
0.209590 0.093255 0.502055
0.431395 0.000000 0.498749
0.621490 0.000000 0.462872
0.710583 0.000000 0.375820
0.000000 0.242136 0.565936
0.000000 0.242845 0.567407
0.000000 0.241915 0.569275
0.000000 0.243276 0.569430
0.000000 0.246392 0.571279
0.201313 0.242141 0.565440
0.469260 0.190806 0.555725
0.671210 0.000000 0.542973
0.781832 0.000000 0.482882
0.000000 0.458277 0.621547
0.000000 0.462149 0.622528
0.000000 0.466624 0.624296
0.000000 0.465367 0.626797
0.000000 0.476619 0.623841
0.052868 0.487158 0.625772
0.429991 0.477186 0.630967
0.667305 0.448749 0.623506
0.819437 0.308594 0.569412
0.000000 0.681076 0.648701
0.000000 0.684653 0.649192
0.000000 0.685105 0.650095
0.000000 0.688682 0.644674
0.000000 0.688966 0.640114
0.024460 0.688651 0.639747
0.410261 0.693596 0.646412
0.669657 0.677672 0.645458
0.791027 0.623289 0.614002
0.000000 0.795095 0.565158
0.000000 0.794961 0.562106
0.000000 0.797388 0.562364
0.000000 0.797196 0.562980
0.000000 0.801653 0.564139
0.240549 0.803114 0.565934
0.462167 0.800720 0.572461
0.643951 0.796398 0.579984
0.788802 0.789212 0.591686
0.000000 0.000000 0.510827
0.000000 0.000000 0.511720
0.000000 0.000000 0.510368
0.000000 0.000000 0.507987
0.000000 0.000000 0.510529
0.115360 0.000000 0.503061
0.302195 0.000000 0.485935
0.530479 0.000000 0.424674
0.609488 0.000000 0.205762
0.000000 0.016852 0.521679
0.000000 0.018908 0.522573
0.000000 0.021035 0.521547
0.000000 0.024232 0.515888
0.000000 0.000000 0.518005
0.114664 0.000000 0.516998
0.307669 0.000000 0.497378
0.543132 0.000000 0.450310
0.616622 0.000000 0.237881
0.000000 0.042170 0.540140
0.000000 0.042048 0.540931
0.000000 0.044928 0.536822
0.000000 0.048576 0.534715
0.000000 0.037547 0.536084
0.113288 0.000000 0.532020
0.315262 0.000000 0.519059
0.546948 0.000000 0.490691
0.640133 0.000000 0.308550
0.000000 0.070753 0.560354
0.000000 0.071031 0.558399
0.000000 0.073138 0.557220
0.000000 0.076493 0.561029
0.000000 0.070277 0.561756
0.092348 0.042156 0.561022
0.325637 0.000000 0.548859
0.565848 0.000000 0.536320
0.696331 0.000000 0.415646
0.000000 0.116536 0.593473
0.000000 0.116697 0.594618
0.000000 0.116995 0.593087
0.000000 0.119473 0.592651
0.000000 0.121352 0.590511
0.052370 0.111372 0.592515
0.347057 0.019768 0.587070
0.582065 0.000000 0.584651
0.739386 0.000000 0.515735
0.000000 0.189481 0.634581
0.000000 0.189731 0.635383
0.000000 0.191682 0.636827
0.000000 0.198675 0.636459
0.000000 0.200665 0.640015
0.000000 0.199190 0.635216
0.355953 0.172675 0.635753
0.591446 0.069445 0.627616
0.793248 0.000000 0.590676
0.000000 0.374843 0.693352
0.000000 0.369834 0.693908
0.000000 0.370454 0.691643
0.000000 0.371659 0.690382
0.000000 0.373171 0.690105
0.000000 0.382759 0.691309
0.354810 0.370361 0.687480
0.616946 0.306627 0.676299
0.823089 0.203565 0.670573
0.000000 0.609387 0.732471
0.000000 0.609796 0.732966
0.000000 0.613523 0.733484
0.000000 0.614401 0.734662
0.000000 0.618960 0.736716
0.000000 0.626134 0.733925
0.332310 0.628013 0.734242
0.587093 0.616248 0.735364
0.804584 0.582476 0.734422
0.000000 0.797157 0.752916
0.000000 0.797140 0.753004
0.000000 0.799460 0.750623
0.000000 0.799266 0.751245
0.000000 0.801188 0.749484
0.062246 0.800150 0.745384
0.414555 0.797934 0.750330
0.613436 0.800337 0.739619
0.772490 0.788247 0.748579
