Assets/Lutify-Free-LUTs-Pack/Lutify Free LUTs Pack/Film Tone Pro - Film Tone 3/Lutify.me-FilmTone3-CanonLog1-to-Rec709.cube
# Created with: fylm.ai - Colour Grading and Collaboration Software in Cloud 
# Website: https://fylm.ai 
# META
# Option: Gamut compress
# Block 1: IDT | CanonLog Cinema Gamut Daylight
# Block 2: colourMatch | Blending Mode: Normal | {"ColorSpace":0,"CrossCovarianceLimit":50,"ReshapingIterations":1,"PercentSaturationShift":100,"PercentShadingShift":100,"ExtraShading":true,"PercentTint":100,"PercentModified":100}
# Block 3: subtractiveColour | Blending Mode: Normal | {"sliders":{"gainY":0.6,"C":0.3,"M":0.3,"Y":0.3}}
# Block 4: LUT | Filmic Curve Response: Low Contrast 2 (100%)
# Block 5: logPrimaries | Blending Mode: Normal | {"wheels":{"shadows":{"Y":"0","R":"1","G":"1","B":"1"},"midtones":{"Y":"0","R":"1","G":"1","B":"1"},"highlights":{"Y":"0","R":"1","G":"1","B":"1"},"offset":{"Y":"0","R":"1","G":"1","B":"1"}},"sliders":{"shadows":{"Y":0,"R":-0.026,"G":0.03,"B":0.1},"midtones":{"Y":0,"R":0.024,"G":-0.036,"B":0.036},"highlights":{"Y":0,"R":0,"G":0.044,"B":-0.128},"offset":{"Y":0,"R":0,"G":0,"B":0}}}
# Block 6: hueSaturation | Blending Mode: Normal | {"hue":0,"saturation":-0.1}
# Block 7: ODT | Rec709
TITLE "Lutify.me-FilmTone3-CanonLog1-to-Rec709" 
LUT_3D_SIZE 33
0.000000 0.000000 0.000000
0.000000 0.000000 0.000000
0.000000 0.000000 0.000000
0.000000 0.000000 0.000000
0.007470 0.000000 0.000000
0.098969 0.000000 0.000000
0.137647 0.000000 0.000000
0.180051 0.000000 0.000000
0.217346 0.000000 0.000000
0.251961 0.000000 0.000000
0.286296 0.000000 0.000000
0.331499 0.000000 0.000000
0.366399 0.000000 0.000000
0.397978 0.000000 0.000000
0.435554 0.000000 0.000000
0.486668 0.000000 0.000000
0.549395 0.000000 0.000000
0.598604 0.000000 0.000000
0.641264 0.000000 0.000000
0.686050 0.000000 0.000000
0.726516 0.000000 0.000000
0.786366 0.000000 0.000000
0.849904 0.000000 0.000000
0.898896 0.000000 0.027575
0.932827 0.000000 0.058046
0.967833 0.000000 0.083708
0.999495 0.000000 0.109375
1.000000 0.000000 0.136453
1.000000 0.000000 0.165783
1.000000 0.068806 0.201837
1.000000 0.197387 0.232630
1.000000 0.272556 0.266148
1.000000 0.342853 0.300954
0.000000 0.000000 0.000000
0.000000 0.000000 0.000000
0.000000 0.000000 0.000000
0.000000 0.000000 0.000000
0.013995 0.000000 0.000000
0.098969 0.000000 0.000000
0.137647 0.000000 0.000000
0.180051 0.000000 0.000000
0.217346 0.000000 0.000000
0.251961 0.000000 0.000000
0.289778 0.000000 0.000000
0.331499 0.000000 0.000000
0.375793 0.000000 0.000000
0.418974 0.000000 0.000000
0.464871 0.000000 0.000000
0.526040 0.000000 0.000000
0.590186 0.000000 0.000000
0.646094 0.000000 0.000000
0.672009 0.000000 0.000000
0.705910 0.000000 0.000000
0.756344 0.000000 0.000000
0.801269 0.000000 0.000000
0.856603 0.000000 0.000000
0.903672 0.000000 0.004990
0.937045 0.000000 0.054996
0.970921 0.000000 0.082145
1.000000 0.000000 0.110576
1.000000 0.000000 0.138181
1.000000 0.000000 0.165095
1.000000 0.117745 0.198582
1.000000 0.222971 0.231949
1.000000 0.284908 0.263877
1.000000 0.353906 0.300621
0.000000 0.000000 0.000000
0.000000 0.000000 0.000000
0.000000 0.000000 0.000000
0.000000 0.000000 0.000000
0.017749 0.000000 0.000000
0.102637 0.000000 0.000000
0.143960 0.000000 0.000000
0.183383 0.000000 0.000000
0.225854 0.000000 0.000000
0.268790 0.000000 0.000000
0.309819 0.000000 0.000000
0.352821 0.000000 0.000000
0.400922 0.000000 0.000000
0.451282 0.000000 0.000000
0.508743 0.000000 0.000000
0.557546 0.000000 0.000000
0.612671 0.000000 0.000000
0.665081 0.000000 0.000000
0.698378 0.000000 0.000000
0.724769 0.000000 0.000000
0.766877 0.000000 0.000000
0.818687 0.000000 0.000000
0.865339 0.000000 0.000000
0.907656 0.000000 0.000000
0.940360 0.000000 0.048759
0.973772 0.000000 0.080474
1.000000 0.000000 0.109352
1.000000 0.000000 0.135167
1.000000 0.000000 0.161814
1.000000 0.156790 0.198152
1.000000 0.233355 0.231994
1.000000 0.293075 0.263611
1.000000 0.364843 0.300269
0.000000 0.000000 0.000000
0.000000 0.000000 0.000000
0.000000 0.000000 0.000000
0.000000 0.000000 0.000000
0.035293 0.000000 0.000000
0.111132 0.000000 0.000000
0.154546 0.000000 0.000000
0.201679 0.000000 0.000000
0.247697 0.000000 0.000000
0.287163 0.000000 0.000000
0.331099 0.000000 0.000000
0.380759 0.000000 0.000000
0.428036 0.000000 0.000000
0.479539 0.000000 0.000000
0.529807 0.000000 0.000000
0.579471 0.000000 0.000000
0.630463 0.000000 0.000000
0.680082 0.000000 0.000000
0.719847 0.000000 0.000000
0.746198 0.000000 0.000000
0.776600 0.000000 0.000000
0.824199 0.000000 0.000000
0.869666 0.000000 0.000000
0.911419 0.000000 0.000000
0.943353 0.000000 0.037158
0.973601 0.000000 0.074597
1.000000 0.000000 0.106483
1.000000 0.000000 0.134451
1.000000 0.000000 0.160940
1.000000 0.175575 0.197652
1.000000 0.242574 0.229967
1.000000 0.309053 0.263048
1.000000 0.368465 0.300147
0.000000 0.068486 0.000000
0.000000 0.066316 0.000000
0.000000 0.063195 0.000000
0.000000 0.063465 0.000000
0.000000 0.070256 0.000000
0.125287 0.049408 0.000000
0.183632 0.000000 0.000000
0.233842 0.000000 0.000000
0.277244 0.000000 0.000000
0.316400 0.000000 0.000000
0.358322 0.000000 0.000000
0.407418 0.000000 0.000000
0.452289 0.000000 0.000000
0.496488 0.000000 0.000000
0.544072 0.000000 0.000000
0.593930 0.000000 0.000000
0.652681 0.000000 0.000000
0.694471 0.000000 0.000000
0.740593 0.000000 0.000000
0.755798 0.000000 0.000000
0.785916 0.000000 0.000000
0.832703 0.000000 0.000000
0.873819 0.000000 0.000000
0.912001 0.000000 0.000000
0.946525 0.000000 0.032452
0.978367 0.000000 0.069580
1.000000 0.000000 0.103867
1.000000 0.000000 0.133301
1.000000 0.079918 0.160273
1.000000 0.188298 0.197958
1.000000 0.252424 0.229981
1.000000 0.316889 0.262752
1.000000 0.372811 0.300452
0.000000 0.105928 0.000000
0.000000 0.104333 0.000000
0.000000 0.101212 0.000000
0.000000 0.104507 0.000000
0.000000 0.114981 0.000000
0.124973 0.113744 0.000000
0.207020 0.087745 0.000000
0.263783 0.050943 0.000000
0.306903 0.000000 0.000000
0.348392 0.000000 0.000000
0.388983 0.000000 0.000000
0.426462 0.000000 0.000000
0.466484 0.000000 0.000000
0.514219 0.000000 0.000000
0.554906 0.000000 0.000000
0.608246 0.000000 0.000000
0.659660 0.000000 0.000000
0.708778 0.000000 0.000000
0.747538 0.000000 0.000000
0.769127 0.000000 0.000000
0.798299 0.000000 0.000000
0.837435 0.000000 0.000000
0.881141 0.000000 0.000000
0.912313 0.000000 0.000000
0.952117 0.000000 0.021152
0.978246 0.000000 0.065342
1.000000 0.000000 0.103148
1.000000 0.000000 0.132951
1.000000 0.104391 0.159846
1.000000 0.204270 0.195842
1.000000 0.261328 0.229636
1.000000 0.329862 0.263072
1.000000 0.379989 0.300199
0.000000 0.147635 0.000000
0.000000 0.145433 0.000000
0.000000 0.144343 0.000000
0.000000 0.151327 0.000000
0.000000 0.162492 0.000000
0.061994 0.173806 0.000000
0.210809 0.160838 0.000000
0.284370 0.127735 0.000000
0.335587 0.100048 0.000000
0.378887 0.052592 0.000000
0.420840 0.000000 0.000000
0.467404 0.000000 0.000000
0.503313 0.000000 0.000000
0.544818 0.000000 0.000000
0.581425 0.000000 0.000000
0.623922 0.000000 0.000000
0.675204 0.000000 0.000000
0.715981 0.000000 0.000000
0.757669 0.000000 0.000000
0.786443 0.000000 0.000000
0.803974 0.000000 0.000000
0.841951 0.000000 0.000000
0.891573 0.000000 0.000000
0.921592 0.000000 0.000000
0.954856 0.000000 0.000000
0.980484 0.000000 0.060304
1.000000 0.000000 0.099389
1.000000 0.000000 0.131873
1.000000 0.146714 0.159009
1.000000 0.214510 0.195435
1.000000 0.275626 0.229807
1.000000 0.333669 0.262912
1.000000 0.387132 0.299938
0.000000 0.183629 0.000000
0.000000 0.180903 0.000000
0.000000 0.180903 0.000000
0.000000 0.185547 0.000000
0.000000 0.202084 0.000000
0.000000 0.215590 0.000000
0.194122 0.211813 0.000000
0.291140 0.190787 0.000000
0.348467 0.170660 0.000000
0.396602 0.144826 0.000000
0.440375 0.115212 0.000000
0.485954 0.065679 0.000000
0.531719 0.000000 0.000000
0.570045 0.000000 0.000000
0.607241 0.000000 0.000000
0.648013 0.000000 0.000000
0.686767 0.000000 0.000000
0.727304 0.000000 0.000000
0.764460 0.000000 0.000000
0.799210 0.000000 0.000000
0.820284 0.000000 0.000000
0.853380 0.000000 0.000000
0.892127 0.000000 0.000000
0.924469 0.000000 0.000000
0.957473 0.000000 0.000000
0.982628 0.000000 0.053590
1.000000 0.000000 0.093618
1.000000 0.000000 0.127154
1.000000 0.166466 0.158246
1.000000 0.229246 0.194788
1.000000 0.284036 0.229431
1.000000 0.344989 0.262418
1.000000 0.390690 0.299804
0.000000 0.217538 0.000000
0.000000 0.212835 0.000000
0.000000 0.217538 0.000000
0.000000 0.224688 0.000000
0.000000 0.242894 0.000000
0.000000 0.259157 0.000000
0.146225 0.260265 0.000000
0.284297 0.252057 0.000000
0.354868 0.225827 0.000000
0.411379 0.201988 0.000000
0.458985 0.176335 0.000000
0.506345 0.152334 0.000000
0.552562 0.109861 0.000000
0.591325 0.029670 0.000000
0.628418 0.000000 0.000000
0.669517 0.000000 0.000000
0.703483 0.000000 0.000000
0.742466 0.000000 0.000000
0.782909 0.000000 0.000000
0.823882 0.000000 0.000000
0.837091 0.000000 0.000000
0.860698 0.000000 0.000000
0.895583 0.000000 0.000000
0.930415 0.000000 0.000000
0.962228 0.000000 0.000000
0.986988 0.000000 0.045103
1.000000 0.000000 0.088351
1.000000 0.115289 0.125227
1.000000 0.195147 0.156851
1.000000 0.243393 0.194092
1.000000 0.301061 0.229004
1.000000 0.356172 0.261898
1.000000 0.401319 0.299389
0.000000 0.249207 0.000000
0.000000 0.249207 0.000000
0.000000 0.254271 0.000000
0.000000 0.262771 0.000000
0.000000 0.278722 0.000000
0.000000 0.294420 0.000000
0.046299 0.297720 0.000000
0.255193 0.297781 0.000000
0.350069 0.286791 0.000000
0.421223 0.259157 0.000000
0.482642 0.232245 0.000000
0.536129 0.210683 0.000000
0.579396 0.177718 0.000000
0.614316 0.142349 0.000000
0.655065 0.108284 0.000000
0.685488 0.000000 0.000000
0.727085 0.000000 0.000000
0.762608 0.000000 0.000000
0.798517 0.000000 0.000000
0.838245 0.000000 0.000000
0.853316 0.000000 0.000000
0.868606 0.000000 0.000000
0.899026 0.000000 0.000000
0.933410 0.000000 0.000000
0.961731 0.000000 0.000000
0.988641 0.000000 0.014750
1.000000 0.055322 0.081881
1.000000 0.159637 0.121946
1.000000 0.216087 0.155942
1.000000 0.266410 0.193172
1.000000 0.321191 0.224803
1.000000 0.371524 0.261573
1.000000 0.416719 0.299690
0.000000 0.283059 0.000000
0.000000 0.281164 0.000000
0.000000 0.286893 0.000000
0.000000 0.301506 0.000000
0.000000 0.320183 0.000000
0.000000 0.332704 0.000000
0.000000 0.344664 0.000000
0.208756 0.344776 0.000000
0.343277 0.341401 0.000000
0.425293 0.316877 0.000000
0.492696 0.289067 0.000000
0.547697 0.273213 0.000000
0.593463 0.249364 0.000000
0.632140 0.224497 0.000000
0.668819 0.205398 0.000000
0.705757 0.173536 0.000000
0.746800 0.115650 0.000000
0.781469 0.000000 0.000000
0.813787 0.000000 0.000000
0.848537 0.000000 0.000000
0.878761 0.000000 0.000000
0.886679 0.000000 0.000000
0.905205 0.000000 0.000000
0.936159 0.000000 0.000000
0.963593 0.000000 0.000000
0.989722 0.070538 0.000000
1.000000 0.132675 0.070936
1.000000 0.199202 0.116318
1.000000 0.244507 0.152366
1.000000 0.291557 0.188277
1.000000 0.336644 0.223858
1.000000 0.379288 0.259643
1.000000 0.423695 0.299388
0.000000 0.315320 0.000000
0.000000 0.311082 0.000000
0.000000 0.324290 0.000000
0.000000 0.347103 0.000000
0.000000 0.363640 0.000000
0.000000 0.376489 0.000000
0.000000 0.384771 0.000000
0.135819 0.386707 0.000000
0.306658 0.385650 0.000000
0.421053 0.385177 0.000000
0.491209 0.355414 0.000000
0.560212 0.335961 0.000000
0.610581 0.314081 0.000000
0.650930 0.286683 0.000000
0.687376 0.264137 0.000000
0.721337 0.249171 0.000000
0.758514 0.215802 0.000000
0.796705 0.179378 0.000000
0.828423 0.148824 0.000000
0.865509 0.042687 0.000000
0.894253 0.000000 0.000000
0.903752 0.000000 0.000000
0.916865 0.000000 0.000000
0.940651 0.000000 0.000000
0.964785 0.104768 0.000000
0.992740 0.161040 0.000000
1.000000 0.192632 0.049187
1.000000 0.223434 0.107629
1.000000 0.266775 0.146158
1.000000 0.315998 0.183469
1.000000 0.352075 0.219699
1.000000 0.394322 0.259254
1.000000 0.438092 0.297020
0.000000 0.346746 0.000000
0.000000 0.346746 0.000000
0.000000 0.364736 0.000000
0.000000 0.389218 0.000000
0.000000 0.407672 0.000000
0.000000 0.415383 0.000000
0.000000 0.420777 0.000000
0.000000 0.424182 0.000000
0.267265 0.424338 0.000000
0.392408 0.425132 0.000000
0.486627 0.418524 0.000000
0.560206 0.392779 0.000000
0.615413 0.373210 0.000000
0.663257 0.353415 0.000000
0.701446 0.330839 0.000000
0.742242 0.310187 0.000000
0.779746 0.288672 0.000000
0.813789 0.255895 0.000000
0.847392 0.223181 0.000000
0.879891 0.197976 0.000000
0.904603 0.161393 0.000000
0.928105 0.103475 0.000000
0.928034 0.145190 0.000000
0.949498 0.165605 0.000000
0.970027 0.183290 0.000000
0.993350 0.207183 0.000000
1.000000 0.244214 0.000000
1.000000 0.259294 0.092425
1.000000 0.304732 0.137825
1.000000 0.343253 0.176320
1.000000 0.375445 0.218823
1.000000 0.412456 0.254655
1.000000 0.452516 0.296806
0.000000 0.384098 0.000000
0.000000 0.381482 0.000000
0.000000 0.405901 0.000000
0.000000 0.422500 0.000000
0.000000 0.446798 0.000000
0.000000 0.454737 0.000000
0.000000 0.462467 0.000000
0.000000 0.466174 0.000000
0.206735 0.467166 0.000000
0.357352 0.465848 0.000000
0.469580 0.465995 0.000000
0.565223 0.442720 0.000000
0.620047 0.426658 0.000000
0.671553 0.406925 0.000000
0.712252 0.390690 0.000000
0.750948 0.370843 0.000000
0.788791 0.353664 0.000000
0.829041 0.328461 0.000000
0.861292 0.299469 0.000000
0.889201 0.280600 0.000000
0.915901 0.249215 0.000000
0.941093 0.214930 0.000000
0.948663 0.226315 0.000000
0.951830 0.244893 0.000000
0.974624 0.236279 0.000000
0.992994 0.254927 0.000000
1.000000 0.290382 0.000000
1.000000 0.304936 0.067769
1.000000 0.331749 0.125348
1.000000 0.361772 0.169170
1.000000 0.397020 0.213389
1.000000 0.431237 0.254352
1.000000 0.469991 0.291984
0.000000 0.416939 0.000000
0.000000 0.428301 0.000000
0.000000 0.455403 0.000000
0.000000 0.476169 0.000000
0.000000 0.491109 0.000000
0.000000 0.495441 0.000000
0.000000 0.508853 0.000000
0.000000 0.515578 0.000000
0.000000 0.514132 0.000000
0.312996 0.513582 0.000000
0.433378 0.514784 0.000000
0.559546 0.504179 0.000000
0.620067 0.484953 0.000000
0.671524 0.468841 0.000000
0.716382 0.446075 0.000000
0.757570 0.426452 0.000000
0.796204 0.409968 0.000000
0.832504 0.389948 0.000000
0.866982 0.366086 0.000000
0.893943 0.345765 0.000000
0.916792 0.328937 0.000000
0.943813 0.303633 0.000000
0.968871 0.273511 0.000000
0.962462 0.313782 0.000000
0.976129 0.323120 0.000000
0.995067 0.313933 0.000000
1.000000 0.333198 0.000000
1.000000 0.347759 0.000000
1.000000 0.365860 0.111539
1.000000 0.391829 0.160877
1.000000 0.422358 0.207752
1.000000 0.456061 0.251018
1.000000 0.491586 0.291776
0.000000 0.460890 0.000000
0.000000 0.477782 0.000000
0.000000 0.507783 0.000000
0.000000 0.522388 0.000000
0.000000 0.530393 0.000000
0.000000 0.534135 0.000000
0.000000 0.547469 0.000000
0.000000 0.550445 0.000000
0.000000 0.552231 0.000000
0.240002 0.552468 0.000000
0.402401 0.550898 0.000000
0.531055 0.554319 0.000000
0.611130 0.544724 0.000000
0.663621 0.525619 0.000000
0.711648 0.509605 0.000000
0.756404 0.493431 0.000000
0.804181 0.476829 0.000000
0.843599 0.457340 0.000000
0.874157 0.431436 0.000000
0.900151 0.408981 0.000000
0.921753 0.397157 0.000000
0.947053 0.381635 0.000000
0.971499 0.351418 0.000000
0.979649 0.358750 0.000000
0.976368 0.390761 0.000000
0.997117 0.379667 0.000000
1.000000 0.376687 0.000000
1.000000 0.395640 0.000000
1.000000 0.398543 0.087044
1.000000 0.420708 0.149380
1.000000 0.450873 0.201336
1.000000 0.483553 0.246727
1.000000 0.515665 0.288587
0.000000 0.494434 0.000000
0.000000 0.521856 0.000000
0.000000 0.544394 0.000000
0.000000 0.562886 0.000000
0.000000 0.567008 0.000000
0.000000 0.573828 0.000000
0.000000 0.586332 0.000000
0.000000 0.588988 0.000000
0.000000 0.590829 0.000000
0.101496 0.588308 0.000000
0.359342 0.587268 0.000000
0.503980 0.591279 0.000000
0.585630 0.588868 0.000000
0.660922 0.579244 0.000000
0.708884 0.560168 0.000000
0.760450 0.543885 0.000000
0.805783 0.531175 0.000000
0.843296 0.512094 0.000000
0.876575 0.493381 0.000000
0.901509 0.478603 0.000000
0.924516 0.467508 0.000000
0.953094 0.449564 0.000000
0.977157 0.417446 0.000000
0.996852 0.399680 0.000000
0.987235 0.439321 0.000000
0.991952 0.460304 0.000000
1.000000 0.447838 0.000000
1.000000 0.441632 0.000000
1.000000 0.445173 0.038112
1.000000 0.459377 0.127622
1.000000 0.481829 0.189587
1.000000 0.518020 0.239896
1.000000 0.538926 0.282514
0.000000 0.536241 0.000000
0.000000 0.571734 0.000000
0.000000 0.589833 0.000000
0.000000 0.604158 0.000000
0.000000 0.607699 0.000000
0.000000 0.613876 0.000000
0.000000 0.622613 0.000000
0.000000 0.627951 0.000000
0.000000 0.629845 0.000000
0.000000 0.630800 0.000000
0.289469 0.630332 0.000000
0.467697 0.628313 0.000000
0.564397 0.626064 0.000000
0.645207 0.623425 0.000000
0.709606 0.617452 0.000000
0.761356 0.594752 0.000000
0.809884 0.571955 0.000000
0.850570 0.556378 0.000000
0.880921 0.538041 0.000000
0.904954 0.527063 0.000000
0.926984 0.516389 0.000000
0.950465 0.498977 0.000000
0.974481 0.485347 0.000000
0.993767 0.468341 0.000000
1.000000 0.458476 0.000000
0.995935 0.502211 0.000000
1.000000 0.511471 0.000000
1.000000 0.511426 0.000000
1.000000 0.504850 0.000000
1.000000 0.504853 0.104226
1.000000 0.519669 0.173958
1.000000 0.541751 0.229513
1.000000 0.559262 0.277046
0.000000 0.589297 0.000000
0.000000 0.616721 0.000000
0.000000 0.635524 0.000000
0.000000 0.642375 0.000000
0.000000 0.645405 0.000000
0.000000 0.654168 0.000000
0.000000 0.659070 0.000000
0.000000 0.664286 0.000000
0.000000 0.665785 0.000000
0.000000 0.666802 0.000000
0.214093 0.666658 0.000000
0.419434 0.665265 0.000000
0.535348 0.663238 0.000000
0.624991 0.660829 0.000000
0.698745 0.661594 0.000000
0.754072 0.649286 0.000000
0.809651 0.623192 0.000000
0.848961 0.604519 0.000000
0.879647 0.589784 0.000000
0.902251 0.572083 0.000000
0.926224 0.561603 0.000000
0.948553 0.551446 0.000000
0.970529 0.534609 0.000000
0.993132 0.518176 0.000000
1.000000 0.508756 0.000000
1.000000 0.522981 0.000000
1.000000 0.552997 0.000000
1.000000 0.560392 0.000000
1.000000 0.559490 0.000000
1.000000 0.553272 0.041818
1.000000 0.550648 0.152238
1.000000 0.565466 0.220833
1.000000 0.586489 0.269186
0.000000 0.648720 0.000000
0.000000 0.663402 0.000000
0.000000 0.677996 0.000000
0.000000 0.680944 0.000000
0.000000 0.686390 0.000000
0.000000 0.690962 0.000000
0.000000 0.692547 0.000000
0.000000 0.694244 0.000000
0.000000 0.695505 0.000000
0.000000 0.696278 0.000000
0.000000 0.696293 0.000000
0.353208 0.695414 0.000000
0.491487 0.700122 0.000000
0.592656 0.697918 0.000000
0.680773 0.695235 0.000000
0.748549 0.689529 0.000000
0.801307 0.667682 0.000000
0.843866 0.655993 0.000000
0.871392 0.648371 0.000000
0.897653 0.630758 0.000000
0.920984 0.613474 0.000000
0.943319 0.603437 0.000000
0.968273 0.590467 0.000000
0.987359 0.570667 0.000000
1.000000 0.558083 0.000000
1.000000 0.549561 0.000000
1.000000 0.586687 0.000000
1.000000 0.610310 0.000000
1.000000 0.604862 0.000000
1.000000 0.607310 0.000000
1.000000 0.597784 0.124392
1.000000 0.595633 0.202591
1.000000 0.609743 0.260850
0.000000 0.691057 0.000000
0.000000 0.706542 0.000000
0.000000 0.710097 0.000000
0.000000 0.715526 0.000000
0.000000 0.720043 0.000000
0.000000 0.724267 0.000000
0.000000 0.725570 0.000000
0.000000 0.726672 0.000000
0.000000 0.727469 0.000000
0.000000 0.728010 0.000000
0.000000 0.727971 0.000000
0.298532 0.727207 0.000000
0.453328 0.728685 0.000000
0.559875 0.729681 0.000000
0.652351 0.727172 0.000000
0.731050 0.724496 0.000000
0.797508 0.712941 0.000000
0.834206 0.702330 0.000000
0.865311 0.695068 0.000000
0.891524 0.681634 0.000000
0.915819 0.664892 0.000000
0.940420 0.655047 0.000000
0.962587 0.645610 0.000000
0.980268 0.632933 0.000000
0.998101 0.613697 0.000000
1.000000 0.601639 0.000000
1.000000 0.589718 0.000000
1.000000 0.638391 0.000000
1.000000 0.657468 0.000000
1.000000 0.652593 0.000000
1.000000 0.653934 0.008529
1.000000 0.641596 0.176544
1.000000 0.639411 0.251602
0.000000 0.740120 0.000000
0.000000 0.744313 0.000000
0.000000 0.749514 0.000000
0.000000 0.753754 0.000000
0.000000 0.754589 0.000000
0.000000 0.755559 0.000000
0.000000 0.756287 0.000000
0.000000 0.759765 0.000000
0.000000 0.765934 0.000000
0.000000 0.766200 0.000000
0.000000 0.766074 0.000000
0.191434 0.765384 0.000000
0.403277 0.763892 0.000000
0.521540 0.764715 0.000000
0.621484 0.759567 0.000000
0.708856 0.756798 0.000000
0.782434 0.754163 0.000000
0.826834 0.744256 0.000000
0.851779 0.740624 0.000000
0.886691 0.728189 0.000000
0.914375 0.709850 0.000000
0.936899 0.700664 0.000000
0.957052 0.691766 0.000000
0.976822 0.683278 0.000000
0.993330 0.668395 0.000000
1.000000 0.656846 0.000000
1.000000 0.651905 0.000000
1.000000 0.643588 0.000000
1.000000 0.692775 0.000000
1.000000 0.704443 0.000000
1.000000 0.696074 0.000000
1.000000 0.700482 0.133518
1.000000 0.686305 0.227419
0.000000 0.772905 0.000000
0.000000 0.777944 0.000000
0.000000 0.781971 0.000000
0.000000 0.785558 0.000000
0.000000 0.786254 0.000000
0.000000 0.786663 0.000000
0.000000 0.787103 0.000000
0.000000 0.787478 0.000000
0.000000 0.790328 0.000000
0.000000 0.792929 0.000000
0.000000 0.792616 0.000000
0.140808 0.791839 0.000000
0.363240 0.788026 0.000000
0.492991 0.788652 0.000000
0.591255 0.786444 0.000000
0.687830 0.783548 0.000000
0.760370 0.781012 0.000000
0.820498 0.778816 0.000000
0.849130 0.772844 0.000000
0.878296 0.764280 0.000000
0.907373 0.753041 0.000000
0.931668 0.739092 0.000000
0.954565 0.733729 0.000000
0.971962 0.719996 0.000000
0.987289 0.709186 0.000000
1.000000 0.701489 0.000000
1.000000 0.697185 0.000000
1.000000 0.689923 0.000000
1.000000 0.695987 0.000000
1.000000 0.729872 0.000000
1.000000 0.741013 0.000000
1.000000 0.738303 0.000000
1.000000 0.738807 0.198741
0.000000 0.804245 0.000000
0.000000 0.807905 0.000000
0.000000 0.813472 0.000000
0.000000 0.813976 0.000000
0.000000 0.814323 0.000000
0.000000 0.814547 0.000000
0.000000 0.814766 0.000000
0.000000 0.814897 0.000000
0.000000 0.817211 0.000000
0.000000 0.816989 0.000000
0.000000 0.816504 0.000000
0.109746 0.815677 0.000000
0.340303 0.814419 0.000000
0.461847 0.812761 0.000000
0.547521 0.813212 0.000000
0.651241 0.810340 0.000000
0.741391 0.807271 0.000000
0.803825 0.804948 0.000000
0.846178 0.803393 0.000000
0.873471 0.793599 0.000000
0.901217 0.781129 0.000000
0.928310 0.773339 0.000000
0.948290 0.765815 0.000000
0.965866 0.758505 0.000000
0.981385 0.746075 0.000000
0.994689 0.738976 0.000000
1.000000 0.734893 0.000000
1.000000 0.725370 0.000000
1.000000 0.713092 0.000000
1.000000 0.739679 0.000000
1.000000 0.770724 0.000000
1.000000 0.770657 0.000000
1.000000 0.772136 0.141812
0.000000 0.829030 0.000000
0.000000 0.834038 0.000000
0.000000 0.836476 0.000000
0.000000 0.836677 0.000000
0.000000 0.836834 0.000000
0.000000 0.836899 0.000000
0.000000 0.836906 0.000000
0.000000 0.836809 0.000000
0.000000 0.838645 0.000000
0.000000 0.836172 0.000000
0.000000 0.835500 0.000000
0.139262 0.834745 0.000000
0.325128 0.833622 0.000000
0.446206 0.832009 0.000000
0.534234 0.834260 0.000000
0.625211 0.831847 0.000000
0.715463 0.828909 0.000000
0.788459 0.826240 0.000000
0.835132 0.824508 0.000000
0.870965 0.821210 0.000000
0.895468 0.812243 0.000000
0.921429 0.803147 0.000000
0.943299 0.796370 0.000000
0.959235 0.789783 0.000000
0.974657 0.778684 0.000000
0.989626 0.769901 0.000000
1.000000 0.765956 0.000000
1.000000 0.759865 0.000000
1.000000 0.748906 0.000000
1.000000 0.740587 0.000000
1.000000 0.779742 0.000000
1.000000 0.796979 0.000000
1.000000 0.798012 0.000000
0.000000 0.854507 0.000000
0.000000 0.854751 0.000000
0.000000 0.854893 0.000000
0.000000 0.854919 0.000000
0.000000 0.854897 0.000000
0.000000 0.854815 0.000000
0.000000 0.856571 0.000000
0.000000 0.856333 0.000000
0.000000 0.857868 0.000000
0.000000 0.857401 0.000000
0.000000 0.856824 0.000000
0.159403 0.856051 0.000000
0.306320 0.855133 0.000000
0.428029 0.853601 0.000000
0.522995 0.851778 0.000000
0.610724 0.849525 0.000000
0.703158 0.846599 0.000000
0.774095 0.844047 0.000000
0.825114 0.842149 0.000000
0.860124 0.842682 0.000000
