Assets/Lutify-Free-LUTs-Pack/Lutify Free LUTs Pack/Film Tone Pro - Film Tone 3/Lutify.me-FilmTone3-ACEScct-to-ACEScct.cube
# Created with: fylm.ai - Colour Grading and Collaboration Software in Cloud 
# Website: https://fylm.ai 
# META
# Option: Gamut compress
# Block 1: subtractiveColour | Blending Mode: Normal | {"sliders":{"gainY":0.6,"C":0.3,"M":0.3,"Y":0.3}}
# Block 2: LUT | Filmic Curve Response: Low Contrast 2 (100%)
# Block 3: logPrimaries | Blending Mode: Normal | {"wheels":{"shadows":{"Y":"0","R":"1","G":"1","B":"1"},"midtones":{"Y":"0","R":"1","G":"1","B":"1"},"highlights":{"Y":"0","R":"1","G":"1","B":"1"},"offset":{"Y":"0","R":"1","G":"1","B":"1"}},"sliders":{"shadows":{"Y":0,"R":-0.026,"G":0.03,"B":0.1},"midtones":{"Y":0,"R":0.024,"G":-0.036,"B":0.036},"highlights":{"Y":0,"R":0,"G":0.044,"B":-0.128},"offset":{"Y":0,"R":0,"G":0,"B":0}}}
# Block 4: hueSaturation | Blending Mode: Normal | {"hue":0,"saturation":-0.1}
TITLE "Lutify.me-FilmTone3-ACEScct-to-ACEScct" 
LUT_3D_SIZE 33
0.033790 0.046106 0.062822
0.039264 0.046302 0.063017
0.049886 0.056044 0.071000
0.062854 0.060215 0.073412
0.079016 0.057902 0.069339
0.098892 0.055784 0.067221
0.124308 0.054806 0.066243
0.157087 0.054154 0.067351
0.191724 0.054480 0.068557
0.227305 0.055751 0.069827
0.265624 0.057120 0.071196
0.303161 0.062105 0.072662
0.335321 0.069632 0.074031
0.365037 0.085272 0.075595
0.397198 0.110394 0.085761
0.424503 0.145617 0.103389
0.454904 0.183056 0.129391
0.481101 0.229488 0.156468
0.505735 0.269958 0.196937
0.533920 0.307820 0.237439
0.558390 0.342848 0.278625
0.586413 0.380547 0.314565
0.610687 0.410101 0.355556
0.638221 0.438514 0.386608
0.666569 0.466862 0.414956
0.695601 0.490616 0.441349
0.727403 0.518019 0.465233
0.760085 0.542783 0.490876
0.791691 0.567351 0.511926
0.829521 0.589345 0.531281
0.865852 0.618638 0.552656
0.904008 0.645357 0.576735
0.945683 0.672955 0.596416
0.034018 0.052493 0.063050
0.041284 0.051841 0.063278
0.049951 0.057869 0.071065
0.062887 0.061127 0.073444
0.079961 0.058847 0.069404
0.098957 0.057608 0.067286
0.125285 0.056663 0.066341
0.157185 0.056891 0.067449
0.193614 0.056370 0.068687
0.229228 0.058553 0.069990
0.266667 0.060802 0.071359
0.304203 0.065787 0.072825
0.338221 0.074291 0.074291
0.367025 0.089899 0.075823
0.399185 0.115021 0.085989
0.426491 0.150244 0.103617
0.455099 0.187651 0.130466
0.481264 0.233170 0.157511
0.506712 0.271815 0.197035
0.534050 0.309710 0.239329
0.559335 0.343793 0.278690
0.586413 0.380547 0.314565
0.610687 0.410101 0.355556
0.638221 0.438514 0.386608
0.666634 0.468687 0.415021
0.695601 0.490616 0.441349
0.727403 0.518019 0.465233
0.760085 0.542783 0.490876
0.791691 0.567351 0.511926
0.829521 0.589345 0.531281
0.865852 0.618638 0.552656
0.904008 0.645357 0.576735
0.945683 0.672955 0.596416
0.043760 0.062235 0.071913
0.044673 0.062268 0.071945
0.051059 0.062496 0.072173
0.062985 0.063864 0.073542
0.080059 0.061584 0.069501
0.100880 0.060411 0.067449
0.127208 0.059466 0.066504
0.159107 0.059694 0.067612
0.195569 0.060085 0.068882
0.231183 0.062268 0.070186
0.272271 0.064646 0.071685
0.306191 0.070414 0.073053
0.340241 0.079831 0.074552
0.368166 0.096318 0.076083
0.400358 0.121473 0.087162
0.426719 0.156631 0.103845
0.455230 0.191300 0.130596
0.481329 0.234995 0.157576
0.506777 0.273640 0.197100
0.534115 0.311535 0.239394
0.559335 0.343793 0.278690
0.586445 0.381460 0.314598
0.610687 0.410101 0.355556
0.638221 0.438514 0.386608
0.666634 0.468687 0.415021
0.695601 0.490616 0.441349
0.727403 0.518019 0.465233
0.760085 0.542783 0.490876
0.791691 0.567351 0.511926
0.829521 0.589345 0.531281
0.865852 0.618638 0.552656
0.904008 0.645357 0.576735
0.945683 0.672955 0.596416
0.047996 0.074389 0.077028
0.050733 0.075367 0.076246
0.053470 0.075464 0.076344
0.065298 0.074976 0.076735
0.082307 0.071750 0.071750
0.102998 0.068687 0.067807
0.129293 0.066830 0.066830
0.162007 0.064353 0.067872
0.196676 0.065591 0.069110
0.234083 0.066927 0.070446
0.276116 0.070251 0.072010
0.308276 0.077778 0.073379
0.341382 0.086250 0.074813
0.370283 0.103715 0.077322
0.400554 0.126947 0.087357
0.427892 0.163082 0.105018
0.456338 0.196807 0.130824
0.481525 0.238710 0.159531
0.506940 0.275562 0.199902
0.535028 0.311567 0.239427
0.559400 0.345617 0.278755
0.586510 0.381525 0.316422
0.610753 0.411926 0.355621
0.638221 0.438514 0.386608
0.666634 0.468687 0.415021
0.695601 0.490616 0.441349
0.727403 0.518019 0.465233
0.760085 0.542783 0.490876
0.791691 0.567351 0.511926
0.829521 0.589345 0.531281
0.865852 0.618638 0.552656
0.904008 0.645357 0.576735
0.945683 0.672955 0.596416
0.045813 0.091561 0.075725
0.047605 0.091593 0.074878
0.051287 0.092636 0.075041
0.063148 0.093939 0.074585
0.086836 0.094754 0.074519
0.106517 0.088042 0.071326
0.137211 0.083545 0.068589
0.168068 0.080971 0.068654
0.202639 0.079472 0.069795
0.238091 0.077094 0.070935
0.278234 0.078527 0.072369
0.309417 0.084197 0.073640
0.343467 0.093614 0.075138
0.371489 0.111079 0.078527
0.401792 0.135223 0.088596
0.428120 0.169469 0.105246
0.456566 0.202313 0.131932
0.483415 0.240600 0.159661
0.506973 0.276474 0.199935
0.535060 0.312480 0.239459
0.559400 0.345617 0.278755
0.586510 0.381525 0.316422
0.610753 0.411926 0.355621
0.638221 0.438514 0.386608
0.666634 0.468687 0.415021
0.695601 0.490616 0.441349
0.727403 0.518019 0.465233
0.760085 0.542783 0.490876
0.791691 0.567351 0.511926
0.829521 0.589345 0.531281
0.865852 0.618638 0.552656
0.904008 0.645357 0.576735
0.945683 0.672955 0.596416
0.044542 0.108765 0.074454
0.047279 0.109743 0.073672
0.050081 0.111665 0.073835
0.061975 0.113001 0.074291
0.084751 0.114663 0.073314
0.115705 0.114826 0.073477
0.142750 0.110199 0.070609
0.178006 0.104106 0.069795
0.212480 0.099870 0.070837
0.246921 0.094721 0.071848
0.283219 0.090551 0.072955
0.312512 0.094330 0.074096
0.345617 0.102802 0.075529
0.371717 0.117465 0.078755
0.402053 0.142522 0.088856
0.428315 0.174063 0.106321
0.456696 0.205963 0.132063
0.483610 0.244314 0.161616
0.507038 0.278299 0.200000
0.535125 0.314304 0.239524
0.559433 0.346530 0.278788
0.586575 0.383350 0.316487
0.611665 0.411958 0.355653
0.638351 0.440404 0.388498
0.666634 0.468687 0.415021
0.695601 0.490616 0.441349
0.727403 0.518019 0.465233
0.760085 0.542783 0.490876
0.791691 0.567351 0.511926
0.829521 0.589345 0.531281
0.865852 0.618638 0.552656
0.904008 0.645357 0.576735
0.945683 0.672955 0.596416
0.044444 0.133301 0.073477
0.047247 0.135223 0.073640
0.050896 0.136233 0.072890
0.060150 0.140209 0.073346
0.082079 0.143662 0.072401
0.110459 0.147410 0.073509
0.150342 0.143304 0.072923
0.186347 0.133561 0.071098
0.220723 0.126588 0.072043
0.253275 0.119550 0.072923
0.289573 0.115380 0.074031
0.319518 0.111893 0.074943
0.348778 0.114761 0.076051
0.374780 0.126686 0.079179
0.403356 0.152623 0.090160
0.429456 0.180482 0.106582
0.456891 0.211437 0.132258
0.483741 0.247964 0.161746
0.507103 0.280124 0.200065
0.535256 0.316194 0.241414
0.559531 0.347507 0.280645
0.586575 0.383350 0.316487
0.611665 0.411958 0.355653
0.638351 0.440404 0.388498
0.666634 0.468687 0.415021
0.695601 0.490616 0.441349
0.727403 0.518019 0.465233
0.760085 0.542783 0.490876
0.791691 0.567351 0.511926
0.829521 0.589345 0.531281
0.865852 0.618638 0.552656
0.904008 0.645357 0.576735
0.945683 0.672955 0.596416
0.044640 0.165168 0.073672
0.047410 0.166178 0.073803
0.051971 0.167221 0.073086
0.060248 0.170218 0.072564
0.078527 0.172662 0.072369
0.105995 0.177256 0.072564
0.148941 0.180613 0.074161
0.194233 0.174878 0.073705
0.233138 0.168035 0.073900
0.263799 0.159107 0.074650
0.298208 0.153047 0.075627
0.325415 0.149462 0.076442
0.353307 0.139524 0.077061
0.379179 0.146921 0.080938
0.405637 0.164581 0.091561
0.431574 0.187879 0.107820
0.458097 0.218801 0.133464
0.483904 0.250766 0.163669
0.508146 0.283806 0.200228
0.535288 0.317107 0.241447
0.559596 0.349332 0.280710
0.586608 0.384262 0.316520
0.611698 0.412871 0.355686
0.638351 0.440404 0.388498
0.666634 0.468687 0.415021
0.695601 0.490616 0.441349
0.727403 0.518019 0.465233
0.760085 0.542783 0.490876
0.791691 0.567351 0.511926
0.829521 0.589345 0.531281
0.865852 0.618638 0.552656
0.904008 0.645357 0.576735
0.945683 0.672955 0.596416
0.044998 0.200717 0.074910
0.048615 0.200815 0.074128
0.053210 0.202770 0.073444
0.062333 0.203095 0.073770
0.077061 0.209026 0.072662
0.102639 0.211730 0.072727
0.142001 0.216781 0.074259
0.194070 0.220463 0.076181
0.239231 0.211079 0.075595
0.271880 0.206777 0.076572
0.306028 0.193418 0.077289
0.332291 0.188889 0.078038
0.358423 0.180710 0.078658
0.383773 0.173509 0.082014
0.409840 0.180222 0.092245
0.433073 0.202574 0.110199
0.460280 0.228022 0.134767
0.485044 0.257185 0.163930
0.508374 0.288433 0.202216
0.535419 0.319876 0.242457
0.560541 0.350277 0.280776
0.586641 0.385174 0.316553
0.611730 0.412903 0.356598
0.638351 0.440404 0.388498
0.666667 0.469599 0.415054
0.695601 0.490616 0.441349
0.727403 0.518019 0.465233
0.760085 0.542783 0.490876
0.791691 0.567351 0.511926
0.829521 0.589345 0.531281
0.865852 0.618638 0.552656
0.904008 0.645357 0.576735
0.945683 0.672955 0.596416
0.046204 0.234474 0.076116
0.049821 0.234572 0.075334
0.054350 0.234702 0.074585
0.064418 0.235973 0.074976
0.077289 0.240046 0.074650
0.101988 0.244510 0.073835
0.134018 0.248387 0.075073
0.185142 0.251124 0.076931
0.244412 0.253210 0.078136
0.278853 0.248941 0.078267
0.314956 0.239296 0.079179
0.342001 0.231150 0.079831
0.365526 0.226523 0.080482
0.390062 0.220267 0.085663
0.413685 0.210459 0.094330
0.435647 0.222744 0.111893
0.462724 0.244542 0.136331
0.486315 0.266373 0.165200
0.508667 0.295764 0.203389
0.536559 0.324536 0.244477
0.560769 0.354904 0.282763
0.586738 0.387032 0.317530
0.611763 0.413816 0.356631
0.638351 0.440404 0.388498
0.666667 0.469599 0.415054
0.695666 0.492441 0.441414
0.727436 0.518931 0.465266
0.760117 0.543695 0.490909
0.791691 0.567351 0.511926
0.829554 0.590257 0.531313
0.865852 0.618638 0.552656
0.904008 0.645357 0.576735
0.945683 0.672955 0.596416
0.047475 0.270055 0.077387
0.051092 0.270153 0.076605
0.057445 0.270349 0.075920
0.067546 0.272532 0.076344
0.077680 0.276507 0.075920
0.098794 0.281786 0.075920
0.132584 0.283904 0.077159
0.175595 0.289964 0.077941
0.234050 0.293874 0.080091
0.282372 0.295569 0.080906
0.321212 0.286901 0.081036
0.350081 0.278820 0.081753
0.374552 0.273379 0.084229
0.398208 0.268003 0.089410
0.421017 0.259140 0.099902
0.442392 0.257641 0.114239
0.467155 0.264809 0.139003
0.487781 0.280156 0.167546
0.510003 0.304138 0.207364
0.536820 0.330075 0.246497
0.561812 0.358586 0.282926
0.587748 0.389801 0.317660
0.611861 0.416553 0.356729
0.638384 0.441316 0.388530
0.667677 0.470609 0.416944
0.695732 0.492506 0.443239
0.727436 0.518931 0.465266
0.760117 0.543695 0.490909
0.791691 0.567351 0.511926
0.829619 0.590323 0.533138
0.865852 0.618638 0.552656
0.904008 0.645357 0.576735
0.945683 0.672955 0.596416
0.051320 0.300293 0.079472
0.055947 0.302281 0.079700
0.064158 0.302574 0.079993
0.071456 0.303715 0.079374
0.083415 0.307755 0.079016
0.102672 0.311176 0.079798
0.128218 0.312968 0.079831
0.170283 0.318084 0.080547
0.216878 0.322450 0.081395
0.271587 0.324373 0.082437
0.325481 0.328120 0.084425
0.356044 0.318214 0.083317
0.379668 0.314565 0.085826
0.404301 0.310166 0.091984
0.427240 0.304073 0.103486
0.447703 0.299022 0.121310
0.470251 0.296937 0.143858
0.491430 0.301401 0.172955
0.513294 0.317107 0.210655
0.538970 0.337504 0.248648
0.563082 0.366895 0.285077
0.587911 0.392603 0.319583
0.611991 0.419322 0.357739
0.639394 0.444086 0.388661
0.667709 0.471522 0.416976
0.695764 0.493418 0.443271
0.727436 0.518931 0.465266
0.760117 0.543695 0.490909
0.791691 0.567351 0.511926
0.829619 0.590323 0.533138
0.865885 0.619550 0.552688
0.904008 0.645357 0.576735
0.945683 0.672955 0.596416
0.055327 0.330694 0.086119
0.063636 0.333724 0.086510
0.071848 0.334897 0.085924
0.080938 0.335191 0.085337
0.095569 0.337504 0.085011
0.109319 0.339818 0.085565
0.129488 0.343271 0.086380
0.162366 0.347116 0.085826
0.208961 0.350603 0.087553
0.260085 0.355099 0.087651
0.318475 0.357185 0.089736
0.358651 0.360411 0.090323
0.388270 0.350440 0.088270
0.409286 0.346823 0.094330
0.433170 0.341675 0.105898
0.453666 0.336657 0.124633
0.474487 0.333724 0.150733
0.496188 0.328152 0.178592
0.515868 0.332877 0.216748
0.540437 0.348648 0.253633
0.564386 0.374356 0.289019
0.589964 0.397296 0.321636
0.613066 0.422157 0.359694
0.639492 0.445943 0.389638
0.667742 0.472434 0.417009
0.695797 0.494330 0.443304
0.727468 0.519844 0.465298
0.760117 0.543695 0.490909
0.791724 0.568263 0.511958
0.829619 0.590323 0.533138
0.865885 0.619550 0.552688
0.904008 0.645357 0.576735
0.945683 0.672955 0.596416
0.067807 0.361649 0.100358
0.075138 0.362822 0.100652
0.085174 0.364940 0.099251
0.098827 0.365396 0.098827
0.110655 0.365787 0.098338
0.125318 0.368133 0.098925
0.141773 0.370512 0.098664
0.166373 0.372238 0.097752
0.203812 0.374487 0.099120
0.249462 0.378788 0.099022
0.300587 0.382405 0.100000
0.347149 0.385859 0.100815
0.389997 0.389117 0.099674
0.414207 0.380775 0.097491
0.438188 0.377485 0.110036
0.459726 0.374389 0.130694
0.479700 0.371489 0.158586
0.500652 0.367807 0.189215
0.519844 0.363245 0.222483
0.544053 0.368980 0.259009
0.567612 0.385500 0.292245
0.590290 0.403780 0.324601
0.613294 0.426784 0.361681
0.640567 0.449658 0.390714
0.667840 0.474291 0.417986
0.695829 0.495243 0.443337
0.728446 0.520821 0.466276
0.760150 0.544607 0.490942
0.791756 0.568296 0.512871
0.829619 0.590323 0.533138
0.865885 0.619550 0.552688
0.904008 0.645357 0.576735
0.945683 0.672955 0.596416
0.087064 0.393223 0.125774
0.099772 0.393614 0.124405
0.110720 0.394005 0.124796
0.120723 0.395210 0.123363
0.132616 0.397426 0.122939
0.145389 0.398762 0.122515
0.158130 0.400065 0.121180
0.175432 0.401531 0.120007
0.203747 0.405213 0.119290
0.242946 0.407462 0.118899
0.292245 0.411893 0.118931
0.335940 0.414239 0.116878
0.377876 0.415705 0.117465
0.416292 0.420691 0.118051
0.444086 0.413294 0.113294
0.464842 0.410296 0.137569
0.484946 0.407527 0.169110
0.504888 0.404594 0.196090
0.525155 0.400228 0.233952
0.546888 0.392050 0.265363
0.569176 0.399381 0.297328
0.591756 0.414923 0.329586
0.614467 0.433236 0.362854
0.641675 0.454285 0.391821
0.667970 0.477061 0.418996
0.697752 0.498045 0.443500
0.728544 0.523558 0.466373
0.760182 0.545520 0.490974
0.791789 0.569208 0.512903
0.829684 0.592147 0.533203
0.865885 0.619550 0.552688
0.904073 0.647181 0.576800
0.945683 0.672955 0.596416
0.119453 0.421212 0.166080
0.129423 0.421505 0.164614
0.141251 0.421896 0.164125
0.152199 0.422287 0.164516
0.163082 0.422613 0.163082
0.172271 0.424764 0.163473
0.181329 0.425024 0.161975
0.197687 0.426426 0.159857
0.217726 0.429749 0.157022
0.246921 0.432551 0.156305
0.284197 0.437276 0.150472
0.326165 0.438775 0.151971
0.367221 0.443760 0.149919
0.404562 0.445911 0.148550
0.443695 0.447214 0.147214
0.468752 0.439720 0.142359
0.488889 0.436983 0.174813
0.509971 0.434311 0.208211
0.531118 0.431704 0.243434
0.552167 0.428120 0.276800
0.572076 0.423395 0.304627
0.594265 0.428869 0.335614
0.616781 0.442587 0.367807
0.642880 0.462529 0.392147
0.669990 0.480841 0.421017
0.697849 0.500782 0.443597
0.728641 0.525415 0.467351
0.760248 0.547344 0.491039
0.793646 0.570186 0.513001
0.829684 0.592147 0.533203
0.865917 0.620463 0.552721
0.904073 0.647181 0.576800
0.945715 0.673868 0.596448
0.164190 0.450994 0.219616
0.173216 0.451222 0.217204
0.180515 0.451483 0.217465
0.187748 0.451678 0.215901
0.194982 0.451874 0.214337
0.202281 0.452134 0.214598
0.212284 0.453340 0.213164
0.222255 0.453633 0.211698
0.238612 0.455034 0.209580
0.261453 0.458521 0.208667
0.286934 0.461127 0.205995
0.319681 0.463962 0.202672
0.360639 0.465331 0.201401
0.394265 0.469045 0.196318
0.436168 0.471359 0.195112
0.470837 0.472597 0.196351
0.493842 0.467449 0.182405
0.513946 0.464679 0.213946
0.536266 0.464125 0.254741
0.556305 0.461290 0.284458
0.577126 0.454839 0.314076
0.597002 0.450961 0.340111
0.618410 0.458293 0.372955
0.645096 0.470903 0.395243
0.671131 0.486380 0.422157
0.698045 0.505376 0.444673
0.728739 0.528152 0.467449
0.760313 0.549169 0.491105
0.793679 0.571098 0.513034
0.829717 0.593060 0.533236
0.865917 0.620463 0.552721
0.904073 0.647181 0.576800
0.945748 0.673900 0.597361
0.211339 0.478788 0.265885
0.216813 0.478983 0.266080
0.221310 0.479081 0.264418
0.226784 0.479277 0.264614
0.232193 0.479407 0.262985
0.237667 0.479602 0.263180
0.244901 0.479798 0.261616
0.253047 0.480026 0.260085
0.264842 0.480384 0.258684
0.278592 0.482698 0.259238
0.298664 0.485174 0.258195
0.324079 0.487716 0.253698
0.355979 0.490583 0.252167
0.391365 0.492538 0.247084
0.426914 0.497296 0.243923
0.462398 0.499348 0.241577
0.495145 0.500424 0.240013
0.518899 0.493385 0.223297
0.540274 0.492766 0.263148
0.560443 0.489182 0.297393
0.581199 0.485305 0.322548
0.602020 0.480613 0.350407
0.621114 0.479472 0.377419
0.646497 0.482861 0.397524
0.672434 0.496481 0.423460
0.699283 0.512773 0.446790
0.730727 0.531900 0.468557
0.761323 0.551939 0.491235
0.793744 0.572923 0.513099
0.829782 0.594884 0.533301
0.865950 0.621375 0.552753
0.904106 0.648094 0.576833
0.945748 0.673900 0.597361
0.255588 0.504562 0.309254
0.261062 0.504757 0.309449
0.264646 0.504822 0.307755
0.267384 0.504920 0.307853
0.271033 0.505050 0.307983
0.274650 0.505148 0.307201
0.277387 0.505246 0.307299
0.285533 0.505474 0.305767
0.291919 0.505702 0.305995
0.303780 0.507006 0.305539
0.318410 0.508439 0.306093
0.334800 0.509873 0.304888
0.358390 0.512349 0.300326
0.389280 0.515086 0.296025
0.425709 0.518084 0.293744
0.454871 0.521733 0.291235
0.487586 0.523656 0.287879
0.518475 0.524633 0.285337
0.544379 0.518866 0.276931
0.565200 0.515934 0.303030
0.585337 0.514076 0.334604
0.606028 0.511013 0.357054
0.626947 0.506419 0.387651
0.651059 0.502379 0.404725
0.673868 0.508472 0.426654
0.701531 0.522059 0.449919
0.730987 0.538319 0.469697
0.761486 0.555621 0.492278
0.793842 0.575660 0.513196
0.831672 0.596774 0.533431
0.867872 0.624177 0.552916
0.904138 0.649006 0.576865
0.945813 0.675725 0.597426
0.296025 0.530922 0.347051
0.299642 0.531020 0.346269
0.301466 0.531085 0.346334
0.304203 0.531183 0.346432
0.306028 0.531248 0.346497
0.309677 0.531378 0.346628
0.311502 0.531443 0.346693
0.316064 0.531606 0.346856
0.322450 0.531834 0.347084
0.329749 0.532095 0.347344
0.338905 0.533333 0.347703
0.352525 0.534637 0.345487
0.369762 0.536038 0.342489
0.391626 0.538547 0.340600
0.420723 0.541251 0.337146
0.451711 0.544966 0.334702
0.481753 0.547735 0.332193
0.511730 0.548680 0.329619
0.543532 0.551450 0.325350
0.569404 0.544770 0.316911
0.591235 0.542848 0.344901
0.611079 0.540697 0.368263
0.631867 0.535093 0.396090
0.656077 0.532910 0.414141
0.677550 0.529749 0.432975
0.702965 0.534050 0.453112
0.732258 0.546628 0.471848
0.763571 0.561225 0.494363
0.794917 0.579374 0.514272
0.831802 0.600424 0.533561
0.867970 0.626035 0.553894
0.904171 0.649918 0.576898
0.945846 0.676637 0.597458
0.336298 0.557120 0.380287
0.338123 0.557185 0.380352
0.339036 0.557217 0.380385
0.340860 0.557283 0.380450
0.342685 0.557348 0.380515
0.343597 0.557380 0.380547
0.345422 0.557445 0.380613
0.347247 0.557511 0.380678
0.350896 0.557641 0.380808
0.355458 0.557804 0.380971
0.363669 0.558097 0.381264
0.372760 0.558390 0.380678
0.386315 0.559629 0.376637
0.403584 0.561062 0.374552
0.421831 0.563473 0.373444
0.443728 0.566895 0.371587
0.475595 0.569730 0.369143
0.506517 0.572499 0.365754
0.535647 0.574356 0.364093
0.569208 0.575367 0.359824
0.594233 0.570479 0.351417
0.615086 0.567579 0.378429
0.635907 0.565526 0.403649
0.660932 0.561518 0.420756
0.682405 0.556598 0.441349
0.707494 0.553535 0.459400
0.735451 0.556859 0.475041
0.764842 0.569534 0.496514
0.795243 0.585859 0.517237
0.831997 0.605018 0.534637
0.868133 0.629717 0.554936
0.904334 0.652721 0.578820
0.945943 0.679374 0.597556
0.371750 0.581134 0.407820
0.373574 0.581199 0.407885
0.373574 0.581199 0.407885
0.374487 0.581232 0.407918
0.376344 0.582209 0.408016
0.377256 0.582242 0.408048
0.379081 0.582307 0.408113
0.379993 0.582340 0.408146
0.382731 0.582437 0.408244
0.385468 0.582535 0.408341
0.390062 0.583610 0.408537
0.398273 0.583904 0.408830
0.407364 0.585077 0.407364
0.417335 0.585370 0.405898
0.429130 0.585728 0.404497
0.447410 0.587292 0.405181
0.472923 0.591691 0.401662
0.502118 0.595373 0.400065
0.528413 0.597035 0.395569
0.562203 0.600033 0.395927
0.594005 0.601043 0.393418
0.616325 0.596090 0.385826
0.639850 0.592343 0.411991
0.663962 0.588302 0.429065
0.687260 0.585207 0.447964
0.712317 0.580352 0.466862
0.739068 0.577191 0.480417
0.767253 0.582502 0.500684
0.797393 0.594167 0.518508
0.833236 0.612414 0.536755
0.870121 0.633464 0.556044
0.906289 0.655556 0.579896
0.946953 0.681264 0.598566
0.407397 0.607103 0.439068
0.409221 0.607168 0.439133
0.409221 0.607168 0.439133
0.409221 0.607168 0.439133
0.410134 0.607201 0.439166
0.410134 0.607201 0.439166
0.411046 0.607234 0.439198
0.411046 0.607234 0.439198
0.412968 0.610036 0.439361
0.413881 0.610068 0.439394
0.416618 0.610166 0.439492
0.420235 0.610264 0.438710
0.425741 0.611372 0.438938
0.431215 0.612447 0.438254
0.442098 0.612773 0.436820
0.455718 0.613196 0.435484
0.476670 0.614793 0.434441
0.501369 0.619257 0.433627
0.525937 0.620951 0.431802
0.556859 0.623721 0.428413
0.586999 0.626588 0.428641
0.617823 0.627501 0.424275
0.642066 0.623591 0.418605
0.666178 0.619550 0.435679
0.692180 0.614761 0.455523
0.716325 0.610753 0.473509
0.743956 0.604073 0.489703
0.772662 0.601988 0.506093
0.800782 0.608993 0.522776
0.835549 0.622646 0.540828
0.870446 0.640828 0.558130
0.906484 0.661030 0.580091
0.947116 0.684946 0.599609
0.434669 0.636136 0.461942
0.435582 0.636168 0.461975
0.435582 0.636168 0.461975
0.435582 0.636168 0.461975
0.435582 0.636168 0.461975
0.436494 0.636201 0.462007
0.436494 0.636201 0.462007
0.436494 0.636201 0.462007
0.438384 0.638091 0.462138
0.439264 0.638091 0.461258
0.440176 0.638123 0.461290
0.442913 0.638221 0.461388
0.446628 0.640176 0.461584
0.449365 0.640274 0.461681
0.459400 0.641512 0.461160
0.471228 0.641903 0.460671
0.485761 0.642359 0.459368
0.501271 0.644673 0.458162
0.522353 0.649039 0.458130
0.553307 0.651841 0.455653
0.578820 0.654480 0.453894
0.609840 0.656468 0.454122
0.638970 0.657445 0.453340
0.671294 0.653698 0.444314
0.694591 0.648843 0.464972
0.721440 0.644901 0.482144
0.749951 0.639980 0.495699
0.777680 0.634278 0.513750
0.805409 0.632095 0.528283
0.837928 0.636461 0.543206
0.872597 0.649136 0.559400
0.907657 0.667481 0.581264
0.947410 0.692278 0.600782
0.461095 0.666080 0.485728
0.461095 0.666080 0.485728
0.462007 0.666113 0.485761
0.462007 0.666113 0.485761
0.462007 0.666113 0.485761
0.462007 0.666113 0.485761
0.462920 0.666145 0.485793
0.462920 0.666145 0.485793
0.463832 0.666178 0.485826
0.463832 0.666178 0.485826
0.466569 0.666276 0.485924
0.469306 0.666373 0.486021
0.472108 0.668296 0.486184
0.476670 0.668459 0.486347
0.482144 0.669534 0.485663
0.488530 0.669762 0.485891
0.497654 0.670968 0.485337
0.510362 0.671359 0.483969
0.525872 0.673672 0.482763
0.548648 0.676214 0.480906
0.575073 0.679765 0.478299
0.603421 0.682600 0.479374
0.632454 0.683480 0.475855
0.669013 0.686608 0.477224
0.699544 0.681069 0.470805
0.724666 0.678038 0.489769
0.753177 0.672239 0.504203
0.782665 0.668296 0.518736
0.810329 0.662529 0.534963
0.843434 0.657804 0.549593
0.875986 0.663962 0.563669
0.909971 0.678592 0.584457
0.949528 0.698794 0.602900
0.490257 0.696123 0.509612
0.490257 0.696123 0.509612
0.490257 0.696123 0.509612
0.490257 0.696123 0.509612
0.490257 0.696123 0.509612
0.490257 0.696123 0.509612
0.490257 0.696123 0.509612
0.491170 0.696155 0.509645
0.491170 0.696155 0.509645
0.492082 0.696188 0.509677
0.492115 0.697100 0.509710
0.493027 0.697133 0.509743
0.495699 0.697165 0.508016
0.497524 0.697230 0.508081
0.502151 0.699218 0.508309
0.506712 0.699381 0.508472
0.512186 0.700456 0.507788
0.521310 0.700782 0.508113
0.534083 0.702998 0.506810
0.550603 0.706321 0.507494
0.570609 0.707853 0.505507
0.598045 0.712415 0.504790
0.626263 0.715119 0.502216
0.660020 0.717204 0.502542
0.696448 0.718442 0.502020
0.729717 0.713001 0.495699
0.757445 0.709058 0.511991
0.785109 0.704171 0.527338
0.816357 0.698469 0.541870
0.847540 0.691821 0.555458
0.880678 0.688889 0.569241
