Assets/Lutify-Free-LUTs-Pack/Lutify Free LUTs Pack/Film Tone Pro - Film Tone 3/Lutify.me-FilmTone3-RWG-to-Rec709.cube
# Created with: fylm.ai - Colour Grading and Collaboration Software in Cloud 
# Website: https://fylm.ai 
# META
# Option: Gamut compress
# Block 1: IDT | RED REDWideGamutRGB Log3G10
# Block 2: colourMatch | Blending Mode: Normal | {"ColorSpace":0,"CrossCovarianceLimit":50,"ReshapingIterations":1,"PercentSaturationShift":100,"PercentShadingShift":100,"ExtraShading":true,"PercentTint":100,"PercentModified":100}
# Block 3: subtractiveColour | Blending Mode: Normal | {"sliders":{"gainY":0.6,"C":0.3,"M":0.3,"Y":0.3}}
# Block 4: LUT | Filmic Curve Response: Low Contrast 2 (100%)
# Block 5: logPrimaries | Blending Mode: Normal | {"wheels":{"shadows":{"Y":"0","R":"1","G":"1","B":"1"},"midtones":{"Y":"0","R":"1","G":"1","B":"1"},"highlights":{"Y":"0","R":"1","G":"1","B":"1"},"offset":{"Y":"0","R":"1","G":"1","B":"1"}},"sliders":{"shadows":{"Y":0,"R":-0.026,"G":0.03,"B":0.1},"midtones":{"Y":0,"R":0.024,"G":-0.036,"B":0.036},"highlights":{"Y":0,"R":0,"G":0.044,"B":-0.128},"offset":{"Y":0,"R":0,"G":0,"B":0}}}
# Block 6: hueSaturation | Blending Mode: Normal | {"hue":0,"saturation":-0.1}
# Block 7: ODT | Rec709
TITLE "Lutify.me-FilmTone3-RWG-to-Rec709" 
LUT_3D_SIZE 9
0.000000 0.000000 0.000000
0.028163 0.000000 0.000000
0.201360 0.000000 0.000000
0.450194 0.000000 0.000000
0.802580 0.000000 0.000000
1.000000 0.135437 0.051483
1.000000 0.605503 0.291656
1.000000 0.860644 0.640202
1.000000 0.962967 0.884500
0.000000 0.039673 0.000000
0.011010 0.045122 0.000000
0.231274 0.000000 0.000000
0.482049 0.000000 0.000000
0.803436 0.000000 0.000000
1.000000 0.155441 0.031299
1.000000 0.608430 0.289377
1.000000 0.861743 0.638263
1.000000 0.962967 0.884500
0.000000 0.180952 0.000000
0.000000 0.194687 0.000000
0.300866 0.186564 0.000000
0.578719 0.000000 0.000000
0.834614 0.000000 0.000000
1.000000 0.210248 0.000000
1.000000 0.617476 0.286637
1.000000 0.861743 0.638263
1.000000 0.962951 0.883909
0.000000 0.393972 0.000000
0.000000 0.412133 0.000000
0.000000 0.458784 0.000000
0.660369 0.407775 0.000000
0.921268 0.263889 0.000000
1.000000 0.334787 0.000000
1.000000 0.638167 0.263547
1.000000 0.865133 0.638938
1.000000 0.963302 0.883989
0.000000 0.693059 0.000000
0.000000 0.704144 0.000000
0.000000 0.722907 0.000000
0.432041 0.731986 0.000000
0.915172 0.678169 0.000000
1.000000 0.586314 0.000000
1.000000 0.710952 0.122309
1.000000 0.873238 0.630494
1.000000 0.964320 0.883062
0.000000 0.901188 0.000000
0.000000 0.902840 0.000000
0.000000 0.907353 0.000000
0.000000 0.904319 0.000000
0.812567 0.893210 0.000000
1.000000 0.857839 0.000000
1.000000 0.825292 0.232414
1.000000 0.896908 0.565560
1.000000 0.967992 0.881247
0.255394 0.988163 0.000000
0.268350 0.988048 0.000000
0.356246 0.988199 0.000000
0.508234 0.985384 0.000000
0.737965 0.980519 0.000000
0.957051 0.971335 0.215213
1.000000 0.952656 0.412650
1.000000 0.940227 0.703169
1.000000 0.978248 0.882578
0.807457 1.000000 0.574525
0.809220 1.000000 0.574745
0.812711 1.000000 0.575189
0.824548 1.000000 0.576774
0.856681 1.000000 0.581869
0.927313 1.000000 0.599049
1.000000 1.000000 0.686447
1.000000 0.995582 0.816249
1.000000 0.991951 0.904633
0.943606 1.000000 0.880273
0.943606 1.000000 0.880273
0.943606 1.000000 0.880273
0.945284 1.000000 0.880476
0.949674 1.000000 0.881029
0.962932 1.000000 0.882955
0.989236 1.000000 0.892589
1.000000 1.000000 0.925767
1.000000 1.000000 0.945661
0.000000 0.000000 0.034760
0.000000 0.000000 0.028352
0.192067 0.000000 0.000000
0.437580 0.000000 0.000000
0.796348 0.000000 0.000000
1.000000 0.139764 0.079477
1.000000 0.606020 0.299979
1.000000 0.860644 0.640202
1.000000 0.962967 0.884500
0.000000 0.013813 0.041523
0.000000 0.024585 0.031592
0.208546 0.000000 0.000000
0.459391 0.000000 0.000000
0.808242 0.000000 0.000000
1.000000 0.160139 0.075440
1.000000 0.609076 0.299776
1.000000 0.861788 0.640420
1.000000 0.962967 0.884500
0.000000 0.174378 0.000000
0.000000 0.189540 0.000000
0.283954 0.193094 0.000000
0.545775 0.000000 0.000000
0.824663 0.000000 0.000000
1.000000 0.213954 0.030890
1.000000 0.617734 0.290770
1.000000 0.861788 0.640420
1.000000 0.962967 0.884500
0.000000 0.388145 0.000000
0.000000 0.411341 0.000000
0.000000 0.458579 0.000000
0.660661 0.404539 0.000000
0.921268 0.263889 0.000000
1.000000 0.342962 0.000000
1.000000 0.638800 0.273577
1.000000 0.865133 0.638938
1.000000 0.963302 0.883989
0.000000 0.692492 0.000000
0.000000 0.700682 0.000000
0.000000 0.719598 0.000000
0.434588 0.728950 0.000000
0.915172 0.678169 0.000000
1.000000 0.586314 0.000000
1.000000 0.714223 0.143229
1.000000 0.873238 0.630494
1.000000 0.964320 0.883062
0.000000 0.901148 0.000000
0.000000 0.902840 0.000000
0.000000 0.907353 0.000000
0.000000 0.904319 0.000000
0.812567 0.893210 0.000000
1.000000 0.857839 0.000000
1.000000 0.825292 0.232414
1.000000 0.896980 0.568727
1.000000 0.967992 0.881247
0.241561 0.988278 0.000000
0.268350 0.988048 0.000000
0.356246 0.988199 0.000000
0.508234 0.985384 0.000000
0.737965 0.980519 0.000000
0.957051 0.971335 0.215213
1.000000 0.952656 0.412650
1.000000 0.940227 0.703169
1.000000 0.978248 0.882578
0.807457 1.000000 0.574525
0.809220 1.000000 0.574745
0.812711 1.000000 0.575189
0.824548 1.000000 0.576774
0.856681 1.000000 0.581869
0.927313 1.000000 0.599049
1.000000 1.000000 0.686447
1.000000 0.995582 0.816249
1.000000 0.991951 0.904633
0.943606 1.000000 0.880273
0.943606 1.000000 0.880273
0.943606 1.000000 0.880273
0.945284 1.000000 0.880476
0.949674 1.000000 0.881029
0.962932 1.000000 0.882955
0.989236 1.000000 0.892589
1.000000 1.000000 0.925767
1.000000 1.000000 0.945661
0.000000 0.000000 0.110105
0.000000 0.000000 0.092386
0.183572 0.000000 0.061376
0.429055 0.000000 0.073515
0.801895 0.000000 0.087323
1.000000 0.164523 0.142213
1.000000 0.607563 0.326033
1.000000 0.860779 0.646719
1.000000 0.962967 0.884500
0.000000 0.000000 0.142622
0.000000 0.000000 0.127112
0.195694 0.000000 0.093275
0.457005 0.000000 0.091133
0.807160 0.000000 0.086739
1.000000 0.176214 0.138794
1.000000 0.607563 0.326033
1.000000 0.860779 0.646719
1.000000 0.962967 0.884500
0.000000 0.144743 0.273153
0.000000 0.165420 0.255574
0.195716 0.225208 0.237163
0.522881 0.000000 0.111844
0.821712 0.000000 0.070225
1.000000 0.223410 0.127462
1.000000 0.616600 0.323309
1.000000 0.861921 0.646933
1.000000 0.962967 0.884500
0.000000 0.397768 0.000000
0.000000 0.415860 0.000000
0.000000 0.482895 0.000000
0.589418 0.456845 0.000000
0.879570 0.348508 0.000000
1.000000 0.353552 0.000000
1.000000 0.640434 0.300742
1.000000 0.865263 0.645420
1.000000 0.963318 0.884580
0.000000 0.686967 0.000000
0.000000 0.695653 0.000000
0.000000 0.715992 0.000000
0.421746 0.729118 0.000000
0.913703 0.674882 0.000000
1.000000 0.582918 0.000000
1.000000 0.722611 0.204144
1.000000 0.873399 0.638877
1.000000 0.964335 0.883648
0.000000 0.901084 0.000000
0.000000 0.901278 0.000000
0.000000 0.904453 0.000000
0.000000 0.904486 0.000000
0.813113 0.891866 0.000000
1.000000 0.857839 0.000000
1.000000 0.825292 0.232414
1.000000 0.897229 0.580073
1.000000 0.968006 0.881810
0.241561 0.988278 0.000000
0.268350 0.988048 0.000000
0.337739 0.988448 0.000000
0.508234 0.985384 0.000000
0.737965 0.980519 0.000000
0.957291 0.970783 0.210880
1.000000 0.952656 0.412650
1.000000 0.940227 0.703169
1.000000 0.977984 0.882509
0.807457 1.000000 0.574525
0.809220 1.000000 0.574745
0.810972 1.000000 0.574967
0.824548 1.000000 0.576774
0.856681 1.000000 0.581869
0.927313 1.000000 0.599049
1.000000 1.000000 0.686447
1.000000 0.995582 0.816249
1.000000 0.991951 0.904633
0.943606 1.000000 0.880273
0.943606 1.000000 0.880273
0.943606 1.000000 0.880273
0.945284 1.000000 0.880476
0.949674 1.000000 0.881029
0.962932 1.000000 0.882955
0.989236 1.000000 0.892589
1.000000 1.000000 0.925767
1.000000 1.000000 0.945661
0.000000 0.000000 0.196411
0.000000 0.000000 0.176143
0.147002 0.000000 0.167958
0.398877 0.000000 0.085567
0.799078 0.000000 0.263740
1.000000 0.148268 0.272963
1.000000 0.614285 0.395337
1.000000 0.861179 0.666363
1.000000 0.962608 0.885070
0.000000 0.000000 0.255009
0.000000 0.000000 0.232146
0.124917 0.000000 0.219397
0.407656 0.000000 0.133012
0.806475 0.000000 0.273023
1.000000 0.167957 0.272789
1.000000 0.620388 0.395162
1.000000 0.861179 0.666363
1.000000 0.962608 0.885070
0.000000 0.030812 0.402785
0.000000 0.046255 0.383734
0.000000 0.064151 0.377446
0.521854 0.000000 0.331643
0.833693 0.000000 0.300107
1.000000 0.227355 0.272229
1.000000 0.626493 0.394985
1.000000 0.862274 0.664380
1.000000 0.963014 0.886279
0.000000 0.328193 0.556554
0.000000 0.347478 0.550225
0.000000 0.468254 0.527080
0.504823 0.533015 0.509702
0.870006 0.369179 0.338228
1.000000 0.370298 0.263412
1.000000 0.644867 0.385165
1.000000 0.865605 0.662815
1.000000 0.963365 0.886357
0.000000 0.713198 0.270292
0.000000 0.728070 0.253561
0.000000 0.754924 0.215030
0.000000 0.792029 0.118708
0.851456 0.765302 0.000000
1.000000 0.693835 0.000000
1.000000 0.724855 0.330577
1.000000 0.873716 0.655914
1.000000 0.964366 0.884823
0.000000 0.897614 0.000000
0.000000 0.897965 0.000000
0.000000 0.902971 0.000000
0.000000 0.901869 0.000000
0.807291 0.892097 0.000000
1.000000 0.856217 0.000000
1.000000 0.823633 0.232154
1.000000 0.897465 0.615370
1.000000 0.968048 0.883499
0.210352 0.988504 0.000000
0.226645 0.988392 0.000000
0.313908 0.987573 0.000000
0.502228 0.985523 0.000000
0.734859 0.980639 0.000000
0.956230 0.970831 0.209521
1.000000 0.952656 0.412650
1.000000 0.939635 0.702811
1.000000 0.978050 0.882687
0.807457 1.000000 0.574525
0.807457 1.000000 0.574525
0.810972 1.000000 0.574967
0.822894 1.000000 0.576545
0.856681 1.000000 0.581869
0.927313 1.000000 0.599049
1.000000 1.000000 0.686447
1.000000 0.995582 0.816249
1.000000 0.991352 0.904211
0.943044 1.000000 0.880205
0.943606 1.000000 0.880273
0.943606 1.000000 0.880273
0.945284 1.000000 0.880476
0.949674 1.000000 0.881029
0.962932 1.000000 0.882955
0.988634 1.000000 0.892376
1.000000 1.000000 0.925767
1.000000 1.000000 0.945661
0.000000 0.000000 0.279743
0.000000 0.000000 0.274913
0.119103 0.000000 0.272624
0.387490 0.000000 0.203535
0.687513 0.000000 0.135096
1.000000 0.000000 0.538616
1.000000 0.599252 0.558736
1.000000 0.858929 0.723743
1.000000 0.962718 0.889330
0.000000 0.000000 0.354414
0.000000 0.000000 0.352917
0.055556 0.000000 0.343102
0.393535 0.000000 0.304842
0.687513 0.000000 0.135096
1.000000 0.000000 0.542113
1.000000 0.606995 0.559599
1.000000 0.858929 0.723743
1.000000 0.962718 0.889330
0.000000 0.000000 0.537226
0.000000 0.000000 0.538127
0.000000 0.000000 0.532679
0.368035 0.000000 0.531853
0.759965 0.000000 0.390881
1.000000 0.000000 0.556153
1.000000 0.613131 0.559552
1.000000 0.861175 0.721925
1.000000 0.962718 0.889330
0.000000 0.172188 0.673933
0.000000 0.187396 0.671895
0.000000 0.217674 0.673213
0.290861 0.243632 0.672923
0.885434 0.000000 0.637640
1.000000 0.315271 0.584456
1.000000 0.638347 0.559815
1.000000 0.863436 0.722201
1.000000 0.963108 0.889869
0.000000 0.577466 0.802528
0.000000 0.577361 0.800134
0.000000 0.680910 0.767235
0.000000 0.784628 0.770941
0.781388 0.799595 0.759391
0.994618 0.708283 0.623412
1.000000 0.727462 0.551201
1.000000 0.873831 0.719013
1.000000 0.964473 0.888972
0.000000 0.923309 0.576949
0.000000 0.924234 0.579924
0.000000 0.929524 0.571665
0.000000 0.936374 0.554632
0.599619 0.933310 0.514678
0.955594 0.918792 0.416238
1.000000 0.887092 0.473184
1.000000 0.901142 0.687096
1.000000 0.968176 0.888630
0.000000 0.988049 0.000000
0.000000 0.987849 0.000000
0.206710 0.987936 0.000000
0.455174 0.985364 0.000000
0.725270 0.980447 0.000000
0.954074 0.970930 0.206814
1.000000 0.952021 0.411107
1.000000 0.939040 0.702457
1.000000 0.978579 0.886045
0.802098 1.000000 0.573870
0.802098 1.000000 0.573870
0.807457 1.000000 0.574525
0.817858 1.000000 0.575862
0.853773 1.000000 0.581360
0.926297 1.000000 0.598694
1.000000 1.000000 0.686447
1.000000 0.995178 0.814933
1.000000 0.991352 0.904211
0.943044 1.000000 0.880205
0.943044 1.000000 0.880205
0.943044 1.000000 0.880205
0.944167 1.000000 0.880340
0.949674 1.000000 0.881029
0.961975 1.000000 0.882799
0.988634 1.000000 0.892376
1.000000 1.000000 0.925047
1.000000 1.000000 0.945661
0.117441 0.000000 0.385780
0.138081 0.000000 0.386726
0.212815 0.000000 0.376343
0.413029 0.000000 0.363904
0.671639 0.000000 0.287266
0.959828 0.000000 0.214385
1.000000 0.518859 0.789532
1.000000 0.858164 0.807792
1.000000 0.962352 0.902828
0.000000 0.000000 0.483657
0.000000 0.000000 0.484794
0.157262 0.000000 0.467650
0.368887 0.000000 0.438865
0.671639 0.000000 0.287266
0.959828 0.000000 0.214385
1.000000 0.522071 0.791799
1.000000 0.858164 0.807792
1.000000 0.962352 0.902828
0.000000 0.000000 0.689974
0.000000 0.000000 0.685020
0.000000 0.000000 0.683262
0.272947 0.000000 0.675174
0.744648 0.000000 0.619355
0.959828 0.000000 0.214385
1.000000 0.534609 0.793947
1.000000 0.859314 0.807836
1.000000 0.962352 0.902828
0.000000 0.162400 0.807848
0.000000 0.162829 0.809234
0.000000 0.166388 0.810401
0.175196 0.170090 0.810759
0.745474 0.000000 0.802602
1.000000 0.000000 0.716895
1.000000 0.585690 0.802233
1.000000 0.862722 0.807975
1.000000 0.962706 0.902886
0.000000 0.448689 0.871801
0.000000 0.460136 0.871099
0.000000 0.469490 0.872763
0.000000 0.514128 0.873131
0.646237 0.538831 0.865515
1.000000 0.475776 0.845431
1.000000 0.691571 0.809158
1.000000 0.871925 0.812077
1.000000 0.963382 0.901761
0.000000 0.811307 0.924586
0.000000 0.811307 0.924586
0.000000 0.811307 0.924586
0.000000 0.910045 0.903722
0.369119 0.933410 0.903440
0.915943 0.928439 0.895885
1.000000 0.888186 0.832187
1.000000 0.900422 0.806554
1.000000 0.967164 0.901521
0.000000 1.000000 0.819064
0.000000 1.000000 0.817813
0.000000 1.000000 0.815588
0.000000 1.000000 0.815372
0.513143 1.000000 0.808023
0.844898 0.993403 0.790876
0.998719 0.986001 0.762942
1.000000 0.972396 0.797325
1.000000 0.979500 0.899804
0.782773 1.000000 0.557500
0.782773 1.000000 0.557500
0.788591 1.000000 0.558144
0.801001 1.000000 0.566672
0.842830 1.000000 0.572491
0.921103 1.000000 0.590072
1.000000 1.000000 0.682332
1.000000 0.994972 0.814279
1.000000 0.991149 0.904073
0.940776 1.000000 0.879939
0.941345 1.000000 0.880005
0.941345 1.000000 0.880005
0.943044 1.000000 0.880205
0.947495 1.000000 0.880750
0.961006 1.000000 0.882644
0.988329 1.000000 0.892271
1.000000 1.000000 0.925047
1.000000 1.000000 0.945661
0.430234 0.000000 0.514055
0.440378 0.000000 0.514291
0.464778 0.000000 0.514838
0.559468 0.000000 0.510676
0.733188 0.000000 0.481175
0.938814 0.000000 0.410480
1.000000 0.000000 0.332005
1.000000 0.827551 0.913484
1.000000 0.961423 0.929996
0.393854 0.000000 0.567357
0.404109 0.000000 0.561166
0.441864 0.000000 0.552412
0.559468 0.000000 0.510676
0.733188 0.000000 0.481175
0.938814 0.000000 0.410480
1.000000 0.000000 0.332005
1.000000 0.827551 0.913484
1.000000 0.961423 0.929996
0.267800 0.000000 0.803095
0.275059 0.000000 0.803125
0.315458 0.000000 0.800910
0.425091 0.000000 0.785710
0.675887 0.000000 0.705321
0.938814 0.000000 0.410480
1.000000 0.000000 0.327725
1.000000 0.828971 0.914441
1.000000 0.961778 0.930026
0.112944 0.115039 0.909044
0.153017 0.116632 0.907714
0.211983 0.110636 0.906446
0.373697 0.048754 0.905528
0.653287 0.000000 0.897603
1.000000 0.000000 0.872345
1.000000 0.000000 0.327725
1.000000 0.834847 0.914364
1.000000 0.961778 0.930026
0.000000 0.427950 0.947000
0.000000 0.428047 0.947070
0.000000 0.431346 0.947253
0.074872 0.439924 0.947503
0.550707 0.444566 0.943192
0.985523 0.403089 0.936986
1.000000 0.258395 0.902338
1.000000 0.851284 0.916043
1.000000 0.962840 0.930118
0.000000 0.770694 0.964059
0.000000 0.771259 0.964185
0.000000 0.778303 0.962821
0.000000 0.786077 0.962555
0.097589 0.808295 0.959690
0.862790 0.814056 0.954583
1.000000 0.793747 0.944126
1.000000 0.890871 0.924117
1.000000 0.966142 0.930101
0.000000 0.943769 0.988134
0.000000 0.943769 0.988134
0.000000 0.943769 0.988134
0.000000 0.943769 0.988134
0.000000 0.999444 0.975335
0.784313 0.993090 0.970475
0.976605 0.988903 0.963962
1.000000 0.970390 0.934111
1.000000 0.979086 0.933406
0.677109 1.000000 0.933425
0.678670 1.000000 0.933450
0.686494 1.000000 0.933577
0.705555 1.000000 0.932057
0.757722 1.000000 0.931950
0.844056 1.000000 0.929262
0.952109 1.000000 0.925429
1.000000 1.000000 0.922944
1.000000 1.000000 0.937245
0.934418 1.000000 0.879224
0.935586 1.000000 0.879352
0.935586 1.000000 0.879352
0.936749 1.000000 0.879481
0.941345 1.000000 0.880005
0.957024 1.000000 0.882040
0.986876 1.000000 0.889541
1.000000 1.000000 0.924331
1.000000 1.000000 0.945661
0.796325 0.000000 0.660480
0.800223 0.000000 0.660575
0.804116 0.000000 0.660670
0.827169 0.000000 0.654772
0.879517 0.000000 0.640219
0.970939 0.000000 0.593620
1.000000 0.000000 0.533189
1.000000 0.000000 0.482543
1.000000 0.950383 0.976190
0.796325 0.000000 0.660480
0.800223 0.000000 0.660575
0.804116 0.000000 0.660670
0.827169 0.000000 0.654772
0.879517 0.000000 0.640219
0.970939 0.000000 0.593620
1.000000 0.000000 0.533189
1.000000 0.000000 0.482543
1.000000 0.950383 0.976190
0.719563 0.000000 0.762154
0.723605 0.000000 0.759350
0.735643 0.000000 0.753748
0.799457 0.000000 0.718616
0.879517 0.000000 0.640219
0.970939 0.000000 0.593620
1.000000 0.000000 0.533189
1.000000 0.000000 0.482543
1.000000 0.950783 0.976182
0.652660 0.000000 0.959198
0.660917 0.000000 0.959145
0.669166 0.000000 0.959093
0.701792 0.000000 0.957832
0.793754 0.000000 0.950818
0.968326 0.000000 0.922939
1.000000 0.000000 0.533189
1.000000 0.000000 0.482543
1.000000 0.951182 0.976173
0.571625 0.385881 0.991713
0.571625 0.385881 0.991713
0.585290 0.384836 0.991650
0.630224 0.381069 0.991426
0.756716 0.360411 0.990212
0.945526 0.311925 0.984874
1.000000 0.155958 0.977102
1.000000 0.000000 0.481174
1.000000 0.952790 0.976536
0.342029 0.736631 0.999596
0.342029 0.736631 0.999596
0.367519 0.736374 0.999562
0.432893 0.738417 0.999291
0.592957 0.743185 0.997173
0.828694 0.741071 0.995252
1.000000 0.734990 0.992496
1.000000 0.722254 0.972504
1.000000 0.958597 0.977743
0.000000 0.933465 1.000000
0.000000 0.934415 1.000000
0.000000 0.934152 1.000000
0.000000 0.935211 1.000000
0.313634 0.934201 1.000000
0.717127 0.935420 0.998856
0.949717 0.935172 0.995923
1.000000 0.927727 0.990670
1.000000 0.973683 0.980692
0.000000 1.000000 1.000000
0.000000 1.000000 1.000000
0.000000 1.000000 1.000000
0.000000 1.000000 1.000000
0.000000 1.000000 1.000000
0.681904 1.000000 1.000000
0.925654 1.000000 1.000000
1.000000 1.000000 0.999404
1.000000 1.000000 0.987260
0.920433 1.000000 0.988699
0.920433 1.000000 0.988699
0.920978 1.000000 0.988717
0.921806 1.000000 0.988744
0.926126 1.000000 0.988812
0.935954 1.000000 0.988508
0.958374 1.000000 0.987886
0.990636 1.000000 0.986661
1.000000 1.000000 0.988263
1.000000 0.000000 0.747436
1.000000 0.000000 0.747557
1.000000 0.000000 0.747557
1.000000 0.000000 0.744900
1.000000 0.000000 0.742605
1.000000 0.000000 0.738807
1.000000 0.000000 0.702530
1.000000 0.000000 0.649789
1.000000 0.564277 0.662886
1.000000 0.000000 0.747436
1.000000 0.000000 0.747436
1.000000 0.000000 0.747557
1.000000 0.000000 0.744900
1.000000 0.000000 0.742605
1.000000 0.000000 0.738807
1.000000 0.000000 0.702530
1.000000 0.000000 0.649789
1.000000 0.564277 0.662886
1.000000 0.000000 0.747436
1.000000 0.000000 0.747436
1.000000 0.000000 0.747557
1.000000 0.000000 0.744900
1.000000 0.000000 0.742605
1.000000 0.000000 0.738807
1.000000 0.000000 0.702530
1.000000 0.000000 0.649789
1.000000 0.564277 0.662886
0.967075 0.000000 0.943013
0.966994 0.000000 0.942977
0.966611 0.000000 0.939520
0.980348 0.000000 0.932375
1.000000 0.000000 0.880123
1.000000 0.000000 0.738807
1.000000 0.000000 0.702530
1.000000 0.000000 0.649789
1.000000 0.564277 0.662886
0.951485 0.245297 1.000000
0.951485 0.245297 1.000000
0.953877 0.244766 1.000000
0.960934 0.243216 1.000000
0.979155 0.234671 1.000000
1.000000 0.161057 1.000000
1.000000 0.000000 1.000000
1.000000 0.000000 0.649789
1.000000 0.564277 0.662886
0.849792 0.703497 1.000000
0.849792 0.703497 1.000000
0.851498 0.706431 1.000000
0.859515 0.706220 1.000000
0.882250 0.705203 1.000000
0.938825 0.695482 1.000000
1.000000 0.686115 1.000000
1.000000 0.664040 1.000000
1.000000 0.564277 0.662886
0.753608 0.900659 1.000000
0.753608 0.900659 1.000000
0.756672 0.900548 1.000000
0.764739 0.902579 1.000000
0.784408 0.903000 1.000000
0.843930 0.900741 1.000000
0.938849 0.901736 1.000000
1.000000 0.901959 1.000000
1.000000 0.919625 1.000000
0.661276 0.995074 1.000000
0.661276 0.995074 1.000000
0.667265 0.994874 1.000000
0.676112 0.994574 1.000000
0.711069 0.994491 1.000000
0.788002 0.994979 1.000000
0.895625 0.992414 1.000000
0.992878 0.991436 1.000000
1.000000 0.989811 1.000000
0.554557 1.000000 1.000000
0.554557 1.000000 1.000000
0.554557 1.000000 1.000000
0.554557 1.000000 1.000000
0.554557 1.000000 1.000000
0.554557 1.000000 1.000000
0.921134 1.000000 1.000000
0.982820 1.000000 1.000000
1.000000 1.000000 1.000000
