Assets/Lutify-Free-LUTs-Pack/Lutify Free LUTs Pack/Film Tone Pro - Film Tone 3/Lutify.me-FilmTone3-Cineon-to-Rec709.cube
# Created with: fylm.ai - Colour Grading and Collaboration Software in Cloud 
# Website: https://fylm.ai 
# META
# Option: Gamut compress
# Block 1: IDT | ADX10
# Block 2: colourMatch | Blending Mode: Normal | {"ColorSpace":0,"CrossCovarianceLimit":50,"ReshapingIterations":1,"PercentSaturationShift":100,"PercentShadingShift":100,"ExtraShading":true,"PercentTint":100,"PercentModified":100}
# Block 3: subtractiveColour | Blending Mode: Normal | {"sliders":{"gainY":0.6,"C":0.3,"M":0.3,"Y":0.3}}
# Block 4: LUT | Filmic Curve Response: Low Contrast 2 (100%)
# Block 5: logPrimaries | Blending Mode: Normal | {"wheels":{"shadows":{"Y":"0","R":"1","G":"1","B":"1"},"midtones":{"Y":"0","R":"1","G":"1","B":"1"},"highlights":{"Y":"0","R":"1","G":"1","B":"1"},"offset":{"Y":"0","R":"1","G":"1","B":"1"}},"sliders":{"shadows":{"Y":0,"R":-0.026,"G":0.03,"B":0.1},"midtones":{"Y":0,"R":0.024,"G":-0.036,"B":0.036},"highlights":{"Y":0,"R":0,"G":0.044,"B":-0.128},"offset":{"Y":0,"R":0,"G":0,"B":0}}}
# Block 6: hueSaturation | Blending Mode: Normal | {"hue":0,"saturation":-0.1}
# Block 7: ODT | Rec709
TITLE "Lutify.me-FilmTone3-Cineon-to-Rec709" 
LUT_3D_SIZE 33
0.000000 0.000000 0.000000
0.000000 0.000000 0.000000
0.000000 0.000000 0.000000
0.000000 0.000000 0.000000
0.000000 0.000000 0.000000
0.000000 0.000000 0.000000
0.025307 0.000000 0.000000
0.059509 0.000000 0.000000
0.077734 0.000000 0.000000
0.097287 0.000000 0.000000
0.116118 0.000000 0.000000
0.131880 0.000000 0.000000
0.151538 0.000000 0.000000
0.174708 0.000000 0.000000
0.203292 0.000000 0.000000
0.231796 0.000000 0.000000
0.264787 0.000000 0.000000
0.297496 0.000000 0.000000
0.334371 0.000000 0.000000
0.379323 0.000000 0.000000
0.423324 0.000000 0.020499
0.470688 0.000000 0.026760
0.519192 0.000000 0.030581
0.576818 0.000000 0.039556
0.638203 0.000000 0.046562
0.690991 0.000000 0.059648
0.747936 0.000000 0.073395
0.796560 0.000000 0.087536
0.855072 0.000000 0.106042
0.910216 0.000000 0.128120
0.950760 0.164968 0.150269
0.983957 0.233797 0.182672
1.000000 0.311127 0.211130
0.000000 0.000000 0.000000
0.000000 0.000000 0.000000
0.000000 0.000000 0.000000
0.000000 0.000000 0.000000
0.000000 0.000000 0.000000
0.000000 0.000000 0.000000
0.037710 0.000000 0.000000
0.064010 0.000000 0.000000
0.083265 0.000000 0.000000
0.102875 0.000000 0.000000
0.119575 0.000000 0.000000
0.136304 0.000000 0.000000
0.157825 0.000000 0.000000
0.182453 0.000000 0.000000
0.210039 0.000000 0.000000
0.241199 0.000000 0.000000
0.277391 0.000000 0.000000
0.305324 0.000000 0.000000
0.347865 0.000000 0.000000
0.392449 0.000000 0.010649
0.438521 0.000000 0.024670
0.484235 0.000000 0.027594
0.541708 0.000000 0.033766
0.595761 0.000000 0.041645
0.657826 0.000000 0.049811
0.711120 0.000000 0.064040
0.760641 0.000000 0.079971
0.816345 0.000000 0.092864
0.873079 0.000000 0.112581
0.922685 0.087320 0.135046
0.961122 0.189255 0.162999
0.989812 0.260196 0.191600
1.000000 0.328220 0.224014
0.000000 0.000000 0.000000
0.000000 0.000000 0.000000
0.000000 0.000000 0.000000
0.000000 0.000000 0.000000
0.000000 0.000000 0.000000
0.002125 0.000000 0.000000
0.049838 0.000000 0.000000
0.070196 0.000000 0.000000
0.089984 0.000000 0.000000
0.109361 0.000000 0.000000
0.125764 0.000000 0.000000
0.143217 0.000000 0.000000
0.165509 0.000000 0.000000
0.193147 0.000000 0.000000
0.220017 0.000000 0.000000
0.254506 0.000000 0.000000
0.286454 0.000000 0.000000
0.319660 0.000000 0.000000
0.362342 0.000000 0.000000
0.406487 0.000000 0.015812
0.451606 0.000000 0.026223
0.501932 0.000000 0.029145
0.557839 0.000000 0.036184
0.615302 0.000000 0.043359
0.674318 0.000000 0.052673
0.723796 0.000000 0.066725
0.780464 0.000000 0.083677
0.832377 0.000000 0.097997
0.890493 0.000000 0.118607
0.931536 0.136948 0.140696
0.970537 0.212037 0.171680
0.999481 0.286055 0.202995
1.000000 0.352660 0.236562
0.000000 0.000000 0.000000
0.000000 0.000000 0.000000
0.000000 0.000000 0.000000
0.000000 0.000000 0.000000
0.000000 0.000000 0.000000
0.029936 0.000000 0.000000
0.060686 0.000000 0.000000
0.078435 0.000000 0.000000
0.098834 0.000000 0.000000
0.115835 0.000000 0.000000
0.131820 0.000000 0.000000
0.153477 0.000000 0.000000
0.177360 0.000000 0.000000
0.204021 0.000000 0.000000
0.232619 0.000000 0.000000
0.265733 0.000000 0.000000
0.298701 0.000000 0.000000
0.335802 0.000000 0.000000
0.380389 0.000000 0.002936
0.424542 0.000000 0.021586
0.468546 0.000000 0.026010
0.517270 0.000000 0.030024
0.574271 0.000000 0.039434
0.635545 0.000000 0.046318
0.687722 0.000000 0.059114
0.744480 0.000000 0.072988
0.793066 0.000000 0.087082
0.851585 0.000000 0.105975
0.903867 0.000000 0.125290
0.945329 0.166524 0.147053
0.981594 0.233762 0.179275
1.000000 0.306823 0.207611
1.000000 0.373024 0.246537
0.000000 0.000000 0.000000
0.000000 0.000000 0.000000
0.000000 0.000000 0.000000
0.000000 0.007385 0.000000
0.000000 0.013590 0.000000
0.033238 0.000000 0.000000
0.061446 0.000000 0.000000
0.081653 0.000000 0.000000
0.103409 0.000000 0.000000
0.124978 0.000000 0.000000
0.140556 0.000000 0.000000
0.165817 0.000000 0.000000
0.194336 0.000000 0.000000
0.218694 0.000000 0.000000
0.251514 0.000000 0.000000
0.285055 0.000000 0.000000
0.315736 0.000000 0.000000
0.352632 0.000000 0.000000
0.394868 0.000000 0.015273
0.441092 0.000000 0.023928
0.486400 0.000000 0.026947
0.540798 0.000000 0.033389
0.594373 0.000000 0.042720
0.652051 0.000000 0.049832
0.708456 0.000000 0.062354
0.757517 0.000000 0.078927
0.813133 0.000000 0.091711
0.869869 0.000000 0.111852
0.919730 0.099689 0.134677
0.955768 0.199851 0.159147
0.987631 0.260336 0.191394
1.000000 0.327851 0.220092
1.000000 0.389315 0.258696
0.000000 0.026107 0.000000
0.000000 0.027788 0.000000
0.000000 0.030918 0.000000
0.000000 0.036372 0.000000
0.000000 0.040576 0.000000
0.035471 0.044988 0.000000
0.058480 0.041977 0.000000
0.086368 0.038662 0.000000
0.109449 0.031878 0.000000
0.132601 0.020623 0.000000
0.155808 0.000000 0.000000
0.182707 0.000000 0.000000
0.211602 0.000000 0.000000
0.237194 0.000000 0.000000
0.269225 0.000000 0.000000
0.301500 0.000000 0.000000
0.336007 0.000000 0.000000
0.375589 0.000000 0.003746
0.415745 0.000000 0.019514
0.458078 0.000000 0.024662
0.505768 0.000000 0.028491
0.561415 0.000000 0.037643
0.617969 0.000000 0.045395
0.672773 0.000000 0.054606
0.725167 0.000000 0.066484
0.777420 0.000000 0.082346
0.833041 0.000000 0.099087
0.890576 0.000000 0.117917
0.928658 0.144490 0.140301
0.967845 0.221424 0.169442
0.997348 0.285946 0.201053
1.000000 0.352258 0.232460
1.000000 0.409546 0.273646
0.000000 0.047121 0.000000
0.000000 0.048808 0.000000
0.000000 0.050061 0.000000
0.000000 0.052558 0.000000
0.000000 0.057007 0.000000
0.029436 0.060158 0.000000
0.061113 0.061646 0.000000
0.090163 0.057649 0.000000
0.117475 0.052949 0.000000
0.142315 0.047708 0.000000
0.169378 0.040488 0.000000
0.200052 0.026950 0.000000
0.229222 0.000000 0.000000
0.260386 0.000000 0.000000
0.290198 0.000000 0.000000
0.323331 0.000000 0.000000
0.356190 0.000000 0.000000
0.393424 0.000000 0.011366
0.435681 0.000000 0.021250
0.480338 0.000000 0.024860
0.529512 0.000000 0.030171
0.581539 0.000000 0.039241
0.638616 0.000000 0.048517
0.690058 0.000000 0.058174
0.742123 0.000000 0.072807
0.794153 0.000000 0.087275
0.852219 0.000000 0.106952
0.904093 0.102919 0.126214
0.945019 0.186920 0.145970
0.976555 0.247357 0.178104
1.000000 0.310794 0.207120
1.000000 0.372534 0.244014
1.000000 0.425664 0.282835
0.000000 0.062385 0.000000
0.000000 0.064388 0.000000
0.000000 0.066496 0.000000
0.000000 0.071144 0.000000
0.000000 0.077648 0.000000
0.000000 0.080471 0.000000
0.049023 0.085837 0.000000
0.094323 0.084828 0.000000
0.125091 0.078407 0.000000
0.151050 0.075393 0.000000
0.182216 0.070113 0.000000
0.215325 0.063788 0.000000
0.243892 0.055954 0.000000
0.276394 0.039575 0.000000
0.309689 0.000000 0.000000
0.340860 0.000000 0.000000
0.378497 0.000000 0.000000
0.421135 0.000000 0.010134
0.463317 0.000000 0.015090
0.510039 0.000000 0.022379
0.557299 0.000000 0.032252
0.605703 0.000000 0.039743
0.663011 0.000000 0.050178
0.710765 0.000000 0.061042
0.758917 0.000000 0.077183
0.818206 0.000000 0.095287
0.870679 0.000000 0.114849
0.919584 0.142070 0.133167
0.955434 0.213690 0.158340
0.984871 0.268502 0.185687
1.000000 0.338976 0.214927
1.000000 0.392801 0.258205
1.000000 0.445483 0.294462
0.000000 0.081545 0.000000
0.000000 0.082836 0.000000
0.000000 0.085610 0.000000
0.000000 0.091396 0.000000
0.000000 0.098643 0.000000
0.000000 0.102503 0.000000
0.014290 0.108724 0.000000
0.086460 0.111106 0.000000
0.126692 0.111632 0.000000
0.160098 0.106665 0.000000
0.198097 0.098679 0.000000
0.228673 0.093922 0.000000
0.261173 0.089360 0.000000
0.293206 0.082155 0.000000
0.328886 0.072383 0.000000
0.359801 0.056184 0.000000
0.402526 0.028661 0.000000
0.445017 0.000000 0.000000
0.486719 0.000000 0.000000
0.534674 0.000000 0.019718
0.582160 0.000000 0.026953
0.637523 0.000000 0.039582
0.687801 0.000000 0.052188
0.728175 0.000000 0.068540
0.779685 0.000000 0.083643
0.834316 0.000000 0.101160
0.890873 0.111762 0.116534
0.928332 0.186580 0.139526
0.964892 0.239354 0.168174
0.991933 0.306307 0.199268
1.000000 0.359721 0.231718
1.000000 0.416596 0.272955
1.000000 0.465616 0.313803
0.000000 0.102618 0.000000
0.000000 0.104240 0.000000
0.000000 0.106144 0.000000
0.000000 0.111586 0.000000
0.000000 0.121337 0.000000
0.000000 0.125227 0.000000
0.000000 0.134110 0.000000
0.067003 0.137595 0.000000
0.115298 0.143802 0.000000
0.164004 0.144577 0.000000
0.210868 0.134244 0.000000
0.241710 0.130998 0.000000
0.276427 0.130627 0.000000
0.311922 0.127004 0.000000
0.343943 0.120173 0.000000
0.381419 0.110068 0.000000
0.423409 0.098826 0.000000
0.468167 0.087014 0.000000
0.514556 0.072942 0.000000
0.559997 0.051549 0.012640
0.607358 0.023738 0.028634
0.659201 0.000000 0.039259
0.709282 0.000000 0.054622
0.753358 0.000000 0.075161
0.800461 0.035218 0.093167
0.853759 0.111678 0.110296
0.904365 0.164928 0.128873
0.944415 0.223701 0.146481
0.973364 0.268640 0.176485
0.998575 0.334265 0.205207
1.000000 0.387558 0.245066
1.000000 0.432620 0.282145
1.000000 0.488313 0.323690
0.000000 0.130050 0.000000
0.000000 0.132161 0.000000
0.000000 0.135573 0.000000
0.000000 0.142470 0.000000
0.000000 0.153848 0.000000
0.000000 0.159796 0.000000
0.000000 0.167504 0.000000
0.000000 0.176541 0.000000
0.082305 0.178360 0.000000
0.151164 0.183449 0.000000
0.210564 0.180244 0.000000
0.254977 0.170760 0.000000
0.294854 0.169359 0.000000
0.330741 0.164818 0.000000
0.366412 0.162748 0.000000
0.404591 0.155955 0.000000
0.449207 0.146036 0.000000
0.492508 0.134070 0.000000
0.536397 0.126893 0.000000
0.585827 0.121304 0.000000
0.633069 0.115362 0.027825
0.685098 0.109650 0.041013
0.731342 0.109142 0.061314
0.774841 0.127910 0.081782
0.825035 0.149691 0.098221
0.875165 0.175431 0.116804
0.919324 0.220027 0.136819
0.952016 0.253324 0.161658
0.982794 0.309670 0.187738
1.000000 0.358564 0.220987
1.000000 0.410953 0.256798
1.000000 0.459483 0.293395
1.000000 0.514986 0.334502
0.000000 0.162334 0.000000
0.000000 0.166358 0.000000
0.000000 0.169349 0.000000
0.000000 0.172999 0.000000
0.000000 0.186596 0.000000
0.000000 0.194026 0.000000
0.000000 0.201677 0.000000
0.000000 0.210650 0.000000
0.000000 0.217103 0.000000
0.129832 0.218173 0.000000
0.197852 0.221145 0.000000
0.261161 0.217748 0.000000
0.306063 0.209048 0.000000
0.346300 0.208720 0.000000
0.386564 0.204279 0.000000
0.429281 0.200793 0.000000
0.474780 0.193921 0.000000
0.519204 0.183801 0.000000
0.566115 0.176028 0.000000
0.609106 0.178546 0.000000
0.659434 0.173139 0.017982
0.707738 0.173947 0.042572
0.757250 0.175645 0.068484
0.799973 0.191963 0.089003
0.841392 0.214575 0.107538
0.891906 0.233970 0.127443
0.930438 0.255618 0.147836
0.962607 0.297489 0.170098
0.987542 0.341634 0.199896
1.000000 0.389865 0.235266
1.000000 0.431232 0.274309
1.000000 0.483308 0.312968
1.000000 0.538263 0.351265
0.000000 0.192737 0.000000
0.000000 0.200252 0.000000
0.000000 0.205378 0.000000
0.000000 0.209623 0.000000
0.000000 0.218996 0.000000
0.000000 0.229908 0.000000
0.000000 0.242744 0.000000
0.000000 0.246127 0.000000
0.000000 0.253852 0.000000
0.037281 0.261481 0.000000
0.168125 0.266479 0.000000
0.240309 0.270804 0.000000
0.304949 0.267809 0.000000
0.356335 0.258161 0.000000
0.398848 0.261548 0.000000
0.457318 0.249490 0.000000
0.503925 0.246999 0.000000
0.543980 0.242459 0.000000
0.594300 0.235333 0.000000
0.635704 0.228672 0.000000
0.685988 0.227989 0.000000
0.734421 0.234208 0.052022
0.775972 0.242761 0.077366
0.824151 0.250597 0.096372
0.865958 0.265028 0.115610
0.909499 0.289078 0.135463
0.942151 0.310018 0.157496
0.969723 0.340919 0.183980
0.995449 0.376492 0.211029
1.000000 0.420613 0.248436
1.000000 0.461323 0.284740
1.000000 0.512969 0.325089
1.000000 0.554308 0.363533
0.000000 0.230709 0.000000
0.000000 0.237413 0.000000
0.000000 0.246450 0.000000
0.000000 0.249363 0.000000
0.000000 0.259543 0.000000
0.000000 0.268717 0.000000
0.000000 0.278121 0.000000
0.000000 0.287475 0.000000
0.000000 0.293197 0.000000
0.000000 0.300460 0.000000
0.103517 0.307035 0.000000
0.211081 0.310920 0.000000
0.289765 0.311678 0.000000
0.354070 0.320641 0.000000
0.411079 0.312285 0.000000
0.466863 0.301582 0.000000
0.523603 0.294552 0.000000
0.575764 0.292397 0.000000
0.617486 0.288554 0.000000
0.662573 0.283547 0.000000
0.708773 0.283852 0.000000
0.756345 0.290782 0.057772
0.797094 0.302635 0.084787
0.839480 0.315001 0.102887
0.881669 0.329230 0.125229
0.922176 0.341320 0.147408
0.954505 0.359455 0.171921
0.977696 0.386701 0.198815
0.999799 0.418566 0.229986
1.000000 0.455222 0.269103
1.000000 0.499079 0.303132
1.000000 0.539073 0.335681
1.000000 0.577237 0.378558
0.000000 0.269757 0.000000
0.000000 0.277887 0.000000
0.000000 0.284618 0.000000
0.000000 0.292142 0.000000
0.000000 0.293638 0.000000
0.000000 0.303778 0.000000
0.000000 0.316656 0.000000
0.000000 0.327661 0.000000
0.000000 0.343263 0.000000
0.000000 0.352580 0.000000
0.000000 0.358603 0.000000
0.139062 0.366534 0.000000
0.246366 0.374267 0.000000
0.330940 0.381823 0.000000
0.412441 0.385326 0.000000
0.482114 0.376079 0.000000
0.536649 0.373128 0.000000
0.593628 0.369769 0.000000
0.641909 0.360624 0.000000
0.688499 0.354537 0.000000
0.734845 0.361183 0.000000
0.777462 0.358362 0.062114
0.816290 0.362524 0.089384
0.856165 0.370635 0.116160
0.895439 0.382911 0.139555
0.930343 0.392771 0.160405
0.959778 0.415267 0.186471
0.982259 0.431512 0.212693
1.000000 0.466902 0.243957
1.000000 0.499630 0.281378
1.000000 0.536463 0.322893
1.000000 0.566009 0.355641
1.000000 0.599893 0.391031
0.000000 0.316417 0.000000
0.000000 0.323777 0.000000
0.000000 0.336014 0.000000
0.000000 0.342738 0.000000
0.000000 0.349427 0.000000
0.000000 0.358674 0.000000
0.000000 0.370927 0.000000
0.000000 0.384146 0.000000
0.000000 0.397205 0.000000
0.000000 0.407968 0.000000
0.000000 0.412878 0.000000
0.000000 0.425883 0.000000
0.162543 0.438517 0.000000
0.295165 0.438202 0.000000
0.397359 0.439821 0.000000
0.481028 0.446918 0.000000
0.546631 0.434218 0.000000
0.603115 0.431190 0.000000
0.654016 0.428558 0.000000
0.710919 0.422656 0.000000
0.754587 0.424114 0.038089
0.796915 0.422116 0.079452
0.836626 0.420161 0.101455
0.873751 0.422683 0.130472
0.909830 0.432535 0.152621
0.938863 0.447513 0.180549
0.965976 0.466393 0.199104
0.987316 0.493913 0.230810
1.000000 0.525580 0.265262
1.000000 0.543961 0.306692
1.000000 0.569204 0.338177
1.000000 0.595816 0.375941
1.000000 0.629803 0.412390
0.000000 0.371545 0.000000
0.000000 0.382873 0.000000
0.000000 0.390033 0.000000
0.000000 0.399871 0.000000
0.000000 0.404754 0.000000
0.000000 0.409582 0.000000
0.000000 0.420554 0.000000
0.000000 0.431758 0.000000
0.000000 0.446824 0.000000
0.000000 0.455487 0.000000
0.000000 0.469402 0.000000
0.000000 0.480269 0.000000
0.000000 0.487898 0.000000
0.222207 0.500488 0.000000
0.353849 0.506161 0.000000
0.448186 0.510852 0.000000
0.546824 0.514777 0.000000
0.604945 0.508988 0.000000
0.664122 0.506433 0.000000
0.713328 0.501018 0.000000
0.767738 0.491977 0.062262
0.813085 0.490409 0.096862
0.850851 0.489581 0.122795
0.885166 0.489163 0.143629
0.915381 0.500278 0.170312
0.946076 0.511862 0.191075
0.966760 0.531409 0.217779
0.989167 0.548606 0.254134
1.000000 0.573109 0.289927
1.000000 0.590826 0.321249
1.000000 0.609244 0.360423
1.000000 0.631925 0.393648
1.000000 0.661044 0.432914
0.000000 0.424830 0.063324
0.000000 0.435186 0.056436
0.000000 0.443092 0.051204
0.000000 0.453406 0.040212
0.000000 0.461101 0.029606
0.000000 0.469567 0.000000
0.000000 0.478062 0.019796
0.000000 0.483675 0.000000
0.000000 0.498846 0.000000
0.000000 0.514140 0.000000
0.000000 0.525746 0.000000
0.000000 0.539843 0.000000
0.000000 0.547625 0.000000
0.161865 0.548270 0.000000
0.320019 0.560730 0.000000
0.423142 0.562813 0.000000
0.517721 0.571213 0.000000
0.598499 0.578941 0.034695
0.670563 0.576203 0.059100
0.722618 0.570364 0.066734
0.771807 0.561449 0.088915
0.820615 0.563224 0.111303
0.863709 0.559390 0.143899
0.896058 0.552808 0.167958
0.922749 0.563957 0.185117
0.949203 0.572640 0.210708
0.970679 0.585640 0.243615
0.988577 0.595563 0.278192
1.000000 0.616714 0.317448
1.000000 0.637237 0.345064
1.000000 0.655546 0.383742
1.000000 0.676680 0.414938
1.000000 0.703069 0.455183
0.000000 0.490620 0.102805
0.000000 0.498094 0.100493
0.000000 0.505708 0.098079
0.000000 0.513354 0.101054
0.000000 0.524710 0.102860
0.000000 0.532954 0.094742
0.000000 0.538051 0.093978
0.000000 0.549982 0.082654
0.000000 0.559109 0.079976
0.000000 0.565333 0.094657
0.000000 0.580486 0.088756
0.000000 0.591607 0.075223
0.000000 0.602859 0.083657
0.000000 0.609962 0.081238
0.245870 0.616252 0.079336
0.376675 0.625708 0.097446
0.477410 0.634513 0.110157
0.572542 0.635574 0.111652
0.659228 0.643098 0.121331
0.733237 0.646896 0.122128
0.779384 0.638336 0.131160
0.819280 0.633590 0.141548
0.866166 0.626133 0.167481
0.899339 0.623389 0.195231
0.922299 0.631164 0.212182
0.948092 0.632777 0.233406
0.968931 0.638735 0.264623
0.987455 0.652693 0.310347
1.000000 0.665759 0.338902
1.000000 0.681811 0.365653
1.000000 0.701027 0.401974
1.000000 0.717356 0.437287
1.000000 0.740892 0.481365
0.000000 0.552724 0.154304
0.000000 0.563284 0.147251
0.000000 0.568043 0.151924
0.000000 0.575781 0.153159
0.000000 0.583866 0.157090
0.000000 0.592061 0.156192
0.000000 0.600566 0.150307
0.000000 0.612376 0.145791
0.000000 0.620918 0.147729
0.000000 0.626918 0.154183
0.000000 0.638700 0.152835
0.000000 0.646884 0.146893
0.000000 0.661327 0.150213
0.000000 0.671884 0.148872
0.000000 0.681562 0.141193
0.305693 0.684479 0.148975
0.433681 0.693538 0.161118
0.531931 0.698417 0.164997
0.631484 0.702259 0.166607
0.718777 0.705942 0.178203
0.777916 0.709978 0.180277
0.822332 0.702256 0.187934
0.860117 0.695142 0.201318
0.890445 0.695270 0.221710
0.921042 0.696125 0.247895
0.943750 0.697511 0.273456
0.965315 0.699663 0.305323
0.984173 0.702182 0.335293
0.999306 0.711031 0.365826
1.000000 0.724999 0.390110
1.000000 0.739432 0.427677
1.000000 0.753671 0.469164
1.000000 0.773973 0.511098
0.000000 0.615449 0.192696
0.000000 0.623387 0.197100
0.000000 0.631104 0.201476
0.000000 0.635465 0.201501
0.000000 0.647088 0.203229
0.000000 0.652197 0.203805
0.000000 0.660519 0.203726
0.000000 0.671941 0.202895
0.000000 0.679949 0.199998
0.000000 0.691739 0.202340
0.000000 0.697080 0.209183
0.000000 0.701890 0.210362
0.000000 0.712624 0.204714
0.000000 0.726157 0.210579
0.000000 0.732285 0.211554
0.187966 0.740600 0.205982
0.372065 0.742649 0.214128
0.497826 0.746764 0.219195
0.610471 0.749958 0.224949
0.702481 0.749890 0.228295
0.769014 0.758675 0.236985
0.820686 0.759489 0.240731
0.861194 0.750292 0.251260
0.891817 0.747023 0.261023
0.918389 0.744821 0.291275
0.942267 0.745768 0.318964
0.961872 0.749875 0.347009
0.978561 0.748856 0.368702
0.991904 0.755956 0.393599
1.000000 0.768260 0.425577
1.000000 0.777890 0.460819
1.000000 0.791480 0.499718
1.000000 0.802600 0.536217
0.000000 0.679490 0.246943
0.000000 0.687214 0.249553
0.000000 0.691569 0.249904
0.000000 0.696354 0.253335
0.000000 0.704353 0.256354
0.000000 0.708729 0.256874
0.000000 0.719571 0.256715
0.000000 0.727167 0.257165
0.000000 0.734860 0.257981
0.000000 0.742164 0.258689
0.000000 0.749317 0.259592
0.000000 0.753729 0.267404
0.000000 0.757492 0.269100
0.000000 0.763535 0.264874
0.000000 0.774442 0.266618
0.000000 0.781959 0.274534
0.323626 0.785893 0.270394
0.470612 0.786551 0.273363
0.584532 0.791719 0.285858
0.679990 0.793662 0.289460
0.747293 0.795992 0.293006
0.809290 0.800621 0.304006
0.857023 0.803464 0.318621
0.888399 0.798111 0.322274
0.916772 0.795507 0.338809
0.938235 0.795763 0.364113
0.956691 0.794267 0.389040
0.973384 0.795268 0.411322
0.986196 0.800705 0.436687
1.000000 0.804393 0.460066
1.000000 0.810458 0.495458
1.000000 0.818424 0.522767
1.000000 0.826189 0.555409
0.000000 0.739107 0.297898
0.000000 0.742912 0.298412
0.000000 0.746872 0.302094
0.000000 0.750493 0.302554
0.000000 0.754441 0.303447
0.000000 0.761114 0.307021
0.000000 0.767815 0.310908
0.000000 0.774416 0.311976
0.000000 0.780862 0.319225
0.000000 0.787075 0.320476
0.000000 0.795566 0.315542
0.000000 0.801438 0.323528
0.000000 0.804452 0.325503
0.000000 0.809548 0.328461
0.000000 0.813711 0.324832
0.000000 0.819831 0.334013
0.262708 0.827226 0.336886
0.435757 0.831377 0.340479
0.562099 0.832761 0.344286
0.647361 0.834402 0.354075
0.727166 0.835667 0.361416
0.791776 0.837235 0.372382
0.840065 0.841107 0.380693
0.880873 0.845276 0.398807
0.909922 0.840737 0.402417
0.931927 0.838515 0.412236
0.952736 0.833180 0.433969
0.968013 0.833693 0.456056
0.982160 0.836239 0.475714
0.997042 0.837372 0.495867
1.000000 0.838993 0.525149
1.000000 0.845660 0.554677
1.000000 0.852284 0.584722
0.000000 0.796192 0.351037
0.000000 0.799291 0.351787
0.000000 0.802508 0.359034
0.000000 0.805582 0.359937
0.000000 0.808609 0.363983
0.000000 0.811583 0.368048
0.000000 0.817252 0.379117
0.000000 0.820232 0.383602
0.000000 0.825320 0.388033
0.000000 0.832372 0.386470
0.000000 0.837092 0.388423
0.000000 0.843541 0.390433
0.000000 0.847746 0.395774
0.000000 0.849766 0.407770
0.000000 0.851200 0.410366
0.000000 0.853868 0.407048
0.194759 0.860001 0.410312
0.416913 0.863274 0.420636
0.544877 0.864103 0.417860
0.627912 0.865253 0.421049
0.705969 0.866210 0.434374
0.765953 0.867371 0.441469
0.828987 0.868200 0.447035
0.872695 0.871187 0.452832
0.904440 0.874637 0.467808
0.928181 0.870892 0.468233
0.946642 0.869050 0.477955
0.963896 0.867561 0.497060
0.978222 0.867896 0.519456
0.991481 0.868486 0.539167
1.000000 0.866654 0.561913
1.000000 0.867989 0.593659
1.000000 0.874702 0.620526
0.000000 0.838988 0.422576
0.000000 0.841459 0.426671
0.000000 0.843777 0.427393
0.000000 0.846336 0.431878
0.000000 0.848776 0.442406
0.000000 0.851149 0.446667
0.000000 0.853578 0.454330
0.000000 0.859673 0.455774
0.000000 0.861827 0.456945
0.000000 0.865863 0.458813
0.000000 0.869693 0.460596
0.000000 0.871546 0.462089
0.000000 0.876714 0.464551
0.000000 0.879829 0.466734
0.000000 0.880902 0.469006
0.000000 0.883175 0.471864
0.093143 0.886566 0.475104
0.404713 0.887217 0.478971
0.537522 0.889071 0.482903
0.620277 0.892567 0.486775
0.694885 0.891544 0.490036
0.755875 0.890708 0.493562
0.815931 0.892421 0.502189
0.861068 0.893165 0.507372
0.895970 0.894314 0.518907
0.923198 0.898183 0.531699
0.943158 0.896320 0.535462
0.960137 0.892292 0.541235
0.976908 0.891009 0.560821
0.988694 0.891237 0.580085
1.000000 0.891819 0.603283
1.000000 0.892534 0.622919
1.000000 0.894609 0.656605
0.000000 0.872374 0.483726
0.000000 0.876066 0.484481
0.000000 0.878115 0.491842
0.000000 0.880077 0.495942
0.000000 0.881952 0.496781
0.000000 0.883869 0.501019
0.000000 0.885733 0.502256
0.000000 0.887577 0.506765
0.000000 0.890970 0.511516
0.000000 0.894224 0.516160
0.000000 0.895747 0.517449
0.000000 0.898684 0.522651
0.000000 0.902874 0.524794
0.000000 0.905186 0.523880
0.000000 0.907321 0.526118
0.000000 0.909031 0.528686
0.000000 0.911630 0.535010
0.385105 0.912778 0.536097
0.520284 0.911342 0.536046
0.601345 0.912765 0.542626
0.685863 0.913535 0.546930
