Assets/Lutify-Free-LUTs-Pack/Lutify Free LUTs Pack/Film Tone Pro - Film Tone 3/Lutify.me-FilmTone3-SLog2-to-Rec709.cube
# Created with: fylm.ai - Colour Grading and Collaboration Software in Cloud 
# Website: https://fylm.ai 
# META
# Option: Gamut compress
# Block 1: IDT | Sony S-Log2 S-Gamut Daylight 10-bit
# Block 2: colourMatch | Blending Mode: Normal | {"ColorSpace":0,"CrossCovarianceLimit":50,"ReshapingIterations":1,"PercentSaturationShift":100,"PercentShadingShift":100,"ExtraShading":true,"PercentTint":100,"PercentModified":100}
# Block 3: subtractiveColour | Blending Mode: Normal | {"sliders":{"gainY":0.6,"C":0.3,"M":0.3,"Y":0.3}}
# Block 4: LUT | Filmic Curve Response: Low Contrast 2 (100%)
# Block 5: logPrimaries | Blending Mode: Normal | {"wheels":{"shadows":{"Y":"0","R":"1","G":"1","B":"1"},"midtones":{"Y":"0","R":"1","G":"1","B":"1"},"highlights":{"Y":"0","R":"1","G":"1","B":"1"},"offset":{"Y":"0","R":"1","G":"1","B":"1"}},"sliders":{"shadows":{"Y":0,"R":-0.026,"G":0.03,"B":0.1},"midtones":{"Y":0,"R":0.024,"G":-0.036,"B":0.036},"highlights":{"Y":0,"R":0,"G":0.044,"B":-0.128},"offset":{"Y":0,"R":0,"G":0,"B":0}}}
# Block 6: hueSaturation | Blending Mode: Normal | {"hue":0,"saturation":-0.1}
# Block 7: ODT | Rec709
TITLE "Lutify.me-FilmTone3-SLog2-to-Rec709" 
LUT_3D_SIZE 5
0.000000 0.000000 0.000000
0.233219 0.000000 0.000000
0.669994 0.000000 0.046855
1.000000 0.234887 0.278790
1.000000 0.704918 0.619074
0.000000 0.185004 0.000000
0.340156 0.195250 0.000000
0.722342 0.000000 0.000000
1.000000 0.313058 0.281749
1.000000 0.712754 0.619122
0.000000 0.482146 0.000000
0.000000 0.555509 0.000000
0.775741 0.563440 0.000000
1.000000 0.587280 0.282576
1.000000 0.753303 0.626964
0.000000 0.777677 0.000000
0.000000 0.777677 0.000000
0.000000 0.862400 0.000000
0.946815 0.878724 0.000000
1.000000 0.872772 0.658183
0.000000 0.947091 0.000000
0.000000 0.947091 0.000000
0.000000 0.947091 0.000000
0.708242 0.983616 0.131071
1.000000 0.980706 0.632374
0.000000 0.000000 0.126125
0.223895 0.000000 0.053197
0.676089 0.000000 0.146743
1.000000 0.228367 0.327019
1.000000 0.707370 0.630508
0.000000 0.159793 0.281128
0.230720 0.263941 0.269882
0.722916 0.000000 0.189547
1.000000 0.307646 0.333754
1.000000 0.713208 0.633939
0.000000 0.519466 0.167826
0.000000 0.589275 0.000000
0.732934 0.655524 0.044285
1.000000 0.586739 0.345789
1.000000 0.753618 0.638782
0.000000 0.798333 0.000000
0.000000 0.799777 0.000000
0.000000 0.894349 0.000000
0.943684 0.886306 0.223961
1.000000 0.872771 0.666122
0.000000 0.947091 0.000000
0.000000 0.947091 0.000000
0.000000 0.948957 0.000000
0.702061 0.987861 0.289593
1.000000 0.980845 0.653965
0.000000 0.000000 0.299671
0.154180 0.000000 0.276735
0.632311 0.000000 0.273086
1.000000 0.194537 0.506369
1.000000 0.707821 0.680330
0.000000 0.016129 0.515946
0.000000 0.103559 0.484952
0.738797 0.000000 0.465539
1.000000 0.284699 0.516418
1.000000 0.718724 0.680726
0.000000 0.451064 0.673823
0.000000 0.540157 0.646295
0.670096 0.687674 0.651943
0.997284 0.588183 0.573010
1.000000 0.755924 0.684726
0.000000 0.830687 0.618699
0.000000 0.830687 0.618699
0.000000 0.905915 0.534944
0.924733 0.903304 0.591642
1.000000 0.873252 0.721028
0.000000 0.970554 0.573060
0.000000 0.970574 0.576118
0.000000 0.970636 0.585304
0.690099 0.991808 0.568987
1.000000 0.982680 0.731845
0.000000 0.035348 0.677814
0.000000 0.056242 0.681487
0.597571 0.000000 0.702636
1.000000 0.000000 0.691768
1.000000 0.693984 0.803820
0.000000 0.116867 0.730095
0.000000 0.148311 0.738607
0.586147 0.033579 0.751752
1.000000 0.000000 0.724474
1.000000 0.705382 0.805782
0.000000 0.233228 0.841556
0.000000 0.365553 0.812125
0.415034 0.454075 0.817912
1.000000 0.431923 0.796607
1.000000 0.744407 0.809253
0.000000 0.764380 0.894468
0.000000 0.764380 0.894468
0.000000 0.893226 0.873373
0.892718 0.906281 0.872039
1.000000 0.871315 0.833581
0.000000 0.975528 0.879845
0.000000 0.975528 0.879845
0.000000 0.975570 0.882468
0.646528 0.993882 0.836649
0.988873 0.986527 0.861589
0.000000 0.324285 0.922305
0.000000 0.333952 0.921634
0.453452 0.338341 0.922671
0.972872 0.325075 0.918701
1.000000 0.480836 0.905942
0.000000 0.350225 0.925515
0.000000 0.361129 0.924878
0.421571 0.382243 0.924311
0.967821 0.374552 0.921628
1.000000 0.505982 0.910392
0.000000 0.457689 0.934848
0.000000 0.466153 0.936758
0.324486 0.495916 0.933973
0.933107 0.513585 0.931022
1.000000 0.607627 0.917067
0.000000 0.610911 0.963249
0.000000 0.705968 0.952808
0.000000 0.774023 0.949599
0.799086 0.802720 0.944543
1.000000 0.816888 0.937267
0.000000 0.942183 0.982376
0.000000 0.942183 0.982376
0.000000 0.942183 0.982376
0.420813 0.996016 0.968339
0.975608 0.988615 0.962834
