Assets/Lutify-Free-LUTs-Pack/Lutify Free LUTs Pack/Film Tone Pro - Film Tone 3/Lutify.me-FilmTone3-LogC3-to-Rec709.cube
# Created with: fylm.ai - Colour Grading and Collaboration Software in Cloud 
# Website: https://fylm.ai 
# META
# Option: Gamut compress
# Block 1: IDT | Arri Alexa - LogC3
# Block 2: colourMatch | Blending Mode: Normal | {"ColorSpace":0,"CrossCovarianceLimit":50,"ReshapingIterations":1,"PercentSaturationShift":100,"PercentShadingShift":100,"ExtraShading":true,"PercentTint":100,"PercentModified":100}
# Block 3: subtractiveColour | Blending Mode: Normal | {"sliders":{"gainY":0.6,"C":0.3,"M":0.3,"Y":0.3}}
# Block 4: LUT | Filmic Curve Response: Low Contrast 2 (100%)
# Block 5: logPrimaries | Blending Mode: Normal | {"wheels":{"shadows":{"Y":"0","R":"1","G":"1","B":"1"},"midtones":{"Y":"0","R":"1","G":"1","B":"1"},"highlights":{"Y":"0","R":"1","G":"1","B":"1"},"offset":{"Y":"0","R":"1","G":"1","B":"1"}},"sliders":{"shadows":{"Y":0,"R":-0.026,"G":0.03,"B":0.1},"midtones":{"Y":0,"R":0.024,"G":-0.036,"B":0.036},"highlights":{"Y":0,"R":0,"G":0.044,"B":-0.128},"offset":{"Y":0,"R":0,"G":0,"B":0}}}
# Block 6: hueSaturation | Blending Mode: Normal | {"hue":0,"saturation":-0.1}
# Block 7: ODT | Rec709
TITLE "Lutify.me-FilmTone3-LogC3-to-Rec709" 
LUT_3D_SIZE 9
0.000000 0.000000 0.000000
0.000000 0.000000 0.000000
0.132445 0.000000 0.000000
0.292641 0.000000 0.000000
0.573677 0.000000 0.000000
0.905688 0.000000 0.091606
1.000000 0.419476 0.285678
1.000000 0.735603 0.546642
1.000000 0.894255 0.790581
0.000000 0.030878 0.000000
0.004407 0.045138 0.000000
0.165423 0.000000 0.000000
0.332997 0.000000 0.000000
0.600343 0.000000 0.000000
0.909822 0.000000 0.094306
1.000000 0.430258 0.285122
1.000000 0.738027 0.546686
1.000000 0.894255 0.790581
0.000000 0.130056 0.000000
0.000000 0.149581 0.000000
0.208799 0.146774 0.000000
0.398045 0.073089 0.000000
0.630281 0.000000 0.000000
0.916424 0.000000 0.092435
1.000000 0.437808 0.285086
1.000000 0.740434 0.546732
1.000000 0.895211 0.790686
0.000000 0.297963 0.000000
0.000000 0.320597 0.000000
0.090128 0.335583 0.000000
0.473685 0.305746 0.000000
0.695499 0.280827 0.000000
0.931490 0.280311 0.059213
1.000000 0.484438 0.287292
1.000000 0.750773 0.550901
1.000000 0.896403 0.791253
0.000000 0.568022 0.000000
0.000000 0.577482 0.000000
0.000000 0.587303 0.000000
0.336317 0.601457 0.000000
0.738487 0.580212 0.000000
0.931966 0.581118 0.000000
1.000000 0.620781 0.289479
1.000000 0.775442 0.558059
1.000000 0.899222 0.791580
0.000000 0.832849 0.000000
0.000000 0.832794 0.000000
0.000000 0.832731 0.000000
0.000000 0.837205 0.000000
0.630921 0.839339 0.000000
0.905058 0.828198 0.000000
0.998908 0.824351 0.319362
1.000000 0.842804 0.587248
1.000000 0.910568 0.798851
0.459295 0.949869 0.254273
0.466588 0.949722 0.254528
0.494498 0.949128 0.255566
0.545291 0.947970 0.263429
0.674225 0.947544 0.260687
0.855646 0.942960 0.284517
0.976907 0.939736 0.350774
1.000000 0.935193 0.645509
1.000000 0.943324 0.815556
0.797172 0.998746 0.648414
0.797172 0.998746 0.648414
0.797172 0.998746 0.648414
0.803808 0.998453 0.646929
0.822595 0.997604 0.646677
0.869896 0.996023 0.657468
0.947546 0.993941 0.679174
1.000000 0.990921 0.722659
1.000000 0.988528 0.855943
0.920236 1.000000 0.872334
0.920236 1.000000 0.872334
0.921084 1.000000 0.872404
0.921091 1.000000 0.871734
0.924446 1.000000 0.872017
0.932788 1.000000 0.873502
0.955164 1.000000 0.877886
0.990634 1.000000 0.887502
1.000000 1.000000 0.909110
0.000000 0.000000 0.013827
0.000000 0.000000 0.010535
0.124989 0.000000 0.000000
0.281733 0.000000 0.000000
0.575252 0.000000 0.035210
0.901440 0.000000 0.111054
1.000000 0.419743 0.290105
1.000000 0.735692 0.549504
1.000000 0.894255 0.790581
0.000000 0.000000 0.029298
0.000000 0.019958 0.028140
0.143182 0.000000 0.000000
0.313873 0.000000 0.000000
0.592101 0.000000 0.035095
0.908509 0.000000 0.114077
1.000000 0.430657 0.291813
1.000000 0.738116 0.549547
1.000000 0.894255 0.790581
0.000000 0.119174 0.000000
0.000000 0.140965 0.000000
0.179436 0.154783 0.000000
0.371418 0.092838 0.000000
0.626110 0.000000 0.011600
0.918094 0.000000 0.113144
1.000000 0.438206 0.291799
1.000000 0.740521 0.549593
1.000000 0.895211 0.790686
0.000000 0.293423 0.000000
0.000000 0.325804 0.000000
0.000000 0.349640 0.000000
0.430894 0.339863 0.000000
0.692843 0.293965 0.000000
0.933091 0.283132 0.103590
1.000000 0.481454 0.296763
1.000000 0.750856 0.553759
1.000000 0.896434 0.792943
0.000000 0.581897 0.000000
0.000000 0.591181 0.000000
0.000000 0.601009 0.000000
0.244595 0.619473 0.000000
0.728673 0.605181 0.000000
0.932359 0.587528 0.000000
1.000000 0.621803 0.310027
1.000000 0.775590 0.563782
1.000000 0.899253 0.793262
0.000000 0.836372 0.000000
0.000000 0.836137 0.000000
0.000000 0.835758 0.000000
0.000000 0.840494 0.000000
0.621750 0.842684 0.000000
0.902706 0.831092 0.000000
0.998732 0.824676 0.333524
1.000000 0.842857 0.590074
1.000000 0.910597 0.800481
0.446076 0.950390 0.282574
0.460963 0.950099 0.283050
0.482376 0.949655 0.283772
0.540384 0.948304 0.286001
0.670796 0.947888 0.285127
0.855859 0.943147 0.304558
0.976783 0.939950 0.369866
1.000000 0.935193 0.645509
1.000000 0.943324 0.815556
0.797113 0.998747 0.654628
0.797113 0.998747 0.654628
0.797113 0.998747 0.654628
0.803745 0.998454 0.653130
0.822544 0.997606 0.650786
0.869787 0.996027 0.663425
0.947452 0.993945 0.682720
1.000000 0.990929 0.725500
1.000000 0.988533 0.856945
0.920236 1.000000 0.872334
0.920236 1.000000 0.872334
0.921084 1.000000 0.872404
0.921084 1.000000 0.872404
0.924719 1.000000 0.874090
0.932780 1.000000 0.874149
0.954502 1.000000 0.878416
0.990634 1.000000 0.887502
1.000000 1.000000 0.909917
0.000000 0.000000 0.078078
0.000000 0.000000 0.057644
0.108895 0.000000 0.046773
0.275401 0.000000 0.049763
0.575346 0.000000 0.073248
0.904406 0.000000 0.143240
1.000000 0.420139 0.303341
1.000000 0.735870 0.555240
1.000000 0.894287 0.792284
0.000000 0.000000 0.094110
0.000000 0.000000 0.083175
0.121505 0.000000 0.072487
0.309314 0.000000 0.074987
0.595940 0.000000 0.078921
0.910917 0.000000 0.142400
1.000000 0.431451 0.305525
1.000000 0.738292 0.555283
1.000000 0.894287 0.792284
0.000000 0.098433 0.180646
0.000000 0.123253 0.169587
0.130759 0.155400 0.161420
0.362644 0.087907 0.110737
0.623145 0.000000 0.088289
0.917326 0.000000 0.142921
1.000000 0.438608 0.305207
1.000000 0.740696 0.555330
1.000000 0.895243 0.792386
0.000000 0.308048 0.140216
0.000000 0.334182 0.111478
0.000000 0.364376 0.093955
0.401885 0.379794 0.067352
0.696487 0.290452 0.062287
0.929430 0.287043 0.144562
1.000000 0.482500 0.315857
1.000000 0.751107 0.562359
1.000000 0.896434 0.792943
0.000000 0.590606 0.000000
0.000000 0.606861 0.000000
0.000000 0.619408 0.000000
0.155068 0.638169 0.000000
0.713874 0.630955 0.000000
0.933184 0.591258 0.088207
1.000000 0.622567 0.325895
1.000000 0.775664 0.566650
1.000000 0.898318 0.793154
0.000000 0.841848 0.000000
0.000000 0.843645 0.000000
0.000000 0.845344 0.000000
0.000000 0.843651 0.000000
0.613132 0.844057 0.000000
0.900849 0.837527 0.000000
0.997921 0.827043 0.356563
1.000000 0.842909 0.592903
1.000000 0.910597 0.800481
0.432923 0.950991 0.321885
0.455875 0.950580 0.325346
0.470462 0.950285 0.325776
0.536195 0.948787 0.327986
0.667602 0.948315 0.320221
0.853952 0.943537 0.336796
0.976542 0.940252 0.398305
1.000000 0.935213 0.648017
1.000000 0.943342 0.817027
0.794808 0.998846 0.660657
0.797050 0.998747 0.660842
0.797072 0.998747 0.658771
0.803679 0.998454 0.659333
0.822705 0.998248 0.659759
0.869675 0.996030 0.669383
0.947515 0.993339 0.687199
1.000000 0.990955 0.729239
1.000000 0.988533 0.856945
0.920224 1.000000 0.873673
0.920224 1.000000 0.873673
0.921072 1.000000 0.873742
0.921072 1.000000 0.873742
0.924707 1.000000 0.875391
0.932772 1.000000 0.874794
0.954478 1.000000 0.879636
0.990614 1.000000 0.888039
1.000000 1.000000 0.909917
0.000000 0.000000 0.171679
0.000000 0.000000 0.104622
0.074651 0.000000 0.099218
0.268800 0.000000 0.076413
0.570864 0.000000 0.173890
0.907671 0.000000 0.223990
1.000000 0.418086 0.346411
1.000000 0.733875 0.569618
1.000000 0.894320 0.793974
0.000000 0.000000 0.183697
0.000000 0.000000 0.155205
0.066734 0.000000 0.152211
0.288976 0.000000 0.136145
0.594014 0.000000 0.201413
0.911299 0.000000 0.229087
1.000000 0.426338 0.352016
1.000000 0.736400 0.572555
1.000000 0.894320 0.793974
0.000000 0.013216 0.268038
0.000000 0.038465 0.251246
0.000000 0.050298 0.252993
0.355069 0.000000 0.250473
0.625191 0.000000 0.230167
0.917623 0.000000 0.235925
1.000000 0.440685 0.351628
1.000000 0.738817 0.572599
1.000000 0.895275 0.794075
0.000000 0.253169 0.387427
0.000000 0.299278 0.378112
0.000000 0.345439 0.382298
0.347653 0.381306 0.371321
0.679279 0.295662 0.296196
0.929226 0.260121 0.252012
1.000000 0.484197 0.356301
1.000000 0.748303 0.572800
1.000000 0.895519 0.794521
0.000000 0.605169 0.344433
0.000000 0.618859 0.341845
0.000000 0.632223 0.330996
0.000000 0.652360 0.321455
0.685429 0.666104 0.302965
0.927612 0.595686 0.260013
1.000000 0.621467 0.375952
1.000000 0.773947 0.580957
1.000000 0.898349 0.794831
0.000000 0.845089 0.259146
0.000000 0.847060 0.260228
0.000000 0.848848 0.262079
0.000000 0.854896 0.251189
0.580856 0.853056 0.234234
0.891552 0.849366 0.254669
0.996989 0.828247 0.410973
1.000000 0.843170 0.607111
1.000000 0.910682 0.805336
0.429294 0.952715 0.416044
0.452355 0.952281 0.416587
0.467068 0.951987 0.416953
0.527071 0.952399 0.420501
0.665542 0.949169 0.415760
0.843062 0.944729 0.420319
0.973090 0.942558 0.466483
1.000000 0.936117 0.663557
1.000000 0.943361 0.818493
0.794599 0.998844 0.679264
0.796836 0.998746 0.679437
0.796836 0.998746 0.679437
0.803427 0.998454 0.679959
0.818434 0.998432 0.679639
0.867743 0.996115 0.687017
0.944879 0.994069 0.707009
1.000000 0.990992 0.743512
1.000000 0.988539 0.857944
0.920212 1.000000 0.875009
0.920212 1.000000 0.875009
0.921059 1.000000 0.875076
0.921059 1.000000 0.875076
0.924700 1.000000 0.876041
0.931177 1.000000 0.875944
0.954465 1.000000 0.880245
0.990552 1.000000 0.889658
1.000000 1.000000 0.910322
0.000000 0.000000 0.233181
0.000000 0.000000 0.172467
0.034129 0.000000 0.159693
0.245625 0.000000 0.150679
0.483503 0.000000 0.147912
0.906967 0.000000 0.413827
1.000000 0.397204 0.477520
1.000000 0.732194 0.610025
1.000000 0.893524 0.802245
0.000000 0.000000 0.267056
0.000000 0.000000 0.234025
0.000000 0.000000 0.231570
0.240445 0.000000 0.247880
0.528532 0.000000 0.241172
0.910887 0.000000 0.423726
1.000000 0.408242 0.477470
1.000000 0.735099 0.610520
1.000000 0.894483 0.802336
0.000000 0.000000 0.370964
0.000000 0.000000 0.351880
0.000000 0.000000 0.343435
0.225160 0.000000 0.365943
0.605544 0.000000 0.360505
0.914637 0.000000 0.436911
1.000000 0.422947 0.480359
1.000000 0.737524 0.610559
1.000000 0.894483 0.802336
0.000000 0.108070 0.506649
0.000000 0.130999 0.498065
0.000000 0.156749 0.502672
0.200940 0.184437 0.520609
0.692541 0.098776 0.513815
0.929429 0.190218 0.476935
1.000000 0.470610 0.486500
1.000000 0.744775 0.613639
1.000000 0.895437 0.802428
0.000000 0.549034 0.629615
0.000000 0.564307 0.631983
0.000000 0.594583 0.639647
0.000000 0.642625 0.633069
0.649603 0.657866 0.628761
0.911487 0.601674 0.549251
1.000000 0.605374 0.504570
1.000000 0.772458 0.618292
1.000000 0.898507 0.803130
0.000000 0.855255 0.606634
0.000000 0.855307 0.604559
0.000000 0.855134 0.600055
0.000000 0.861277 0.598443
0.540976 0.861493 0.594546
0.876676 0.858483 0.581877
0.991296 0.831013 0.550179
1.000000 0.842312 0.647146
1.000000 0.909866 0.808434
0.407117 0.954077 0.574517
0.423609 0.953792 0.574815
0.439467 0.953501 0.575114
0.510078 0.952017 0.576636
0.648878 0.951524 0.574314
0.836010 0.949214 0.581203
0.966377 0.948128 0.603287
1.000000 0.936339 0.703375
1.000000 0.942809 0.825574
0.791082 0.998284 0.733647
0.791082 0.998284 0.733647
0.793791 0.998827 0.735532
0.796045 0.998730 0.733731
0.815490 0.998514 0.734854
0.864973 0.996203 0.739048
0.940737 0.994253 0.748205
1.000000 0.992260 0.774905
1.000000 0.989133 0.863536
0.920151 1.000000 0.881629
0.920151 1.000000 0.881629
0.920151 1.000000 0.881629
0.920996 1.000000 0.881690
0.923517 1.000000 0.881218
0.931100 1.000000 0.882364
0.953041 1.000000 0.885632
0.989536 1.000000 0.895508
1.000000 1.000000 0.913600
0.000000 0.000000 0.268020
0.000000 0.000000 0.258881
0.000000 0.000000 0.256422
0.195211 0.000000 0.255030
0.456242 0.000000 0.199361
0.794520 0.000000 0.365863
1.000000 0.303629 0.677523
1.000000 0.723286 0.711059
1.000000 0.893884 0.820099
0.000000 0.000000 0.264802
0.000000 0.000000 0.259250
0.000000 0.000000 0.253195
0.188020 0.000000 0.274912
0.479734 0.000000 0.319311
0.840645 0.000000 0.458877
1.000000 0.320082 0.684027
1.000000 0.728417 0.713824
1.000000 0.893884 0.820099
0.000000 0.000000 0.405051
0.000000 0.000000 0.403865
0.000000 0.000000 0.410831
0.100852 0.000000 0.431275
0.505051 0.000000 0.494287
0.868674 0.000000 0.524306
1.000000 0.340132 0.687359
1.000000 0.730914 0.713827
1.000000 0.893884 0.820099
0.000000 0.039622 0.613083
0.000000 0.056042 0.611955
0.000000 0.062959 0.618747
0.000000 0.079773 0.631390
0.512004 0.000000 0.649743
0.924928 0.000000 0.630988
1.000000 0.402827 0.694499
1.000000 0.738295 0.713844
1.000000 0.894839 0.820172
0.000000 0.320694 0.746431
0.000000 0.326044 0.750246
0.000000 0.339200 0.748841
0.000000 0.379444 0.751475
0.484291 0.424299 0.760732
0.936072 0.435812 0.756391
1.000000 0.555188 0.715888
1.000000 0.767307 0.723073
1.000000 0.897918 0.820756
0.000000 0.817167 0.820861
0.000000 0.822711 0.821771
0.000000 0.828180 0.822942
0.000000 0.843858 0.822208
0.428237 0.856680 0.821319
0.840818 0.856688 0.819292
0.972021 0.833616 0.776318
1.000000 0.833317 0.741792
1.000000 0.909336 0.827074
0.212438 0.959076 0.809210
0.261741 0.958695 0.809406
0.301417 0.958302 0.809601
0.403087 0.957713 0.806555
0.587954 0.954351 0.802815
0.808391 0.953501 0.797755
0.947449 0.951140 0.802478
1.000000 0.936260 0.787559
1.000000 0.942389 0.842232
0.771941 0.999690 0.808186
0.774324 0.999590 0.808271
0.776686 0.999490 0.808356
0.783651 0.999192 0.808611
0.801330 0.998422 0.809305
0.852123 0.997689 0.809530
0.931429 0.995830 0.812353
0.999360 0.994067 0.832656
1.000000 0.988623 0.876635
0.919150 1.000000 0.896216
0.919150 1.000000 0.896216
0.919995 1.000000 0.896269
0.919995 1.000000 0.896269
0.923338 1.000000 0.896485
0.930115 1.000000 0.896594
0.951594 1.000000 0.899538
0.988766 1.000000 0.905867
1.000000 1.000000 0.922400
0.000000 0.000000 0.364179
0.000000 0.000000 0.364435
0.070252 0.000000 0.362839
0.198433 0.000000 0.368049
0.447921 0.000000 0.364703
0.721786 0.000000 0.286460
1.000000 0.000000 0.678817
1.000000 0.661984 0.842129
1.000000 0.889358 0.867568
0.000000 0.000000 0.364527
0.000000 0.000000 0.364775
0.072568 0.000000 0.362919
0.202264 0.000000 0.368189
0.447921 0.000000 0.364703
0.722625 0.000000 0.290550
1.000000 0.000000 0.707557
1.000000 0.664904 0.842053
1.000000 0.890349 0.867589
0.000000 0.000000 0.365048
0.000000 0.000000 0.365115
0.081298 0.000000 0.363240
0.204189 0.000000 0.368258
0.451216 0.000000 0.364777
0.775415 0.000000 0.527398
1.000000 0.000000 0.730121
1.000000 0.670790 0.843682
1.000000 0.890846 0.867988
0.000000 0.000000 0.669519
0.000000 0.000000 0.675930
0.000000 0.000000 0.679975
0.000000 0.000000 0.689362
0.329962 0.000000 0.716593
0.822931 0.000000 0.759579
1.000000 0.000000 0.775673
1.000000 0.682378 0.846895
1.000000 0.891825 0.868010
0.000000 0.210542 0.834086
0.000000 0.214909 0.835507
0.000000 0.219631 0.835449
0.000000 0.235632 0.835202
0.290682 0.253355 0.839245
0.838707 0.213193 0.843754
1.000000 0.270238 0.833691
1.000000 0.721899 0.851292
1.000000 0.895733 0.869393
0.000000 0.613822 0.892444
0.000000 0.614799 0.892895
0.000000 0.619362 0.893381
0.000000 0.635355 0.890083
0.000000 0.670140 0.891192
0.765524 0.700396 0.889491
0.994708 0.739733 0.885013
1.000000 0.808998 0.861097
1.000000 0.905334 0.871127
0.000000 0.950739 0.920594
0.000000 0.950491 0.920696
0.000000 0.950089 0.920846
0.000000 0.949815 0.919187
0.370887 0.949275 0.920085
0.765966 0.948812 0.919771
0.933561 0.947906 0.917011
1.000000 0.935374 0.891305
1.000000 0.939925 0.882625
0.748606 1.000000 0.914027
0.751081 1.000000 0.913140
0.751081 1.000000 0.913140
0.760901 1.000000 0.913265
0.782110 1.000000 0.911820
0.836949 0.998407 0.912096
0.917781 0.997323 0.910284
0.990724 0.994992 0.913396
1.000000 0.988810 0.908862
0.914992 1.000000 0.924664
0.914992 1.000000 0.924664
0.914992 1.000000 0.924664
0.916238 1.000000 0.925296
0.919559 1.000000 0.925446
0.927768 1.000000 0.926123
0.949032 1.000000 0.925537
0.984865 1.000000 0.928366
1.000000 1.000000 0.939771
0.203081 0.000000 0.497524
0.221883 0.000000 0.498254
0.255921 0.000000 0.496391
0.325233 0.000000 0.498707
0.479464 0.000000 0.502644
0.731313 0.000000 0.466026
0.958758 0.000000 0.392296
1.000000 0.000000 0.880357
1.000000 0.868512 0.933188
0.203081 0.000000 0.497524
0.226617 0.000000 0.498435
0.260806 0.000000 0.496567
0.325233 0.000000 0.498707
0.479464 0.000000 0.502644
0.731313 0.000000 0.466026
0.958758 0.000000 0.392296
1.000000 0.000000 0.882150
1.000000 0.868512 0.933188
0.207766 0.000000 0.497707
0.228990 0.000000 0.498525
0.260806 0.000000 0.496567
0.330729 0.000000 0.498874
0.479464 0.000000 0.502644
0.731313 0.000000 0.466026
0.958422 0.000000 0.386845
1.000000 0.000000 0.885625
1.000000 0.869640 0.933152
0.217165 0.000000 0.498073
0.243338 0.000000 0.499062
0.273156 0.000000 0.497003
0.336283 0.000000 0.499040
0.483034 0.000000 0.502723
0.734771 0.000000 0.466132
1.000000 0.000000 0.812294
1.000000 0.208834 0.895219
1.000000 0.871382 0.933237
0.000000 0.066269 0.884469
0.000000 0.063992 0.884848
0.000000 0.064141 0.885526
0.000000 0.050124 0.890476
0.321403 0.000000 0.889624
0.678614 0.000000 0.896510
1.000000 0.000000 0.912572
1.000000 0.396091 0.912013
1.000000 0.876825 0.933915
0.000000 0.473218 0.948123
0.000000 0.473522 0.948248
0.000000 0.480108 0.948189
0.000000 0.480894 0.948593
0.105839 0.499412 0.947650
0.608464 0.518101 0.945940
0.989417 0.558435 0.944375
1.000000 0.649469 0.933615
1.000000 0.888985 0.936238
0.000000 0.849075 0.962842
0.000000 0.850923 0.962759
0.000000 0.850832 0.962790
0.000000 0.856082 0.962558
0.000000 0.859880 0.961741
0.557149 0.865286 0.960548
0.897066 0.872821 0.958228
1.000000 0.891616 0.956357
1.000000 0.925560 0.945486
0.592507 1.000000 0.977455
0.596545 1.000000 0.977459
0.604482 1.000000 0.977467
0.617586 1.000000 0.976598
0.664235 0.999611 0.976655
0.768658 0.996717 0.976859
0.901476 0.995703 0.975498
0.981953 0.994684 0.972886
1.000000 0.988462 0.961655
0.902374 1.000000 0.973162
0.902374 1.000000 0.973162
0.902374 1.000000 0.973162
0.903255 1.000000 0.973175
0.905868 1.000000 0.973216
0.915583 1.000000 0.973503
0.939374 1.000000 0.974042
0.978828 1.000000 0.972732
1.000000 1.000000 0.973347
0.521773 0.000000 0.631818
0.525535 0.000000 0.631893
0.536849 0.000000 0.632120
0.571043 0.000000 0.632807
0.652061 0.000000 0.634477
0.804137 0.000000 0.631508
0.954708 0.000000 0.570511
1.000000 0.000000 0.500385
1.000000 0.586347 0.959233
0.521773 0.000000 0.631818
0.525535 0.000000 0.631893
0.536849 0.000000 0.632120
0.571043 0.000000 0.632807
0.655951 0.000000 0.634559
0.804137 0.000000 0.631508
0.954708 0.000000 0.570511
1.000000 0.000000 0.500385
1.000000 0.590660 0.959108
0.521773 0.000000 0.631818
0.529301 0.000000 0.631969
0.540630 0.000000 0.632196
0.571043 0.000000 0.632807
0.655951 0.000000 0.634559
0.804137 0.000000 0.631508
0.954708 0.000000 0.570511
1.000000 0.000000 0.500385
1.000000 0.594759 0.960524
0.525535 0.000000 0.631893
0.529301 0.000000 0.631969
0.540630 0.000000 0.632196
0.574865 0.000000 0.632884
0.655951 0.000000 0.634559
0.804137 0.000000 0.631508
0.954708 0.000000 0.570511
1.000000 0.000000 0.500385
1.000000 0.616402 0.961375
0.536849 0.000000 0.632120
0.544416 0.000000 0.632271
0.555801 0.000000 0.632500
0.586353 0.000000 0.633117
0.667632 0.000000 0.634809
0.807977 0.000000 0.631608
0.954708 0.000000 0.570511
1.000000 0.000000 0.945871
1.000000 0.671016 0.965242
0.318904 0.279981 0.981076
0.323500 0.282170 0.981026
0.339278 0.281272 0.981002
0.374682 0.278977 0.980935
0.458740 0.280062 0.982130
0.676251 0.270296 0.979240
0.943925 0.297099 0.978860
1.000000 0.491267 0.981046
1.000000 0.751980 0.972330
0.000000 0.753915 0.995268
0.000000 0.753862 0.995262
0.000000 0.753808 0.995255
0.152693 0.758866 0.994433
0.332797 0.763379 0.994467
0.571158 0.769890 0.993481
0.836326 0.778795 0.990928
1.000000 0.811253 0.989099
1.000000 0.863308 0.981493
0.483162 0.952693 0.998222
0.496261 0.952408 0.998206
0.502638 0.952266 0.998199
0.521203 0.952671 0.998119
0.576812 0.952896 0.997933
0.676787 0.954497 0.996642
0.809592 0.952500 0.996286
0.963402 0.957695 0.994945
1.000000 0.968422 0.993611
0.851519 1.000000 1.000000
0.851519 1.000000 1.000000
0.852672 1.000000 1.000000
0.853821 1.000000 1.000000
0.860440 1.000000 1.000000
0.875104 1.000000 1.000000
0.915686 1.000000 1.000000
0.969591 1.000000 1.000000
1.000000 1.000000 1.000000
