Assets/Lutify-Free-LUTs-Pack/Lutify Free LUTs Pack/Film Tone Pro - Film Tone 3/Lutify.me-FilmTone3-RWG-to-RWG.cube
# Created with: fylm.ai - Colour Grading and Collaboration Software in Cloud 
# Website: https://fylm.ai 
# META
# Option: Gamut compress
# Block 1: colourMatch | Blending Mode: Normal | {"ColorSpace":0,"CrossCovarianceLimit":50,"ReshapingIterations":1,"PercentSaturationShift":100,"PercentShadingShift":100,"ExtraShading":true,"PercentTint":100,"PercentModified":100}
# Block 2: subtractiveColour | Blending Mode: Normal | {"sliders":{"gainY":0.6,"C":0.3,"M":0.3,"Y":0.3}}
# Block 3: LUT | Filmic Curve Response: Low Contrast 2 (100%)
# Block 4: logPrimaries | Blending Mode: Normal | {"wheels":{"shadows":{"Y":"0","R":"1","G":"1","B":"1"},"midtones":{"Y":"0","R":"1","G":"1","B":"1"},"highlights":{"Y":"0","R":"1","G":"1","B":"1"},"offset":{"Y":"0","R":"1","G":"1","B":"1"}},"sliders":{"shadows":{"Y":0,"R":-0.026,"G":0.03,"B":0.1},"midtones":{"Y":0,"R":0.024,"G":-0.036,"B":0.036},"highlights":{"Y":0,"R":0,"G":0.044,"B":-0.128},"offset":{"Y":0,"R":0,"G":0,"B":0}}}
# Block 5: hueSaturation | Blending Mode: Normal | {"hue":0,"saturation":-0.1}
TITLE "ipp2" 
LUT_3D_SIZE 9
0.068354 0.076388 0.082875
0.105798 0.081717 0.087012
0.213989 0.091324 0.102408
0.327667 0.131681 0.139596
0.430204 0.207578 0.205537
0.531025 0.314792 0.297791
0.644032 0.423195 0.409191
0.773744 0.532727 0.528976
0.928781 0.658668 0.669102
0.077085 0.115381 0.094998
0.113210 0.119831 0.098449
0.231650 0.110772 0.110205
0.338010 0.144336 0.146308
0.430504 0.212971 0.206274
0.530964 0.316546 0.297677
0.644037 0.423850 0.409204
0.773748 0.533319 0.528988
0.928781 0.658668 0.669102
0.097303 0.211662 0.135227
0.118810 0.219464 0.140471
0.273242 0.229916 0.161041
0.367103 0.208698 0.175499
0.439524 0.233563 0.213808
0.533032 0.323411 0.299626
0.644133 0.425960 0.409691
0.773748 0.533319 0.528988
0.928742 0.658603 0.668951
0.142558 0.310597 0.199270
0.162961 0.317182 0.205053
0.255458 0.334394 0.222917
0.393221 0.332950 0.241321
0.470698 0.314693 0.257382
0.538094 0.343971 0.304542
0.645081 0.430663 0.409702
0.773878 0.535311 0.529586
0.928783 0.659089 0.669081
0.223909 0.407702 0.280169
0.236179 0.411339 0.283737
0.276623 0.418099 0.291225
0.385472 0.427036 0.306690
0.492418 0.422233 0.322751
0.572930 0.405631 0.344769
0.652032 0.449399 0.412109
0.776089 0.540364 0.531376
0.928827 0.660417 0.669170
0.328902 0.501234 0.367427
0.333213 0.502618 0.368849
0.348463 0.506863 0.373316
0.392453 0.509775 0.378056
0.491070 0.518780 0.394709
0.597107 0.506528 0.409222
0.695886 0.498283 0.450741
0.785926 0.557060 0.536442
0.931120 0.666714 0.671545
0.442034 0.609465 0.472716
0.442590 0.609507 0.472775
0.448132 0.611979 0.475320
0.460682 0.612860 0.476646
0.499241 0.619449 0.484705
0.600270 0.626480 0.500191
0.724537 0.608632 0.518565
0.843154 0.607431 0.583423
0.940887 0.687821 0.681201
0.558689 0.737928 0.599578
0.559162 0.737969 0.599631
0.560108 0.738050 0.599738
0.563969 0.738339 0.600150
0.575956 0.739211 0.601414
0.614285 0.741672 0.605495
0.732881 0.752905 0.626531
0.871332 0.729117 0.649625
0.958684 0.729112 0.700375
0.682844 0.872182 0.733192
0.682844 0.872182 0.733192
0.682844 0.872182 0.733192
0.684272 0.872303 0.733353
0.688082 0.872628 0.733782
0.701504 0.873695 0.735249
0.746453 0.879814 0.742985
0.893815 0.890868 0.768009
0.967654 0.876206 0.776083
0.072732 0.085956 0.109238
0.104197 0.088806 0.107945
0.208354 0.091649 0.105084
0.323365 0.130858 0.142632
0.428506 0.210336 0.208980
0.531651 0.315715 0.300318
0.644191 0.423485 0.410085
0.773744 0.532727 0.528976
0.928781 0.658668 0.669102
0.077623 0.108621 0.117274
0.106374 0.112330 0.114901
0.218524 0.105420 0.109045
0.330803 0.144315 0.147081
0.431900 0.216534 0.211410
0.531746 0.317699 0.300837
0.644236 0.424213 0.410321
0.773787 0.533389 0.529175
0.928781 0.658668 0.669102
0.095930 0.208077 0.134009
0.111894 0.216446 0.138457
0.267403 0.231740 0.160994
0.357342 0.210582 0.172824
0.436803 0.236795 0.216779
0.533811 0.324451 0.302374
0.644213 0.426105 0.410138
0.773787 0.533389 0.529175
0.928781 0.658668 0.669102
0.140189 0.308459 0.197600
0.161292 0.316891 0.204755
0.253414 0.334262 0.222678
0.393141 0.332022 0.240745
0.470698 0.314693 0.257382
0.537259 0.345642 0.306325
0.645280 0.430986 0.410741
0.773878 0.535311 0.529586
0.928783 0.659089 0.669081
0.222784 0.407513 0.279967
0.235005 0.410219 0.282717
0.275097 0.416975 0.290184
0.385312 0.426010 0.305850
0.492418 0.422233 0.322751
0.572930 0.405631 0.344769
0.651437 0.450361 0.412846
0.776089 0.540364 0.531376
0.928827 0.660417 0.669170
0.328024 0.501154 0.367324
0.333213 0.502618 0.368849
0.348463 0.506863 0.373316
0.392453 0.509775 0.378056
0.491070 0.518780 0.394709
0.597107 0.506528 0.409222
0.695886 0.498283 0.450741
0.786004 0.557171 0.536718
0.931120 0.666714 0.671545
0.441477 0.609424 0.472656
0.442590 0.609507 0.472775
0.448132 0.611979 0.475320
0.460682 0.612860 0.476646
0.499241 0.619449 0.484705
0.600270 0.626480 0.500191
0.724537 0.608632 0.518565
0.843154 0.607431 0.583423
0.940887 0.687821 0.681201
0.558689 0.737928 0.599578
0.559162 0.737969 0.599631
0.560108 0.738050 0.599738
0.563969 0.738339 0.600150
0.575956 0.739211 0.601414
0.614285 0.741672 0.605495
0.732881 0.752905 0.626531
0.871332 0.729117 0.649625
0.958684 0.729112 0.700375
0.682844 0.872182 0.733192
0.682844 0.872182 0.733192
0.682844 0.872182 0.733192
0.684272 0.872303 0.733353
0.688082 0.872628 0.733782
0.701504 0.873695 0.735249
0.746453 0.879814 0.742985
0.893815 0.890868 0.768009
0.967654 0.876206 0.776083
0.083188 0.104330 0.163210
0.092139 0.099945 0.151171
0.204936 0.101807 0.137424
0.320228 0.132399 0.169178
0.430072 0.214030 0.226374
0.533557 0.320102 0.309904
0.644669 0.424357 0.412771
0.773863 0.532939 0.529568
0.928781 0.658668 0.669102
0.088747 0.117317 0.185241
0.093473 0.114690 0.175860
0.212943 0.114418 0.160556
0.329874 0.149071 0.183336
0.431651 0.220023 0.228350
0.533567 0.321324 0.309869
0.644669 0.424357 0.412771
0.773863 0.532939 0.529568
0.928781 0.658668 0.669102
0.126193 0.222291 0.266097
0.128843 0.229355 0.260315
0.252185 0.260501 0.264512
0.351883 0.219831 0.214117
0.436218 0.242992 0.233405
0.535857 0.327655 0.311789
0.644765 0.426467 0.413255
0.773906 0.533601 0.529766
0.928781 0.658668 0.669102
0.143872 0.313984 0.225960
0.155479 0.319842 0.224805
0.226400 0.341929 0.235495
0.378629 0.344619 0.247129
0.457573 0.330522 0.263428
0.539155 0.349109 0.314990
0.645798 0.431883 0.413565
0.773996 0.535520 0.530147
0.928822 0.659154 0.669232
0.217839 0.405727 0.278260
0.229771 0.408577 0.281127
0.271864 0.415727 0.288956
0.383515 0.425897 0.305553
0.491322 0.421150 0.321742
0.572877 0.404754 0.344334
0.652739 0.453437 0.417310
0.776247 0.540643 0.532122
0.928866 0.660483 0.669321
0.326706 0.501034 0.367170
0.331152 0.501435 0.367688
0.345855 0.504620 0.371163
0.390998 0.509686 0.377895
0.490905 0.517737 0.393815
0.597107 0.506528 0.409222
0.695886 0.498283 0.450741
0.786279 0.557560 0.537685
0.931159 0.666771 0.671663
0.441477 0.609424 0.472656
0.442590 0.609507 0.472775
0.447008 0.611896 0.475201
0.460682 0.612860 0.476646
0.499241 0.619449 0.484705
0.600104 0.625426 0.499261
0.724537 0.608632 0.518565
0.843154 0.607431 0.583423
0.940884 0.687280 0.681120
0.558689 0.737928 0.599578
0.559162 0.737969 0.599631
0.559635 0.738009 0.599684
0.563969 0.738339 0.600150
0.575956 0.739211 0.601414
0.614285 0.741672 0.605495
0.732881 0.752905 0.626531
0.871332 0.729117 0.649625
0.958684 0.729112 0.700375
0.682844 0.872182 0.733192
0.682844 0.872182 0.733192
0.682844 0.872182 0.733192
0.684272 0.872303 0.733353
0.688082 0.872628 0.733782
0.701504 0.873695 0.735249
0.746453 0.879814 0.742985
0.893815 0.890868 0.768009
0.967654 0.876206 0.776083
0.096763 0.129799 0.216300
0.109279 0.124566 0.205424
0.192164 0.128545 0.204465
0.309412 0.124638 0.171820
0.428838 0.218774 0.285029
0.532456 0.323796 0.333901
0.645883 0.427535 0.420984
0.774222 0.533621 0.531652
0.926747 0.657662 0.667811
0.107513 0.149413 0.248124
0.114160 0.143901 0.236505
0.188039 0.145298 0.232460
0.311985 0.136092 0.199651
0.431024 0.226515 0.289463
0.532591 0.325713 0.334405
0.645974 0.428967 0.421424
0.774222 0.533621 0.531652
0.926747 0.657662 0.667811
0.137992 0.206265 0.310866
0.139390 0.204955 0.304519
0.192294 0.211630 0.303725
0.342877 0.210883 0.295424
0.439414 0.253989 0.303152
0.534145 0.333033 0.336716
0.646065 0.430400 0.421863
0.774225 0.534195 0.531603
0.928899 0.658864 0.669554
0.189364 0.322936 0.370996
0.190322 0.327472 0.370142
0.227478 0.357889 0.371417
0.377051 0.381405 0.377211
0.459329 0.345693 0.336858
0.542971 0.357735 0.345323
0.647242 0.434663 0.422637
0.774315 0.536114 0.531972
0.928939 0.659350 0.669685
0.223496 0.418591 0.343226
0.232013 0.423100 0.343331
0.260068 0.431942 0.344402
0.351718 0.448063 0.349408
0.479239 0.450622 0.350551
0.557863 0.434272 0.364788
0.651903 0.455399 0.426132
0.776563 0.541205 0.533647
0.928944 0.660613 0.669622
0.319472 0.498352 0.364462
0.325105 0.498873 0.365128
0.341064 0.503232 0.369710
0.388138 0.507441 0.375717
0.489039 0.517622 0.393492
0.595996 0.505427 0.408152
0.695837 0.497445 0.450371
0.784995 0.557962 0.539157
0.931276 0.666942 0.672018
0.440364 0.609341 0.472538
0.440921 0.609383 0.472597
0.444828 0.609672 0.473013
0.460028 0.612817 0.476578
0.498492 0.619404 0.484622
0.599159 0.625368 0.499094
0.724537 0.608632 0.518565
0.843111 0.606742 0.583191
0.941040 0.687485 0.681497
0.558689 0.737928 0.599578
0.558689 0.737928 0.599578
0.559635 0.738009 0.599684
0.563398 0.738298 0.600090
0.575956 0.739211 0.601414
0.614285 0.741672 0.605495
0.732881 0.752905 0.626531
0.871332 0.729117 0.649625
0.958554 0.727040 0.699676
0.682369 0.872141 0.733139
0.682844 0.872182 0.733192
0.682844 0.872182 0.733192
0.684272 0.872303 0.733353
0.688082 0.872628 0.733782
0.701504 0.873695 0.735249
0.744933 0.879724 0.742816
0.893815 0.890868 0.768009
0.967654 0.876206 0.776083
0.137368 0.156890 0.260463
0.147797 0.156180 0.258465
0.194497 0.158373 0.258900
0.300226 0.151143 0.234282
0.397568 0.161004 0.222939
0.530253 0.324086 0.387416
0.642818 0.428723 0.440113
0.775170 0.533927 0.537682
0.927021 0.658119 0.668868
0.144722 0.179141 0.292281
0.154120 0.179186 0.291854
0.190139 0.178531 0.288853
0.303600 0.177149 0.279676
0.397568 0.161004 0.222939
0.530519 0.326609 0.388580
0.645038 0.430690 0.441447
0.775170 0.533927 0.537682
0.927021 0.658119 0.668868
0.171132 0.235420 0.354201
0.177652 0.236159 0.354571
0.201849 0.237002 0.353267
0.309489 0.242462 0.356166
0.412824 0.221340 0.321709
0.532590 0.336702 0.393479
0.645129 0.432048 0.441801
0.775216 0.535142 0.537761
0.927021 0.658119 0.668868
0.198841 0.298305 0.399712
0.204240 0.301739 0.399567
0.223633 0.309326 0.400995
0.315906 0.321822 0.404008
0.449421 0.322339 0.400998
0.540294 0.364783 0.405622
0.646556 0.437784 0.443710
0.775303 0.536450 0.538137
0.929134 0.659255 0.670460
0.258358 0.409152 0.458364
0.257713 0.408769 0.457398
0.265008 0.429384 0.451477
0.344942 0.460623 0.462104
0.474397 0.478018 0.467721
0.558119 0.448564 0.436412
0.654181 0.460842 0.451004
0.777717 0.542906 0.540522
0.929219 0.661069 0.670679
0.318351 0.521558 0.443534
0.322276 0.522483 0.444481
0.335458 0.527211 0.445540
0.374424 0.536554 0.449081
0.456549 0.549770 0.454049
0.575936 0.554759 0.457410
0.669889 0.535680 0.473322
0.781360 0.561559 0.543722
0.931629 0.667495 0.673335
0.432103 0.605632 0.468722
0.433216 0.605715 0.468841
0.439836 0.608270 0.471503
0.454577 0.610379 0.474045
0.495891 0.618202 0.483362
0.597270 0.625251 0.498761
0.724476 0.607677 0.518001
0.843067 0.606053 0.582959
0.941744 0.688975 0.683540
0.557269 0.737806 0.599418
0.557269 0.737806 0.599418
0.558689 0.737928 0.599578
0.561686 0.738173 0.599909
0.574814 0.739128 0.601294
0.613528 0.741627 0.605411
0.732881 0.752905 0.626531
0.871225 0.727291 0.648673
0.958554 0.727040 0.699676
0.682369 0.872141 0.733139
0.682369 0.872141 0.733139
0.682369 0.872141 0.733139
0.683320 0.872222 0.733246
0.688082 0.872628 0.733782
0.700356 0.873612 0.735128
0.744933 0.879724 0.742816
0.891841 0.890733 0.767572
0.967654 0.876206 0.776083
0.214548 0.189460 0.305199
0.221362 0.190081 0.305737
0.245978 0.189125 0.302989
0.312157 0.192457 0.302320
0.390322 0.189404 0.283366
0.479125 0.209241 0.281437
0.638995 0.428162 0.481768
0.775847 0.537084 0.551495
0.927803 0.658680 0.672223
0.210531 0.212988 0.337028
0.216026 0.213514 0.337508
0.239653 0.210494 0.332674
0.302971 0.208579 0.326246
0.390322 0.189404 0.283366
0.479125 0.209241 0.281437
0.639088 0.428967 0.482588
0.775847 0.537084 0.551495
0.927803 0.658680 0.672223
0.227207 0.272491 0.402159
0.230531 0.271369 0.400668
0.247096 0.271509 0.400385
0.298811 0.271296 0.399135
0.406852 0.265986 0.387843
0.479125 0.209241 0.281437
0.639312 0.431322 0.483747
0.775890 0.537705 0.551652
0.927803 0.658680 0.672223
0.250787 0.328321 0.445363
0.254793 0.328939 0.445993
0.266691 0.330314 0.446733
0.311633 0.334756 0.448221
0.417810 0.340115 0.449898
0.517557 0.321637 0.428099
0.641268 0.441068 0.488674
0.776020 0.539572 0.552126
0.927844 0.659162 0.672349
0.278117 0.398188 0.485414
0.280518 0.400002 0.485531
0.289751 0.402268 0.486966
0.328850 0.411612 0.489909
0.423348 0.422207 0.491217
0.547303 0.421180 0.487923
0.648294 0.463956 0.497347
0.777520 0.545262 0.554814
0.927847 0.659970 0.672212
0.336006 0.492435 0.546608
0.336006 0.492435 0.546608
0.336006 0.492435 0.546608
0.357725 0.530121 0.542324
0.450876 0.560025 0.552704
0.570922 0.576692 0.557133
0.667813 0.545367 0.528997
0.783842 0.564735 0.560505
0.930294 0.666306 0.674792
0.433557 0.639137 0.548077
0.434946 0.639335 0.547899
0.439053 0.640773 0.548188
0.451163 0.645118 0.550669
0.486047 0.656890 0.556759
0.556249 0.670785 0.564051
0.689510 0.677305 0.574228
0.803975 0.654102 0.594390
0.937788 0.690772 0.684095
0.550477 0.733140 0.594711
0.550477 0.733140 0.594711
0.551896 0.733261 0.594871
0.556002 0.735656 0.597304
0.569743 0.736688 0.598773
0.609031 0.739259 0.602936
0.730779 0.751721 0.625200
0.871172 0.726379 0.648202
0.958510 0.726349 0.699443
0.680465 0.871978 0.732924
0.680941 0.872019 0.732978
0.680941 0.872019 0.732978
0.682369 0.872141 0.733139
0.686177 0.872466 0.733568
0.699209 0.873529 0.735007
0.744174 0.879679 0.742732
0.891841 0.890733 0.767572
0.967654 0.876206 0.776083
0.324334 0.227884 0.350705
0.326993 0.228195 0.350916
0.333196 0.228922 0.351410
0.356810 0.230755 0.351670
0.401279 0.231305 0.346510
0.470962 0.236447 0.336784
0.566273 0.272513 0.348571
0.764510 0.533927 0.582333
0.928348 0.659970 0.680658
0.318240 0.239916 0.366589
0.320419 0.238640 0.364822
0.329588 0.237469 0.362672
0.356810 0.230755 0.351670
0.401279 0.231305 0.346510
0.470962 0.236447 0.336784
0.566273 0.272513 0.348571
0.764510 0.533927 0.582333
0.928348 0.659970 0.680658
0.316253 0.307102 0.442839
0.317636 0.307145 0.442897
0.325038 0.306674 0.442277
0.344596 0.302537 0.437217
0.393481 0.282299 0.412462
0.470962 0.236447 0.336784
0.566188 0.272000 0.347577
0.764597 0.534650 0.583038
0.928389 0.660445 0.680780
0.330719 0.368968 0.499622
0.333031 0.368654 0.498882
0.337959 0.368289 0.498269
0.358885 0.368896 0.498739
0.406353 0.367654 0.496573
0.501443 0.361732 0.487467
0.566188 0.272000 0.347577
0.765833 0.536951 0.583872
0.928389 0.660445 0.680780
0.352817 0.429630 0.540809
0.353897 0.429755 0.540931
0.359113 0.430645 0.541526
0.373887 0.433054 0.543047
0.414069 0.435740 0.542366
0.514609 0.440343 0.543425
0.623736 0.422470 0.522589
0.768575 0.544840 0.587381
0.928512 0.661869 0.681144
0.377740 0.500935 0.585847
0.379164 0.501211 0.586123
0.383297 0.502083 0.585227
0.397328 0.504669 0.586399
0.432780 0.512851 0.587831
0.521021 0.522687 0.589241
0.652280 0.520984 0.584036
0.777924 0.568666 0.599991
0.929918 0.666954 0.682858
0.435799 0.587732 0.655924
0.435799 0.587732 0.655924
0.435799 0.587732 0.655924
0.435799 0.587732 0.655924
0.471528 0.643797 0.650896
0.553340 0.677285 0.657053
0.677653 0.695742 0.658785
0.796588 0.656717 0.633053
0.937997 0.692256 0.693398
0.563537 0.778103 0.669902
0.563757 0.778142 0.669944
0.564860 0.778338 0.670154
0.567788 0.779651 0.670436
0.577559 0.782918 0.672834
0.603912 0.795296 0.680619
0.671966 0.811871 0.692751
0.822620 0.824710 0.711552
0.959684 0.791751 0.733787
0.675856 0.871536 0.732367
0.676624 0.871616 0.732465
0.676624 0.871616 0.732465
0.677393 0.871696 0.732562
0.680941 0.872019 0.732978
0.694751 0.873197 0.734533
0.739786 0.877312 0.740267
0.889867 0.890598 0.767134
0.967654 0.876206 0.776083
0.420972 0.274120 0.400845
0.421951 0.274299 0.400953
0.422932 0.274479 0.401061
0.428695 0.274062 0.399795
0.443143 0.273148 0.396699
0.479680 0.271793 0.387693
0.555882 0.289752 0.387809
0.666547 0.353820 0.425751
0.917275 0.654993 0.704561
0.420972 0.274120 0.400845
0.421951 0.274299 0.400953
0.422932 0.274479 0.401061
0.428695 0.274062 0.399795
0.443143 0.273148 0.396699
0.479680 0.271793 0.387693
0.555882 0.289752 0.387809
0.666547 0.353820 0.425751
0.917275 0.654993 0.704561
0.406758 0.298395 0.431801
0.407533 0.297642 0.430864
0.410009 0.296256 0.429064
0.423855 0.288582 0.418523
0.443143 0.273148 0.396699
0.479680 0.271793 0.387693
0.555882 0.289752 0.387809
0.666547 0.353820 0.425751
0.917316 0.655404 0.704650
0.419703 0.409051 0.547621
0.421215 0.409181 0.547721
0.422726 0.409310 0.547821
0.428368 0.408693 0.547085
0.444281 0.403713 0.541568
0.486873 0.383135 0.519508
0.555882 0.289752 0.387809
0.666547 0.353820 0.425751
0.917357 0.655815 0.704739
0.435996 0.472300 0.599629
0.435996 0.472300 0.599629
0.437704 0.472448 0.599760
0.443444 0.472944 0.600199
0.461902 0.473174 0.600378
0.503182 0.469885 0.595704
0.601838 0.465051 0.588854
0.664399 0.352088 0.424273
0.917563 0.657724 0.705628
0.462362 0.536502 0.649355
0.462362 0.536502 0.649355
0.463754 0.536637 0.649481
0.468034 0.537380 0.649921
0.480125 0.537375 0.648107
0.515342 0.539800 0.648799
0.614399 0.543327 0.649458
0.748638 0.530403 0.624963
0.921439 0.665525 0.710078
0.491584 0.608550 0.699791
0.492207 0.609156 0.699955
0.493104 0.609317 0.700113
0.497084 0.610934 0.700841
0.507970 0.612905 0.700571
0.538194 0.620206 0.701376
0.620560 0.628792 0.700359
0.778964 0.627320 0.693661
0.929878 0.689919 0.721845
0.560580 0.703410 0.787782
0.560580 0.703410 0.787782
0.560580 0.703410 0.787782
0.560580 0.703410 0.787782
0.560580 0.703410 0.787782
0.598499 0.778904 0.775577
0.669199 0.817609 0.784177
0.806031 0.840393 0.789126
0.953078 0.797102 0.764915
0.709548 0.934054 0.814673
0.709548 0.934054 0.814673
0.709823 0.934132 0.814754
0.710235 0.934248 0.814875
0.713685 0.936759 0.816853
0.722130 0.942811 0.821121
0.743636 0.953436 0.828820
0.805147 0.969334 0.841510
0.978207 0.985591 0.866432
0.499503 0.309339 0.434069
0.500527 0.309590 0.434209
0.500527 0.309590 0.434209
0.502497 0.309352 0.433547
0.507540 0.309868 0.433306
0.523966 0.313421 0.434295
0.563908 0.318944 0.430437
0.652070 0.356700 0.444956
0.787338 0.461533 0.525549
0.499503 0.309339 0.434069
0.499503 0.309339 0.434069
0.500527 0.309590 0.434209
0.502497 0.309352 0.433547
0.507540 0.309868 0.433306
0.523966 0.313421 0.434295
0.563908 0.318944 0.430437
0.652070 0.356700 0.444956
0.787338 0.461533 0.525549
0.499503 0.309339 0.434069
0.499503 0.309339 0.434069
0.500527 0.309590 0.434209
0.502497 0.309352 0.433547
0.507540 0.309868 0.433306
0.523966 0.313421 0.434295
0.563908 0.318944 0.430437
0.652070 0.356700 0.444956
0.787338 0.461533 0.525549
0.488671 0.396955 0.537030
0.488633 0.396903 0.536991
0.488017 0.393870 0.533741
0.492411 0.388473 0.527645
0.502934 0.356585 0.491242
0.523966 0.313421 0.434295
0.563908 0.318944 0.430437
0.652070 0.356700 0.444956
0.787338 0.461533 0.525549
0.519788 0.518920 0.656796
0.519788 0.518920 0.656796
0.520473 0.518978 0.656842
0.522525 0.519151 0.656982
0.528510 0.519543 0.657336
0.546687 0.512561 0.649823
0.583193 0.491950 0.629430
0.652070 0.356700 0.444956
0.787338 0.461533 0.525549
0.543261 0.586418 0.716180
0.543261 0.586418 0.716180
0.543904 0.586675 0.716273
0.545651 0.586825 0.716405
0.549888 0.585492 0.714678
0.565201 0.586183 0.715656
0.605423 0.583589 0.711958
0.719943 0.577794 0.701519
0.787338 0.461533 0.525549
0.573339 0.649238 0.768564
0.573339 0.649238 0.768564
0.573728 0.649281 0.768605
0.575083 0.650097 0.768849
0.577901 0.650744 0.769197
0.589111 0.651832 0.770208
0.620904 0.652283 0.767802
0.730399 0.655418 0.767098
0.899502 0.653231 0.746405
0.617846 0.735183 0.831975
0.617846 0.735183 0.831975
0.618300 0.735264 0.832054
0.618981 0.735385 0.832174
0.622237 0.737451 0.832903
0.628092 0.740501 0.828836
0.653712 0.745894 0.830171
0.739852 0.755915 0.829743
0.933431 0.760727 0.828834
0.664828 0.823143 0.885042
0.664828 0.823143 0.885042
0.664828 0.823143 0.885042
0.664828 0.823143 0.885042
0.664828 0.823143 0.885042
0.664828 0.823143 0.885042
0.744923 0.937759 0.920192
0.806915 0.975329 0.931980
0.961910 0.999909 0.939126
