Assets/Lutify-Free-LUTs-Pack/Lutify Free LUTs Pack/Film Tone Pro - Film Tone 3/Lutify.me-FilmTone3-LogC3-to-Rec709.cube
# Created with: fylm.ai - Colour Grading and Collaboration Software in Cloud 
# Website: https://fylm.ai 
# META
# Option: Gamut compress
# Block 1: IDT | Arri Alexa - LogC3
# Block 2: colourMatch | Blending Mode: Normal | {"ColorSpace":0,"CrossCovarianceLimit":50,"ReshapingIterations":1,"PercentSaturationShift":100,"PercentShadingShift":100,"ExtraShading":true,"PercentTint":100,"PercentModified":100}
# Block 3: subtractiveColour | Blending Mode: Normal | {"sliders":{"gainY":0.6,"C":0.3,"M":0.3,"Y":0.3}}
# Block 4: LUT | Filmic Curve Response: Low Contrast 2 (100%)
# Block 5: logPrimaries | Blending Mode: Normal | {"wheels":{"shadows":{"Y":"0","R":"1","G":"1","B":"1"},"midtones":{"Y":"0","R":"1","G":"1","B":"1"},"highlights":{"Y":"0","R":"1","G":"1","B":"1"},"offset":{"Y":"0","R":"1","G":"1","B":"1"}},"sliders":{"shadows":{"Y":0,"R":-0.026,"G":0.03,"B":0.1},"midtones":{"Y":0,"R":0.024,"G":-0.036,"B":0.036},"highlights":{"Y":0,"R":0,"G":0.044,"B":-0.128},"offset":{"Y":0,"R":0,"G":0,"B":0}}}
# Block 6: hueSaturation | Blending Mode: Normal | {"hue":0,"saturation":-0.1}
# Block 7: ODT | Rec709
TITLE "Lutify.me-FilmTone3-LogC3-to-Rec709" 
LUT_3D_SIZE 5
0.000000 0.000000 0.000000
0.132445 0.000000 0.000000
0.573677 0.000000 0.000000
1.000000 0.419476 0.285678
1.000000 0.894255 0.790581
0.000000 0.130056 0.000000
0.208799 0.146774 0.000000
0.630281 0.000000 0.000000
1.000000 0.437808 0.285086
1.000000 0.895211 0.790686
0.000000 0.568022 0.000000
0.000000 0.587303 0.000000
0.738487 0.580212 0.000000
1.000000 0.620781 0.289479
1.000000 0.899222 0.791580
0.459295 0.949869 0.254273
0.494498 0.949128 0.255566
0.674225 0.947544 0.260687
0.976907 0.939736 0.350774
1.000000 0.943324 0.815556
0.920236 1.000000 0.872334
0.921084 1.000000 0.872404
0.924446 1.000000 0.872017
0.955164 1.000000 0.877886
1.000000 1.000000 0.909110
0.000000 0.000000 0.078078
0.108895 0.000000 0.046773
0.575346 0.000000 0.073248
1.000000 0.420139 0.303341
1.000000 0.894287 0.792284
0.000000 0.098433 0.180646
0.130759 0.155400 0.161420
0.623145 0.000000 0.088289
1.000000 0.438608 0.305207
1.000000 0.895243 0.792386
0.000000 0.590606 0.000000
0.000000 0.619408 0.000000
0.713874 0.630955 0.000000
1.000000 0.622567 0.325895
1.000000 0.898318 0.793154
0.432923 0.950991 0.321885
0.470462 0.950285 0.325776
0.667602 0.948315 0.320221
0.976542 0.940252 0.398305
1.000000 0.943342 0.817027
0.920224 1.000000 0.873673
0.921072 1.000000 0.873742
0.924707 1.000000 0.875391
0.954478 1.000000 0.879636
1.000000 1.000000 0.909917
0.000000 0.000000 0.233181
0.034129 0.000000 0.159693
0.483503 0.000000 0.147912
1.000000 0.397204 0.477520
1.000000 0.893524 0.802245
0.000000 0.000000 0.370964
0.000000 0.000000 0.343435
0.605544 0.000000 0.360505
1.000000 0.422947 0.480359
1.000000 0.894483 0.802336
0.000000 0.549034 0.629615
0.000000 0.594583 0.639647
0.649603 0.657866 0.628761
1.000000 0.605374 0.504570
1.000000 0.898507 0.803130
0.407117 0.954077 0.574517
0.439467 0.953501 0.575114
0.648878 0.951524 0.574314
0.966377 0.948128 0.603287
1.000000 0.942809 0.825574
0.920151 1.000000 0.881629
0.920151 1.000000 0.881629
0.923517 1.000000 0.881218
0.953041 1.000000 0.885632
1.000000 1.000000 0.913600
0.000000 0.000000 0.364179
0.070252 0.000000 0.362839
0.447921 0.000000 0.364703
1.000000 0.000000 0.678817
1.000000 0.889358 0.867568
0.000000 0.000000 0.365048
0.081298 0.000000 0.363240
0.451216 0.000000 0.364777
1.000000 0.000000 0.730121
1.000000 0.890846 0.867988
0.000000 0.210542 0.834086
0.000000 0.219631 0.835449
0.290682 0.253355 0.839245
1.000000 0.270238 0.833691
1.000000 0.895733 0.869393
0.000000 0.950739 0.920594
0.000000 0.950089 0.920846
0.370887 0.949275 0.920085
0.933561 0.947906 0.917011
1.000000 0.939925 0.882625
0.914992 1.000000 0.924664
0.914992 1.000000 0.924664
0.919559 1.000000 0.925446
0.949032 1.000000 0.925537
1.000000 1.000000 0.939771
0.521773 0.000000 0.631818
0.536849 0.000000 0.632120
0.652061 0.000000 0.634477
0.954708 0.000000 0.570511
1.000000 0.586347 0.959233
0.521773 0.000000 0.631818
0.540630 0.000000 0.632196
0.655951 0.000000 0.634559
0.954708 0.000000 0.570511
1.000000 0.594759 0.960524
0.536849 0.000000 0.632120
0.555801 0.000000 0.632500
0.667632 0.000000 0.634809
0.954708 0.000000 0.570511
1.000000 0.671016 0.965242
0.000000 0.753915 0.995268
0.000000 0.753808 0.995255
0.332797 0.763379 0.994467
0.836326 0.778795 0.990928
1.000000 0.863308 0.981493
0.851519 1.000000 1.000000
0.852672 1.000000 1.000000
0.860440 1.000000 1.000000
0.915686 1.000000 1.000000
1.000000 1.000000 1.000000
