Assets/Lutify-Free-LUTs-Pack/Lutify Free LUTs Pack/Film Tone Pro - Film Tone 3/Lutify.me-FilmTone3-SLog1-to-Rec709.cube
# Created with: fylm.ai - Colour Grading and Collaboration Software in Cloud 
# Website: https://fylm.ai 
# META
# Option: Gamut compress
# Block 1: IDT | Sony S-Log S-Gamut 10-bit
# Block 2: colourMatch | Blending Mode: Normal | {"ColorSpace":0,"CrossCovarianceLimit":50,"ReshapingIterations":1,"PercentSaturationShift":100,"PercentShadingShift":100,"ExtraShading":true,"PercentTint":100,"PercentModified":100}
# Block 3: subtractiveColour | Blending Mode: Normal | {"sliders":{"gainY":0.6,"C":0.3,"M":0.3,"Y":0.3}}
# Block 4: LUT | Filmic Curve Response: Low Contrast 2 (100%)
# Block 5: logPrimaries | Blending Mode: Normal | {"wheels":{"shadows":{"Y":"0","R":"1","G":"1","B":"1"},"midtones":{"Y":"0","R":"1","G":"1","B":"1"},"highlights":{"Y":"0","R":"1","G":"1","B":"1"},"offset":{"Y":"0","R":"1","G":"1","B":"1"}},"sliders":{"shadows":{"Y":0,"R":-0.026,"G":0.03,"B":0.1},"midtones":{"Y":0,"R":0.024,"G":-0.036,"B":0.036},"highlights":{"Y":0,"R":0,"G":0.044,"B":-0.128},"offset":{"Y":0,"R":0,"G":0,"B":0}}}
# Block 6: hueSaturation | Blending Mode: Normal | {"hue":0,"saturation":-0.1}
# Block 7: ODT | Rec709
TITLE "Lutify.me-FilmTone3-SLog1-to-Rec709" 
LUT_3D_SIZE 33
0.000000 0.000000 0.000000
0.000000 0.000000 0.000000
0.000000 0.000000 0.000000
0.000000 0.000000 0.000000
0.041326 0.000000 0.000000
0.085481 0.000000 0.000000
0.118502 0.000000 0.000000
0.146434 0.000000 0.000000
0.175736 0.000000 0.000000
0.207858 0.000000 0.000000
0.240842 0.000000 0.000000
0.277640 0.000000 0.000000
0.317919 0.000000 0.000000
0.362941 0.000000 0.000000
0.408383 0.000000 0.000000
0.449556 0.000000 0.000000
0.503177 0.000000 0.000000
0.568781 0.000000 0.000000
0.626965 0.000000 0.000000
0.683485 0.000000 0.000000
0.738507 0.000000 0.022902
0.798122 0.000000 0.044247
0.858761 0.000000 0.061258
0.910288 0.000000 0.081285
0.949751 0.000000 0.104714
0.985183 0.000000 0.129095
1.000000 0.000000 0.155875
1.000000 0.087526 0.187136
1.000000 0.216206 0.228398
1.000000 0.281396 0.261654
1.000000 0.363053 0.299024
1.000000 0.428251 0.344588
1.000000 0.492929 0.389748
0.000000 0.000000 0.000000
0.000000 0.000000 0.000000
0.000000 0.000000 0.000000
0.000000 0.000000 0.000000
0.041808 0.000000 0.000000
0.085481 0.000000 0.000000
0.120977 0.000000 0.000000
0.148117 0.000000 0.000000
0.180051 0.000000 0.000000
0.211867 0.000000 0.000000
0.247298 0.000000 0.000000
0.285052 0.000000 0.000000
0.326465 0.000000 0.000000
0.375779 0.000000 0.000000
0.414842 0.000000 0.000000
0.457117 0.000000 0.000000
0.511681 0.000000 0.000000
0.573801 0.000000 0.000000
0.635749 0.000000 0.000000
0.688881 0.000000 0.000000
0.739824 0.000000 0.023807
0.798745 0.000000 0.043444
0.859184 0.000000 0.060678
0.910821 0.000000 0.082667
0.950007 0.000000 0.105263
0.985173 0.000000 0.128736
1.000000 0.000000 0.156946
1.000000 0.100156 0.189989
1.000000 0.216206 0.228398
1.000000 0.285578 0.261518
1.000000 0.363191 0.301190
1.000000 0.428251 0.344588
1.000000 0.496227 0.389674
0.000000 0.000000 0.000000
0.000000 0.000000 0.000000
0.000000 0.000000 0.000000
0.000000 0.000000 0.000000
0.045017 0.000000 0.000000
0.087913 0.000000 0.000000
0.123806 0.000000 0.000000
0.152735 0.000000 0.000000
0.183543 0.000000 0.000000
0.219111 0.000000 0.000000
0.259283 0.000000 0.000000
0.292782 0.000000 0.000000
0.333710 0.000000 0.000000
0.381556 0.000000 0.000000
0.424566 0.000000 0.000000
0.470827 0.000000 0.000000
0.523260 0.000000 0.000000
0.578968 0.000000 0.000000
0.640683 0.000000 0.000000
0.690338 0.000000 0.000000
0.744853 0.000000 0.024134
0.799624 0.000000 0.043321
0.859754 0.000000 0.062047
0.914235 0.000000 0.082210
0.950117 0.000000 0.104861
0.985160 0.000000 0.128481
1.000000 0.000000 0.156551
1.000000 0.110423 0.189840
1.000000 0.216206 0.228398
1.000000 0.293840 0.261238
1.000000 0.366864 0.301067
1.000000 0.428251 0.344588
1.000000 0.496354 0.392299
0.000000 0.000000 0.000000
0.000000 0.000000 0.000000
0.000000 0.000000 0.000000
0.000000 0.000000 0.000000
0.053201 0.000000 0.000000
0.096822 0.000000 0.000000
0.126956 0.000000 0.000000
0.157377 0.000000 0.000000
0.192139 0.000000 0.000000
0.226943 0.000000 0.000000
0.268812 0.000000 0.000000
0.299155 0.000000 0.000000
0.343206 0.000000 0.000000
0.390560 0.000000 0.000000
0.428982 0.000000 0.000000
0.482053 0.000000 0.000000
0.531764 0.000000 0.000000
0.587539 0.000000 0.000000
0.642136 0.000000 0.000000
0.695345 0.000000 0.000000
0.746025 0.000000 0.023074
0.803724 0.000000 0.042593
0.860625 0.000000 0.062917
0.914738 0.000000 0.083565
0.950151 0.000000 0.104721
0.985380 0.000000 0.131809
1.000000 0.000000 0.156622
1.000000 0.128084 0.189531
1.000000 0.226053 0.228097
1.000000 0.293840 0.261238
1.000000 0.367514 0.301462
1.000000 0.435162 0.344395
1.000000 0.499650 0.392226
0.000000 0.044292 0.000000
0.000000 0.044461 0.000000
0.000000 0.043782 0.000000
0.000000 0.045789 0.000000
0.041059 0.047695 0.000000
0.097617 0.026049 0.000000
0.136007 0.000000 0.000000
0.172942 0.000000 0.000000
0.209045 0.000000 0.000000
0.243793 0.000000 0.000000
0.277554 0.000000 0.000000
0.310020 0.000000 0.000000
0.351467 0.000000 0.000000
0.394856 0.000000 0.000000
0.439544 0.000000 0.000000
0.487340 0.000000 0.000000
0.540202 0.000000 0.000000
0.592496 0.000000 0.000000
0.647877 0.000000 0.000000
0.696802 0.000000 0.000000
0.750917 0.000000 0.023250
0.804849 0.000000 0.043060
0.867983 0.000000 0.062219
0.915051 0.000000 0.084083
0.950442 0.000000 0.106433
0.985340 0.000000 0.131410
1.000000 0.000000 0.156473
1.000000 0.136063 0.189649
1.000000 0.226540 0.228403
1.000000 0.303480 0.265519
1.000000 0.374811 0.301212
1.000000 0.435162 0.344395
1.000000 0.499650 0.392226
0.000000 0.069598 0.000000
0.000000 0.069598 0.000000
0.000000 0.069917 0.000000
0.000000 0.073688 0.000000
0.000000 0.078579 0.000000
0.091309 0.075074 0.000000
0.142804 0.055717 0.000000
0.186265 0.031006 0.000000
0.230741 0.000000 0.000000
0.266004 0.000000 0.000000
0.296794 0.000000 0.000000
0.331090 0.000000 0.000000
0.368143 0.000000 0.000000
0.405558 0.000000 0.000000
0.448372 0.000000 0.000000
0.495972 0.000000 0.000000
0.545794 0.000000 0.000000
0.598263 0.000000 0.000000
0.653234 0.000000 0.000000
0.702475 0.000000 0.000000
0.752341 0.000000 0.022599
0.805723 0.000000 0.043898
0.868465 0.000000 0.061218
0.915437 0.000000 0.083063
0.953441 0.000000 0.108320
0.987764 0.000000 0.133648
1.000000 0.000000 0.157515
1.000000 0.150881 0.192378
1.000000 0.231693 0.231706
1.000000 0.311469 0.265230
1.000000 0.374811 0.301212
1.000000 0.439962 0.345200
1.000000 0.499650 0.392226
0.000000 0.095238 0.000000
0.000000 0.095966 0.000000
0.000000 0.097657 0.000000
0.000000 0.100329 0.000000
0.000000 0.108283 0.000000
0.064335 0.112342 0.000000
0.147246 0.098886 0.000000
0.202592 0.081799 0.000000
0.243116 0.055319 0.000000
0.283278 0.000000 0.000000
0.314076 0.000000 0.000000
0.348575 0.000000 0.000000
0.386909 0.000000 0.000000
0.419872 0.000000 0.000000
0.460227 0.000000 0.000000
0.505578 0.000000 0.000000
0.555788 0.000000 0.000000
0.607883 0.000000 0.000000
0.666286 0.000000 0.000000
0.707482 0.000000 0.000000
0.761063 0.000000 0.021002
0.810769 0.000000 0.041935
0.872975 0.000000 0.061166
0.918802 0.000000 0.082203
0.953557 0.000000 0.107527
0.987692 0.000000 0.133204
1.000000 0.000000 0.157284
1.000000 0.157525 0.192211
1.000000 0.236440 0.231551
1.000000 0.315426 0.265083
1.000000 0.378444 0.301084
1.000000 0.443394 0.345101
1.000000 0.506238 0.392077
0.000000 0.122314 0.000000
0.000000 0.126058 0.000000
0.000000 0.130199 0.000000
0.000000 0.131759 0.000000
0.000000 0.141744 0.000000
0.000000 0.150481 0.000000
0.126803 0.151760 0.000000
0.201986 0.136261 0.000000
0.253630 0.112317 0.000000
0.294437 0.091215 0.000000
0.333033 0.064179 0.000000
0.369940 0.000000 0.000000
0.405721 0.000000 0.000000
0.445848 0.000000 0.000000
0.474671 0.000000 0.000000
0.516596 0.000000 0.000000
0.566209 0.000000 0.000000
0.621840 0.000000 0.000000
0.672354 0.000000 0.000000
0.716578 0.000000 0.000000
0.766165 0.000000 0.005405
0.812350 0.000000 0.043375
0.873747 0.000000 0.061672
0.919239 0.000000 0.083446
0.953645 0.000000 0.106638
0.990019 0.000000 0.135294
1.000000 0.000000 0.159157
1.000000 0.176373 0.192250
1.000000 0.245766 0.231230
1.000000 0.323272 0.264779
1.000000 0.382205 0.303145
1.000000 0.450246 0.344897
1.000000 0.509530 0.392000
0.000000 0.155614 0.000000
0.000000 0.156789 0.000000
0.000000 0.161930 0.000000
0.000000 0.163946 0.000000
0.000000 0.173475 0.000000
0.000000 0.186936 0.000000
0.048572 0.189186 0.000000
0.189740 0.186761 0.000000
0.259253 0.166970 0.000000
0.308227 0.148843 0.000000
0.346724 0.129435 0.000000
0.385529 0.108901 0.000000
0.425757 0.078664 0.000000
0.461495 0.000000 0.000000
0.503453 0.000000 0.000000
0.539700 0.000000 0.000000
0.581330 0.000000 0.000000
0.632337 0.000000 0.000000
0.682366 0.000000 0.000000
0.729762 0.000000 0.000000
0.775092 0.000000 0.000000
0.817209 0.000000 0.038853
0.878237 0.000000 0.062273
0.922866 0.000000 0.083852
0.959183 0.000000 0.108280
0.989777 0.000000 0.134247
1.000000 0.045440 0.158847
1.000000 0.182326 0.193620
1.000000 0.255697 0.234726
1.000000 0.327453 0.268577
1.000000 0.385819 0.303015
1.000000 0.450246 0.344897
1.000000 0.514228 0.392930
0.000000 0.183629 0.000000
0.000000 0.185004 0.000000
0.000000 0.192470 0.000000
0.000000 0.196323 0.000000
0.000000 0.207224 0.000000
0.000000 0.217454 0.000000
0.000000 0.223263 0.000000
0.141697 0.227609 0.000000
0.247093 0.218740 0.000000
0.313084 0.198307 0.000000
0.358178 0.179236 0.000000
0.398293 0.163897 0.000000
0.443262 0.142612 0.000000
0.483566 0.118898 0.000000
0.517377 0.092050 0.000000
0.566985 0.000000 0.000000
0.594764 0.000000 0.000000
0.644413 0.000000 0.000000
0.693369 0.000000 0.000000
0.740282 0.000000 0.000000
0.780899 0.000000 0.000000
0.826192 0.000000 0.034040
0.879165 0.000000 0.061416
0.923503 0.000000 0.085073
0.959536 0.000000 0.111705
0.991810 0.000000 0.135666
1.000000 0.124792 0.161852
1.000000 0.209057 0.192644
1.000000 0.268961 0.234215
1.000000 0.339007 0.268111
1.000000 0.396607 0.302614
1.000000 0.453667 0.344793
1.000000 0.517505 0.392853
0.000000 0.217538 0.000000
0.000000 0.219125 0.000000
0.000000 0.227417 0.000000
0.000000 0.231571 0.000000
0.000000 0.243161 0.000000
0.000000 0.249848 0.000000
0.000000 0.260838 0.000000
0.000000 0.262523 0.000000
0.200341 0.266794 0.000000
0.298669 0.256953 0.000000
0.361849 0.234614 0.000000
0.411515 0.213468 0.000000
0.454849 0.195037 0.000000
0.502567 0.175186 0.000000
0.537422 0.162381 0.000000
0.580037 0.136709 0.000000
0.621585 0.101303 0.000000
0.660737 0.000000 0.000000
0.704769 0.000000 0.000000
0.747366 0.000000 0.000000
0.790749 0.000000 0.000000
0.838696 0.000000 0.027946
0.886869 0.000000 0.062682
0.923964 0.000000 0.084982
0.962144 0.000000 0.111939
0.993771 0.000000 0.137198
1.000000 0.153930 0.164109
1.000000 0.224495 0.195468
1.000000 0.287100 0.235919
1.000000 0.350547 0.269634
1.000000 0.400458 0.306928
1.000000 0.464552 0.344935
1.000000 0.527456 0.395255
0.000000 0.251003 0.000000
0.000000 0.251002 0.000000
0.000000 0.260286 0.000000
0.000000 0.266815 0.000000
0.000000 0.276552 0.000000
0.000000 0.285391 0.000000
0.000000 0.295722 0.000000
0.000000 0.298939 0.000000
0.141462 0.299656 0.000000
0.261903 0.301927 0.000000
0.347963 0.293569 0.000000
0.416960 0.268285 0.000000
0.470112 0.249215 0.000000
0.515461 0.234421 0.000000
0.557819 0.225722 0.000000
0.597156 0.204593 0.000000
0.638237 0.182783 0.000000
0.677457 0.157014 0.000000
0.717160 0.108292 0.000000
0.758721 0.000000 0.000000
0.805031 0.000000 0.000000
0.847794 0.000000 0.015353
0.894629 0.000000 0.063013
0.933291 0.000000 0.085966
0.966973 0.000000 0.111974
0.995305 0.127729 0.137827
1.000000 0.189491 0.165604
1.000000 0.239203 0.199648
1.000000 0.303850 0.238810
1.000000 0.358876 0.273731
1.000000 0.415281 0.306782
1.000000 0.468214 0.349797
1.000000 0.530729 0.395175
0.000000 0.285444 0.000000
0.000000 0.287574 0.000000
0.000000 0.294419 0.000000
0.000000 0.297747 0.000000
0.000000 0.312557 0.000000
0.000000 0.320260 0.000000
0.000000 0.335676 0.000000
0.000000 0.344530 0.000000
0.000000 0.347372 0.000000
0.189619 0.352395 0.000000
0.291893 0.353339 0.000000
0.400705 0.341488 0.000000
0.473366 0.308307 0.000000
0.527162 0.293208 0.000000
0.572122 0.280762 0.000000
0.613323 0.268452 0.000000
0.651701 0.256046 0.000000
0.693842 0.236048 0.000000
0.730452 0.218077 0.000000
0.774959 0.194948 0.000000
0.816341 0.159112 0.000000
0.856779 0.091949 0.000000
0.905082 0.000000 0.057180
0.939234 0.063150 0.086591
0.968953 0.133971 0.113304
0.998907 0.178087 0.140116
1.000000 0.220156 0.167264
1.000000 0.266867 0.201828
1.000000 0.324081 0.241544
1.000000 0.373740 0.273060
1.000000 0.426149 0.310896
1.000000 0.482412 0.349838
1.000000 0.540668 0.397584
0.000000 0.325465 0.000000
0.000000 0.325932 0.000000
0.000000 0.340546 0.000000
0.000000 0.342260 0.000000
0.000000 0.354410 0.000000
0.000000 0.365551 0.000000
0.000000 0.377343 0.000000
0.000000 0.389664 0.000000
0.000000 0.396184 0.000000
0.000000 0.398189 0.000000
0.208317 0.404276 0.000000
0.341218 0.402775 0.000000
0.454675 0.392835 0.000000
0.523337 0.364850 0.000000
0.585032 0.348723 0.000000
0.626172 0.334146 0.000000
0.662941 0.329065 0.000000
0.713180 0.316330 0.000000
0.745339 0.289328 0.000000
0.786325 0.275958 0.000000
0.826745 0.257317 0.000000
0.865707 0.229846 0.000000
0.908574 0.192604 0.039801
0.944191 0.179689 0.081647
0.972746 0.195460 0.111782
0.999994 0.218554 0.140489
1.000000 0.257365 0.169742
1.000000 0.301180 0.206572
1.000000 0.347594 0.244097
1.000000 0.389059 0.274791
1.000000 0.440889 0.313033
1.000000 0.489301 0.352142
1.000000 0.547858 0.397927
0.000000 0.364464 0.000000
0.000000 0.367759 0.000000
0.000000 0.379318 0.000000
0.000000 0.389432 0.000000
0.000000 0.395052 0.000000
0.000000 0.407252 0.000000
0.000000 0.416367 0.000000
0.000000 0.426317 0.000000
0.000000 0.436696 0.000000
0.000000 0.442753 0.000000
0.000000 0.450258 0.000000
0.258490 0.453102 0.000000
0.401008 0.447686 0.000000
0.512024 0.434025 0.000000
0.576688 0.414553 0.000000
0.624476 0.408747 0.000000
0.672866 0.387776 0.000000
0.721802 0.382751 0.000000
0.762168 0.368099 0.000000
0.795912 0.351104 0.000000
0.834838 0.335538 0.000000
0.875628 0.319967 0.000000
0.913384 0.288130 0.000000
0.945676 0.255109 0.077315
0.973621 0.254484 0.114203
1.000000 0.263526 0.141177
1.000000 0.296070 0.171431
1.000000 0.329527 0.206687
1.000000 0.366644 0.244936
1.000000 0.407458 0.278087
1.000000 0.455932 0.313274
1.000000 0.503996 0.352653
1.000000 0.554506 0.400425
0.000000 0.410289 0.000000
0.000000 0.414196 0.000000
0.000000 0.427042 0.000000
0.000000 0.435531 0.000000
0.000000 0.438357 0.000000
0.000000 0.450527 0.000000
0.000000 0.460197 0.000000
0.000000 0.475713 0.000000
0.000000 0.480248 0.000000
0.000000 0.495975 0.000000
0.000000 0.504223 0.000000
0.076745 0.505211 0.000000
0.310333 0.504538 0.000000
0.458685 0.501415 0.000000
0.555095 0.491269 0.000000
0.613340 0.474737 0.000000
0.670323 0.452740 0.000000
0.723691 0.438638 0.000000
0.769637 0.434341 0.000000
0.807139 0.417893 0.000000
0.841562 0.404163 0.000000
0.880426 0.394275 0.000000
0.916143 0.380726 0.000000
0.946860 0.348317 0.046387
0.974458 0.331036 0.107693
0.998916 0.329101 0.139719
1.000000 0.340205 0.172423
1.000000 0.364721 0.209648
1.000000 0.397058 0.249336
1.000000 0.433385 0.283601
1.000000 0.477482 0.317473
1.000000 0.524945 0.357598
1.000000 0.567792 0.405452
0.000000 0.464995 0.000000
0.000000 0.472677 0.000000
0.000000 0.483781 0.000000
0.000000 0.495294 0.000000
0.000000 0.498132 0.000000
0.000000 0.503847 0.000000
0.000000 0.513212 0.000000
0.000000 0.519419 0.000000
0.000000 0.532420 0.000000
0.000000 0.535909 0.000000
0.000000 0.544648 0.000000
0.000000 0.555627 0.000000
0.173859 0.556063 0.000000
0.365525 0.557816 0.000000
0.487924 0.555231 0.000000
0.600442 0.547917 0.000000
0.661938 0.524099 0.000000
0.719220 0.508938 0.000000
0.776436 0.501518 0.000000
0.814996 0.488818 0.000000
0.849331 0.476142 0.000000
0.883756 0.460318 0.000000
0.915449 0.444782 0.000000
0.948474 0.432472 0.000000
0.973187 0.409260 0.094328
0.998375 0.390088 0.139132
1.000000 0.390279 0.176387
1.000000 0.406024 0.209997
1.000000 0.426593 0.249711
1.000000 0.459737 0.287795
1.000000 0.499120 0.326615
1.000000 0.541761 0.359635
1.000000 0.574917 0.405792
0.000000 0.520528 0.000000
0.000000 0.525668 0.000000
0.000000 0.537122 0.000000
0.000000 0.545348 0.000000
0.000000 0.550872 0.000000
0.000000 0.553439 0.000000
0.000000 0.559610 0.000000
0.000000 0.569036 0.000000
0.000000 0.578676 0.000000
0.000000 0.587350 0.000000
0.000000 0.589638 0.000000
0.000000 0.601510 0.000000
0.000000 0.605531 0.000000
0.277316 0.604681 0.000000
0.420418 0.603038 0.000000
0.536380 0.603526 0.000000
0.638486 0.603026 0.000000
0.714994 0.574628 0.000000
0.771228 0.563099 0.000000
0.815068 0.553942 0.000000
0.853165 0.544807 0.000000
0.884506 0.533489 0.000000
0.916701 0.521665 0.000000
0.945162 0.513674 0.000000
0.969005 0.495773 0.079296
0.996050 0.470495 0.135015
1.000000 0.452399 0.171664
1.000000 0.453886 0.215249
1.000000 0.473933 0.257087
1.000000 0.501844 0.289833
1.000000 0.530548 0.330622
1.000000 0.562646 0.367344
1.000000 0.591404 0.410774
0.000000 0.571312 0.000000
0.000000 0.579533 0.000000
0.000000 0.588226 0.000000
0.000000 0.593032 0.000000
0.000000 0.598408 0.000000
0.000000 0.600891 0.000000
0.000000 0.609914 0.000000
0.000000 0.616101 0.000000
0.000000 0.625206 0.000000
0.000000 0.636797 0.000000
0.000000 0.645155 0.000000
0.000000 0.647553 0.000000
0.000000 0.652029 0.000000
0.000000 0.661780 0.000000
0.321832 0.660762 0.000000
0.470396 0.658486 0.000000
0.582776 0.659080 0.000000
0.682677 0.655382 0.000000
0.757649 0.630589 0.000000
0.803647 0.616164 0.000000
0.846642 0.610689 0.000000
0.885562 0.592448 0.000000
0.912232 0.585138 0.000000
0.939854 0.576805 0.000000
0.964074 0.565935 0.000000
0.987743 0.548815 0.130745
1.000000 0.535151 0.177207
1.000000 0.528857 0.213393
1.000000 0.524137 0.262679
1.000000 0.536994 0.292689
1.000000 0.554843 0.332490
1.000000 0.579351 0.369428
1.000000 0.612109 0.414006
0.000000 0.625816 0.000000
0.000000 0.631349 0.000000
0.000000 0.636308 0.000000
0.000000 0.647754 0.000000
0.000000 0.652819 0.000000
0.000000 0.654851 0.000000
0.000000 0.657308 0.000000
0.000000 0.662841 0.000000
0.000000 0.671750 0.000000
0.000000 0.680056 0.000000
0.000000 0.688463 0.000000
0.000000 0.693198 0.000000
0.000000 0.695167 0.000000
0.000000 0.701845 0.000000
0.179134 0.710742 0.000000
0.376360 0.709624 0.000000
0.513815 0.710168 0.000000
0.632906 0.706502 0.000000
0.735119 0.702801 0.000000
0.788520 0.679989 0.000000
0.836786 0.669544 0.000000
0.874670 0.664931 0.000000
0.907504 0.644060 0.000000
0.935303 0.636291 0.000000
0.960146 0.628756 0.000000
0.980707 0.615171 0.120682
1.000000 0.595094 0.176245
1.000000 0.588952 0.219875
1.000000 0.579910 0.262846
1.000000 0.571816 0.295616
1.000000 0.586124 0.334528
1.000000 0.607006 0.374853
1.000000 0.628483 0.419053
0.000000 0.678279 0.000000
0.000000 0.683015 0.000000
0.000000 0.687745 0.000000
0.000000 0.695825 0.000000
0.000000 0.700414 0.000000
0.000000 0.705323 0.000000
0.000000 0.710713 0.000000
0.000000 0.712730 0.000000
0.000000 0.714240 0.000000
0.000000 0.719323 0.000000
0.000000 0.727547 0.000000
0.000000 0.731742 0.000000
0.000000 0.738856 0.000000
0.000000 0.739913 0.000000
0.000000 0.744967 0.000000
0.287353 0.749590 0.000000
0.452905 0.747912 0.000000
0.589461 0.744571 0.000000
0.687833 0.744005 0.000000
0.773736 0.737798 0.000000
0.829550 0.722956 0.000000
0.865999 0.710905 0.000000
0.896986 0.703617 0.000000
0.931304 0.690193 0.000000
0.951585 0.686386 0.000000
0.971970 0.679461 0.105515
0.991746 0.666859 0.172022
1.000000 0.651264 0.224568
1.000000 0.638891 0.270639
1.000000 0.623953 0.300918
1.000000 0.620046 0.335995
1.000000 0.637110 0.377024
1.000000 0.654478 0.421706
0.000000 0.726032 0.000000
0.000000 0.730746 0.000000
0.000000 0.735196 0.000000
0.000000 0.739487 0.000000
0.000000 0.743724 0.000000
0.000000 0.748103 0.000000
0.000000 0.749257 0.000000
0.000000 0.756423 0.000000
0.000000 0.757940 0.000000
0.000000 0.759025 0.000000
0.000000 0.763646 0.000000
0.000000 0.770303 0.000000
0.000000 0.776659 0.000000
0.000000 0.779621 0.000000
0.000000 0.781945 0.000000
0.151292 0.785979 0.000000
0.380498 0.789412 0.000000
0.525864 0.786639 0.000000
0.640661 0.783263 0.000000
0.728980 0.780187 0.000000
0.808239 0.777139 0.000000
0.854786 0.762051 0.000000
0.889292 0.750982 0.000000
0.921587 0.741034 0.000000
0.945528 0.731993 0.000000
0.963366 0.728803 0.124196
0.982450 0.722774 0.176868
0.999011 0.714363 0.225900
1.000000 0.697535 0.277799
1.000000 0.686873 0.319372
1.000000 0.673177 0.348257
1.000000 0.672591 0.384678
1.000000 0.685199 0.424446
0.000000 0.777839 0.089575
0.000000 0.778963 0.085148
0.000000 0.782774 0.085385
0.000000 0.786704 0.086147
0.000000 0.787755 0.081564
0.000000 0.790972 0.064153
0.000000 0.794125 0.000000
0.000000 0.797727 0.000000
0.000000 0.798677 0.000000
0.000000 0.797443 0.000000
0.000000 0.801030 0.000000
0.000000 0.806751 0.000000
0.000000 0.809726 0.000000
0.000000 0.814946 0.000000
0.000000 0.819038 0.000000
0.000000 0.822150 0.000000
0.296203 0.820474 0.000000
0.468632 0.822213 0.000000
0.589511 0.819186 0.000000
0.681732 0.816228 0.000000
0.769092 0.812896 0.000000
0.834321 0.810177 0.000000
0.878156 0.797229 0.000000
0.910974 0.787589 0.000000
0.934953 0.781848 0.000000
0.956791 0.776341 0.131376
0.974397 0.768659 0.194053
0.989150 0.760940 0.240091
1.000000 0.748890 0.296053
1.000000 0.741686 0.333172
1.000000 0.731989 0.362045
1.000000 0.722928 0.393839
1.000000 0.722285 0.433135
0.000000 0.813035 0.170449
0.000000 0.814144 0.172171
0.000000 0.819540 0.172512
0.000000 0.822365 0.173056
0.000000 0.822788 0.166455
0.000000 0.825683 0.163544
0.000000 0.826142 0.156794
0.000000 0.828795 0.145276
0.000000 0.833741 0.137498
0.000000 0.834695 0.140395
0.000000 0.835443 0.142982
0.000000 0.836083 0.141514
0.000000 0.840363 0.119746
0.000000 0.842489 0.107582
0.000000 0.846198 0.107030
0.000000 0.849087 0.077462
0.118669 0.851267 0.058441
0.409066 0.848874 0.050578
0.547479 0.849622 0.000000
0.651543 0.846465 0.000000
0.728028 0.843893 0.000000
0.803352 0.840876 0.000000
0.857293 0.838440 0.000000
0.901199 0.826956 0.000000
0.929598 0.818681 0.000000
0.947685 0.815817 0.150397
0.965597 0.808865 0.207475
0.981418 0.802176 0.256840
0.996074 0.794017 0.318563
1.000000 0.787735 0.353124
1.000000 0.779383 0.384208
1.000000 0.773364 0.415195
1.000000 0.765795 0.449715
0.000000 0.845277 0.238270
0.000000 0.847678 0.239049
0.000000 0.847919 0.236329
0.000000 0.852332 0.237321
0.000000 0.852683 0.238088
0.000000 0.854981 0.235708
0.000000 0.855344 0.230123
0.000000 0.857693 0.228011
0.000000 0.859972 0.212771
0.000000 0.860456 0.214331
0.000000 0.860959 0.216200
0.000000 0.861390 0.215066
0.000000 0.863447 0.210471
0.000000 0.865137 0.199568
0.000000 0.868435 0.199225
0.000000 0.871412 0.198772
0.000000 0.873540 0.184561
0.296402 0.872901 0.170998
0.494964 0.869982 0.177314
0.612490 0.870060 0.160527
0.699030 0.867153 0.155072
0.769245 0.864629 0.163314
0.830844 0.862096 0.158244
0.886087 0.859744 0.153467
0.919089 0.851425 0.126451
0.942428 0.842683 0.170600
0.960855 0.839976 0.232035
0.975020 0.835478 0.274551
0.990087 0.829716 0.328219
1.000000 0.823862 0.361650
1.000000 0.816514 0.395302
1.000000 0.807397 0.433732
1.000000 0.802090 0.466931
0.000000 0.874392 0.296078
0.000000 0.874547 0.296472
0.000000 0.876634 0.297525
0.000000 0.876925 0.298322
0.000000 0.877045 0.292362
0.000000 0.879080 0.293447
0.000000 0.879368 0.291217
0.000000 0.881355 0.286120
0.000000 0.881629 0.284055
0.000000 0.883497 0.275834
0.000000 0.883836 0.277690
0.000000 0.884070 0.279575
0.000000 0.887452 0.279046
0.000000 0.888782 0.272102
0.000000 0.889936 0.268106
0.000000 0.890902 0.267528
0.000000 0.891539 0.267250
0.000000 0.892888 0.258500
0.425174 0.892699 0.245071
0.561058 0.889804 0.249718
