Assets/Lutify-Free-LUTs-Pack/Lutify Free LUTs Pack/Film Tone Pro - Film Tone 3/Lutify.me-FilmTone3-CanonLog3-to-Rec709.cube
# Created with: fylm.ai - Colour Grading and Collaboration Software in Cloud 
# Website: https://fylm.ai 
# META
# Option: Gamut compress
# Block 1: IDT | CanonLog3 Cinema Gamut Daylight
# Block 2: colourMatch | Blending Mode: Normal | {"ColorSpace":0,"CrossCovarianceLimit":50,"ReshapingIterations":1,"PercentSaturationShift":100,"PercentShadingShift":100,"ExtraShading":true,"PercentTint":100,"PercentModified":100}
# Block 3: subtractiveColour | Blending Mode: Normal | {"sliders":{"gainY":0.6,"C":0.3,"M":0.3,"Y":0.3}}
# Block 4: LUT | Filmic Curve Response: Low Contrast 2 (100%)
# Block 5: logPrimaries | Blending Mode: Normal | {"wheels":{"shadows":{"Y":"0","R":"1","G":"1","B":"1"},"midtones":{"Y":"0","R":"1","G":"1","B":"1"},"highlights":{"Y":"0","R":"1","G":"1","B":"1"},"offset":{"Y":"0","R":"1","G":"1","B":"1"}},"sliders":{"shadows":{"Y":0,"R":-0.026,"G":0.03,"B":0.1},"midtones":{"Y":0,"R":0.024,"G":-0.036,"B":0.036},"highlights":{"Y":0,"R":0,"G":0.044,"B":-0.128},"offset":{"Y":0,"R":0,"G":0,"B":0}}}
# Block 6: hueSaturation | Blending Mode: Normal | {"hue":0,"saturation":-0.1}
# Block 7: ODT | Rec709
TITLE "Lutify.me-FilmTone3-CanonLog3-to-Rec709" 
LUT_3D_SIZE 33
0.000000 0.000000 0.000000
0.000000 0.000000 0.000000
0.000000 0.000000 0.000000
0.000000 0.000000 0.000000
0.000000 0.000000 0.000000
0.092507 0.000000 0.000000
0.131012 0.000000 0.000000
0.169527 0.000000 0.000000
0.210522 0.000000 0.000000
0.245542 0.000000 0.000000
0.284572 0.000000 0.000000
0.331499 0.000000 0.000000
0.368721 0.000000 0.000000
0.408321 0.000000 0.000000
0.458835 0.000000 0.000000
0.528918 0.000000 0.000000
0.588114 0.000000 0.000000
0.638303 0.000000 0.000000
0.699142 0.000000 0.000000
0.749346 0.000000 0.000000
0.822089 0.000000 0.000000
0.888331 0.000000 0.025589
0.933416 0.000000 0.061533
0.974011 0.000000 0.092004
1.000000 0.000000 0.124458
1.000000 0.000000 0.157041
1.000000 0.000000 0.198851
1.000000 0.209456 0.239581
1.000000 0.292647 0.280431
1.000000 0.374195 0.320288
1.000000 0.448307 0.374630
1.000000 0.520020 0.429463
1.000000 0.579092 0.478008
0.000000 0.000000 0.000000
0.000000 0.000000 0.000000
0.000000 0.000000 0.000000
0.000000 0.000000 0.000000
0.004870 0.000000 0.000000
0.094646 0.000000 0.000000
0.131012 0.000000 0.000000
0.169527 0.000000 0.000000
0.210522 0.000000 0.000000
0.247130 0.000000 0.000000
0.286296 0.000000 0.000000
0.331499 0.000000 0.000000
0.385471 0.000000 0.000000
0.429946 0.000000 0.000000
0.493149 0.000000 0.000000
0.568743 0.000000 0.000000
0.631598 0.000000 0.000000
0.669143 0.000000 0.000000
0.714528 0.000000 0.000000
0.767731 0.000000 0.000000
0.833242 0.000000 0.000000
0.893371 0.000000 0.000000
0.937464 0.000000 0.059099
0.979385 0.000000 0.090598
1.000000 0.000000 0.123505
1.000000 0.000000 0.156740
1.000000 0.106457 0.198084
1.000000 0.224081 0.235722
1.000000 0.305118 0.276519
1.000000 0.384842 0.319986
1.000000 0.451637 0.374563
1.000000 0.523196 0.429410
1.000000 0.586060 0.478486
0.000000 0.000000 0.000000
0.000000 0.000000 0.000000
0.000000 0.000000 0.000000
0.000000 0.000000 0.000000
0.011969 0.000000 0.000000
0.097519 0.000000 0.000000
0.136131 0.000000 0.000000
0.175736 0.000000 0.000000
0.218739 0.000000 0.000000
0.263622 0.000000 0.000000
0.306062 0.000000 0.000000
0.357280 0.000000 0.000000
0.409028 0.000000 0.000000
0.466925 0.000000 0.000000
0.529537 0.000000 0.000000
0.594356 0.000000 0.000000
0.650349 0.000000 0.000000
0.687442 0.000000 0.000000
0.725574 0.000000 0.000000
0.785581 0.000000 0.000000
0.839131 0.000000 0.000000
0.897617 0.000000 0.000000
0.940667 0.000000 0.052255
0.979570 0.000000 0.089195
1.000000 0.000000 0.122764
1.000000 0.000000 0.155921
1.000000 0.141265 0.196294
1.000000 0.239161 0.235631
1.000000 0.320703 0.276010
1.000000 0.391899 0.319775
1.000000 0.461613 0.374352
1.000000 0.526372 0.429356
1.000000 0.589114 0.478446
0.000000 0.000000 0.000000
0.000000 0.000000 0.000000
0.000000 0.000000 0.000000
0.000000 0.000000 0.000000
0.029003 0.000000 0.000000
0.105174 0.000000 0.000000
0.145231 0.000000 0.000000
0.194190 0.000000 0.000000
0.236766 0.000000 0.000000
0.281936 0.000000 0.000000
0.327027 0.000000 0.000000
0.378348 0.000000 0.000000
0.433612 0.000000 0.000000
0.492552 0.000000 0.000000
0.544054 0.000000 0.000000
0.604723 0.000000 0.000000
0.668410 0.000000 0.000000
0.705288 0.000000 0.000000
0.743544 0.000000 0.000000
0.791408 0.000000 0.000000
0.847302 0.000000 0.000000
0.901395 0.000000 0.000000
0.941102 0.000000 0.047939
0.981889 0.000000 0.086048
1.000000 0.000000 0.121948
1.000000 0.000000 0.155106
1.000000 0.162446 0.196131
1.000000 0.248402 0.235322
1.000000 0.332171 0.275604
1.000000 0.395416 0.319666
1.000000 0.462411 0.374863
1.000000 0.526372 0.429356
1.000000 0.592169 0.478404
0.000000 0.065258 0.000000
0.000000 0.062189 0.000000
0.000000 0.060224 0.000000
0.000000 0.060528 0.000000
0.000000 0.065890 0.000000
0.117823 0.048497 0.000000
0.172887 0.000000 0.000000
0.223052 0.000000 0.000000
0.264751 0.000000 0.000000
0.306518 0.000000 0.000000
0.351223 0.000000 0.000000
0.404419 0.000000 0.000000
0.455023 0.000000 0.000000
0.509120 0.000000 0.000000
0.561533 0.000000 0.000000
0.626686 0.000000 0.000000
0.682885 0.000000 0.000000
0.726245 0.000000 0.000000
0.753407 0.000000 0.000000
0.796176 0.000000 0.000000
0.854731 0.000000 0.000000
0.904975 0.000000 0.000000
0.943816 0.000000 0.037345
0.981770 0.000000 0.082644
1.000000 0.000000 0.121482
1.000000 0.000000 0.154487
1.000000 0.174783 0.195787
1.000000 0.254359 0.235868
1.000000 0.335956 0.275463
1.000000 0.402430 0.319445
1.000000 0.465724 0.374790
1.000000 0.529548 0.429301
1.000000 0.592169 0.478404
0.000000 0.101212 0.000000
0.000000 0.098932 0.000000
0.000000 0.095966 0.000000
0.000000 0.099126 0.000000
0.000000 0.108958 0.000000
0.115528 0.108687 0.000000
0.194983 0.085033 0.000000
0.251319 0.048511 0.000000
0.297135 0.000000 0.000000
0.336971 0.000000 0.000000
0.380852 0.000000 0.000000
0.425719 0.000000 0.000000
0.472152 0.000000 0.000000
0.523767 0.000000 0.000000
0.572095 0.000000 0.000000
0.636944 0.000000 0.000000
0.693198 0.000000 0.000000
0.743544 0.000000 0.000000
0.762465 0.000000 0.000000
0.801191 0.000000 0.000000
0.862149 0.000000 0.000000
0.908617 0.000000 0.000000
0.946948 0.000000 0.032214
0.984064 0.000000 0.080630
1.000000 0.000000 0.121221
1.000000 0.000000 0.153882
1.000000 0.186905 0.195753
1.000000 0.267548 0.235374
1.000000 0.339725 0.275320
1.000000 0.405927 0.319331
1.000000 0.469035 0.374716
1.000000 0.539078 0.429132
1.000000 0.595225 0.478362
0.000000 0.139015 0.000000
0.000000 0.136939 0.000000
0.000000 0.134895 0.000000
0.000000 0.144693 0.000000
0.000000 0.154000 0.000000
0.052619 0.164549 0.000000
0.196486 0.152701 0.000000
0.269449 0.121456 0.000000
0.320124 0.091450 0.000000
0.365928 0.034953 0.000000
0.408845 0.000000 0.000000
0.456489 0.000000 0.000000
0.497976 0.000000 0.000000
0.546054 0.000000 0.000000
0.594123 0.000000 0.000000
0.648345 0.000000 0.000000
0.700658 0.000000 0.000000
0.749413 0.000000 0.000000
0.779241 0.000000 0.000000
0.806179 0.000000 0.000000
0.866322 0.000000 0.000000
0.912165 0.000000 0.000000
0.952493 0.000000 0.019591
0.983876 0.000000 0.075973
1.000000 0.000000 0.117434
1.000000 0.090139 0.152255
1.000000 0.202765 0.192090
1.000000 0.276109 0.235030
1.000000 0.350938 0.274877
1.000000 0.410881 0.320125
1.000000 0.475651 0.374565
1.000000 0.543045 0.429611
1.000000 0.595225 0.478362
0.000000 0.174236 0.000000
0.000000 0.172928 0.000000
0.000000 0.172928 0.000000
0.000000 0.177449 0.000000
0.000000 0.191661 0.000000
0.000000 0.208046 0.000000
0.177267 0.203328 0.000000
0.279649 0.181042 0.000000
0.338995 0.157625 0.000000
0.385612 0.136907 0.000000
0.430300 0.099867 0.000000
0.480606 0.000000 0.000000
0.529134 0.000000 0.000000
0.574910 0.000000 0.000000
0.618623 0.000000 0.000000
0.663890 0.000000 0.000000
0.715257 0.000000 0.000000
0.760070 0.000000 0.000000
0.788669 0.000000 0.000000
0.821166 0.000000 0.000000
0.870576 0.000000 0.000000
0.912067 0.000000 0.000000
0.955244 0.000000 0.000000
0.985974 0.000000 0.071285
1.000000 0.000000 0.115830
1.000000 0.129292 0.151277
1.000000 0.214140 0.192339
1.000000 0.285165 0.235034
1.000000 0.359016 0.274975
1.000000 0.421275 0.319770
1.000000 0.480503 0.375526
1.000000 0.543045 0.429611
1.000000 0.598283 0.478320
0.000000 0.208219 0.000000
0.000000 0.205189 0.000000
0.000000 0.208219 0.000000
0.000000 0.213780 0.000000
0.000000 0.231393 0.000000
0.000000 0.248396 0.000000
0.121856 0.251515 0.000000
0.269986 0.241750 0.000000
0.340033 0.218131 0.000000
0.399985 0.192465 0.000000
0.448898 0.166643 0.000000
0.501199 0.135713 0.000000
0.550826 0.083602 0.000000
0.593059 0.000000 0.000000
0.637010 0.000000 0.000000
0.685092 0.000000 0.000000
0.730694 0.000000 0.000000
0.774682 0.000000 0.000000
0.805636 0.000000 0.000000
0.834149 0.000000 0.000000
0.874617 0.000000 0.000000
0.921118 0.000000 0.000000
0.960410 0.000000 0.000000
0.990281 0.000000 0.066118
1.000000 0.000000 0.110945
1.000000 0.164536 0.150239
1.000000 0.233667 0.191436
1.000000 0.301215 0.230755
1.000000 0.366355 0.274657
1.000000 0.428180 0.319524
1.000000 0.483664 0.372888
1.000000 0.546215 0.429552
1.000000 0.598283 0.478320
0.000000 0.244241 0.000000
0.000000 0.242607 0.000000
0.000000 0.247541 0.000000
0.000000 0.255821 0.000000
0.000000 0.270891 0.000000
0.000000 0.286084 0.000000
0.000000 0.289463 0.000000
0.243907 0.291714 0.000000
0.339629 0.280948 0.000000
0.409264 0.253993 0.000000
0.475763 0.224593 0.000000
0.528431 0.200770 0.000000
0.577901 0.163013 0.000000
0.620082 0.124119 0.000000
0.660591 0.058646 0.000000
0.705285 0.000000 0.000000
0.747482 0.000000 0.000000
0.793928 0.000000 0.000000
0.841176 0.000000 0.000000
0.853840 0.000000 0.000000
0.878444 0.000000 0.000000
0.924380 0.000000 0.000000
0.962261 0.000000 0.000000
0.991728 0.000000 0.050017
1.000000 0.092444 0.106622
1.000000 0.193364 0.148716
1.000000 0.252222 0.190445
1.000000 0.321640 0.230081
1.000000 0.377279 0.274161
1.000000 0.439194 0.319608
1.000000 0.493523 0.372641
1.000000 0.555724 0.429371
1.000000 0.604400 0.478233
0.000000 0.277412 0.000000
0.000000 0.277412 0.000000
0.000000 0.283059 0.000000
0.000000 0.297464 0.000000
0.000000 0.315647 0.000000
0.000000 0.329882 0.000000
0.000000 0.341748 0.000000
0.185489 0.337693 0.000000
0.319817 0.339805 0.000000
0.415545 0.312508 0.000000
0.482575 0.285131 0.000000
0.547514 0.268239 0.000000
0.599231 0.238270 0.000000
0.641371 0.211873 0.000000
0.684889 0.183453 0.000000
0.728834 0.126836 0.000000
0.770385 0.000000 0.000000
0.809624 0.000000 0.000000
0.855061 0.000000 0.000000
0.869065 0.000000 0.000000
0.894618 0.000000 0.000000
0.927306 0.000000 0.000000
0.964015 0.000000 0.000000
0.995108 0.072799 0.004679
1.000000 0.156639 0.097416
1.000000 0.223753 0.144052
1.000000 0.273922 0.185918
1.000000 0.337659 0.229562
1.000000 0.392330 0.273881
1.000000 0.450141 0.319683
1.000000 0.500833 0.373002
1.000000 0.558894 0.429310
1.000000 0.607460 0.478189
0.000000 0.311082 0.000000
0.000000 0.311082 0.000000
0.000000 0.326810 0.000000
0.000000 0.347269 0.000000
0.000000 0.363383 0.000000
0.000000 0.375989 0.000000
0.000000 0.383970 0.000000
0.040827 0.386662 0.000000
0.278991 0.386060 0.000000
0.405912 0.382865 0.000000
0.482309 0.361692 0.000000
0.560212 0.335961 0.000000
0.614024 0.310880 0.000000
0.657195 0.277363 0.000000
0.697495 0.259506 0.000000
0.744906 0.228780 0.000000
0.786229 0.190488 0.000000
0.828423 0.148824 0.000000
0.865363 0.000000 0.000000
0.894309 0.000000 0.000000
0.904096 0.000000 0.000000
0.934828 0.000000 0.000000
0.965352 0.106587 0.000000
0.995525 0.174303 0.000000
1.000000 0.205820 0.083824
1.000000 0.255999 0.136969
1.000000 0.311126 0.183089
1.000000 0.357521 0.227340
1.000000 0.407685 0.271951
1.000000 0.456823 0.317111
1.000000 0.510653 0.372737
1.000000 0.565235 0.429183
1.000000 0.615163 0.479239
0.000000 0.349113 0.000000
0.000000 0.351498 0.000000
0.000000 0.373092 0.000000
0.000000 0.392553 0.000000
0.000000 0.407672 0.000000
0.000000 0.417845 0.000000
0.000000 0.422818 0.000000
0.000000 0.426691 0.000000
0.231453 0.427535 0.000000
0.374999 0.425607 0.000000
0.475207 0.428294 0.000000
0.559038 0.399059 0.000000
0.625974 0.378635 0.000000
0.677372 0.355228 0.000000
0.718719 0.328868 0.000000
0.762886 0.304139 0.000000
0.807258 0.270682 0.000000
0.847524 0.230529 0.000000
0.883105 0.205249 0.000000
0.910602 0.158774 0.000000
0.925118 0.168266 0.000000
0.943817 0.182265 0.000000
0.965647 0.185221 0.000000
0.996020 0.218342 0.000000
1.000000 0.251278 0.053624
1.000000 0.289825 0.126508
1.000000 0.338414 0.174308
1.000000 0.375729 0.222413
1.000000 0.425911 0.271398
1.000000 0.475100 0.317354
1.000000 0.530705 0.367579
1.000000 0.576210 0.430085
1.000000 0.624308 0.479103
0.000000 0.392062 0.000000
0.000000 0.394754 0.000000
0.000000 0.412888 0.000000
0.000000 0.435059 0.000000
0.000000 0.453187 0.000000
0.000000 0.460557 0.000000
0.000000 0.473928 0.000000
0.000000 0.480824 0.000000
0.107352 0.482679 0.000000
0.322267 0.481958 0.000000
0.446207 0.479385 0.000000
0.566003 0.455440 0.000000
0.625721 0.439143 0.000000
0.681910 0.415844 0.000000
0.726421 0.392745 0.000000
0.775276 0.371776 0.000000
0.819321 0.350287 0.000000
0.861270 0.317274 0.000000
0.894993 0.294481 0.000000
0.921191 0.267786 0.000000
0.948475 0.234866 0.000000
0.947876 0.276856 0.000000
0.974028 0.257899 0.000000
0.997025 0.277668 0.000000
1.000000 0.309691 0.000000
1.000000 0.328968 0.104282
1.000000 0.364971 0.166617
1.000000 0.405019 0.216785
1.000000 0.443686 0.266660
1.000000 0.495681 0.312300
1.000000 0.543741 0.367169
1.000000 0.585558 0.427209
1.000000 0.630285 0.476280
0.000000 0.434065 0.000000
0.000000 0.450174 0.000000
0.000000 0.478848 0.000000
0.000000 0.496082 0.000000
0.000000 0.507002 0.000000
0.000000 0.510960 0.000000
0.000000 0.517963 0.000000
0.000000 0.527424 0.000000
0.000000 0.529714 0.000000
0.262198 0.523511 0.000000
0.406520 0.528211 0.000000
0.547901 0.524228 0.000000
0.626644 0.507611 0.000000
0.683944 0.487907 0.000000
0.729467 0.465067 0.000000
0.781897 0.441276 0.000000
0.829098 0.414061 0.000000
0.866547 0.390480 0.000000
0.898769 0.373853 0.000000
0.926433 0.353747 0.000000
0.959968 0.317790 0.000000
0.963284 0.340434 0.000000
0.974137 0.353199 0.000000
1.000000 0.338778 0.000000
1.000000 0.359230 0.000000
1.000000 0.370799 0.086508
1.000000 0.397792 0.151809
1.000000 0.433773 0.210762
1.000000 0.475093 0.260822
1.000000 0.519732 0.311611
1.000000 0.564429 0.365071
1.000000 0.597940 0.421583
1.000000 0.640088 0.476731
0.000000 0.482146 0.000000
0.000000 0.505814 0.000000
0.000000 0.533688 0.000000
0.000000 0.546103 0.000000
0.000000 0.550330 0.000000
0.000000 0.556742 0.000000
0.000000 0.566429 0.000000
0.000000 0.569067 0.000000
0.000000 0.571242 0.000000
0.092204 0.572054 0.000000
0.361165 0.570963 0.000000
0.512332 0.574598 0.000000
0.610638 0.571321 0.000000
0.673422 0.551859 0.000000
0.731906 0.528597 0.000000
0.783243 0.515448 0.000000
0.832219 0.495569 0.000000
0.875273 0.469312 0.000000
0.903311 0.450723 0.000000
0.934267 0.432099 0.000000
0.963759 0.399356 0.000000
0.993058 0.373711 0.000000
0.979399 0.422339 0.000000
0.999188 0.424233 0.000000
1.000000 0.416363 0.000000
1.000000 0.418316 0.021384
1.000000 0.437302 0.131833
1.000000 0.469126 0.203439
1.000000 0.509703 0.256467
1.000000 0.543943 0.306715
1.000000 0.574151 0.364732
1.000000 0.614267 0.419112
1.000000 0.649018 0.476609
0.000000 0.530163 0.000000
0.000000 0.565568 0.000000
0.000000 0.579749 0.000000
0.000000 0.594158 0.000000
0.000000 0.600506 0.000000
0.000000 0.603486 0.000000
0.000000 0.609020 0.000000
0.000000 0.614416 0.000000
0.000000 0.616497 0.000000
0.000000 0.617656 0.000000
0.297970 0.617188 0.000000
0.475827 0.614975 0.000000
0.585025 0.612157 0.000000
0.668485 0.609112 0.000000
0.730478 0.589474 0.000000
0.789891 0.566118 0.000000
0.839217 0.550011 0.000000
0.879249 0.527752 0.000000
0.906259 0.513173 0.000000
0.933170 0.498912 0.000000
0.965530 0.474489 0.000000
0.989650 0.453797 0.000000
0.993767 0.468341 0.000000
0.991923 0.506211 0.000000
1.000000 0.496480 0.000000
1.000000 0.495825 0.000000
1.000000 0.493699 0.106805
1.000000 0.514110 0.189809
1.000000 0.540817 0.248319
1.000000 0.563702 0.303180
1.000000 0.593921 0.359448
1.000000 0.629768 0.413391
1.000000 0.663531 0.473701
0.000000 0.590781 0.000000
0.000000 0.614168 0.000000
0.000000 0.632504 0.000000
0.000000 0.642375 0.000000
0.000000 0.645202 0.000000
0.000000 0.647381 0.000000
0.000000 0.655551 0.000000
0.000000 0.660649 0.000000
0.000000 0.662237 0.000000
0.000000 0.663393 0.000000
0.184650 0.663444 0.000000
0.422039 0.661944 0.000000
0.547447 0.659650 0.000000
0.640805 0.656987 0.000000
0.723496 0.653908 0.000000
0.787214 0.627550 0.000000
0.842846 0.604749 0.000000
0.878018 0.582938 0.000000
0.905077 0.568592 0.000000
0.931403 0.554688 0.000000
0.960347 0.537764 0.000000
0.986367 0.514211 0.000000
1.000000 0.501704 0.000000
1.000000 0.540016 0.000000
1.000000 0.558162 0.000000
1.000000 0.557015 0.000000
1.000000 0.552341 0.032193
1.000000 0.551307 0.163201
1.000000 0.567970 0.241780
1.000000 0.593687 0.297089
1.000000 0.616950 0.356583
1.000000 0.648765 0.408204
1.000000 0.678934 0.472057
0.000000 0.657734 0.000000
0.000000 0.674932 0.000000
0.000000 0.682101 0.000000
0.000000 0.684602 0.000000
0.000000 0.689736 0.000000
0.000000 0.694211 0.000000
0.000000 0.695714 0.000000
0.000000 0.697285 0.000000
0.000000 0.698501 0.000000
0.000000 0.699470 0.000000
0.000000 0.699576 0.000000
0.349695 0.698671 0.000000
0.494958 0.703247 0.000000
0.611181 0.700607 0.000000
0.707191 0.697498 0.000000
0.777543 0.685169 0.000000
0.835904 0.663062 0.000000
0.869849 0.655244 0.000000
0.899354 0.634180 0.000000
0.926825 0.616970 0.000000
0.954980 0.603790 0.000000
0.982306 0.580822 0.000000
1.000000 0.561561 0.000000
1.000000 0.553040 0.000000
1.000000 0.604101 0.000000
1.000000 0.614601 0.000000
1.000000 0.613321 0.000000
1.000000 0.601898 0.132157
1.000000 0.604310 0.222607
1.000000 0.620331 0.293435
1.000000 0.646002 0.350855
1.000000 0.670766 0.406315
1.000000 0.698545 0.467154
0.000000 0.710136 0.000000
0.000000 0.718197 0.000000
0.000000 0.720683 0.000000
0.000000 0.728667 0.000000
0.000000 0.729793 0.000000
0.000000 0.736786 0.000000
0.000000 0.737812 0.000000
0.000000 0.738875 0.000000
0.000000 0.739599 0.000000
0.000000 0.743082 0.000000
0.000000 0.743089 0.000000
0.265578 0.742327 0.000000
0.449993 0.740606 0.000000
0.574447 0.741107 0.000000
0.676123 0.738186 0.000000
0.763381 0.735121 0.000000
0.822897 0.718128 0.000000
0.860910 0.710826 0.000000
0.895562 0.694462 0.000000
0.923692 0.678189 0.000000
0.949819 0.665455 0.000000
0.974813 0.653242 0.000000
0.994269 0.634229 0.000000
1.000000 0.615770 0.000000
1.000000 0.610768 0.000000
1.000000 0.661868 0.000000
1.000000 0.672977 0.000000
1.000000 0.670813 0.000000
1.000000 0.660182 0.195472
1.000000 0.659695 0.280406
1.000000 0.677371 0.348418
1.000000 0.694114 0.403913
1.000000 0.722010 0.464498
0.000000 0.760660 0.000000
0.000000 0.763555 0.000000
0.000000 0.770605 0.000000
0.000000 0.771546 0.000000
0.000000 0.772213 0.000000
0.000000 0.772932 0.000000
0.000000 0.773353 0.000000
0.000000 0.776647 0.000000
0.000000 0.779680 0.000000
0.000000 0.782534 0.000000
0.000000 0.782355 0.000000
0.135082 0.781617 0.000000
0.387139 0.780089 0.000000
0.535858 0.777648 0.000000
0.645467 0.772196 0.000000
0.737556 0.769136 0.000000
0.811401 0.769046 0.000000
0.844316 0.762703 0.000000
0.884155 0.745339 0.000000
0.917703 0.730619 0.000000
0.947601 0.719071 0.000000
0.970044 0.707909 0.000000
0.989297 0.693910 0.000000
1.000000 0.683029 0.000000
1.000000 0.672771 0.000000
1.000000 0.691295 0.000000
1.000000 0.723396 0.000000
1.000000 0.721817 0.000000
1.000000 0.724828 0.145528
1.000000 0.709570 0.258034
1.000000 0.714305 0.337720
1.000000 0.726625 0.399095
1.000000 0.744504 0.462777
0.000000 0.793851 0.000000
0.000000 0.800299 0.000000
0.000000 0.803618 0.000000
0.000000 0.806636 0.000000
0.000000 0.806946 0.000000
0.000000 0.807287 0.000000
0.000000 0.807530 0.000000
0.000000 0.807723 0.000000
0.000000 0.810218 0.000000
0.000000 0.810107 0.000000
0.000000 0.809631 0.000000
0.127549 0.806448 0.000000
0.359948 0.805069 0.000000
0.493025 0.805403 0.000000
0.595587 0.807560 0.000000
0.713993 0.803843 0.000000
0.792080 0.800995 0.000000
0.846763 0.794504 0.000000
0.878390 0.786520 0.000000
0.913633 0.768565 0.000000
0.939189 0.760659 0.000000
0.962691 0.753157 0.000000
0.983318 0.737973 0.000000
0.999754 0.728225 0.000000
1.000000 0.721496 0.000000
1.000000 0.709546 0.000000
1.000000 0.745183 0.000000
1.000000 0.764153 0.000000
1.000000 0.763975 0.000000
1.000000 0.763849 0.229957
1.000000 0.755274 0.316550
1.000000 0.758513 0.392410
1.000000 0.767381 0.456151
0.000000 0.829172 0.000000
0.000000 0.834075 0.000000
0.000000 0.834399 0.000000
0.000000 0.834578 0.000000
0.000000 0.834743 0.000000
0.000000 0.834800 0.000000
0.000000 0.834830 0.000000
0.000000 0.836851 0.000000
0.000000 0.836646 0.000000
0.000000 0.836294 0.000000
0.000000 0.835618 0.000000
0.106219 0.834821 0.000000
0.352718 0.833327 0.000000
0.466851 0.831645 0.000000
0.563969 0.833539 0.000000
0.679710 0.830130 0.000000
0.774434 0.826764 0.000000
0.832253 0.824614 0.000000
0.874234 0.819083 0.000000
0.903547 0.807834 0.000000
0.932180 0.798663 0.000000
0.956266 0.789751 0.000000
0.975255 0.776333 0.000000
0.992625 0.767665 0.000000
1.000000 0.763987 0.000000
1.000000 0.750759 0.000000
1.000000 0.740151 0.000000
1.000000 0.781181 0.000000
1.000000 0.796116 0.000000
1.000000 0.796915 0.162395
1.000000 0.796510 0.305418
1.000000 0.788965 0.378140
1.000000 0.790624 0.449118
0.000000 0.856567 0.000000
0.000000 0.856762 0.000000
0.000000 0.856838 0.000000
0.000000 0.856841 0.000000
0.000000 0.858696 0.000000
0.000000 0.858584 0.000000
0.000000 0.858472 0.000000
0.000000 0.860114 0.000000
0.000000 0.859747 0.000000
0.000000 0.859278 0.000000
0.000000 0.858699 0.000000
0.175913 0.857837 0.000000
0.334107 0.856699 0.000000
0.448373 0.855102 0.000000
0.545326 0.854920 0.000000
0.660009 0.851691 0.000000
0.754278 0.848439 0.000000
0.815480 0.844345 0.000000
0.861965 0.844433 0.000000
0.895305 0.843243 0.000000
0.927961 0.829250 0.000000
0.949643 0.823103 0.000000
0.965112 0.819174 0.000000
0.986637 0.805539 0.000000
1.000000 0.798190 0.000000
1.000000 0.788794 0.000000
1.000000 0.777496 0.000000
1.000000 0.771083 0.000000
1.000000 0.816287 0.000000
1.000000 0.827184 0.000000
1.000000 0.827768 0.254996
1.000000 0.825053 0.369944
1.000000 0.816536 0.429293
0.000000 0.878741 0.000000
0.000000 0.878610 0.000000
0.000000 0.878405 0.000000
0.000000 0.878220 0.000000
0.000000 0.881474 0.000000
0.000000 0.881260 0.000000
0.000000 0.881016 0.000000
0.000000 0.882412 0.000000
0.000000 0.881971 0.000000
0.000000 0.881541 0.000000
0.000000 0.880805 0.000000
0.228807 0.880154 0.000000
0.355509 0.878993 0.000000
0.443904 0.879297 0.000000
0.545280 0.875556 0.000000
0.645015 0.872778 0.000000
0.733609 0.869790 0.000000
0.799856 0.867332 0.000000
0.848348 0.865480 0.000000
0.885986 0.867236 0.000000
0.918414 0.861318 0.000000
0.945270 0.850654 0.000000
0.962193 0.847002 0.000000
0.980068 0.838255 0.000000
0.997486 0.827818 0.000000
1.000000 0.821277 0.000000
1.000000 0.811034 0.000000
1.000000 0.805312 0.000000
1.000000 0.797735 0.000000
1.000000 0.848768 0.000000
1.000000 0.852392 0.182132
1.000000 0.852720 0.331536
1.000000 0.848594 0.427543
0.000000 0.900646 0.000000
0.000000 0.900278 0.000000
0.000000 0.899894 0.000000
0.000000 0.899712 0.000000
0.000000 0.899518 0.000000
0.000000 0.899242 0.000000
0.000000 0.899096 0.000000
0.000000 0.898789 0.000000
0.000000 0.898375 0.000000
0.000000 0.897834 0.000000
0.226228 0.898605 0.000000
0.316035 0.897843 0.000000
0.406930 0.898077 0.000000
0.472978 0.899697 0.000000
0.551685 0.897909 0.000000
0.639529 0.895419 0.000000
0.711797 0.892998 0.000000
0.774421 0.890675 0.000000
0.829458 0.885764 0.000000
0.873698 0.886746 0.000000
