Assets/Lutify-Free-LUTs-Pack/Lutify Free LUTs Pack/Film Tone Pro - Film Tone 3/Lutify.me-FilmTone3-ProTune-to-Rec709.cube
# Created with: fylm.ai - Colour Grading and Collaboration Software in Cloud 
# Website: https://fylm.ai 
# META
# Option: Gamut compress
# Block 1: IDT | GoPro ProTune Native ProTune Flat
# Block 2: colourMatch | Blending Mode: Normal | {"ColorSpace":0,"CrossCovarianceLimit":50,"ReshapingIterations":1,"PercentSaturationShift":100,"PercentShadingShift":100,"ExtraShading":true,"PercentTint":100,"PercentModified":100}
# Block 3: subtractiveColour | Blending Mode: Normal | {"sliders":{"gainY":0.6,"C":0.3,"M":0.3,"Y":0.3}}
# Block 4: LUT | Filmic Curve Response: Low Contrast 2 (100%)
# Block 5: logPrimaries | Blending Mode: Normal | {"wheels":{"shadows":{"Y":"0","R":"1","G":"1","B":"1"},"midtones":{"Y":"0","R":"1","G":"1","B":"1"},"highlights":{"Y":"0","R":"1","G":"1","B":"1"},"offset":{"Y":"0","R":"1","G":"1","B":"1"}},"sliders":{"shadows":{"Y":0,"R":-0.026,"G":0.03,"B":0.1},"midtones":{"Y":0,"R":0.024,"G":-0.036,"B":0.036},"highlights":{"Y":0,"R":0,"G":0.044,"B":-0.128},"offset":{"Y":0,"R":0,"G":0,"B":0}}}
# Block 6: hueSaturation | Blending Mode: Normal | {"hue":0,"saturation":-0.1}
# Block 7: ODT | Rec709
TITLE "Lutify.me-FilmTone3-ProTune-to-Rec709" 
LUT_3D_SIZE 33
0.000000 0.000000 0.000000
0.000000 0.000000 0.000000
0.000000 0.000000 0.000000
0.000000 0.000000 0.000000
0.000000 0.000000 0.000000
0.015464 0.000000 0.000000
0.040302 0.000000 0.000000
0.056841 0.000000 0.000000
0.069605 0.000000 0.000000
0.083446 0.000000 0.000000
0.096283 0.000000 0.000000
0.110112 0.000000 0.000000
0.121876 0.000000 0.000000
0.133338 0.000000 0.000000
0.145530 0.000000 0.000000
0.163107 0.000000 0.000000
0.178471 0.000000 0.000000
0.195927 0.000000 0.000000
0.213015 0.000000 0.000000
0.231788 0.000000 0.000000
0.254030 0.000000 0.000000
0.276726 0.000000 0.000000
0.299935 0.000000 0.012227
0.327193 0.000000 0.017588
0.355518 0.000000 0.024006
0.382074 0.000000 0.029380
0.408191 0.000000 0.032915
0.439612 0.000000 0.036700
0.471161 0.000000 0.041583
0.515432 0.000000 0.048949
0.558278 0.000000 0.054484
0.599260 0.000000 0.060333
0.638338 0.000000 0.069331
0.000000 0.000000 0.000000
0.000000 0.000000 0.000000
0.000000 0.000000 0.000000
0.000000 0.000000 0.000000
0.000000 0.000000 0.000000
0.026233 0.000000 0.000000
0.046446 0.000000 0.000000
0.059574 0.000000 0.000000
0.073110 0.000000 0.000000
0.085220 0.000000 0.000000
0.099463 0.000000 0.000000
0.111694 0.000000 0.000000
0.123319 0.000000 0.000000
0.134870 0.000000 0.000000
0.148800 0.000000 0.000000
0.165081 0.000000 0.000000
0.180698 0.000000 0.000000
0.198488 0.000000 0.000000
0.215844 0.000000 0.000000
0.234937 0.000000 0.000000
0.257447 0.000000 0.000000
0.280370 0.000000 0.000000
0.300056 0.000000 0.012382
0.329544 0.000000 0.020060
0.355777 0.000000 0.024961
0.382350 0.000000 0.030096
0.408575 0.000000 0.033516
0.442883 0.000000 0.037108
0.475183 0.000000 0.043348
0.522496 0.000000 0.049308
0.558929 0.000000 0.055621
0.600371 0.000000 0.063367
0.642757 0.000000 0.070647
0.000000 0.000000 0.000000
0.000000 0.000000 0.000000
0.000000 0.000000 0.000000
0.000000 0.000000 0.000000
0.017541 0.000000 0.000000
0.036237 0.000000 0.000000
0.054480 0.000000 0.000000
0.065248 0.000000 0.000000
0.076714 0.000000 0.000000
0.089800 0.000000 0.000000
0.102768 0.000000 0.000000
0.114154 0.000000 0.000000
0.124714 0.000000 0.000000
0.136317 0.000000 0.000000
0.151396 0.000000 0.000000
0.167115 0.000000 0.000000
0.181868 0.000000 0.000000
0.201133 0.000000 0.000000
0.218759 0.000000 0.000000
0.238084 0.000000 0.000000
0.260970 0.000000 0.000000
0.280536 0.000000 0.000000
0.302099 0.000000 0.014431
0.329854 0.000000 0.021311
0.358265 0.000000 0.025024
0.385148 0.000000 0.030719
0.414332 0.000000 0.033909
0.443297 0.000000 0.037608
0.478879 0.000000 0.044169
0.522989 0.000000 0.049833
0.566615 0.000000 0.056680
0.604410 0.000000 0.063376
0.643441 0.000000 0.071990
0.000000 0.013988 0.000000
0.000000 0.014570 0.000000
0.000000 0.013785 0.000000
0.000000 0.013605 0.000000
0.013412 0.003576 0.000000
0.039647 0.000000 0.000000
0.056725 0.000000 0.000000
0.068975 0.000000 0.000000
0.081318 0.000000 0.000000
0.094387 0.000000 0.000000
0.105217 0.000000 0.000000
0.116342 0.000000 0.000000
0.127348 0.000000 0.000000
0.138572 0.000000 0.000000
0.153176 0.000000 0.000000
0.169185 0.000000 0.000000
0.184210 0.000000 0.000000
0.202488 0.000000 0.000000
0.220246 0.000000 0.000000
0.239828 0.000000 0.000000
0.262846 0.000000 0.000000
0.282418 0.000000 0.000000
0.306088 0.000000 0.016160
0.334282 0.000000 0.022342
0.363398 0.000000 0.026618
0.390617 0.000000 0.031237
0.417482 0.000000 0.034358
0.446799 0.000000 0.037997
0.479441 0.000000 0.044630
0.527100 0.000000 0.050815
0.567248 0.000000 0.057290
0.605058 0.000000 0.064031
0.643973 0.000000 0.072688
0.000000 0.033136 0.000000
0.000000 0.033153 0.000000
0.000000 0.032070 0.000000
0.000000 0.031968 0.000000
0.003601 0.032022 0.000000
0.038675 0.025306 0.000000
0.053150 0.016068 0.000000
0.067552 0.000000 0.000000
0.082892 0.000000 0.000000
0.098235 0.000000 0.000000
0.109751 0.000000 0.000000
0.119328 0.000000 0.000000
0.129202 0.000000 0.000000
0.141645 0.000000 0.000000
0.156839 0.000000 0.000000
0.172398 0.000000 0.000000
0.190211 0.000000 0.000000
0.205246 0.000000 0.000000
0.223339 0.000000 0.000000
0.243179 0.000000 0.000000
0.266603 0.000000 0.000000
0.287907 0.000000 0.000000
0.310267 0.000000 0.016530
0.341219 0.000000 0.025002
0.366208 0.000000 0.028094
0.393734 0.000000 0.031776
0.420845 0.000000 0.034769
0.450334 0.000000 0.038381
0.486536 0.000000 0.045383
0.531206 0.000000 0.051299
0.571742 0.000000 0.058452
0.613510 0.000000 0.066493
0.648835 0.000000 0.075396
0.000000 0.046192 0.000000
0.000000 0.047156 0.000000
0.000000 0.047369 0.000000
0.000000 0.046803 0.000000
0.000000 0.046712 0.000000
0.041491 0.044857 0.000000
0.051882 0.040796 0.000000
0.066609 0.034820 0.000000
0.085268 0.022904 0.000000
0.099482 0.000000 0.000000
0.111437 0.000000 0.000000
0.123790 0.000000 0.000000
0.135796 0.000000 0.000000
0.147381 0.000000 0.000000
0.161724 0.000000 0.000000
0.176921 0.000000 0.000000
0.195390 0.000000 0.000000
0.209613 0.000000 0.000000
0.228028 0.000000 0.000000
0.249924 0.000000 0.000000
0.270491 0.000000 0.000000
0.290043 0.000000 0.000000
0.316589 0.000000 0.019187
0.343972 0.000000 0.026643
0.369389 0.000000 0.030747
0.396789 0.000000 0.032263
0.424165 0.000000 0.035704
0.457329 0.000000 0.040132
0.490623 0.000000 0.046249
0.532321 0.000000 0.052397
0.576249 0.000000 0.059629
0.614285 0.000000 0.067176
0.649902 0.000000 0.076835
0.000000 0.056367 0.000000
0.000000 0.057405 0.000000
0.000000 0.057649 0.000000
0.000000 0.056968 0.000000
0.000000 0.057792 0.000000
0.033671 0.057574 0.000000
0.053360 0.055821 0.000000
0.068998 0.050464 0.000000
0.086355 0.043565 0.000000
0.101711 0.035288 0.000000
0.118808 0.021426 0.000000
0.130889 0.000000 0.000000
0.141535 0.000000 0.000000
0.154841 0.000000 0.000000
0.169989 0.000000 0.000000
0.183005 0.000000 0.000000
0.199730 0.000000 0.000000
0.216975 0.000000 0.000000
0.233005 0.000000 0.000000
0.255459 0.000000 0.000000
0.276412 0.000000 0.000000
0.295879 0.000000 0.007559
0.321051 0.000000 0.020297
0.346722 0.000000 0.027364
0.377223 0.000000 0.031732
0.400258 0.000000 0.033852
0.430783 0.000000 0.037018
0.461278 0.000000 0.040494
0.494842 0.000000 0.047139
0.536824 0.000000 0.053447
0.576987 0.000000 0.059683
0.619028 0.000000 0.068485
0.654593 0.000000 0.078276
0.000000 0.069699 0.000000
0.000000 0.069958 0.000000
0.000000 0.070245 0.000000
0.000000 0.070400 0.000000
0.000000 0.071575 0.000000
0.021877 0.071642 0.000000
0.050132 0.070434 0.000000
0.073197 0.066364 0.000000
0.089155 0.059726 0.000000
0.106822 0.052707 0.000000
0.120220 0.046890 0.000000
0.134016 0.038878 0.000000
0.151033 0.022865 0.000000
0.167449 0.000000 0.000000
0.182270 0.000000 0.000000
0.196779 0.000000 0.000000
0.209764 0.000000 0.000000
0.225006 0.000000 0.000000
0.241525 0.000000 0.000000
0.262909 0.000000 0.000000
0.282253 0.000000 0.000000
0.302120 0.000000 0.010205
0.325690 0.000000 0.020088
0.354031 0.000000 0.027090
0.383048 0.000000 0.032108
0.409036 0.000000 0.034062
0.437494 0.000000 0.037283
0.465621 0.000000 0.041812
0.499177 0.000000 0.047555
0.544750 0.000000 0.054458
0.581755 0.000000 0.060888
0.623781 0.000000 0.069810
0.659701 0.000000 0.080469
0.000000 0.082967 0.000000
0.000000 0.084519 0.000000
0.000000 0.083473 0.000000
0.000000 0.083678 0.000000
0.000000 0.085162 0.000000
0.000000 0.085373 0.000000
0.044426 0.085468 0.000000
0.071504 0.083814 0.000000
0.090509 0.077792 0.000000
0.110244 0.072495 0.000000
0.125132 0.065540 0.000000
0.140215 0.059085 0.000000
0.157041 0.047834 0.000000
0.175154 0.032093 0.000000
0.195328 0.000000 0.000000
0.211374 0.000000 0.000000
0.223852 0.000000 0.000000
0.233695 0.000000 0.000000
0.252145 0.000000 0.000000
0.268987 0.000000 0.000000
0.286434 0.000000 0.000000
0.308627 0.000000 0.009030
0.332746 0.000000 0.018409
0.361597 0.000000 0.025136
0.388795 0.000000 0.031245
0.412597 0.000000 0.033891
0.444450 0.000000 0.038055
0.470135 0.000000 0.043567
0.507255 0.000000 0.049399
0.549397 0.000000 0.055000
0.587218 0.000000 0.063934
0.625336 0.000000 0.071213
0.661404 0.000000 0.082049
0.000000 0.097651 0.000000
0.000000 0.097878 0.000000
0.000000 0.098077 0.000000
0.000000 0.099870 0.000000
0.000000 0.100225 0.000000
0.000000 0.102104 0.000000
0.028997 0.100746 0.000000
0.064555 0.100693 0.000000
0.094417 0.098564 0.000000
0.115320 0.092150 0.000000
0.131985 0.084737 0.000000
0.149894 0.078176 0.000000
0.164656 0.069683 0.000000
0.183436 0.057123 0.000000
0.202612 0.039367 0.000000
0.218193 0.000000 0.000000
0.236063 0.000000 0.000000
0.253356 0.000000 0.000000
0.266322 0.000000 0.000000
0.279424 0.000000 0.000000
0.296561 0.000000 0.000000
0.317289 0.000000 0.000000
0.340117 0.000000 0.017777
0.369750 0.000000 0.025526
0.395043 0.000000 0.031564
0.422221 0.000000 0.035118
0.448931 0.000000 0.039387
0.481158 0.000000 0.044651
0.512379 0.000000 0.051386
0.555086 0.000000 0.057275
0.595887 0.000000 0.064564
0.630479 0.000000 0.072604
0.670009 0.000000 0.083592
0.000000 0.111355 0.000000
0.000000 0.111537 0.000000
0.000000 0.113550 0.000000
0.000000 0.113866 0.000000
0.000000 0.115999 0.000000
0.000000 0.114670 0.000000
0.022701 0.114990 0.000000
0.064522 0.115012 0.000000
0.095449 0.112893 0.000000
0.120233 0.109414 0.000000
0.136466 0.105844 0.000000
0.155135 0.099085 0.000000
0.176925 0.092259 0.000000
0.199570 0.082359 0.000000
0.217841 0.066529 0.000000
0.229940 0.051011 0.000000
0.245790 0.031284 0.000000
0.265608 0.000000 0.000000
0.282071 0.000000 0.000000
0.295667 0.000000 0.000000
0.308201 0.000000 0.000000
0.325434 0.000000 0.000000
0.348418 0.000000 0.013207
0.374126 0.000000 0.025857
0.402154 0.000000 0.031690
0.427038 0.000000 0.036415
0.457061 0.000000 0.040510
0.486706 0.000000 0.046411
0.524180 0.000000 0.051696
0.560412 0.000000 0.059023
0.601201 0.000000 0.065849
0.635481 0.000000 0.073343
0.675234 0.000000 0.085188
0.000000 0.130907 0.000000
0.000000 0.133249 0.000000
0.000000 0.133576 0.000000
0.000000 0.135001 0.000000
0.000000 0.137516 0.000000
0.000000 0.138016 0.000000
0.000000 0.136325 0.000000
0.050570 0.136511 0.000000
0.092050 0.135343 0.000000
0.116867 0.132822 0.000000
0.141150 0.129916 0.000000
0.159619 0.122685 0.000000
0.187640 0.113231 0.000000
0.209463 0.103464 0.000000
0.227765 0.093243 0.000000
0.244233 0.079882 0.000000
0.262845 0.065750 0.000000
0.275937 0.046658 0.000000
0.291350 0.000000 0.000000
0.309325 0.000000 0.000000
0.328387 0.000000 0.000000
0.344320 0.000000 0.000000
0.359441 0.000000 0.009038
0.388097 0.000000 0.021697
0.411875 0.000000 0.030243
0.437323 0.000000 0.034629
0.464901 0.000000 0.040072
0.494724 0.000000 0.045066
0.532466 0.000000 0.050959
0.565575 0.000000 0.058993
0.606526 0.000000 0.067128
0.640892 0.000000 0.074761
0.676678 0.000000 0.086786
0.000000 0.155111 0.000000
0.000000 0.155479 0.000000
0.000000 0.158291 0.000000
0.000000 0.158795 0.000000
0.000000 0.161770 0.000000
0.000000 0.159951 0.000000
0.000000 0.160360 0.000000
0.024258 0.160686 0.000000
0.079623 0.158283 0.000000
0.112898 0.158093 0.000000
0.138679 0.157644 0.000000
0.166234 0.152990 0.000000
0.192096 0.141777 0.000000
0.215213 0.130361 0.000000
0.235712 0.119841 0.000000
0.258872 0.108908 0.000000
0.274482 0.096845 0.000000
0.292129 0.082578 0.000000
0.306636 0.066253 0.000000
0.317785 0.042866 0.000000
0.339509 0.000000 0.000000
0.356161 0.000000 0.000000
0.376226 0.000000 0.000000
0.395249 0.000000 0.014520
0.419179 0.000000 0.028299
0.444912 0.000000 0.033121
0.472663 0.000000 0.037803
0.502706 0.000000 0.043517
0.537520 0.000000 0.049589
0.577448 0.000000 0.057578
0.611696 0.000000 0.067108
0.649928 0.000000 0.076157
0.681871 0.000000 0.087661
0.000000 0.175895 0.000000
0.000000 0.176357 0.000000
0.000000 0.176805 0.000000
0.000000 0.177423 0.000000
0.000000 0.177956 0.000000
0.000000 0.178374 0.000000
0.000000 0.178762 0.000000
0.000000 0.176419 0.000000
0.079324 0.176552 0.000000
0.112059 0.176461 0.000000
0.137414 0.176172 0.000000
0.174637 0.177931 0.000000
0.200042 0.170971 0.000000
0.224074 0.159604 0.000000
0.246976 0.147851 0.000000
0.268542 0.140947 0.000000
0.288221 0.129702 0.000000
0.303644 0.118499 0.000000
0.321353 0.107277 0.000000
0.339208 0.086419 0.000000
0.351669 0.068159 0.000000
0.371527 0.000000 0.000000
0.397392 0.000000 0.000000
0.411876 0.000000 0.000000
0.430452 0.000000 0.021568
0.456102 0.000000 0.029737
0.484452 0.000000 0.036411
0.514861 0.000000 0.043623
0.546675 0.000000 0.050199
0.583075 0.000000 0.058578
0.624176 0.000000 0.067600
0.655479 0.000000 0.077562
0.687589 0.000000 0.089305
0.000000 0.197966 0.000000
0.000000 0.199886 0.000000
0.000000 0.200361 0.000000
0.000000 0.200734 0.000000
0.000000 0.201203 0.000000
0.000000 0.201564 0.000000
0.000000 0.200534 0.000000
0.000000 0.200852 0.000000
0.047189 0.201092 0.000000
0.109852 0.197842 0.000000
0.141206 0.200080 0.000000
0.177656 0.198866 0.000000
0.206485 0.194485 0.000000
0.232366 0.185372 0.000000
0.259895 0.174123 0.000000
0.282141 0.164294 0.000000
0.301666 0.155765 0.000000
0.316738 0.147449 0.000000
0.333933 0.139820 0.000000
0.353588 0.127970 0.000000
0.371266 0.110407 0.000000
0.392292 0.088251 0.000000
0.412112 0.053236 0.000000
0.435193 0.000000 0.000000
0.451743 0.000000 0.000000
0.471697 0.000000 0.020682
0.493539 0.000000 0.031838
0.520899 0.000000 0.042303
0.556014 0.000000 0.049306
0.592591 0.000000 0.058027
0.630014 0.000000 0.067353
0.665293 0.000000 0.078891
0.697220 0.000000 0.090932
0.000000 0.218724 0.000000
0.000000 0.218983 0.000000
0.000000 0.219262 0.000000
0.000000 0.219521 0.000000
0.000000 0.219862 0.000000
0.000000 0.220117 0.000000
0.000000 0.218775 0.000000
0.000000 0.218873 0.000000
0.063893 0.218811 0.000000
0.108844 0.218555 0.000000
0.148606 0.219501 0.000000
0.180138 0.217059 0.000000
0.214320 0.215644 0.000000
0.244307 0.207493 0.000000
0.268683 0.200856 0.000000
0.293153 0.192183 0.000000
0.312825 0.181986 0.000000
0.332018 0.169847 0.000000
0.350646 0.158884 0.000000
0.364583 0.151475 0.000000
0.386208 0.142067 0.000000
0.408755 0.127931 0.000000
0.429469 0.107951 0.000000
0.451377 0.076109 0.000000
0.471396 0.000000 0.000000
0.495720 0.000000 0.000000
0.510623 0.000000 0.021822
0.534872 0.000000 0.038690
0.566224 0.000000 0.047348
0.598625 0.000000 0.055701
0.639975 0.000000 0.066679
0.671607 0.000000 0.080848
0.703105 0.000000 0.090854
0.000000 0.239926 0.000000
0.000000 0.241799 0.000000
0.000000 0.242089 0.000000
0.000000 0.242322 0.000000
0.000000 0.242616 0.000000
0.000000 0.242833 0.000000
0.000000 0.243041 0.000000
0.000000 0.241439 0.000000
0.068544 0.241396 0.000000
0.120032 0.242847 0.000000
0.154605 0.242410 0.000000
0.180844 0.245345 0.000000
0.219067 0.244174 0.000000
0.256078 0.238922 0.000000
0.281982 0.228441 0.000000
0.301170 0.221694 0.000000
0.328658 0.208633 0.000000
0.347302 0.199576 0.000000
0.365544 0.192003 0.000000
0.383379 0.175333 0.000000
0.401186 0.166915 0.000000
0.422203 0.157355 0.000000
0.446946 0.142323 0.000000
0.470327 0.125522 0.000000
0.488010 0.099862 0.000000
0.513582 0.054008 0.000000
0.539138 0.000000 0.000000
0.555496 0.000000 0.024773
0.576762 0.000000 0.043499
0.612619 0.000000 0.053247
0.646491 0.000000 0.065401
0.681748 0.000000 0.080144
0.713311 0.000000 0.092124
0.000000 0.266590 0.000000
0.000000 0.266834 0.000000
0.000000 0.267025 0.000000
0.000000 0.267306 0.000000
0.000000 0.267524 0.000000
0.000000 0.267782 0.000000
0.000000 0.267966 0.000000
0.000000 0.264354 0.000000
0.094408 0.264282 0.000000
0.139072 0.264022 0.000000
0.172267 0.263592 0.000000
0.208343 0.262800 0.000000
0.240686 0.261743 0.000000
0.270410 0.260445 0.000000
0.291069 0.255476 0.000000
0.316051 0.244273 0.000000
0.336691 0.236935 0.000000
0.360380 0.225262 0.000000
0.383144 0.217072 0.000000
0.402981 0.208865 0.000000
0.419702 0.196933 0.000000
0.447625 0.182517 0.000000
0.461559 0.170021 0.000000
0.488967 0.159987 0.000000
0.507803 0.144906 0.000000
0.523936 0.126361 0.000000
0.553846 0.085983 0.000000
0.577099 0.000000 0.000000
0.601410 0.000000 0.028953
0.622829 0.000000 0.049370
0.660042 0.000000 0.063239
0.687741 0.000000 0.079052
0.719166 0.000000 0.092357
0.000000 0.286424 0.000000
0.000000 0.286684 0.000000
0.000000 0.286851 0.000000
0.000000 0.287031 0.000000
0.000000 0.287207 0.000000
0.000000 0.287384 0.000000
0.000000 0.287463 0.000000
0.093854 0.283432 0.000000
0.143563 0.283217 0.000000
0.173264 0.282912 0.000000
0.206468 0.282342 0.000000
0.232964 0.285770 0.000000
0.256188 0.285044 0.000000
0.279548 0.284139 0.000000
0.310823 0.278425 0.000000
0.327168 0.273285 0.000000
0.353937 0.261068 0.000000
0.376150 0.253051 0.000000
0.397878 0.246857 0.000000
0.419731 0.238312 0.000000
0.441403 0.229449 0.000000
0.462821 0.218145 0.000000
0.489775 0.203260 0.000000
0.505237 0.194403 0.000000
0.523800 0.178179 0.000000
0.554353 0.169751 0.000000
0.571292 0.149035 0.000000
0.595367 0.115235 0.000000
0.623386 0.026218 0.000000
0.647936 0.000000 0.031373
0.670306 0.000000 0.058109
0.697523 0.000000 0.077079
0.728774 0.000000 0.091162
0.000000 0.311941 0.000000
0.000000 0.312049 0.000000
0.000000 0.312244 0.000000
0.000000 0.312435 0.000000
0.000000 0.312582 0.000000
0.000000 0.312682 0.000000
0.063529 0.310540 0.000000
0.116261 0.310499 0.000000
0.151055 0.310369 0.000000
0.183918 0.310100 0.000000
0.210612 0.309738 0.000000
0.236153 0.309243 0.000000
0.256818 0.310966 0.000000
0.285247 0.310071 0.000000
0.324590 0.306141 0.000000
0.349694 0.297963 0.000000
0.370550 0.292107 0.000000
0.395078 0.283530 0.000000
0.419296 0.274712 0.000000
0.439911 0.265977 0.000000
0.463437 0.256668 0.000000
0.486578 0.247272 0.000000
0.512382 0.237129 0.000000
0.528256 0.230259 0.000000
0.541095 0.221719 0.000000
0.567434 0.206372 0.000000
0.591052 0.190417 0.000000
0.609386 0.175073 0.000000
0.634340 0.143692 0.000000
0.666047 0.089599 0.000000
0.691310 0.000000 0.039347
0.710615 0.000000 0.066382
0.734768 0.000000 0.089016
0.000000 0.347003 0.000000
0.000000 0.347107 0.000000
0.000000 0.347234 0.000000
0.000000 0.347372 0.000000
0.000000 0.347466 0.000000
0.000000 0.347587 0.000000
0.051383 0.347647 0.000000
0.101820 0.347661 0.000000
0.151219 0.345143 0.000000
0.177451 0.345028 0.000000
0.204989 0.344814 0.000000
0.230799 0.344501 0.000000
0.255713 0.344074 0.000000
0.294144 0.343142 0.000000
0.329135 0.341969 0.000000
0.365720 0.337864 0.000000
0.389956 0.329054 0.000000
0.415545 0.312508 0.000000
0.442534 0.300757 0.000000
0.468462 0.288860 0.000000
0.496603 0.278887 0.000000
0.517123 0.271821 0.000000
0.530524 0.265389 0.000000
0.553978 0.262456 0.000000
0.570510 0.257754 0.000000
0.583881 0.248826 0.000000
0.608159 0.236274 0.000000
0.628970 0.216066 0.000000
0.651656 0.205389 0.000000
0.680927 0.177144 0.000000
0.709041 0.117841 0.000000
0.731468 0.000000 0.047388
0.747642 0.000000 0.080305
0.000000 0.375348 0.000000
0.000000 0.375446 0.000000
0.000000 0.375563 0.000000
0.000000 0.375639 0.000000
0.000000 0.375743 0.000000
0.000000 0.375791 0.000000
0.085279 0.375853 0.000000
0.125465 0.375866 0.000000
0.154802 0.375842 0.000000
0.184378 0.375757 0.000000
0.206578 0.375634 0.000000
0.235563 0.375374 0.000000
0.272795 0.372170 0.000000
0.303225 0.371685 0.000000
0.337366 0.370912 0.000000
0.375771 0.369723 0.000000
0.399215 0.368819 0.000000
0.430309 0.356196 0.000000
0.456178 0.343731 0.000000
0.480807 0.331252 0.000000
0.511205 0.320837 0.000000
0.540601 0.307520 0.000000
0.568709 0.296650 0.000000
0.582304 0.287141 0.000000
0.592421 0.283267 0.000000
0.606429 0.289608 0.000000
0.626893 0.274141 0.000000
0.645440 0.265177 0.000000
0.671234 0.249705 0.000000
0.697601 0.235963 0.000000
0.723570 0.205848 0.000000
0.749120 0.159585 0.000000
0.768633 0.083719 0.068137
0.000000 0.403182 0.000000
0.000000 0.403243 0.000000
0.000000 0.403384 0.000000
0.000000 0.403489 0.000000
0.000000 0.403611 0.000000
0.065934 0.403690 0.000000
0.120234 0.403795 0.000000
0.142006 0.403840 0.000000
0.166571 0.403879 0.000000
0.201765 0.400952 0.000000
0.229651 0.400881 0.000000
0.255868 0.400734 0.000000
0.285263 0.400455 0.000000
0.322165 0.399901 0.000000
0.350691 0.399296 0.000000
0.383507 0.398389 0.000000
0.407178 0.400571 0.000000
0.437177 0.396407 0.000000
0.463468 0.389203 0.000000
0.490533 0.375794 0.000000
0.524355 0.358917 0.000000
0.559160 0.347545 0.000000
0.585347 0.336594 0.000000
0.610598 0.322632 0.000000
0.624593 0.318291 0.000000
0.635030 0.317162 0.000000
0.648885 0.315625 0.000000
0.670432 0.308269 0.000000
0.686263 0.299805 0.000000
0.705861 0.282497 0.000000
0.732811 0.266471 0.000000
0.759475 0.245819 0.000000
0.786088 0.209721 0.000000
0.000000 0.433216 0.000000
0.000000 0.433313 0.000000
0.000000 0.433371 0.000000
0.000000 0.433448 0.000000
0.056200 0.433470 0.000000
0.113521 0.433546 0.000000
0.139841 0.433587 0.000000
0.168214 0.433618 0.000000
0.192593 0.433620 0.000000
0.231453 0.427535 0.000000
0.250751 0.427445 0.000000
0.278455 0.427240 0.000000
0.309644 0.426883 0.000000
0.335879 0.426462 0.000000
0.366300 0.425822 0.000000
0.389507 0.431294 0.000000
0.415601 0.430520 0.000000
0.445606 0.429480 0.000000
0.477319 0.422029 0.000000
0.508088 0.414385 0.000000
0.534665 0.403650 0.000000
0.572346 0.388863 0.000000
0.600542 0.374380 0.000000
0.626922 0.366015 0.000000
0.652590 0.354408 0.000000
0.663314 0.347190 0.000000
0.677370 0.345811 0.000000
0.684270 0.338894 0.000000
0.703226 0.344630 0.000000
0.726640 0.332424 0.000000
0.747107 0.317866 0.000000
0.771517 0.312193 0.000000
0.798262 0.282289 0.000000
0.000000 0.467036 0.000000
0.000000 0.467078 0.000000
0.077205 0.464021 0.000000
0.093849 0.464037 0.000000
0.138913 0.464084 0.000000
0.163836 0.464101 0.000000
0.185339 0.464101 0.000000
0.204738 0.464084 0.000000
0.228463 0.464033 0.000000
0.250549 0.463946 0.000000
0.276641 0.463783 0.000000
0.296694 0.463607 0.000000
0.325909 0.463259 0.000000
0.345019 0.462966 0.000000
0.373322 0.462429 0.000000
0.396377 0.461906 0.000000
0.427976 0.461058 0.000000
0.458988 0.460071 0.000000
0.499296 0.455391 0.000000
0.532055 0.444436 0.000000
0.564252 0.430089 0.000000
0.585697 0.422483 0.000000
0.610401 0.414539 0.000000
0.641894 0.405944 0.000000
0.668803 0.394273 0.000000
0.691140 0.379562 0.000000
0.712486 0.361505 0.000000
0.712494 0.374445 0.000000
0.722987 0.363734 0.000000
0.742525 0.373739 0.000000
0.763191 0.365454 0.000000
0.784425 0.354405 0.000000
0.805022 0.346083 0.000000
0.109150 0.501521 0.000000
0.134472 0.501534 0.000000
0.145194 0.501537 0.000000
0.164286 0.501539 0.000000
0.172976 0.501537 0.000000
0.196698 0.501518 0.000000
0.217975 0.501481 0.000000
0.237617 0.501424 0.000000
0.256102 0.501346 0.000000
0.267938 0.501281 0.000000
0.296281 0.501075 0.000000
0.307237 0.500973 0.000000
0.328682 0.500734 0.000000
0.356766 0.497180 0.000000
0.376663 0.496843 0.000000
0.410435 0.496158 0.000000
0.443215 0.495346 0.000000
0.479804 0.494256 0.000000
0.524535 0.492651 0.000000
0.555140 0.478453 0.000000
