Assets/Lutify-Free-LUTs-Pack/Lutify Free LUTs Pack/Film Tone Pro - Film Tone 3/Lutify.me-FilmTone3-DWG-to-DWG.cube
# Created with: fylm.ai - Colour Grading and Collaboration Software in Cloud 
# Website: https://fylm.ai 
# META
# Option: Gamut compress
# Block 2: colourMatch | Blending Mode: Normal | {"ColorSpace":0,"CrossCovarianceLimit":50,"ReshapingIterations":1,"PercentSaturationShift":100,"PercentShadingShift":100,"ExtraShading":true,"PercentTint":100,"PercentModified":100}
# Block 3: subtractiveColour | Blending Mode: Normal | {"sliders":{"gainY":0.6,"C":0.3,"M":0.3,"Y":0.3}}
# Block 4: LUT | Filmic Curve Response: Low Contrast 2 (100%)
# Block 5: logPrimaries | Blending Mode: Normal | {"wheels":{"shadows":{"Y":"0","R":"1","G":"1","B":"1"},"midtones":{"Y":"0","R":"1","G":"1","B":"1"},"highlights":{"Y":"0","R":"1","G":"1","B":"1"},"offset":{"Y":"0","R":"1","G":"1","B":"1"}},"sliders":{"shadows":{"Y":0,"R":-0.026,"G":0.03,"B":0.1},"midtones":{"Y":0,"R":0.024,"G":-0.036,"B":0.036},"highlights":{"Y":0,"R":0,"G":0.044,"B":-0.128},"offset":{"Y":0,"R":0,"G":0,"B":0}}}
# Block 6: hueSaturation | Blending Mode: Normal | {"hue":0,"saturation":-0.1}
TITLE "dwg" 
LUT_3D_SIZE 33
-0.016000 -0.002293 0.006450
-0.002098 -0.006159 0.002148
0.021859 -0.007301 0.001461
0.051480 -0.008177 0.000228
0.080258 -0.007317 0.002178
0.108530 -0.004242 0.007318
0.139713 0.000316 0.014239
0.174513 0.006267 0.023939
0.206157 0.014391 0.035436
0.239562 0.027287 0.050432
0.270000 0.043615 0.066318
0.300163 0.061965 0.083847
0.328699 0.080957 0.102527
0.353413 0.100677 0.120158
0.381854 0.122208 0.141155
0.406046 0.143877 0.161142
0.430813 0.170744 0.183250
0.454421 0.196852 0.204629
0.481548 0.225036 0.229389
0.504116 0.250890 0.250960
0.529339 0.280435 0.275115
0.553593 0.309674 0.298939
0.580263 0.335430 0.325134
0.606995 0.364189 0.351734
0.635040 0.393139 0.379916
0.664236 0.421959 0.409410
0.695565 0.447386 0.440377
0.726908 0.474573 0.471531
0.760470 0.503928 0.504277
0.791573 0.530302 0.534802
0.827360 0.558673 0.569350
0.867576 0.589918 0.607269
0.905585 0.622559 0.643568
-0.016053 0.011772 0.007726
0.002013 0.013600 0.009055
0.025954 0.007641 0.005504
0.054738 0.005333 0.004057
0.083319 0.002643 0.005536
0.110339 0.003088 0.008668
0.143506 0.007248 0.016026
0.178785 0.013447 0.026125
0.210683 0.023164 0.038178
0.244115 0.034729 0.053312
0.271477 0.050308 0.067859
0.301590 0.066198 0.085153
0.329026 0.084611 0.103154
0.353780 0.104101 0.120807
0.382060 0.123982 0.141495
0.406297 0.146581 0.161625
0.430980 0.172702 0.183587
0.454505 0.197894 0.204800
0.481591 0.226219 0.229440
0.504201 0.252188 0.251173
0.529424 0.281767 0.275334
0.553593 0.309674 0.298939
0.580348 0.336842 0.325372
0.606995 0.364189 0.351734
0.635040 0.393139 0.379916
0.664236 0.421959 0.409410
0.695565 0.447386 0.440377
0.726908 0.474573 0.471531
0.760470 0.503928 0.504277
0.791573 0.530302 0.534802
0.827360 0.558673 0.569350
0.867576 0.589918 0.607269
0.905585 0.622559 0.643568
-0.016509 0.033414 0.009424
-0.003313 0.037473 0.009866
0.030243 0.039951 0.011465
0.062472 0.033396 0.010675
0.091941 0.029421 0.011564
0.121071 0.026676 0.014134
0.153471 0.024429 0.020897
0.184271 0.025142 0.029367
0.214221 0.031785 0.040611
0.247857 0.044100 0.056058
0.275223 0.058114 0.070695
0.305310 0.072575 0.088074
0.330640 0.089603 0.104696
0.356362 0.108118 0.122955
0.382266 0.125975 0.141880
0.406547 0.149284 0.162108
0.431104 0.174574 0.183657
0.454631 0.200154 0.205038
0.481676 0.227468 0.229649
0.504244 0.253432 0.251268
0.529381 0.281711 0.275214
0.553678 0.311071 0.299176
0.580348 0.336842 0.325372
0.606995 0.364189 0.351734
0.635040 0.393139 0.379916
0.664194 0.421898 0.409267
0.695565 0.447386 0.440377
0.726908 0.474573 0.471531
0.760470 0.503928 0.504277
0.791573 0.530302 0.534802
0.827360 0.558673 0.569350
0.867576 0.589918 0.607269
0.905585 0.622559 0.643568
-0.017175 0.060753 0.012552
-0.004065 0.063926 0.012319
0.025960 0.066572 0.015158
0.069576 0.070673 0.019024
0.103282 0.063096 0.019122
0.133772 0.059338 0.022808
0.165264 0.054520 0.028627
0.197701 0.053949 0.038183
0.223757 0.053237 0.047178
0.251922 0.057023 0.059529
0.279089 0.067791 0.073894
0.309231 0.080654 0.091335
0.332420 0.096774 0.106664
0.359052 0.112994 0.125275
0.383736 0.129722 0.143366
0.409134 0.153802 0.164235
0.431396 0.178001 0.184247
0.455955 0.202969 0.206356
0.482920 0.229721 0.230736
0.504244 0.254026 0.251252
0.529509 0.283708 0.275542
0.553594 0.310964 0.298957
0.580306 0.336788 0.325262
0.607038 0.364966 0.351873
0.634955 0.393026 0.379644
0.664194 0.421898 0.409267
0.695565 0.447386 0.440377
0.726908 0.474573 0.471531
0.760470 0.503928 0.504277
0.791573 0.530302 0.534802
0.827360 0.558673 0.569350
0.867576 0.589918 0.607269
0.905543 0.622496 0.643449
-0.013616 0.088792 0.016698
-0.003616 0.091942 0.017690
0.023300 0.094542 0.019490
0.064950 0.099658 0.024032
0.111299 0.099938 0.029095
0.145243 0.094200 0.032295
0.177775 0.088117 0.038510
0.206839 0.085879 0.047056
0.237474 0.085634 0.058131
0.261437 0.083662 0.067612
0.284911 0.085155 0.079262
0.311427 0.092652 0.094201
0.334280 0.104473 0.108727
0.360687 0.118311 0.126988
0.385455 0.136447 0.145338
0.409508 0.158582 0.164809
0.432711 0.181125 0.185336
0.455997 0.204631 0.206349
0.483005 0.231543 0.230899
0.504371 0.256563 0.251530
0.529551 0.284374 0.275652
0.553637 0.311730 0.299094
0.580349 0.337554 0.325399
0.606954 0.364857 0.351649
0.635041 0.394595 0.379925
0.664237 0.422677 0.409405
0.695565 0.447386 0.440377
0.726950 0.475269 0.471644
0.760470 0.503928 0.504277
0.791573 0.530302 0.534802
0.827360 0.558673 0.569350
0.867576 0.589918 0.607269
0.905543 0.622496 0.643449
-0.011732 0.114468 0.022504
-0.001689 0.118036 0.023707
0.022344 0.124630 0.025713
0.060304 0.128299 0.029500
0.107232 0.133832 0.036581
0.153685 0.131379 0.043467
0.187859 0.127176 0.050116
0.218141 0.119097 0.057590
0.245819 0.116912 0.067366
0.270984 0.112115 0.076910
0.294586 0.110875 0.087928
0.318301 0.108977 0.100373
0.339554 0.114354 0.113111
0.363750 0.127711 0.130127
0.389617 0.146094 0.149405
0.412307 0.165799 0.167631
0.434152 0.186752 0.186752
0.456293 0.209376 0.207010
0.483132 0.234567 0.231124
0.505573 0.258836 0.252477
0.529594 0.285650 0.275751
0.553680 0.313207 0.299259
0.580307 0.338211 0.325315
0.606997 0.365633 0.351789
0.635041 0.394595 0.379925
0.664237 0.422677 0.409405
0.695479 0.447262 0.440089
0.726950 0.475269 0.471644
0.760384 0.503794 0.503982
0.791573 0.530302 0.534802
0.827360 0.558673 0.569350
0.867576 0.589918 0.607269
0.905543 0.622496 0.643449
-0.007504 0.148006 0.031479
0.002370 0.149328 0.032148
0.022324 0.155467 0.034164
0.057974 0.159251 0.038534
0.102593 0.167767 0.046327
0.153079 0.170987 0.054976
0.196882 0.168691 0.064328
0.227462 0.158365 0.070109
0.256433 0.154067 0.079489
0.280596 0.147771 0.088258
0.303363 0.145610 0.098261
0.327206 0.140999 0.110204
0.346746 0.135989 0.120558
0.369468 0.143714 0.135869
0.393866 0.158250 0.153868
0.416297 0.174305 0.171495
0.436756 0.192832 0.189091
0.458813 0.214491 0.209254
0.483301 0.237652 0.231504
0.505700 0.260785 0.252802
0.530842 0.288052 0.276913
0.553682 0.314632 0.299315
0.580479 0.341274 0.325863
0.606998 0.367078 0.351843
0.635084 0.395379 0.380066
0.664237 0.422677 0.409405
0.695522 0.447955 0.440201
0.726865 0.475145 0.471355
0.760427 0.504485 0.504093
0.791573 0.530302 0.534802
0.827403 0.559366 0.569461
0.867576 0.589918 0.607269
0.905543 0.622496 0.643449
-0.001590 0.177687 0.041552
0.006661 0.178991 0.042123
0.025895 0.184661 0.045181
0.059321 0.187490 0.048449
0.096397 0.194715 0.055004
0.143276 0.199743 0.064132
0.194818 0.203124 0.075649
0.235723 0.199374 0.085321
0.264723 0.190982 0.092240
0.290220 0.184996 0.101080
0.313048 0.182969 0.110992
0.337057 0.176347 0.121910
0.356714 0.170736 0.132081
0.376793 0.169421 0.144143
0.396017 0.172888 0.157298
0.418074 0.183651 0.173894
0.439444 0.200126 0.191649
0.461546 0.222774 0.212041
0.483556 0.242079 0.232103
0.505912 0.265209 0.253250
0.530972 0.291586 0.277316
0.553641 0.316017 0.299272
0.580481 0.342697 0.325915
0.607041 0.367854 0.351983
0.635085 0.396108 0.380094
0.664237 0.423396 0.409399
0.695522 0.447955 0.440201
0.726908 0.475840 0.471468
0.760427 0.504485 0.504093
0.791573 0.530302 0.534802
0.827403 0.559366 0.569461
0.867576 0.590444 0.607213
0.905543 0.622496 0.643449
0.006218 0.205368 0.053320
0.014272 0.205653 0.052865
0.032866 0.210619 0.056131
0.057855 0.217197 0.061714
0.093030 0.222630 0.067267
0.137646 0.226414 0.074874
0.189575 0.229544 0.085380
0.239482 0.232837 0.098684
0.272874 0.226597 0.106559
0.297397 0.219366 0.113640
0.320184 0.215471 0.122593
0.344405 0.210657 0.133174
0.365432 0.206499 0.143969
0.385487 0.203217 0.155062
0.404517 0.200930 0.167194
0.422703 0.203290 0.179832
0.441278 0.211658 0.194362
0.465222 0.229037 0.215198
0.484971 0.249160 0.233616
0.509605 0.271301 0.256677
0.531060 0.295200 0.277682
0.554851 0.318605 0.300437
0.581691 0.345993 0.327083
0.609418 0.370849 0.354104
0.635087 0.397567 0.380151
0.664280 0.424176 0.409537
0.695480 0.448525 0.440026
0.726908 0.475840 0.471468
0.760427 0.504485 0.504093
0.791616 0.530995 0.534913
0.827317 0.559231 0.569165
0.867576 0.590444 0.607213
0.907883 0.623683 0.645533
0.016055 0.232227 0.066645
0.028865 0.235978 0.069042
0.044322 0.240036 0.072300
0.063120 0.242192 0.073998
0.092713 0.246441 0.079202
0.133202 0.253190 0.087430
0.182638 0.256068 0.096399
0.233764 0.259129 0.108239
0.278971 0.263276 0.122798
0.305510 0.251330 0.127529
0.327405 0.249461 0.136011
0.352514 0.239780 0.144787
0.374793 0.235776 0.155790
0.391600 0.234212 0.165095
0.410655 0.230228 0.176277
0.429763 0.227689 0.188506
0.446878 0.229372 0.200967
0.468043 0.241061 0.218344
0.488709 0.257386 0.237221
0.511152 0.280546 0.258890
0.533559 0.301077 0.280247
0.554896 0.320809 0.300664
0.581735 0.348229 0.327291
0.609462 0.372348 0.354272
0.635045 0.398241 0.380067
0.664195 0.424057 0.409254
0.695480 0.448525 0.440026
0.726908 0.476474 0.471437
0.760470 0.505178 0.504204
0.793911 0.531901 0.536741
0.827317 0.559231 0.569165
0.867576 0.590444 0.607213
0.907883 0.623683 0.645533
0.035427 0.259495 0.082777
0.045458 0.263214 0.085250
0.057625 0.266010 0.087376
0.073095 0.268245 0.089968
0.096184 0.269960 0.093079
0.127459 0.277352 0.100499
0.174218 0.280046 0.107971
0.229246 0.285295 0.120319
0.273944 0.288092 0.132538
0.310529 0.286515 0.143276
0.337651 0.277455 0.150229
0.364114 0.271154 0.160036
0.384266 0.268726 0.169467
0.403219 0.263149 0.178934
0.420040 0.258797 0.188145
0.439201 0.255508 0.199903
0.452744 0.253215 0.208992
0.472234 0.255959 0.223313
0.492490 0.267063 0.241042
0.513688 0.289251 0.261542
0.535976 0.307614 0.282666
0.558480 0.326366 0.304011
0.581739 0.351143 0.327427
0.609465 0.375238 0.354385
0.637381 0.400480 0.382070
0.664196 0.425519 0.409259
0.695394 0.449032 0.439708
0.729331 0.478836 0.473632
0.760384 0.505053 0.503914
0.793911 0.531901 0.536741
0.827360 0.559923 0.569276
0.867576 0.590444 0.607213
0.907925 0.624278 0.645625
0.053969 0.290648 0.102338
0.064459 0.292418 0.104229
0.073861 0.294220 0.106083
0.088428 0.295315 0.107925
0.107411 0.298824 0.111805
0.130050 0.302409 0.116182
0.168362 0.304587 0.121676
0.222877 0.309764 0.132850
0.267993 0.312360 0.143579
0.307737 0.315979 0.156145
0.343744 0.311152 0.166194
0.371273 0.303211 0.174535
0.392328 0.296379 0.182288
0.412499 0.290974 0.191620
0.429441 0.288806 0.201024
0.447666 0.288158 0.212451
0.463586 0.286795 0.222770
0.481857 0.286714 0.235623
0.495632 0.287772 0.245934
0.516148 0.298627 0.264044
0.537272 0.314632 0.284291
0.561029 0.334575 0.306860
0.584031 0.356232 0.329488
0.610677 0.378589 0.355588
0.637511 0.403563 0.382521
0.664197 0.426984 0.409264
0.695439 0.451232 0.439828
0.729331 0.479470 0.473600
0.760427 0.505749 0.504028
0.793826 0.532392 0.536409
0.827360 0.559923 0.569276
0.867576 0.590444 0.607213
0.907925 0.624278 0.645625
0.076289 0.315152 0.120263
0.083959 0.315744 0.121208
0.093704 0.316505 0.122402
0.103436 0.317231 0.123655
0.119452 0.320495 0.127071
0.141475 0.322931 0.130551
0.170506 0.327859 0.136627
0.217530 0.330363 0.144409
0.259901 0.332643 0.153222
0.303407 0.335176 0.164784
0.345100 0.337938 0.178897
0.378165 0.329876 0.187993
0.399469 0.327776 0.197030
0.418481 0.321627 0.204509
0.439946 0.318230 0.215281
0.459115 0.312549 0.225690
0.476187 0.311026 0.236531
0.489904 0.310170 0.245912
0.504830 0.310991 0.256761
0.519908 0.312470 0.268466
0.540810 0.323730 0.287502
0.562287 0.342328 0.308481
0.587406 0.362357 0.332497
0.611847 0.382635 0.356718
0.637515 0.406480 0.382634
0.665365 0.428838 0.410222
0.697775 0.453460 0.441725
0.730542 0.481919 0.474635
0.761596 0.506870 0.504984
0.793912 0.533778 0.536631
0.829698 0.561524 0.571219
0.867618 0.591039 0.607305
0.907925 0.624278 0.645625
0.099647 0.342314 0.141164
0.103950 0.342654 0.141695
0.112525 0.343256 0.142703
0.122805 0.343948 0.143916
0.135393 0.344735 0.145414
0.154676 0.349232 0.150204
0.179084 0.351686 0.154193
0.214758 0.354671 0.160278
0.254295 0.355596 0.166653
0.297400 0.360151 0.177885
0.340805 0.360557 0.189472
0.384118 0.359288 0.203830
0.404246 0.356587 0.210753
0.423168 0.348892 0.216645
0.443430 0.343961 0.225568
0.464951 0.339683 0.236626
0.483097 0.335715 0.247101
0.501345 0.333459 0.258937
0.516272 0.333712 0.269442
0.530212 0.336971 0.280386
0.543331 0.339857 0.291342
0.563254 0.350305 0.309782
0.588410 0.368419 0.333554
0.615181 0.387277 0.359484
0.639597 0.409151 0.384016
0.665284 0.431665 0.410110
0.697733 0.454853 0.441578
0.730542 0.483187 0.474573
0.761596 0.507503 0.504952
0.795038 0.534824 0.537436
0.829698 0.561524 0.571219
0.867576 0.590971 0.607157
0.907968 0.624873 0.645717
0.123168 0.365204 0.159463
0.128988 0.365594 0.160164
0.134502 0.365940 0.160791
0.143249 0.367590 0.162571
0.154439 0.369379 0.164758
0.171541 0.371444 0.167644
0.193094 0.373714 0.171296
0.218673 0.375026 0.174913
0.248943 0.377672 0.180609
0.293454 0.379972 0.189673
0.336482 0.380159 0.199574
0.380934 0.384097 0.215223
0.409058 0.385059 0.226112
0.426910 0.380004 0.231144
0.448340 0.375713 0.239853
0.472163 0.372111 0.251264
0.490251 0.366224 0.259999
0.508435 0.362187 0.270647
0.531185 0.357022 0.285226
0.542753 0.358458 0.293850
0.553252 0.361741 0.302224
0.566903 0.366860 0.314602
0.589552 0.379182 0.335609
0.617442 0.396842 0.361934
0.643061 0.414683 0.387025
0.667536 0.434539 0.411916
0.698904 0.458178 0.442598
0.731583 0.484753 0.475062
0.763891 0.509682 0.506719
0.794953 0.535331 0.537112
0.829741 0.562844 0.571293
0.868788 0.592154 0.608259
0.907968 0.625404 0.645691
0.155420 0.388567 0.179793
0.159254 0.389927 0.181111
0.165442 0.390276 0.181766
0.172914 0.391820 0.183519
0.182687 0.392357 0.184681
0.193890 0.394081 0.186872
0.209946 0.394911 0.188943
0.230392 0.395935 0.191701
0.253940 0.398248 0.196268
0.289624 0.398912 0.201977
0.329168 0.402119 0.211746
0.377538 0.403794 0.225114
0.406743 0.405760 0.236006
0.433943 0.407790 0.247485
0.455232 0.400870 0.253578
0.476579 0.393358 0.261173
0.494806 0.390346 0.270614
0.514205 0.387784 0.281403
0.535876 0.383332 0.294594
0.554274 0.383142 0.307556
0.569176 0.381539 0.318121
0.576380 0.387685 0.324768
0.593988 0.395014 0.340848
0.619116 0.404802 0.363526
0.644027 0.421503 0.388049
0.670787 0.439085 0.414328
0.701202 0.463315 0.444613
0.734007 0.489263 0.477232
0.765146 0.512196 0.507902
0.797291 0.537578 0.539028
0.830910 0.564585 0.572209
0.868787 0.593207 0.608147
0.908010 0.625999 0.645784
0.187394 0.412988 0.201130
0.190068 0.414265 0.202372
0.195261 0.414534 0.202971
0.200455 0.414803 0.203570
0.206687 0.416259 0.205213
0.217094 0.416797 0.206426
0.228463 0.418497 0.208847
0.243550 0.419241 0.210848
0.264144 0.420253 0.213935
0.289400 0.421492 0.218064
0.326240 0.422214 0.224634
0.367637 0.423333 0.234506
0.403421 0.427701 0.247121
0.433936 0.429769 0.258845
0.459947 0.427354 0.268150
0.481398 0.422693 0.275787
0.498372 0.417958 0.282608
0.517707 0.413956 0.292158
0.539388 0.409691 0.304210
0.559911 0.404992 0.316606
0.577138 0.403721 0.328861
0.600027 0.400782 0.345481
0.602752 0.409298 0.349138
0.620927 0.417289 0.366181
0.646907 0.428857 0.390374
0.671794 0.446683 0.415325
0.704584 0.468761 0.447391
0.735051 0.492436 0.477914
0.767442 0.516285 0.509575
0.798461 0.539337 0.539955
0.830868 0.565144 0.572025
0.868830 0.594328 0.608184
0.907968 0.626468 0.645639
0.219444 0.437424 0.223443
0.222070 0.437560 0.223752
0.224789 0.437695 0.224062
0.229501 0.439069 0.225531
0.234031 0.439295 0.226048
0.241432 0.439662 0.226965
0.252760 0.440223 0.228484
0.266250 0.439731 0.229370
0.279298 0.441506 0.232218
0.299699 0.442491 0.235511
0.328990 0.442802 0.240184
0.362480 0.444530 0.247761
0.397848 0.446490 0.257515
0.429366 0.449511 0.268573
0.461102 0.450542 0.280378
0.486116 0.449233 0.290403
0.504242 0.445382 0.297134
0.523494 0.439756 0.304770
0.546453 0.438352 0.317860
0.565800 0.432839 0.328356
0.584166 0.430794 0.340270
0.603641 0.428005 0.353799
0.628843 0.424918 0.372531
0.632864 0.435593 0.377632
0.648221 0.442517 0.392525
0.673682 0.457827 0.417324
0.705591 0.477135 0.448372
0.737265 0.496745 0.479683
0.769739 0.519757 0.511430
0.800885 0.542980 0.542098
0.833207 0.568012 0.573900
0.871126 0.596500 0.610012
0.910393 0.629376 0.647881
0.249085 0.460581 0.244748
0.251804 0.460717 0.245059
0.253622 0.460808 0.245270
0.258290 0.461036 0.245826
0.264143 0.461318 0.246606
0.269848 0.460446 0.246416
0.277802 0.461975 0.248426
0.286583 0.462398 0.249597
0.298843 0.464129 0.252352
0.315319 0.464920 0.255015
0.336164 0.464784 0.257776
0.365026 0.465071 0.262720
0.393629 0.466586 0.269911
0.422776 0.470495 0.279958
0.457699 0.471523 0.291280
0.489613 0.473726 0.304244
0.508906 0.470869 0.311278
0.530434 0.465196 0.319187
0.553343 0.463250 0.330689
0.570361 0.457018 0.338892
0.591079 0.455936 0.352017
0.610583 0.453050 0.364573
0.634784 0.452372 0.382466
0.657812 0.451792 0.400378
0.658629 0.461897 0.402976
0.677159 0.470314 0.420854
0.708431 0.485016 0.450481
0.736890 0.502941 0.478955
0.769784 0.523842 0.511594
0.800886 0.546167 0.542032
0.835545 0.571537 0.575761
0.873594 0.600001 0.612344
0.910478 0.631097 0.648040
0.280328 0.481582 0.264924
0.282280 0.481676 0.265184
0.284231 0.481770 0.265444
0.286182 0.481864 0.265705
0.289109 0.482005 0.266096
0.293218 0.483346 0.267599
0.300212 0.483675 0.268532
0.308355 0.485204 0.270570
0.318487 0.485685 0.272056
0.332912 0.485227 0.273483
0.354932 0.485137 0.276398
0.374355 0.486093 0.280323
0.395072 0.487142 0.284941
0.419456 0.488427 0.291182
0.450948 0.491366 0.301598
0.486117 0.493596 0.314383
0.514753 0.496725 0.327022
0.533991 0.491654 0.333032
0.556764 0.487266 0.342543
0.576152 0.482884 0.351494
0.596753 0.479165 0.362808
0.616250 0.476030 0.374947
0.640387 0.473417 0.391384
0.662322 0.473236 0.407869
0.686488 0.472573 0.427047
0.685520 0.485153 0.428833
0.710566 0.494994 0.452312
0.739815 0.511667 0.481246
0.770663 0.529769 0.512013
0.803270 0.551697 0.544174
0.837801 0.574960 0.577556
0.875934 0.603341 0.614333
0.912776 0.633297 0.649957
0.309908 0.504785 0.287114
0.310907 0.504832 0.287248
0.312905 0.504927 0.287515
0.315903 0.505068 0.287915
0.317902 0.505162 0.288183
0.322898 0.505397 0.288850
0.327198 0.507900 0.291385
0.334021 0.505917 0.290354
0.343449 0.506363 0.291887
0.356021 0.506958 0.293931
0.370782 0.507653 0.296342
0.384773 0.507194 0.298293
0.399946 0.507939 0.301383
0.419797 0.508954 0.306067
0.446487 0.510360 0.312952
0.481484 0.512405 0.324238
0.512267 0.514431 0.336179
0.538812 0.519684 0.349550
0.560255 0.512556 0.355488
0.579718 0.510100 0.364639
0.601341 0.503888 0.374355
0.625408 0.499657 0.387952
0.647256 0.497129 0.402335
0.671468 0.496014 0.419880
0.694459 0.493983 0.437284
0.719938 0.496654 0.458390
0.715968 0.510301 0.457895
0.741821 0.520987 0.482452
0.772377 0.538757 0.513102
0.804273 0.557200 0.544758
0.839058 0.580048 0.578789
0.877190 0.607507 0.615512
0.912903 0.636170 0.650191
0.342277 0.530454 0.311995
0.343293 0.530501 0.312130
0.343293 0.530501 0.312130
0.346341 0.530642 0.312536
0.347357 0.530689 0.312671
0.350405 0.530831 0.313077
0.354469 0.531019 0.313617
0.359599 0.531259 0.314350
0.366959 0.531606 0.315546
0.378380 0.529842 0.315528
0.389922 0.529233 0.316475
0.399630 0.529705 0.318370
0.412830 0.531495 0.321975
0.427137 0.533339 0.325818
0.450421 0.534541 0.331531
0.476139 0.535912 0.338455
0.503335 0.537502 0.347372
0.535289 0.539573 0.359612
0.566184 0.539611 0.372140
0.587778 0.534763 0.379656
0.608275 0.529209 0.388275
0.628926 0.526292 0.399392
0.653067 0.523271 0.413798
0.678375 0.520281 0.430573
0.700279 0.519121 0.446917
0.723280 0.517515 0.464733
0.754618 0.522696 0.491430
0.747725 0.536772 0.488355
0.775552 0.549208 0.515258
0.806156 0.565625 0.546099
0.841274 0.587321 0.580486
0.877320 0.612811 0.615839
0.912988 0.638984 0.650307
0.372431 0.559501 0.339859
0.372431 0.559501 0.339859
0.373459 0.559548 0.339997
0.374178 0.557276 0.338092
0.377262 0.557417 0.338504
0.378290 0.557464 0.338641
0.382247 0.556493 0.338169
0.387536 0.556740 0.339025
0.390716 0.556889 0.339547
0.397078 0.557187 0.340591
0.409736 0.556626 0.341705
0.417220 0.556974 0.342940
0.428104 0.557501 0.345099
0.439033 0.558035 0.347352
0.455518 0.558836 0.350767
0.476691 0.559938 0.356151
0.499121 0.561120 0.362120
0.532031 0.563045 0.372976
0.561891 0.567258 0.386068
0.592819 0.567278 0.398610
0.613225 0.561189 0.404870
0.633782 0.556713 0.414054
0.657838 0.552046 0.426577
0.683115 0.548318 0.441871
0.709610 0.545844 0.460040
0.733767 0.543252 0.477845
0.765098 0.547213 0.503934
0.791646 0.549578 0.526695
0.783247 0.564485 0.522199
0.810713 0.578924 0.549714
0.843409 0.596665 0.582314
0.879620 0.620201 0.617766
0.915457 0.644782 0.652579
0.399723 0.580356 0.360521
0.399723 0.580356 0.360521
0.400750 0.580403 0.360658
0.400750 0.580403 0.360658
0.402806 0.580498 0.360933
0.404865 0.580592 0.361208
0.405901 0.580640 0.361346
0.410162 0.580838 0.362034
0.416577 0.581136 0.363093
0.422747 0.579117 0.362173
0.430231 0.579465 0.363409
0.435576 0.579714 0.364292
0.444394 0.582431 0.367691
0.454288 0.582912 0.369744
0.467480 0.583553 0.372488
0.484001 0.584358 0.375957
0.501939 0.585298 0.380680
0.526667 0.586614 0.387430
0.559635 0.588542 0.398388
0.590583 0.590597 0.410832
0.617067 0.592554 0.422870
0.640853 0.584594 0.430092
0.664859 0.579373 0.440898
0.688948 0.574952 0.454244
0.716675 0.573970 0.472704
0.740723 0.568552 0.488876
0.772081 0.572003 0.514040
0.798573 0.571770 0.535750
0.826343 0.575935 0.560028
0.816861 0.593891 0.554947
0.848346 0.610380 0.586611
0.883968 0.629572 0.621428
0.916588 0.651049 0.653603
0.428129 0.608213 0.387652
0.429165 0.608260 0.387791
0.429165 0.608260 0.387791
0.430201 0.608307 0.387929
0.432273 0.608402 0.388207
0.433309 0.608449 0.388346
0.434243 0.607339 0.387509
0.438519 0.607538 0.388215
0.442796 0.607737 0.388922
0.450197 0.606926 0.389164
0.453422 0.607075 0.389699
0.458799 0.607324 0.390591
0.464175 0.607573 0.391482
0.472851 0.607983 0.393063
0.483860 0.608517 0.395353
0.497105 0.609159 0.398118
0.510377 0.609808 0.400989
0.530592 0.610866 0.406324
0.555401 0.612206 0.413367
0.586214 0.615145 0.424436
0.617253 0.618332 0.437652
0.645837 0.615997 0.448358
0.670871 0.609355 0.457330
0.697178 0.603447 0.469619
0.721282 0.599083 0.483244
0.745399 0.594806 0.498864
0.776694 0.596118 0.522617
0.805510 0.595109 0.545384
0.833270 0.597919 0.569022
0.862219 0.603662 0.594792
0.851860 0.624203 0.589176
0.886647 0.640946 0.623605
0.918639 0.658834 0.655276
0.456646 0.636088 0.414938
0.456646 0.636088 0.414938
0.457531 0.634972 0.414031
0.459615 0.635067 0.414311
0.460677 0.635116 0.414474
0.462828 0.635216 0.414831
0.464855 0.634155 0.414179
0.467005 0.634254 0.414536
0.470231 0.634404 0.415071
0.472382 0.634503 0.415428
0.475608 0.634653 0.415963
0.479909 0.634852 0.416677
0.484219 0.635052 0.417392
0.490695 0.635350 0.418465
0.499381 0.635757 0.420009
0.508212 0.636185 0.421857
0.520357 0.636773 0.424398
0.538093 0.637638 0.428213
0.558332 0.638696 0.433585
0.582118 0.641115 0.441099
0.612887 0.642912 0.451407
0.647326 0.645192 0.465313
0.677103 0.642994 0.476957
