Assets/Lutify-Free-LUTs-Pack/Lutify Free LUTs Pack/Film Tone Pro - Film Tone 3/Lutify.me-FilmTone3-CanonLog3-to-Rec709.cube
# Created with: fylm.ai - Colour Grading and Collaboration Software in Cloud 
# Website: https://fylm.ai 
# META
# Option: Gamut compress
# Block 1: IDT | CanonLog3 Cinema Gamut Daylight
# Block 2: colourMatch | Blending Mode: Normal | {"ColorSpace":0,"CrossCovarianceLimit":50,"ReshapingIterations":1,"PercentSaturationShift":100,"PercentShadingShift":100,"ExtraShading":true,"PercentTint":100,"PercentModified":100}
# Block 3: subtractiveColour | Blending Mode: Normal | {"sliders":{"gainY":0.6,"C":0.3,"M":0.3,"Y":0.3}}
# Block 4: LUT | Filmic Curve Response: Low Contrast 2 (100%)
# Block 5: logPrimaries | Blending Mode: Normal | {"wheels":{"shadows":{"Y":"0","R":"1","G":"1","B":"1"},"midtones":{"Y":"0","R":"1","G":"1","B":"1"},"highlights":{"Y":"0","R":"1","G":"1","B":"1"},"offset":{"Y":"0","R":"1","G":"1","B":"1"}},"sliders":{"shadows":{"Y":0,"R":-0.026,"G":0.03,"B":0.1},"midtones":{"Y":0,"R":0.024,"G":-0.036,"B":0.036},"highlights":{"Y":0,"R":0,"G":0.044,"B":-0.128},"offset":{"Y":0,"R":0,"G":0,"B":0}}}
# Block 6: hueSaturation | Blending Mode: Normal | {"hue":0,"saturation":-0.1}
# Block 7: ODT | Rec709
TITLE "Lutify.me-FilmTone3-CanonLog3-to-Rec709" 
LUT_3D_SIZE 5
0.000000 0.000000 0.000000
0.210522 0.000000 0.000000
0.588114 0.000000 0.000000
1.000000 0.000000 0.124458
1.000000 0.579092 0.478008
0.000000 0.208219 0.000000
0.340033 0.218131 0.000000
0.730694 0.000000 0.000000
1.000000 0.000000 0.110945
1.000000 0.598283 0.478320
0.000000 0.530163 0.000000
0.000000 0.616497 0.000000
0.839217 0.550011 0.000000
1.000000 0.496480 0.000000
1.000000 0.663531 0.473701
0.000000 0.878741 0.000000
0.000000 0.881971 0.000000
0.733609 0.869790 0.000000
0.997486 0.827818 0.000000
1.000000 0.848594 0.427543
0.692474 0.984398 0.077501
0.722738 0.983285 0.090103
0.792222 0.980494 0.118856
0.950943 0.973213 0.221746
1.000000 0.954124 0.430478
0.000000 0.000000 0.145481
0.184163 0.000000 0.052885
0.533044 0.000000 0.023438
1.000000 0.000000 0.210406
1.000000 0.576991 0.500093
0.000000 0.162305 0.277283
0.207383 0.241269 0.251996
0.681282 0.000000 0.122211
1.000000 0.000000 0.212251
1.000000 0.599240 0.500387
0.000000 0.524001 0.000000
0.000000 0.631594 0.000000
0.761048 0.620744 0.000000
1.000000 0.519727 0.155380
1.000000 0.661645 0.498538
0.000000 0.877014 0.000000
0.000000 0.880561 0.000000
0.721611 0.870219 0.000000
0.997990 0.825957 0.000000
1.000000 0.850982 0.468579
0.688896 0.984526 0.075990
0.716299 0.983527 0.087433
0.789605 0.980604 0.117733
0.949829 0.973265 0.220517
1.000000 0.954124 0.430478
0.000000 0.000000 0.362814
0.098089 0.000000 0.183568
0.540113 0.000000 0.102065
1.000000 0.000000 0.397900
1.000000 0.570065 0.563858
0.000000 0.000000 0.507308
0.000000 0.040223 0.447218
0.638217 0.000000 0.359065
1.000000 0.000000 0.448176
1.000000 0.592620 0.567084
0.000000 0.469785 0.693335
0.000000 0.614449 0.658407
0.673423 0.690888 0.655278
1.000000 0.486120 0.498182
1.000000 0.652140 0.572309
0.000000 0.907442 0.431248
0.000000 0.916120 0.419551
0.422431 0.918019 0.398973
0.942590 0.901604 0.375008
1.000000 0.851672 0.584805
0.674142 0.985043 0.069617
0.709707 0.983771 0.084697
0.784276 0.979750 0.094728
0.948023 0.972290 0.209199
1.000000 0.952877 0.427499
0.000000 0.000000 0.593896
0.000000 0.000000 0.322135
0.484899 0.000000 0.285180
0.907897 0.000000 0.192759
1.000000 0.473780 0.754708
0.000000 0.000000 0.688151
0.000000 0.000000 0.590218
0.449955 0.000000 0.517141
0.907897 0.000000 0.192759
1.000000 0.510323 0.760208
0.000000 0.186535 0.851294
0.000000 0.300059 0.815331
0.343519 0.353249 0.820301
1.000000 0.082437 0.775093
1.000000 0.613398 0.781805
0.000000 0.778887 0.903041
0.000000 0.867745 0.881631
0.000000 0.914820 0.881238
0.896307 0.909564 0.876379
1.000000 0.843906 0.806885
0.438089 1.000000 0.794412
0.496486 1.000000 0.793404
0.614706 1.000000 0.792726
0.836414 0.995188 0.787379
0.997486 0.989030 0.796418
0.000000 0.000000 0.495511
0.039868 0.000000 0.495400
0.451242 0.000000 0.502016
0.851551 0.000000 0.420438
1.000000 0.000000 0.324849
0.000000 0.000000 0.494958
0.000000 0.000000 0.495196
0.451242 0.000000 0.502016
0.851551 0.000000 0.420438
1.000000 0.000000 0.324849
0.000000 0.160161 0.917422
0.000000 0.189016 0.918225
0.151288 0.208003 0.916144
0.894488 0.000000 0.900609
1.000000 0.000000 0.324849
0.000000 0.570839 0.966382
0.000000 0.651281 0.960823
0.000000 0.712907 0.957140
0.760775 0.739674 0.950190
1.000000 0.692959 0.933842
0.000000 0.950054 0.987721
0.000000 0.979941 0.977853
0.000000 1.000000 0.975165
0.732318 0.995604 0.972243
0.977632 0.990415 0.965687
