Assets/Lutify-Free-LUTs-Pack/Lutify Free LUTs Pack/Film Tone Pro - Film Tone 3/Lutify.me-FilmTone3-FLog2-to-Rec709.cube
# Created with: fylm.ai - Colour Grading and Collaboration Software in Cloud 
# Website: https://fylm.ai 
# META
# Option: Gamut compress
# Block 1: IDT | Fujifilm F-Gamut F-Log2
# Block 2: colourMatch | Blending Mode: Normal | {"ColorSpace":0,"CrossCovarianceLimit":50,"ReshapingIterations":1,"PercentSaturationShift":100,"PercentShadingShift":100,"ExtraShading":true,"PercentTint":100,"PercentModified":100}
# Block 3: subtractiveColour | Blending Mode: Normal | {"sliders":{"gainY":0.6,"C":0.3,"M":0.3,"Y":0.3}}
# Block 4: LUT | Filmic Curve Response: Low Contrast 2 (100%)
# Block 5: logPrimaries | Blending Mode: Normal | {"wheels":{"shadows":{"Y":"0","R":"1","G":"1","B":"1"},"midtones":{"Y":"0","R":"1","G":"1","B":"1"},"highlights":{"Y":"0","R":"1","G":"1","B":"1"},"offset":{"Y":"0","R":"1","G":"1","B":"1"}},"sliders":{"shadows":{"Y":0,"R":-0.026,"G":0.03,"B":0.1},"midtones":{"Y":0,"R":0.024,"G":-0.036,"B":0.036},"highlights":{"Y":0,"R":0,"G":0.044,"B":-0.128},"offset":{"Y":0,"R":0,"G":0,"B":0}}}
# Block 6: hueSaturation | Blending Mode: Normal | {"hue":0,"saturation":-0.1}
# Block 7: ODT | Rec709
TITLE "Lutify.me-FilmTone3-FLog2-to-Rec709" 
LUT_3D_SIZE 9
0.000000 0.000000 0.000000
0.000000 0.000000 0.000000
0.126849 0.000000 0.000000
0.290871 0.000000 0.000000
0.572007 0.000000 0.000000
0.904211 0.000000 0.093631
1.000000 0.340313 0.273988
1.000000 0.687255 0.538847
1.000000 0.879248 0.785235
0.000000 0.000000 0.000000
0.000000 0.000000 0.000000
0.136734 0.000000 0.000000
0.305857 0.000000 0.000000
0.578978 0.000000 0.000000
0.904754 0.000000 0.094912
1.000000 0.348713 0.278147
1.000000 0.687255 0.538847
1.000000 0.879248 0.785235
0.000000 0.102994 0.000000
0.000000 0.110378 0.000000
0.168612 0.109022 0.000000
0.356243 0.000000 0.000000
0.607810 0.000000 0.000000
0.909213 0.000000 0.097834
1.000000 0.363801 0.277524
1.000000 0.690594 0.539398
1.000000 0.879248 0.785235
0.000000 0.262318 0.000000
0.000000 0.274544 0.000000
0.000000 0.301828 0.000000
0.415988 0.282634 0.000000
0.674425 0.209497 0.000000
0.926421 0.104910 0.105124
1.000000 0.401794 0.286898
1.000000 0.695968 0.539403
1.000000 0.880253 0.785327
0.000000 0.539527 0.000000
0.000000 0.546101 0.000000
0.000000 0.565524 0.000000
0.000000 0.592275 0.000000
0.708405 0.568441 0.000000
0.934829 0.519955 0.062459
1.000000 0.525361 0.307828
1.000000 0.730153 0.548723
1.000000 0.883582 0.787847
0.000000 0.817952 0.213474
0.000000 0.818552 0.214718
0.000000 0.819336 0.207011
0.000000 0.829367 0.199465
0.504776 0.836782 0.169559
0.894145 0.821538 0.164008
1.000000 0.787927 0.379521
1.000000 0.793711 0.582309
1.000000 0.892935 0.793077
0.000000 0.948213 0.543261
0.000000 0.948078 0.543536
0.000000 0.948756 0.541529
0.000000 0.948548 0.537874
0.439255 0.945149 0.539530
0.805171 0.940247 0.526330
0.969829 0.933362 0.535134
1.000000 0.914474 0.677527
1.000000 0.922146 0.813290
0.609746 1.000000 0.792195
0.613741 1.000000 0.790526
0.617703 1.000000 0.790606
0.633109 0.999575 0.790928
0.680326 0.999099 0.788185
0.783917 0.996129 0.787837
0.915329 0.992382 0.788833
1.000000 0.988226 0.800915
1.000000 0.980265 0.862620
0.854857 1.000000 0.915398
0.856054 1.000000 0.915434
0.856054 1.000000 0.915434
0.857246 1.000000 0.915470
0.863147 1.000000 0.915653
0.877582 1.000000 0.915283
0.918379 1.000000 0.916013
0.978913 1.000000 0.917951
1.000000 1.000000 0.927759
0.000000 0.000000 0.000000
0.000000 0.000000 0.000000
0.126689 0.000000 0.000000
0.287123 0.000000 0.000000
0.575139 0.000000 0.028166
0.905700 0.000000 0.105718
1.000000 0.340874 0.282279
1.000000 0.687255 0.538847
1.000000 0.879248 0.785235
0.000000 0.000000 0.018817
0.000000 0.000000 0.014319
0.134657 0.000000 0.000000
0.302207 0.000000 0.000000
0.582096 0.000000 0.029242
0.906223 0.000000 0.107205
1.000000 0.348992 0.282328
1.000000 0.687255 0.538847
1.000000 0.879248 0.785235
0.000000 0.104378 0.000000
0.000000 0.111649 0.000000
0.153231 0.124101 0.000000
0.354406 0.000000 0.000000
0.604690 0.000000 0.031489
0.910492 0.000000 0.109626
1.000000 0.364214 0.283851
1.000000 0.690594 0.539398
1.000000 0.879248 0.785235
0.000000 0.267052 0.000000
0.000000 0.284714 0.000000
0.000000 0.310031 0.000000
0.405177 0.299155 0.000000
0.678236 0.214790 0.000000
0.927120 0.114546 0.115432
1.000000 0.405696 0.291126
1.000000 0.695968 0.539403
1.000000 0.880253 0.785327
0.000000 0.543473 0.000000
0.000000 0.556535 0.000000
0.000000 0.569387 0.000000
0.000000 0.596557 0.000000
0.706664 0.579792 0.000000
0.935223 0.521602 0.110057
1.000000 0.525879 0.317707
1.000000 0.730244 0.551568
1.000000 0.883582 0.787847
0.000000 0.818663 0.243106
0.000000 0.819259 0.244319
0.000000 0.822321 0.236787
0.000000 0.829865 0.223366
0.492900 0.837603 0.202073
0.893619 0.823991 0.188951
1.000000 0.788004 0.382413
1.000000 0.793711 0.582309
1.000000 0.892935 0.793077
0.000000 0.948257 0.549461
0.000000 0.948189 0.549598
0.000000 0.948820 0.550807
0.000000 0.948590 0.544030
0.439255 0.945167 0.542574
0.805088 0.940303 0.535076
0.969652 0.933426 0.543224
1.000000 0.914501 0.680094
1.000000 0.922146 0.813290
0.609746 1.000000 0.792195
0.613752 1.000000 0.792274
0.617713 1.000000 0.792353
0.633115 0.999574 0.792673
0.680326 0.999099 0.788185
0.783917 0.996129 0.787837
0.915329 0.992382 0.788833
1.000000 0.988230 0.802318
1.000000 0.980273 0.863675
0.854857 1.000000 0.915398
0.856054 1.000000 0.915434
0.856054 1.000000 0.915434
0.857246 1.000000 0.915470
0.863147 1.000000 0.915653
0.877582 1.000000 0.915283
0.918379 1.000000 0.916013
0.978913 1.000000 0.917951
1.000000 1.000000 0.927759
0.000000 0.000000 0.071691
0.000000 0.000000 0.064152
0.119885 0.000000 0.051763
0.292588 0.000000 0.051981
0.583220 0.000000 0.064235
0.908827 0.000000 0.134112
1.000000 0.341569 0.292915
1.000000 0.687255 0.538847
1.000000 0.879284 0.786990
0.000000 0.000000 0.093846
0.000000 0.000000 0.088323
0.128003 0.000000 0.072923
0.312062 0.000000 0.065411
0.590394 0.000000 0.067810
0.909352 0.000000 0.136022
1.000000 0.353002 0.292529
1.000000 0.687255 0.538847
1.000000 0.879284 0.786990
0.000000 0.105430 0.171402
0.000000 0.117233 0.165015
0.130215 0.146798 0.156368
0.358022 0.027608 0.097905
0.613523 0.000000 0.077848
0.913187 0.000000 0.137362
1.000000 0.368633 0.294499
1.000000 0.690696 0.542229
1.000000 0.879284 0.786990
0.000000 0.286112 0.185035
0.000000 0.303303 0.172139
0.000000 0.333214 0.146502
0.395818 0.338394 0.126020
0.685373 0.223591 0.091094
0.928917 0.144967 0.144522
1.000000 0.406496 0.304615
1.000000 0.696069 0.542235
1.000000 0.880289 0.787081
0.000000 0.550330 0.162439
0.000000 0.563323 0.154635
0.000000 0.586077 0.130361
0.000000 0.616924 0.097048
0.696439 0.605644 0.042512
0.935736 0.524541 0.167601
1.000000 0.526396 0.327793
1.000000 0.730334 0.554418
1.000000 0.883582 0.787847
0.000000 0.819830 0.291359
0.000000 0.820419 0.292575
0.000000 0.827828 0.284944
0.000000 0.831058 0.278868
0.494600 0.838635 0.258804
0.893998 0.825131 0.246757
1.000000 0.790510 0.397097
1.000000 0.793844 0.588033
1.000000 0.892968 0.794741
0.000000 0.948453 0.558502
0.000000 0.948254 0.558911
0.000000 0.948883 0.560102
0.000000 0.948671 0.556368
0.439181 0.946183 0.555332
0.804927 0.940395 0.549719
0.969407 0.933511 0.554079
1.000000 0.914527 0.682652
1.000000 0.922171 0.814816
0.609759 1.000000 0.793937
0.613764 1.000000 0.794016
0.617723 1.000000 0.794095
0.633120 0.999573 0.794411
0.680318 0.999099 0.789921
0.781506 0.996230 0.791149
0.915279 0.992384 0.790444
1.000000 0.988234 0.803719
1.000000 0.980273 0.863675
0.854857 1.000000 0.915398
0.854857 1.000000 0.915398
0.856054 1.000000 0.915434
0.857246 1.000000 0.915470
0.863147 1.000000 0.915653
0.877583 1.000000 0.915985
0.918379 1.000000 0.916013
0.978890 1.000000 0.918562
1.000000 1.000000 0.927759
0.000000 0.000000 0.192029
0.000000 0.000000 0.182848
0.105208 0.000000 0.185761
0.310915 0.000000 0.143916
0.604897 0.000000 0.186972
0.915262 0.000000 0.206809
1.000000 0.350704 0.333142
1.000000 0.687871 0.555928
1.000000 0.879319 0.788733
0.000000 0.000000 0.228753
0.000000 0.021864 0.220307
0.088672 0.011237 0.221789
0.335764 0.000000 0.189914
0.612413 0.000000 0.196697
0.915689 0.000000 0.209906
1.000000 0.354503 0.333059
1.000000 0.687871 0.555928
1.000000 0.879319 0.788733
0.000000 0.084984 0.304349
0.000000 0.098482 0.295744
0.000000 0.120138 0.299972
0.389997 0.022585 0.281210
0.634275 0.000000 0.217448
0.919442 0.000000 0.216231
1.000000 0.370447 0.333356
1.000000 0.691205 0.556458
1.000000 0.879319 0.788733
0.000000 0.272636 0.388559
0.000000 0.298368 0.379621
0.000000 0.349613 0.381161
0.347653 0.381306 0.371321
0.683161 0.262303 0.283814
0.928321 0.156027 0.237216
1.000000 0.412083 0.340353
1.000000 0.696770 0.562194
1.000000 0.880325 0.788821
0.000000 0.573342 0.413117
0.000000 0.583469 0.407340
0.000000 0.600276 0.401902
0.000000 0.637561 0.370839
0.688492 0.637866 0.360658
0.930460 0.538213 0.287094
1.000000 0.531897 0.370233
1.000000 0.730874 0.571614
1.000000 0.883652 0.791285
0.000000 0.823036 0.431190
0.000000 0.823604 0.432404
0.000000 0.831021 0.428411
0.000000 0.842155 0.418889
0.487680 0.845271 0.404074
0.884433 0.836017 0.397588
1.000000 0.793869 0.447200
1.000000 0.794110 0.599526
1.000000 0.893000 0.796400
0.000000 0.948746 0.602169
0.000000 0.948545 0.602565
0.000000 0.949166 0.603678
0.000000 0.948906 0.593559
0.431026 0.947448 0.589376
0.804484 0.940589 0.582210
0.967504 0.933809 0.589480
1.000000 0.914607 0.690271
1.000000 0.922197 0.816337
0.609797 1.000000 0.799120
0.613798 1.000000 0.799197
0.617743 1.000000 0.797554
0.633132 0.999572 0.797866
0.677076 0.999209 0.798422
0.781408 0.996231 0.797888
0.913878 0.992451 0.796712
1.000000 0.988250 0.809289
1.000000 0.980228 0.864197
0.854865 1.000000 0.916109
0.854865 1.000000 0.916109
0.856061 1.000000 0.916145
0.857253 1.000000 0.916181
0.863153 1.000000 0.916362
0.877583 1.000000 0.915985
0.918370 1.000000 0.916685
0.978836 1.000000 0.919506
1.000000 1.000000 0.928246
0.000000 0.055750 0.425350
0.000000 0.060882 0.420897
0.000000 0.067225 0.426909
0.309580 0.000000 0.434083
0.648975 0.000000 0.379019
0.927260 0.000000 0.411537
1.000000 0.371182 0.454709
1.000000 0.689179 0.593504
1.000000 0.879499 0.797263
0.000000 0.070323 0.436279
0.000000 0.075598 0.434724
0.000000 0.083467 0.440475
0.308647 0.000000 0.451033
0.658166 0.000000 0.400623
0.927688 0.000000 0.420576
1.000000 0.378669 0.454680
1.000000 0.691885 0.593509
1.000000 0.879499 0.797263
0.000000 0.108436 0.474046
0.000000 0.117441 0.472555
0.000000 0.125181 0.471891
0.306501 0.113036 0.486161
0.688908 0.000000 0.447063
0.930417 0.000000 0.427480
1.000000 0.389921 0.457535
1.000000 0.692600 0.596905
1.000000 0.879499 0.797263
0.000000 0.273902 0.555941
0.000000 0.282410 0.556899
0.000000 0.302570 0.556487
0.209527 0.334349 0.565809
0.714726 0.287183 0.546543
0.936084 0.211821 0.465618
1.000000 0.427605 0.466642
1.000000 0.703237 0.596943
1.000000 0.880503 0.797341
0.000000 0.566097 0.636808
0.000000 0.579565 0.634080
0.000000 0.603443 0.641736
0.000000 0.655867 0.639145
0.652929 0.661190 0.632088
0.919431 0.570305 0.543465
1.000000 0.550715 0.488080
1.000000 0.732020 0.609382
1.000000 0.883792 0.798026
0.000000 0.836152 0.661646
0.000000 0.836495 0.656116
0.000000 0.841426 0.658372
0.000000 0.852233 0.655082
0.442166 0.857135 0.644115
0.870207 0.849278 0.637336
0.996292 0.802475 0.562045
1.000000 0.796862 0.637373
1.000000 0.893165 0.804613
0.000000 0.951268 0.697773
0.000000 0.951114 0.695130
0.000000 0.952653 0.696322
0.000000 0.951400 0.698013
0.403843 0.949289 0.689505
0.790710 0.943364 0.688690
0.961222 0.939597 0.694641
1.000000 0.915879 0.720138
1.000000 0.922323 0.823850
0.609931 1.000000 0.814255
0.613922 1.000000 0.814326
0.617868 1.000000 0.814396
0.633213 0.999565 0.814680
0.677023 0.999204 0.816665
0.781418 0.996576 0.814666
0.911877 0.993827 0.815576
1.000000 0.988297 0.825651
1.000000 0.980268 0.869399
0.854898 1.000000 0.918929
0.854898 1.000000 0.918929
0.856093 1.000000 0.918964
0.857283 1.000000 0.918999
0.863177 1.000000 0.919174
0.877593 1.000000 0.918770
0.917469 1.000000 0.919310
0.978767 1.000000 0.921318
1.000000 1.000000 0.930187
0.000000 0.199755 0.688630
0.000000 0.203336 0.690241
0.000000 0.212105 0.687163
0.144185 0.219635 0.694529
0.647022 0.157324 0.696523
0.954146 0.000000 0.649862
1.000000 0.400187 0.676111
1.000000 0.706792 0.698309
1.000000 0.880929 0.817074
0.000000 0.208042 0.692372
0.000000 0.211728 0.693864
0.000000 0.220829 0.690774
0.132887 0.231060 0.698200
0.650189 0.176270 0.703543
0.956780 0.000000 0.656891
1.000000 0.411331 0.679331
1.000000 0.706792 0.698309
1.000000 0.880929 0.817074
0.000000 0.228890 0.699936
0.000000 0.232860 0.701300
0.000000 0.244645 0.701398
0.116646 0.254771 0.705654
0.647932 0.217729 0.713997
0.959606 0.000000 0.674263
1.000000 0.423214 0.679748
1.000000 0.709498 0.701137
1.000000 0.880929 0.817074
0.000000 0.305532 0.724608
0.000000 0.313054 0.725862
0.000000 0.321531 0.728781
0.000000 0.332487 0.732461
0.623980 0.327860 0.736794
0.960715 0.231115 0.699718
1.000000 0.463603 0.689448
1.000000 0.719818 0.701143
1.000000 0.881927 0.817136
0.000000 0.567263 0.783685
0.000000 0.574995 0.784619
0.000000 0.580310 0.786377
0.000000 0.594430 0.788467
0.534646 0.626249 0.785642
0.923118 0.601095 0.771226
1.000000 0.574127 0.707858
1.000000 0.745126 0.712668
1.000000 0.884210 0.817639
0.000000 0.828517 0.826358
0.000000 0.829161 0.827069
0.000000 0.834477 0.828221
0.000000 0.853811 0.825603
0.412343 0.865852 0.826939
0.844411 0.859955 0.823266
0.979149 0.820861 0.774164
1.000000 0.807523 0.734122
1.000000 0.893492 0.820580
0.000000 0.956251 0.843383
0.000000 0.956020 0.841853
0.000000 0.955625 0.840422
0.000000 0.954311 0.839534
0.383881 0.954050 0.838622
0.783353 0.947763 0.828710
0.948834 0.945509 0.827655
1.000000 0.922248 0.793818
1.000000 0.924137 0.838571
0.598976 1.000000 0.862741
0.598976 1.000000 0.862741
0.603001 1.000000 0.862789
0.618623 1.000000 0.861667
0.668186 0.999876 0.862366
0.781434 0.997261 0.860448
0.910470 0.993881 0.859992
0.998082 0.990584 0.866238
1.000000 0.981025 0.881215
0.856461 1.000000 0.925850
0.856461 1.000000 0.925850
0.856461 1.000000 0.925850
0.857630 1.000000 0.925882
0.862270 1.000000 0.926009
0.877993 1.000000 0.926462
0.914780 1.000000 0.925079
0.978020 1.000000 0.928356
1.000000 1.000000 0.935467
0.000000 0.454996 0.868960
0.000000 0.461212 0.868895
0.000000 0.464335 0.869051
0.121560 0.466995 0.869864
0.493645 0.472850 0.866204
0.912971 0.460612 0.865621
1.000000 0.441388 0.843146
1.000000 0.724823 0.843444
1.000000 0.885103 0.862282
0.000000 0.461196 0.868799
0.000000 0.464322 0.868813
0.000000 0.467456 0.868968
0.101575 0.473303 0.869699
0.491113 0.479430 0.866049
0.911725 0.468027 0.865487
1.000000 0.442348 0.845177
1.000000 0.727313 0.843381
1.000000 0.885103 0.862282
0.000000 0.473771 0.870264
0.000000 0.473804 0.870406
0.000000 0.473823 0.870594
0.086609 0.476575 0.871396
0.488265 0.486241 0.869453
0.909098 0.482925 0.866945
1.000000 0.449878 0.845075
1.000000 0.727404 0.845114
1.000000 0.885103 0.862282
0.000000 0.496155 0.875019
0.000000 0.502396 0.873133
0.000000 0.505648 0.873313
0.000000 0.508626 0.874043
0.463000 0.519992 0.873732
0.899296 0.520059 0.871230
1.000000 0.490900 0.850114
1.000000 0.737185 0.844863
1.000000 0.887079 0.862331
0.000000 0.597211 0.886706
0.000000 0.600565 0.886700
0.000000 0.600703 0.886939
0.000000 0.613630 0.883967
0.418328 0.623880 0.881944
0.873044 0.628596 0.882548
1.000000 0.610335 0.865123
1.000000 0.760957 0.849495
1.000000 0.890314 0.863962
0.000000 0.828633 0.904074
0.000000 0.828620 0.904165
0.000000 0.830672 0.904242
0.000000 0.832301 0.904661
0.263014 0.839000 0.904217
0.794961 0.845404 0.902000
0.975645 0.836516 0.896312
1.000000 0.821162 0.858367
1.000000 0.899403 0.867254
0.000000 0.956506 0.925322
0.000000 0.956445 0.925346
0.000000 0.956960 0.925468
0.000000 0.955721 0.924883
0.353414 0.954871 0.923844
0.767868 0.952690 0.922664
0.935535 0.951421 0.920060
1.000000 0.928229 0.891373
1.000000 0.927357 0.877783
0.603922 1.000000 0.932642
0.603922 1.000000 0.932642
0.607780 1.000000 0.932663
0.626342 1.000000 0.931969
0.670145 1.000000 0.930641
0.780771 0.998442 0.930297
0.902648 0.995582 0.925914
0.990501 0.992989 0.926099
1.000000 0.982678 0.911222
0.857037 1.000000 0.949406
0.857037 1.000000 0.949406
0.857037 1.000000 0.949406
0.858193 1.000000 0.949428
0.863672 1.000000 0.948690
0.878671 1.000000 0.947071
0.913768 1.000000 0.947004
0.975068 1.000000 0.946495
1.000000 1.000000 0.952192
0.397298 0.737866 0.954854
0.412385 0.737669 0.954860
0.426977 0.737465 0.954867
0.468323 0.736811 0.954880
0.560663 0.734910 0.954895
0.762305 0.745323 0.950757
0.982127 0.754480 0.948677
1.000000 0.751706 0.933959
1.000000 0.892611 0.934191
0.397298 0.737866 0.954854
0.412385 0.737669 0.954860
0.426977 0.737465 0.954867
0.468323 0.736811 0.954880
0.558968 0.737840 0.954745
0.762305 0.745323 0.950757
0.982127 0.754480 0.948677
1.000000 0.751669 0.934900
1.000000 0.892611 0.934191
0.394520 0.740793 0.954701
0.409751 0.740596 0.954708
0.424471 0.740392 0.954713
0.466130 0.739739 0.954728
0.558968 0.737840 0.954745
0.761212 0.748226 0.951452
0.981291 0.757052 0.948557
1.000000 0.754000 0.934802
1.000000 0.892611 0.934191
0.386093 0.749438 0.954245
0.401778 0.749241 0.954253
0.416899 0.749037 0.954259
0.459521 0.748384 0.954277
0.552287 0.749433 0.954968
0.762781 0.753822 0.952823
0.978206 0.762282 0.949937
1.000000 0.763085 0.935348
1.000000 0.894088 0.934297
0.377655 0.774200 0.955373
0.394115 0.773993 0.955381
0.402094 0.773888 0.955384
0.447100 0.773219 0.955403
0.543457 0.773804 0.954494
0.754204 0.775107 0.954165
0.970079 0.786316 0.951987
1.000000 0.784252 0.938971
1.000000 0.896988 0.935839
0.339715 0.834149 0.958213
0.339715 0.834149 0.958213
0.359224 0.833916 0.958221
0.403584 0.833309 0.958238
0.524822 0.834938 0.958056
0.738386 0.838124 0.956928
0.946799 0.842500 0.955173
1.000000 0.840121 0.946590
1.000000 0.905611 0.938825
0.339265 0.942078 0.969054
0.349835 0.941939 0.969057
0.369937 0.941658 0.969062
0.406739 0.942041 0.969020
0.522239 0.943369 0.967132
0.715657 0.940277 0.966603
0.907210 0.941163 0.965376
1.000000 0.939451 0.961085
1.000000 0.933373 0.945103
0.593639 1.000000 0.979505
0.593639 1.000000 0.979505
0.603733 1.000000 0.979502
0.619444 1.000000 0.979103
0.665543 1.000000 0.979149
0.767067 0.999474 0.979327
0.901553 0.997674 0.977235
0.982970 0.995629 0.974733
1.000000 0.986488 0.962165
0.856261 1.000000 0.983191
0.856261 1.000000 0.983191
0.857364 1.000000 0.983200
0.859561 1.000000 0.983216
0.864893 1.000000 0.983314
0.879219 1.000000 0.982853
0.914861 1.000000 0.982033
0.973574 1.000000 0.980995
1.000000 1.000000 0.981250
0.735964 0.893200 0.992977
0.739323 0.893081 0.992972
0.739323 0.893081 0.992972
0.749217 0.892728 0.992958
0.765110 0.892151 0.992935
0.807939 0.891819 0.992797
0.901785 0.894368 0.991673
1.000000 0.897618 0.990748
1.000000 0.904059 0.984446
0.735964 0.893200 0.992977
0.739323 0.893081 0.992972
0.739323 0.893081 0.992972
0.749217 0.892728 0.992958
0.765110 0.892151 0.992935
0.807939 0.891819 0.992797
0.901785 0.894368 0.991673
1.000000 0.897618 0.990748
1.000000 0.904059 0.984446
0.735964 0.893200 0.992977
0.739323 0.893081 0.992972
0.739323 0.893081 0.992972
0.749217 0.892728 0.992958
0.765110 0.892151 0.992935
0.807939 0.891819 0.992797
0.901785 0.894368 0.991673
1.000000 0.897618 0.990748
1.000000 0.904059 0.984446
0.739002 0.894475 0.993600
0.739002 0.894475 0.993600
0.739002 0.894475 0.993600
0.748888 0.894121 0.993585
0.764766 0.893542 0.993562
0.807564 0.893189 0.993423
0.901291 0.895574 0.991603
1.000000 0.899841 0.990622
1.000000 0.905889 0.984352
0.737404 0.898263 0.993367
0.737404 0.898263 0.993367
0.737404 0.898263 0.993367
0.747299 0.897906 0.993353
0.763190 0.897323 0.993331
0.806036 0.896910 0.993198
0.900353 0.898053 0.992166
1.000000 0.902078 0.990846
1.000000 0.908593 0.984607
0.733492 0.909170 0.994079
0.736815 0.909051 0.994074
0.736815 0.909051 0.994074
0.746604 0.908697 0.994060
0.762212 0.908076 0.993701
0.804604 0.907597 0.993575
0.896232 0.908574 0.993256
1.000000 0.912753 0.991618
1.000000 0.917283 0.985691
0.736503 0.940702 0.995569
0.739652 0.940586 0.995564
0.739652 0.940586 0.995564
0.742772 0.940471 0.995560
0.757932 0.939903 0.995540
0.798783 0.939155 0.995138
0.882208 0.939940 0.993945
0.992551 0.941130 0.993161
1.000000 0.942475 0.988020
0.774136 0.994383 0.999571
0.774136 0.994383 0.999571
0.776432 0.994287 0.999568
0.778706 0.994192 0.999565
0.789953 0.994077 0.999532
0.816202 0.993625 0.999065
0.879165 0.992413 0.998343
0.971555 0.992233 0.997582
1.000000 0.991167 0.996183
0.854638 1.000000 1.000000
0.855723 1.000000 1.000000
0.856798 1.000000 1.000000
0.857865 1.000000 1.000000
0.862106 1.000000 1.000000
0.877790 1.000000 1.000000
0.918170 1.000000 1.000000
0.970195 1.000000 1.000000
1.000000 1.000000 1.000000
