Assets/Lutify-Free-LUTs-Pack/Lutify Free LUTs Pack/Film Tone Pro - Film Tone 3/Lutify.me-FilmTone3-NLog-to-Rec709.cube
# Created with: fylm.ai - Colour Grading and Collaboration Software in Cloud 
# Website: https://fylm.ai 
# META
# Option: Gamut compress
# Block 1: IDT | Nikon BT2020 N-Log
# Block 2: colourMatch | Blending Mode: Normal | {"ColorSpace":0,"CrossCovarianceLimit":50,"ReshapingIterations":1,"PercentSaturationShift":100,"PercentShadingShift":100,"ExtraShading":true,"PercentTint":100,"PercentModified":100}
# Block 3: subtractiveColour | Blending Mode: Normal | {"sliders":{"gainY":0.6,"C":0.3,"M":0.3,"Y":0.3}}
# Block 4: LUT | Filmic Curve Response: Low Contrast 2 (100%)
# Block 5: logPrimaries | Blending Mode: Normal | {"wheels":{"shadows":{"Y":"0","R":"1","G":"1","B":"1"},"midtones":{"Y":"0","R":"1","G":"1","B":"1"},"highlights":{"Y":"0","R":"1","G":"1","B":"1"},"offset":{"Y":"0","R":"1","G":"1","B":"1"}},"sliders":{"shadows":{"Y":0,"R":-0.026,"G":0.03,"B":0.1},"midtones":{"Y":0,"R":0.024,"G":-0.036,"B":0.036},"highlights":{"Y":0,"R":0,"G":0.044,"B":-0.128},"offset":{"Y":0,"R":0,"G":0,"B":0}}}
# Block 6: hueSaturation | Blending Mode: Normal | {"hue":0,"saturation":-0.1}
# Block 7: ODT | Rec709
TITLE "Lutify.me-FilmTone3-NLog-to-Rec709" 
LUT_3D_SIZE 33
0.000000 0.000000 0.000000
0.000000 0.000000 0.000000
0.000000 0.000000 0.000000
0.000000 0.000000 0.000000
0.000000 0.000000 0.000000
0.000000 0.000000 0.000000
0.075217 0.000000 0.000000
0.116312 0.000000 0.000000
0.154469 0.000000 0.000000
0.200325 0.000000 0.000000
0.246218 0.000000 0.000000
0.287854 0.000000 0.000000
0.338846 0.000000 0.000000
0.391906 0.000000 0.000000
0.440529 0.000000 0.000000
0.493248 0.000000 0.000000
0.554447 0.000000 0.000000
0.619342 0.000000 0.008946
0.672618 0.000000 0.028275
0.730829 0.000000 0.044594
0.785311 0.000000 0.060676
0.853713 0.000000 0.079747
0.908407 0.000000 0.100343
0.949627 0.000000 0.123546
0.988382 0.000000 0.149685
1.000000 0.128665 0.182123
1.000000 0.231516 0.219738
1.000000 0.309648 0.261408
1.000000 0.387416 0.298936
1.000000 0.448350 0.345797
1.000000 0.525666 0.393922
1.000000 0.580062 0.452032
1.000000 0.637293 0.498996
0.000000 0.000000 0.000000
0.000000 0.000000 0.000000
0.000000 0.000000 0.000000
0.000000 0.000000 0.000000
0.000000 0.000000 0.000000
0.000000 0.000000 0.000000
0.075217 0.000000 0.000000
0.116312 0.000000 0.000000
0.154469 0.000000 0.000000
0.200325 0.000000 0.000000
0.246275 0.000000 0.000000
0.287854 0.000000 0.000000
0.340961 0.000000 0.000000
0.391906 0.000000 0.000000
0.440529 0.000000 0.000000
0.493248 0.000000 0.000000
0.554700 0.000000 0.000000
0.619342 0.000000 0.008946
0.672618 0.000000 0.028275
0.730829 0.000000 0.044594
0.785311 0.000000 0.060676
0.853713 0.000000 0.079747
0.908407 0.000000 0.100343
0.949627 0.000000 0.123546
0.988530 0.000000 0.152351
1.000000 0.128665 0.182123
1.000000 0.231516 0.219738
1.000000 0.309648 0.261408
1.000000 0.387416 0.298936
1.000000 0.448350 0.345797
1.000000 0.525666 0.393922
1.000000 0.580062 0.452032
1.000000 0.637293 0.498996
0.000000 0.000000 0.000000
0.000000 0.000000 0.000000
0.000000 0.000000 0.000000
0.000000 0.000000 0.000000
0.000000 0.000000 0.000000
0.000912 0.000000 0.000000
0.075449 0.000000 0.000000
0.116410 0.000000 0.000000
0.156275 0.000000 0.000000
0.200405 0.000000 0.000000
0.247929 0.000000 0.000000
0.287993 0.000000 0.000000
0.341189 0.000000 0.000000
0.392090 0.000000 0.000000
0.440740 0.000000 0.000000
0.493482 0.000000 0.000000
0.554700 0.000000 0.000000
0.619604 0.000000 0.007677
0.672618 0.000000 0.028275
0.731101 0.000000 0.046291
0.789037 0.000000 0.060629
0.853908 0.000000 0.079464
0.911531 0.000000 0.100447
0.949627 0.000000 0.123546
0.988530 0.000000 0.152351
1.000000 0.128665 0.182123
1.000000 0.231516 0.219738
1.000000 0.309648 0.261408
1.000000 0.387416 0.298936
1.000000 0.448350 0.345797
1.000000 0.525666 0.393922
1.000000 0.580062 0.452032
1.000000 0.637293 0.498996
0.000000 0.000000 0.000000
0.000000 0.000000 0.000000
0.000000 0.000000 0.000000
0.000000 0.000000 0.000000
0.000000 0.000000 0.000000
0.005726 0.000000 0.000000
0.076293 0.000000 0.000000
0.117773 0.000000 0.000000
0.156314 0.000000 0.000000
0.201801 0.000000 0.000000
0.251414 0.000000 0.000000
0.291776 0.000000 0.000000
0.341570 0.000000 0.000000
0.395166 0.000000 0.000000
0.444252 0.000000 0.000000
0.493834 0.000000 0.000000
0.555465 0.000000 0.009331
0.619998 0.000000 0.010502
0.673143 0.000000 0.027511
0.731357 0.000000 0.046015
0.789276 0.000000 0.060339
0.853908 0.000000 0.079464
0.911588 0.000000 0.100305
0.949722 0.000000 0.124724
0.988530 0.000000 0.152351
1.000000 0.136289 0.181952
1.000000 0.231516 0.219738
1.000000 0.317630 0.261094
1.000000 0.387416 0.298936
1.000000 0.448350 0.345797
1.000000 0.525666 0.393922
1.000000 0.580062 0.452032
1.000000 0.637293 0.498996
0.000000 0.000000 0.000000
0.000000 0.000000 0.000000
0.000000 0.000000 0.000000
0.000000 0.000000 0.000000
0.000000 0.000000 0.000000
0.014672 0.000000 0.000000
0.078481 0.000000 0.000000
0.119416 0.000000 0.000000
0.162952 0.000000 0.000000
0.204731 0.000000 0.000000
0.253728 0.000000 0.000000
0.297797 0.000000 0.000000
0.349142 0.000000 0.000000
0.398554 0.000000 0.000000
0.448446 0.000000 0.000000
0.498446 0.000000 0.000000
0.556353 0.000000 0.006139
0.621048 0.000000 0.002841
0.677594 0.000000 0.028500
0.735448 0.000000 0.045451
0.789770 0.000000 0.060752
0.854100 0.000000 0.079168
0.911701 0.000000 0.100011
0.949748 0.000000 0.124445
0.988429 0.000000 0.152055
1.000000 0.136011 0.182200
1.000000 0.236496 0.219841
1.000000 0.317630 0.261094
1.000000 0.387416 0.298936
1.000000 0.451820 0.345692
1.000000 0.525666 0.393922
1.000000 0.580062 0.452032
1.000000 0.637293 0.498996
0.000000 0.015347 0.000000
0.000000 0.015347 0.000000
0.000000 0.015441 0.000000
0.000000 0.016611 0.000000
0.000000 0.019223 0.000000
0.017326 0.022409 0.000000
0.084294 0.000000 0.000000
0.129639 0.000000 0.000000
0.170475 0.000000 0.000000
0.213863 0.000000 0.000000
0.263361 0.000000 0.000000
0.302888 0.000000 0.000000
0.352799 0.000000 0.000000
0.406120 0.000000 0.000000
0.453456 0.000000 0.000000
0.506426 0.000000 0.000000
0.561724 0.000000 0.000000
0.625949 0.000000 0.004851
0.678914 0.000000 0.028853
0.736475 0.000000 0.045161
0.790245 0.000000 0.060092
0.854923 0.000000 0.080128
0.911812 0.000000 0.099705
0.949759 0.000000 0.124300
0.988449 0.000000 0.153250
1.000000 0.150280 0.183362
1.000000 0.236821 0.223274
1.000000 0.321586 0.260933
1.000000 0.391060 0.298794
1.000000 0.451820 0.345692
1.000000 0.528985 0.393839
1.000000 0.586501 0.451914
1.000000 0.640362 0.498957
0.000000 0.057092 0.000000
0.000000 0.057092 0.000000
0.000000 0.057128 0.000000
0.000000 0.058115 0.000000
0.000000 0.059247 0.000000
0.000000 0.063942 0.000000
0.079033 0.060440 0.000000
0.140439 0.041633 0.000000
0.192468 0.000000 0.000000
0.236166 0.000000 0.000000
0.284006 0.000000 0.000000
0.324986 0.000000 0.000000
0.371876 0.000000 0.000000
0.414155 0.000000 0.000000
0.461999 0.000000 0.000000
0.512694 0.000000 0.000000
0.568043 0.000000 0.000000
0.631790 0.000000 0.000000
0.684424 0.000000 0.029028
0.741339 0.000000 0.045508
0.795326 0.000000 0.062388
0.859140 0.000000 0.081255
0.912240 0.000000 0.101189
0.949797 0.000000 0.123525
0.990484 0.000000 0.152818
1.000000 0.169104 0.182807
1.000000 0.241476 0.223101
1.000000 0.325519 0.260769
1.000000 0.391329 0.303252
1.000000 0.459318 0.345901
1.000000 0.528985 0.393839
1.000000 0.586501 0.451914
1.000000 0.640362 0.498957
0.000000 0.092794 0.000000
0.000000 0.092794 0.000000
0.000000 0.092820 0.000000
0.000000 0.092869 0.000000
0.000000 0.094548 0.000000
0.000000 0.101661 0.000000
0.044104 0.108114 0.000000
0.143296 0.099203 0.000000
0.213311 0.075704 0.000000
0.261736 0.045564 0.000000
0.301806 0.000000 0.000000
0.343514 0.000000 0.000000
0.391649 0.000000 0.000000
0.437660 0.000000 0.000000
0.475575 0.000000 0.000000
0.526509 0.000000 0.000000
0.585171 0.000000 0.000000
0.638060 0.000000 0.000000
0.693604 0.000000 0.026819
0.746946 0.000000 0.044188
0.796743 0.000000 0.062183
0.859874 0.000000 0.080909
0.915706 0.000000 0.101334
0.952589 0.000000 0.124394
0.990203 0.000000 0.153302
1.000000 0.175315 0.185689
1.000000 0.255157 0.222557
1.000000 0.333608 0.264417
1.000000 0.402207 0.302833
1.000000 0.462770 0.345792
1.000000 0.535746 0.396355
1.000000 0.589719 0.451854
1.000000 0.640362 0.498957
0.000000 0.133436 0.000000
0.000000 0.133436 0.000000
0.000000 0.133471 0.000000
0.000000 0.133578 0.000000
0.000000 0.136038 0.000000
0.000000 0.148199 0.000000
0.000000 0.159650 0.000000
0.114721 0.160667 0.000000
0.218117 0.146056 0.000000
0.278745 0.123590 0.000000
0.325510 0.106192 0.000000
0.373546 0.078535 0.000000
0.412688 0.000000 0.000000
0.460951 0.000000 0.000000
0.504681 0.000000 0.000000
0.556459 0.000000 0.000000
0.604035 0.000000 0.000000
0.656689 0.000000 0.000000
0.704239 0.000000 0.023015
0.752904 0.000000 0.042243
0.806292 0.000000 0.063779
0.864405 0.000000 0.083574
0.916405 0.000000 0.104441
0.955464 0.000000 0.127185
0.992257 0.072432 0.155533
1.000000 0.197053 0.185140
1.000000 0.268885 0.224004
1.000000 0.345595 0.264231
1.000000 0.406814 0.303426
1.000000 0.466349 0.348199
1.000000 0.539062 0.396271
1.000000 0.589719 0.451854
1.000000 0.643648 0.504587
0.000000 0.175228 0.000000
0.000000 0.175228 0.000000
0.000000 0.175322 0.000000
0.000000 0.175558 0.000000
0.000000 0.178886 0.000000
0.000000 0.188912 0.000000
0.000000 0.202964 0.000000
0.000000 0.210085 0.000000
0.206305 0.209970 0.000000
0.285604 0.185159 0.000000
0.341735 0.172009 0.000000
0.390536 0.155551 0.000000
0.443699 0.133862 0.000000
0.485301 0.110965 0.000000
0.530273 0.073342 0.000000
0.575313 0.000000 0.000000
0.621140 0.000000 0.000000
0.672677 0.000000 0.000000
0.718926 0.000000 0.000000
0.762785 0.000000 0.039249
0.811822 0.000000 0.064288
0.869010 0.000000 0.084148
0.920101 0.000000 0.107260
0.960772 0.000000 0.130841
0.994093 0.131886 0.158766
1.000000 0.217441 0.187417
1.000000 0.282060 0.226945
1.000000 0.353355 0.265906
1.000000 0.414260 0.307678
1.000000 0.469795 0.348089
1.000000 0.542970 0.396659
1.000000 0.594447 0.458336
1.000000 0.646688 0.504551
0.000000 0.219700 0.000000
0.000000 0.219700 0.000000
0.000000 0.221386 0.000000
0.000000 0.224754 0.000000
0.000000 0.225496 0.000000
0.000000 0.235011 0.000000
0.000000 0.248446 0.000000
0.000000 0.260487 0.000000
0.146657 0.261025 0.000000
0.269282 0.259379 0.000000
0.351973 0.232349 0.000000
0.404091 0.217324 0.000000
0.463459 0.201162 0.000000
0.506463 0.183329 0.000000
0.555407 0.165938 0.000000
0.596979 0.152111 0.000000
0.642861 0.125570 0.000000
0.689820 0.068427 0.000000
0.738112 0.000000 0.000000
0.780857 0.000000 0.037393
0.825402 0.000000 0.066166
0.880339 0.000000 0.084994
0.923623 0.000000 0.109215
0.962924 0.090443 0.131051
0.995587 0.175771 0.160274
1.000000 0.232181 0.191785
1.000000 0.303081 0.229518
1.000000 0.364953 0.269472
1.000000 0.424978 0.307242
1.000000 0.480658 0.348184
1.000000 0.546528 0.401970
1.000000 0.597653 0.458278
1.000000 0.646688 0.504551
0.000000 0.263307 0.000000
0.000000 0.263307 0.000000
0.000000 0.265139 0.000000
0.000000 0.269096 0.000000
0.000000 0.270216 0.000000
0.000000 0.279695 0.000000
0.000000 0.289058 0.000000
0.000000 0.299276 0.000000
0.000000 0.305762 0.000000
0.211958 0.307067 0.000000
0.334564 0.302814 0.000000
0.411008 0.279256 0.000000
0.472939 0.264715 0.000000
0.520604 0.253117 0.000000
0.570823 0.239963 0.000000
0.612176 0.231858 0.000000
0.657342 0.213691 0.000000
0.704075 0.194959 0.000000
0.751608 0.171253 0.000000
0.792729 0.134439 0.000000
0.842315 0.058994 0.065001
0.888327 0.054885 0.087318
0.926760 0.113754 0.110086
0.967358 0.162741 0.134085
0.994678 0.216947 0.164170
1.000000 0.264098 0.194998
1.000000 0.327457 0.230324
1.000000 0.380408 0.271154
1.000000 0.436249 0.309476
1.000000 0.491189 0.352959
1.000000 0.556442 0.401718
1.000000 0.607265 0.458102
1.000000 0.655725 0.504454
0.000000 0.310105 0.000000
0.000000 0.310104 0.000000
0.000000 0.314629 0.000000
0.000000 0.315298 0.000000
0.000000 0.316493 0.000000
0.000000 0.327584 0.000000
0.000000 0.339841 0.000000
0.000000 0.351694 0.000000
0.000000 0.364965 0.000000
0.057144 0.368924 0.000000
0.269567 0.367888 0.000000
0.396235 0.369915 0.000000
0.483951 0.336816 0.000000
0.537723 0.325603 0.000000
0.592651 0.313325 0.000000
0.632231 0.299487 0.000000
0.678199 0.289591 0.000000
0.723909 0.275231 0.000000
0.763974 0.260984 0.000000
0.808229 0.244175 0.000000
0.851700 0.218277 0.045446
0.895533 0.195917 0.085450
0.937526 0.199225 0.109603
0.968839 0.218013 0.137787
0.997854 0.248600 0.165621
1.000000 0.298526 0.199863
1.000000 0.347398 0.236688
1.000000 0.399072 0.274437
1.000000 0.451108 0.313928
1.000000 0.502622 0.356090
1.000000 0.563046 0.401546
1.000000 0.610589 0.460842
1.000000 0.658821 0.507270
0.000000 0.366883 0.000000
0.000000 0.366883 0.000000
0.000000 0.366970 0.000000
0.000000 0.367588 0.000000
0.000000 0.369090 0.000000
0.000000 0.379538 0.000000
0.000000 0.390149 0.000000
0.000000 0.400238 0.000000
0.000000 0.415198 0.000000
0.000000 0.427070 0.000000
0.177613 0.428032 0.000000
0.331679 0.426853 0.000000
0.460527 0.422751 0.000000
0.539554 0.396867 0.000000
0.596071 0.388176 0.000000
0.640138 0.377552 0.000000
0.688767 0.365628 0.000000
0.735404 0.353094 0.000000
0.774778 0.340750 0.000000
0.821662 0.327868 0.000000
0.862948 0.311366 0.000000
0.901111 0.285747 0.075647
0.939060 0.266924 0.110125
0.969361 0.273889 0.138683
0.997315 0.303599 0.167676
1.000000 0.334560 0.200713
1.000000 0.374423 0.239177
1.000000 0.417897 0.278105
1.000000 0.469038 0.320329
1.000000 0.520121 0.355969
1.000000 0.569893 0.406817
1.000000 0.617113 0.463533
1.000000 0.661790 0.507243
0.000000 0.417247 0.000000
0.000000 0.417247 0.000000
0.000000 0.417644 0.000000
0.000000 0.418641 0.000000
0.000000 0.420534 0.000000
0.000000 0.422812 0.000000
0.000000 0.434304 0.000000
0.000000 0.449773 0.000000
0.000000 0.466085 0.000000
0.000000 0.469341 0.000000
0.000000 0.479822 0.000000
0.267373 0.479563 0.000000
0.410734 0.486650 0.000000
0.526668 0.472967 0.000000
0.590170 0.449714 0.000000
0.642173 0.439108 0.000000
0.695026 0.420991 0.000000
0.743848 0.412409 0.000000
0.787448 0.404098 0.000000
0.829037 0.396038 0.000000
0.868583 0.385536 0.000000
0.907687 0.370399 0.065270
0.940927 0.351829 0.107667
0.970263 0.345081 0.139441
0.996684 0.347142 0.171939
1.000000 0.369523 0.205309
1.000000 0.400870 0.241658
1.000000 0.436285 0.283714
1.000000 0.487037 0.322383
1.000000 0.533905 0.360780
1.000000 0.577159 0.409851
1.000000 0.624105 0.463899
1.000000 0.668843 0.508210
0.000000 0.474794 0.000000
0.000000 0.474794 0.000000
0.000000 0.474683 0.000000
0.000000 0.475435 0.000000
0.000000 0.476501 0.000000
0.000000 0.478632 0.000000
0.000000 0.487391 0.000000
0.000000 0.499615 0.000000
0.000000 0.512937 0.000000
0.000000 0.522013 0.000000
0.000000 0.527192 0.000000
0.139051 0.533675 0.000000
0.363312 0.532472 0.000000
0.480626 0.533282 0.000000
0.582208 0.526020 0.000000
0.642053 0.505568 0.000000
0.698654 0.494038 0.000000
0.752279 0.475707 0.000000
0.794483 0.461823 0.000000
0.832251 0.454804 0.000000
0.875951 0.444462 0.000000
0.910163 0.434404 0.038807
0.941832 0.417755 0.106910
0.969797 0.411975 0.139135
0.996138 0.403652 0.174590
1.000000 0.411000 0.209556
1.000000 0.430498 0.247687
1.000000 0.462208 0.287490
1.000000 0.508501 0.326780
1.000000 0.551024 0.365541
1.000000 0.587271 0.415093
1.000000 0.630490 0.463781
1.000000 0.677625 0.511000
0.000000 0.523449 0.000000
0.000000 0.523449 0.000000
0.000000 0.529951 0.000000
0.000000 0.530389 0.000000
0.000000 0.531486 0.000000
0.000000 0.533457 0.000000
0.000000 0.535612 0.000000
0.000000 0.544983 0.000000
0.000000 0.554065 0.000000
0.000000 0.567091 0.000000
0.000000 0.572008 0.000000
0.000000 0.578925 0.000000
0.282457 0.581392 0.000000
0.424504 0.579591 0.000000
0.542300 0.580094 0.000000
0.630140 0.576735 0.000000
0.690804 0.555858 0.000000
0.752753 0.540950 0.000000
0.797373 0.523394 0.000000
0.835852 0.520739 0.000000
0.875416 0.514326 0.000000
0.910484 0.504673 0.000000
0.941458 0.499314 0.085820
0.967565 0.480765 0.141524
0.990959 0.472920 0.178568
1.000000 0.469585 0.213940
1.000000 0.477888 0.255034
1.000000 0.501510 0.290126
1.000000 0.533657 0.331524
1.000000 0.561841 0.371023
1.000000 0.604846 0.418376
1.000000 0.640120 0.466429
1.000000 0.683329 0.510972
0.000000 0.580306 0.000000
0.000000 0.580306 0.000000
0.000000 0.583739 0.000000
0.000000 0.584408 0.000000
0.000000 0.585294 0.000000
0.000000 0.586724 0.000000
0.000000 0.588665 0.000000
0.000000 0.594196 0.000000
0.000000 0.606564 0.000000
0.000000 0.615045 0.000000
0.000000 0.620880 0.000000
0.000000 0.628098 0.000000
0.163813 0.634207 0.000000
0.351545 0.636657 0.000000
0.489372 0.634245 0.000000
0.584724 0.631640 0.000000
0.677303 0.631765 0.000000
0.743862 0.607499 0.000000
0.793983 0.596617 0.000000
0.838264 0.583162 0.000000
0.875139 0.577235 0.000000
0.906547 0.571580 0.000000
0.938770 0.562824 0.075810
0.963608 0.548154 0.139191
0.987274 0.544316 0.180417
1.000000 0.537503 0.217168
1.000000 0.538958 0.262275
1.000000 0.544179 0.299843
1.000000 0.554291 0.333134
1.000000 0.582781 0.378933
1.000000 0.618034 0.420815
1.000000 0.656304 0.469497
1.000000 0.695056 0.511457
0.000000 0.637843 0.000000
0.000000 0.637843 0.000000
0.000000 0.638066 0.000000
0.000000 0.638509 0.000000
0.000000 0.639613 0.000000
0.000000 0.640584 0.000000
0.000000 0.641967 0.000000
0.000000 0.647175 0.000000
0.000000 0.652613 0.000000
0.000000 0.661012 0.000000
0.000000 0.672527 0.000000
0.000000 0.674277 0.000000
0.000000 0.683592 0.000000
0.281050 0.689206 0.000000
0.417830 0.688230 0.000000
0.531593 0.686260 0.000000
0.636141 0.686610 0.000000
0.727605 0.686472 0.000000
0.789743 0.663208 0.000000
0.832256 0.649582 0.000000
0.871324 0.636448 0.000000
0.901154 0.627703 0.000000
0.933300 0.619185 0.085311
0.958418 0.611334 0.140736
0.982659 0.597128 0.183212
1.000000 0.594004 0.226581
1.000000 0.591913 0.270391
1.000000 0.589909 0.312562
1.000000 0.592630 0.337437
1.000000 0.610436 0.381684
1.000000 0.644824 0.429021
1.000000 0.674608 0.474951
1.000000 0.708960 0.520055
0.000000 0.689728 0.000000
0.000000 0.689728 0.000000
0.000000 0.689945 0.000000
0.000000 0.690378 0.000000
0.000000 0.690915 0.000000
0.000000 0.691644 0.000000
0.000000 0.692762 0.000000
0.000000 0.694253 0.000000
0.000000 0.702454 0.000000
0.000000 0.707296 0.000000
0.000000 0.718051 0.000000
0.000000 0.725353 0.000000
0.000000 0.725793 0.000000
0.181879 0.727920 0.000000
0.361593 0.732811 0.000000
0.479872 0.731300 0.000000
0.590055 0.728463 0.000000
0.686561 0.731211 0.000000
0.772025 0.728159 0.000000
0.826374 0.710481 0.000000
0.859580 0.701097 0.000000
0.896834 0.685827 0.000000
0.927340 0.677643 0.088418
0.952046 0.670050 0.148381
0.973579 0.665901 0.183659
0.994888 0.653216 0.235219
1.000000 0.647355 0.281333
1.000000 0.645313 0.318432
1.000000 0.644034 0.351941
1.000000 0.644093 0.386566
1.000000 0.667280 0.431859
1.000000 0.695998 0.481495
1.000000 0.725220 0.523555
0.000000 0.735987 0.109849
0.000000 0.735987 0.109849
0.000000 0.736182 0.110093
0.000000 0.736375 0.110337
0.000000 0.739879 0.109240
0.000000 0.740419 0.100307
0.000000 0.741035 0.090541
0.000000 0.742340 0.087124
0.000000 0.743289 0.076365
0.000000 0.747331 0.060383
0.000000 0.754445 0.047607
0.000000 0.760670 0.000000
0.000000 0.766412 0.000000
0.000000 0.765912 0.000000
0.289844 0.767460 0.000000
0.427017 0.771121 0.000000
0.549802 0.768897 0.000000
0.655693 0.765767 0.000000
0.735037 0.767942 0.000000
0.806937 0.765333 0.000000
0.847768 0.752818 0.000000
0.886366 0.738586 0.000000
0.921481 0.725003 0.108933
0.945583 0.720781 0.165387
0.966422 0.716911 0.204311
0.984712 0.713656 0.242995
1.000000 0.702603 0.300107
1.000000 0.699954 0.327844
1.000000 0.698682 0.365573
1.000000 0.694597 0.399835
1.000000 0.700919 0.440900
1.000000 0.723887 0.487778
1.000000 0.745361 0.532520
0.000000 0.782877 0.168411
0.000000 0.782877 0.168411
0.000000 0.782877 0.168411
0.000000 0.783036 0.168646
0.000000 0.783349 0.169117
0.000000 0.783886 0.169946
0.000000 0.784480 0.170905
0.000000 0.785004 0.164884
0.000000 0.785585 0.155319
0.000000 0.791587 0.152038
0.000000 0.794702 0.145646
0.000000 0.800282 0.147425
0.000000 0.802442 0.133081
0.000000 0.804122 0.122354
0.166373 0.803238 0.126286
0.367295 0.806336 0.114514
0.498690 0.806226 0.090501
0.614370 0.803501 0.105574
0.701574 0.802929 0.107683
0.777125 0.802068 0.087882
0.832736 0.800012 0.101853
0.873178 0.791577 0.092214
0.911639 0.779243 0.132882
0.938212 0.767753 0.184660
0.958859 0.764117 0.227036
0.976375 0.760900 0.263870
0.992645 0.750869 0.316923
1.000000 0.748159 0.347882
1.000000 0.746357 0.380126
1.000000 0.742744 0.415431
1.000000 0.742093 0.455881
1.000000 0.749829 0.500224
1.000000 0.762354 0.534029
0.000000 0.820959 0.230509
0.000000 0.820959 0.230509
0.000000 0.820959 0.230509
0.000000 0.825552 0.230355
0.000000 0.825775 0.230856
0.000000 0.825938 0.231234
0.000000 0.826253 0.231993
0.000000 0.826419 0.223067
0.000000 0.826829 0.218078
0.000000 0.827140 0.216194
0.000000 0.829502 0.211093
0.000000 0.831653 0.206298
0.000000 0.837622 0.205393
0.000000 0.838883 0.197621
0.000000 0.839739 0.193686
0.324615 0.838135 0.197372
0.465888 0.837934 0.190514
0.569344 0.839241 0.176371
0.665280 0.836565 0.188886
0.743503 0.833745 0.187563
0.812912 0.830985 0.184730
0.862544 0.830967 0.186392
0.897263 0.825645 0.179874
0.927447 0.813486 0.215906
0.951789 0.803730 0.254930
0.967858 0.800735 0.297766
0.985044 0.796018 0.338020
0.999101 0.793525 0.371754
1.000000 0.789313 0.400338
1.000000 0.787856 0.438016
1.000000 0.784977 0.476356
1.000000 0.784415 0.517147
1.000000 0.786355 0.547230
0.000000 0.856431 0.285576
0.000000 0.856431 0.285576
0.000000 0.856506 0.285843
0.000000 0.856506 0.285843
0.000000 0.856614 0.286246
0.000000 0.856717 0.286650
0.000000 0.856907 0.287462
0.000000 0.857037 0.285137
0.000000 0.857151 0.282961
0.000000 0.857174 0.277799
0.000000 0.857162 0.276229
0.000000 0.858822 0.271582
0.000000 0.862216 0.274067
0.000000 0.863345 0.266461
0.000000 0.865880 0.266450
0.242452 0.864472 0.265971
0.423720 0.867643 0.267145
0.544655 0.866757 0.261418
0.629003 0.864190 0.248574
0.712867 0.861456 0.253387
0.783861 0.858871 0.259230
0.836774 0.858310 0.250235
0.880741 0.859935 0.255660
0.914706 0.851906 0.252091
0.942104 0.841282 0.284032
0.960716 0.836402 0.321470
0.976883 0.831875 0.360901
0.992720 0.825690 0.391212
1.000000 0.825426 0.417554
1.000000 0.818373 0.456968
1.000000 0.815292 0.491632
1.000000 0.814453 0.532177
1.000000 0.814254 0.565313
0.000000 0.881745 0.347520
0.000000 0.881745 0.347520
0.000000 0.881745 0.347520
0.000000 0.881777 0.347795
0.000000 0.881805 0.348072
0.000000 0.881818 0.348210
0.000000 0.881818 0.345651
0.000000 0.883545 0.346654
0.000000 0.883445 0.340995
0.000000 0.883317 0.339172
0.000000 0.883074 0.333822
0.000000 0.882806 0.335303
0.000000 0.884044 0.337297
0.000000 0.886674 0.339857
0.000000 0.887235 0.332619
0.174500 0.888969 0.329497
0.400550 0.888247 0.323699
0.521508 0.888938 0.327930
0.609707 0.886497 0.321559
0.687291 0.883958 0.318992
0.758440 0.881409 0.323774
0.819679 0.881984 0.330867
0.863380 0.881474 0.322143
0.901833 0.881398 0.330047
0.931018 0.873133 0.325351
0.952385 0.867060 0.355701
0.968867 0.859584 0.384405
0.985038 0.857136 0.418399
1.000000 0.851843 0.446122
1.000000 0.848469 0.471648
1.000000 0.845502 0.510995
1.000000 0.843023 0.548859
1.000000 0.842331 0.581128
0.000000 0.904971 0.415967
0.000000 0.904971 0.415967
0.000000 0.904953 0.416241
0.000000 0.904953 0.416241
0.000000 0.904942 0.416379
0.000000 0.904931 0.416516
0.000000 0.904832 0.413872
0.000000 0.906186 0.414953
0.000000 0.906066 0.415651
0.000000 0.905807 0.410119
0.000000 0.906897 0.405158
0.000000 0.907857 0.403710
0.000000 0.907436 0.401568
0.000000 0.906757 0.406381
0.000000 0.905886 0.408057
0.156675 0.905809 0.401245
0.378710 0.907757 0.399224
0.500682 0.906709 0.393211
0.590890 0.908167 0.397671
0.670631 0.905618 0.394829
