Assets/Lutify-Free-LUTs-Pack/Lutify Free LUTs Pack/Film Tone Pro - Film Tone 3/Lutify.me-FilmTone3-ZLog2-to-Rec709.cube
# Created with: fylm.ai - Colour Grading and Collaboration Software in Cloud 
# Website: https://fylm.ai 
# META
# Option: Gamut compress
# Block 1: IDT | Z-Cam Z-Log2 - BETA
# Block 2: colourMatch | Blending Mode: Normal | {"ColorSpace":0,"CrossCovarianceLimit":50,"ReshapingIterations":1,"PercentSaturationShift":100,"PercentShadingShift":100,"ExtraShading":true,"PercentTint":100,"PercentModified":100}
# Block 3: subtractiveColour | Blending Mode: Normal | {"sliders":{"gainY":0.6,"C":0.3,"M":0.3,"Y":0.3}}
# Block 4: LUT | Filmic Curve Response: Low Contrast 2 (100%)
# Block 5: logPrimaries | Blending Mode: Normal | {"wheels":{"shadows":{"Y":"0","R":"1","G":"1","B":"1"},"midtones":{"Y":"0","R":"1","G":"1","B":"1"},"highlights":{"Y":"0","R":"1","G":"1","B":"1"},"offset":{"Y":"0","R":"1","G":"1","B":"1"}},"sliders":{"shadows":{"Y":0,"R":-0.026,"G":0.03,"B":0.1},"midtones":{"Y":0,"R":0.024,"G":-0.036,"B":0.036},"highlights":{"Y":0,"R":0,"G":0.044,"B":-0.128},"offset":{"Y":0,"R":0,"G":0,"B":0}}}
# Block 6: hueSaturation | Blending Mode: Normal | {"hue":0,"saturation":-0.1}
# Block 7: ODT | Rec709
TITLE "Lutify.me-FilmTone3-ZLog2-to-Rec709" 
LUT_3D_SIZE 5
0.000000 0.000000 0.000000
0.077097 0.000000 0.000000
0.194866 0.000000 0.000000
0.396110 0.000000 0.033392
0.708847 0.000000 0.096589
0.000000 0.076490 0.000000
0.086808 0.077990 0.000000
0.237139 0.000000 0.000000
0.423071 0.000000 0.033478
0.719938 0.000000 0.098277
0.000000 0.225438 0.000000
0.000000 0.234554 0.000000
0.313523 0.210144 0.000000
0.504546 0.133217 0.000000
0.750947 0.000000 0.101741
0.000000 0.448216 0.000000
0.000000 0.450826 0.000000
0.359049 0.447301 0.000000
0.657742 0.395150 0.000000
0.823188 0.382861 0.000000
0.000000 0.699562 0.000000
0.215011 0.699332 0.000000
0.438917 0.700935 0.000000
0.702660 0.697661 0.000000
0.901690 0.634160 0.000000
0.000000 0.000000 0.054683
0.055094 0.000000 0.052363
0.190762 0.000000 0.041258
0.398015 0.000000 0.055720
0.711803 0.000000 0.113890
0.000000 0.067859 0.088104
0.062222 0.078342 0.084530
0.227983 0.000000 0.061354
0.423084 0.000000 0.060954
0.722668 0.000000 0.118016
0.000000 0.224203 0.000000
0.000000 0.238932 0.000000
0.281482 0.235013 0.000000
0.507761 0.131217 0.028568
0.753576 0.000000 0.121995
0.000000 0.444670 0.000000
0.000000 0.447442 0.000000
0.308647 0.454243 0.000000
0.616660 0.423682 0.000000
0.823645 0.387906 0.000000
0.000000 0.699576 0.000000
0.202437 0.699362 0.000000
0.432811 0.701016 0.000000
0.698089 0.697825 0.000000
0.901690 0.634160 0.000000
0.000000 0.000000 0.121629
0.000000 0.000000 0.111956
0.175378 0.000000 0.091389
0.380832 0.000000 0.101169
0.710429 0.000000 0.171132
0.000000 0.000000 0.171404
0.000000 0.000000 0.162063
0.205169 0.000000 0.149885
0.409071 0.000000 0.138735
0.722589 0.000000 0.179133
0.000000 0.208481 0.262694
0.000000 0.238975 0.264419
0.217925 0.256372 0.265660
0.499674 0.131825 0.207067
0.759315 0.000000 0.200624
0.000000 0.471557 0.000000
0.000000 0.485215 0.000000
0.000000 0.506256 0.000000
0.561466 0.502371 0.000000
0.818956 0.398991 0.178583
0.000000 0.699610 0.000000
0.157076 0.699444 0.000000
0.423109 0.697933 0.000000
0.694807 0.694742 0.000000
0.850350 0.698779 0.000000
0.000000 0.000000 0.222483
0.000000 0.000000 0.206861
0.105925 0.000000 0.199659
0.361887 0.000000 0.138144
0.684886 0.000000 0.250837
0.000000 0.000000 0.276627
0.000000 0.000000 0.268233
0.096796 0.000000 0.268805
0.396206 0.000000 0.213978
0.707243 0.000000 0.288491
0.000000 0.077575 0.391072
0.000000 0.089781 0.386132
0.052814 0.099888 0.392385
0.495682 0.000000 0.372912
0.756468 0.000000 0.343863
0.000000 0.452388 0.504756
0.000000 0.472714 0.509959
0.000000 0.523616 0.509886
0.491869 0.530149 0.509418
0.807829 0.392518 0.439710
0.000000 0.759814 0.261822
0.000000 0.760063 0.259702
0.000000 0.766096 0.256520
0.382493 0.777399 0.265692
0.812155 0.770234 0.334566
0.000000 0.000000 0.352741
0.000000 0.000000 0.348561
0.000000 0.000000 0.337448
0.299600 0.000000 0.319307
0.609381 0.000000 0.167155
0.000000 0.000000 0.425772
0.000000 0.000000 0.415164
0.000000 0.000000 0.415010
0.295958 0.000000 0.402602
0.630778 0.000000 0.254103
0.000000 0.029438 0.533620
0.000000 0.039223 0.528732
0.000000 0.055902 0.528463
0.298767 0.000000 0.534371
0.733660 0.000000 0.479790
0.000000 0.239132 0.647716
0.000000 0.244687 0.648230
0.000000 0.270411 0.648337
0.301756 0.286914 0.661526
0.820263 0.160697 0.640682
0.000000 0.748860 0.741328
0.000000 0.755965 0.739971
0.000000 0.761585 0.743968
0.000000 0.785285 0.736788
0.763177 0.776253 0.740125
