Assets/Lutify-Free-LUTs-Pack/Lutify Free LUTs Pack/Film Tone Pro - Film Tone 3/Lutify.me-FilmTone3-SLog2-to-Rec709.cube
# Created with: fylm.ai - Colour Grading and Collaboration Software in Cloud 
# Website: https://fylm.ai 
# META
# Option: Gamut compress
# Block 1: IDT | Sony S-Log2 S-Gamut Daylight 10-bit
# Block 2: colourMatch | Blending Mode: Normal | {"ColorSpace":0,"CrossCovarianceLimit":50,"ReshapingIterations":1,"PercentSaturationShift":100,"PercentShadingShift":100,"ExtraShading":true,"PercentTint":100,"PercentModified":100}
# Block 3: subtractiveColour | Blending Mode: Normal | {"sliders":{"gainY":0.6,"C":0.3,"M":0.3,"Y":0.3}}
# Block 4: LUT | Filmic Curve Response: Low Contrast 2 (100%)
# Block 5: logPrimaries | Blending Mode: Normal | {"wheels":{"shadows":{"Y":"0","R":"1","G":"1","B":"1"},"midtones":{"Y":"0","R":"1","G":"1","B":"1"},"highlights":{"Y":"0","R":"1","G":"1","B":"1"},"offset":{"Y":"0","R":"1","G":"1","B":"1"}},"sliders":{"shadows":{"Y":0,"R":-0.026,"G":0.03,"B":0.1},"midtones":{"Y":0,"R":0.024,"G":-0.036,"B":0.036},"highlights":{"Y":0,"R":0,"G":0.044,"B":-0.128},"offset":{"Y":0,"R":0,"G":0,"B":0}}}
# Block 6: hueSaturation | Blending Mode: Normal | {"hue":0,"saturation":-0.1}
# Block 7: ODT | Rec709
TITLE "Lutify.me-FilmTone3-SLog2-to-Rec709" 
LUT_3D_SIZE 9
0.000000 0.000000 0.000000
0.086873 0.000000 0.000000
0.233219 0.000000 0.000000
0.416495 0.000000 0.000000
0.669994 0.000000 0.046855
0.900024 0.000000 0.140892
1.000000 0.234887 0.278790
1.000000 0.496629 0.449319
1.000000 0.704918 0.619074
0.000000 0.052473 0.000000
0.068411 0.059971 0.000000
0.285804 0.000000 0.000000
0.459579 0.000000 0.000000
0.684072 0.000000 0.042739
0.903961 0.000000 0.139771
1.000000 0.257619 0.278322
1.000000 0.503991 0.449593
1.000000 0.707547 0.619089
0.000000 0.185004 0.000000
0.000000 0.204508 0.000000
0.340156 0.195250 0.000000
0.530769 0.132845 0.000000
0.722342 0.000000 0.000000
0.913837 0.000000 0.136116
1.000000 0.313058 0.281749
1.000000 0.524996 0.452512
1.000000 0.712754 0.619122
0.000000 0.317462 0.000000
0.000000 0.338174 0.000000
0.000000 0.400493 0.000000
0.594862 0.356433 0.000000
0.762549 0.355540 0.000000
0.923914 0.339052 0.119159
1.000000 0.397809 0.279377
1.000000 0.559321 0.455189
1.000000 0.728942 0.620173
0.000000 0.482146 0.000000
0.000000 0.482146 0.000000
0.000000 0.555509 0.000000
0.452200 0.585858 0.000000
0.775741 0.563440 0.000000
0.917146 0.586621 0.000000
1.000000 0.587280 0.282576
1.000000 0.620397 0.457697
1.000000 0.753303 0.626964
0.000000 0.634433 0.000000
0.000000 0.634433 0.000000
0.000000 0.668745 0.000000
0.000000 0.738762 0.000000
0.631795 0.759269 0.000000
0.877634 0.763407 0.000000
0.974973 0.772093 0.226991
1.000000 0.773523 0.477457
1.000000 0.793566 0.637850
0.000000 0.777677 0.000000
0.000000 0.777677 0.000000
0.000000 0.777677 0.000000
0.000000 0.841119 0.000000
0.000000 0.862400 0.000000
0.764110 0.873008 0.000000
0.946815 0.878724 0.000000
1.000000 0.875003 0.470322
1.000000 0.872772 0.658183
0.000000 0.880804 0.000000
0.000000 0.880804 0.000000
0.000000 0.880804 0.000000
0.000000 0.880804 0.000000
0.000000 0.935437 0.000000
0.478407 0.940082 0.000000
0.871996 0.943305 0.000000
0.986834 0.944097 0.365754
1.000000 0.939007 0.676454
0.000000 0.947091 0.000000
0.000000 0.947091 0.000000
0.000000 0.947091 0.000000
0.000000 0.947091 0.000000
0.000000 0.947091 0.000000
0.000000 0.981780 0.000000
0.708242 0.983616 0.131071
0.937419 0.981909 0.423858
1.000000 0.980706 0.632374
0.000000 0.000000 0.037602
0.065864 0.000000 0.016889
0.223316 0.000000 0.011833
0.416895 0.000000 0.038971
0.676784 0.000000 0.084022
0.902144 0.000000 0.165052
1.000000 0.231327 0.295688
1.000000 0.496986 0.457893
1.000000 0.705105 0.624992
0.000000 0.038106 0.054152
0.040265 0.052325 0.055140
0.258853 0.000000 0.038924
0.454430 0.000000 0.049390
0.688102 0.000000 0.090213
0.906456 0.000000 0.169945
1.000000 0.259001 0.299605
1.000000 0.504349 0.458168
1.000000 0.707732 0.625007
0.000000 0.182175 0.000000
0.000000 0.203378 0.000000
0.285594 0.231523 0.000000
0.522589 0.151778 0.000000
0.716424 0.000000 0.090542
0.913378 0.000000 0.172241
1.000000 0.314120 0.299144
1.000000 0.524952 0.463637
1.000000 0.712936 0.625040
0.000000 0.317829 0.000000
0.000000 0.340307 0.000000
0.000000 0.421804 0.000000
0.530636 0.419298 0.000000
0.764960 0.375744 0.000000
0.925540 0.338552 0.163711
1.000000 0.395168 0.297475
1.000000 0.559682 0.463845
1.000000 0.729202 0.629033
0.000000 0.484116 0.000000
0.000000 0.484993 0.000000
0.000000 0.563734 0.000000
0.140324 0.619124 0.000000
0.745641 0.613496 0.000000
0.918286 0.591059 0.084870
1.000000 0.588833 0.313412
1.000000 0.620881 0.469341
1.000000 0.753461 0.632868
0.000000 0.631423 0.000000
0.000000 0.631886 0.000000
0.000000 0.671193 0.000000
0.000000 0.754075 0.000000
0.511016 0.784671 0.000000
0.874017 0.780963 0.000000
0.974651 0.773453 0.272938
1.000000 0.771576 0.489187
1.000000 0.793630 0.640794
0.000000 0.777677 0.000000
0.000000 0.777677 0.000000
0.000000 0.777677 0.000000
0.000000 0.847443 0.000000
0.000000 0.878723 0.000000
0.744938 0.882581 0.000000
0.945570 0.881712 0.000000
1.000000 0.875172 0.483902
1.000000 0.872851 0.663780
0.000000 0.880804 0.000000
0.000000 0.880804 0.000000
0.000000 0.880804 0.000000
0.000000 0.880804 0.000000
0.000000 0.937731 0.000000
0.405651 0.947776 0.000000
0.871478 0.946175 0.114970
0.986601 0.944406 0.393842
1.000000 0.939044 0.681342
0.000000 0.947091 0.000000
0.000000 0.947091 0.000000
0.000000 0.947091 0.000000
0.000000 0.947091 0.000000
0.000000 0.947091 0.000000
0.000000 0.984732 0.000000
0.709462 0.984777 0.191955
0.937467 0.982059 0.443270
1.000000 0.980774 0.639994
0.000000 0.000000 0.126125
0.041093 0.000000 0.072345
0.223895 0.000000 0.053197
0.409832 0.000000 0.092297
0.676089 0.000000 0.146743
0.903321 0.000000 0.215640
1.000000 0.228367 0.327019
1.000000 0.496603 0.474516
1.000000 0.707370 0.630508
0.000000 0.000000 0.170073
0.000000 0.000000 0.145133
0.250435 0.000000 0.128613
0.461024 0.000000 0.144716
0.700449 0.000000 0.169366
0.907138 0.000000 0.217455
1.000000 0.256373 0.331766
1.000000 0.504511 0.475134
1.000000 0.707462 0.633480
0.000000 0.159793 0.281128
0.000000 0.180757 0.277719
0.230720 0.263941 0.269882
0.515171 0.171244 0.203965
0.722916 0.000000 0.189547
0.916929 0.000000 0.225524
1.000000 0.307646 0.333754
1.000000 0.532197 0.475142
1.000000 0.713208 0.633939
0.000000 0.350958 0.272567
0.000000 0.365772 0.267429
0.000000 0.449068 0.209343
0.496541 0.476850 0.211308
0.763871 0.391401 0.193806
0.928123 0.332524 0.237339
1.000000 0.392988 0.332904
1.000000 0.563157 0.477977
1.000000 0.729375 0.634953
0.000000 0.519466 0.167826
0.000000 0.519686 0.172176
0.000000 0.589275 0.000000
0.000000 0.654068 0.000000
0.732934 0.655524 0.044285
0.916650 0.596674 0.213753
1.000000 0.586739 0.345789
1.000000 0.621721 0.489924
1.000000 0.753618 0.638782
0.000000 0.670236 0.000000
0.000000 0.671042 0.000000
0.000000 0.699237 0.000000
0.000000 0.782583 0.000000
0.464565 0.805209 0.000000
0.867806 0.797749 0.000000
0.973854 0.775383 0.340244
1.000000 0.772142 0.510068
1.000000 0.795748 0.649748
0.000000 0.798333 0.000000
0.000000 0.798875 0.000000
0.000000 0.799777 0.000000
0.000000 0.862921 0.000000
0.000000 0.894349 0.000000
0.722979 0.892607 0.000000
0.943684 0.886306 0.223961
1.000000 0.875467 0.506178
1.000000 0.872771 0.666122
0.000000 0.888526 0.000000
0.000000 0.889244 0.000000
0.000000 0.890551 0.000000
0.000000 0.892313 0.000000
0.000000 0.947708 0.000000
0.390878 0.952917 0.000000
0.864453 0.950056 0.244238
0.986061 0.944870 0.440724
1.000000 0.939889 0.693954
0.000000 0.947091 0.000000
0.000000 0.947091 0.000000
0.000000 0.947091 0.000000
0.000000 0.947091 0.000000
0.000000 0.948957 0.000000
0.000000 0.992559 0.000000
0.702061 0.987861 0.289593
0.935863 0.983230 0.483593
1.000000 0.980845 0.653965
0.000000 0.000000 0.219308
0.000000 0.000000 0.138639
0.225583 0.000000 0.128434
0.392766 0.000000 0.108501
0.669348 0.000000 0.250104
0.906718 0.000000 0.314879
1.000000 0.211325 0.385420
1.000000 0.497319 0.506547
1.000000 0.708008 0.651363
0.000000 0.000000 0.289259
0.000000 0.000000 0.249123
0.220869 0.000000 0.256039
0.445760 0.000000 0.229387
0.701113 0.000000 0.280689
0.911035 0.000000 0.322841
1.000000 0.240597 0.388446
1.000000 0.504395 0.512451
1.000000 0.710622 0.651379
0.000000 0.088346 0.421888
0.000000 0.114081 0.393356
0.116215 0.174903 0.395029
0.539756 0.086492 0.380271
0.728376 0.000000 0.337143
0.918293 0.000000 0.341147
1.000000 0.289571 0.396675
1.000000 0.532198 0.512515
1.000000 0.718364 0.651434
0.000000 0.293835 0.498953
0.000000 0.293835 0.498953
0.000000 0.441122 0.469658
0.461446 0.484878 0.474461
0.746250 0.404070 0.408009
0.922808 0.339912 0.370433
1.000000 0.388499 0.407986
1.000000 0.564087 0.513154
1.000000 0.731395 0.651974
0.000000 0.533076 0.509569
0.000000 0.533174 0.512772
0.000000 0.600965 0.440817
0.000000 0.678807 0.422339
0.700430 0.693199 0.436286
0.903351 0.615736 0.399344
1.000000 0.583086 0.423521
1.000000 0.626098 0.516706
1.000000 0.755871 0.653237
0.000000 0.694410 0.408383
0.000000 0.694518 0.411548
0.000000 0.706613 0.385572
0.000000 0.796343 0.311973
0.426638 0.816174 0.303780
0.854947 0.817041 0.366487
0.969303 0.777971 0.438417
1.000000 0.770745 0.543142
1.000000 0.796002 0.661530
0.000000 0.818416 0.365257
0.000000 0.818493 0.368514
0.000000 0.818493 0.368514
0.000000 0.872168 0.261292
0.000000 0.898974 0.261602
0.709049 0.899353 0.293366
0.936404 0.895015 0.393456
1.000000 0.877426 0.549891
1.000000 0.873008 0.682637
0.000000 0.907062 0.300208
0.000000 0.907208 0.310153
0.000000 0.907256 0.313453
0.000000 0.907496 0.329850
0.000000 0.954847 0.243794
0.372658 0.957765 0.288034
0.857285 0.952395 0.382507
0.980474 0.947805 0.513160
1.000000 0.939218 0.707295
0.000000 0.962974 0.219653
0.000000 0.963005 0.222798
0.000000 0.963159 0.238307
0.000000 0.963431 0.265655
0.000000 0.963787 0.301621
0.000000 0.995663 0.315481
0.699133 0.989039 0.413197
0.928724 0.985489 0.551698
1.000000 0.982162 0.685605
0.000000 0.000000 0.299671
0.000000 0.000000 0.265827
0.154180 0.000000 0.276735
0.421979 0.000000 0.262762
0.632311 0.000000 0.273086
0.906964 0.000000 0.446544
1.000000 0.194537 0.506369
1.000000 0.485734 0.570123
1.000000 0.707821 0.680330
0.000000 0.000000 0.421172
0.000000 0.000000 0.379434
0.085898 0.000000 0.390449
0.466519 0.000000 0.408619
0.683417 0.000000 0.376297
0.911735 0.000000 0.461021
1.000000 0.234974 0.509758
1.000000 0.499608 0.573137
1.000000 0.710447 0.680337
0.000000 0.016129 0.515946
0.000000 0.071301 0.479834
0.000000 0.103559 0.484952
0.456478 0.000000 0.501081
0.738797 0.000000 0.465539
0.921555 0.000000 0.485336
1.000000 0.284699 0.516418
1.000000 0.520190 0.573030
1.000000 0.718724 0.680726
0.000000 0.214166 0.622201
0.000000 0.231243 0.613019
0.000000 0.325597 0.588402
0.333841 0.395936 0.602279
0.762918 0.347378 0.590151
0.925565 0.285002 0.539302
1.000000 0.388046 0.532602
1.000000 0.561733 0.579187
1.000000 0.731382 0.683712
0.000000 0.451064 0.673823
0.000000 0.451147 0.677106
0.000000 0.540157 0.646295
0.000000 0.669236 0.654646
0.670096 0.687674 0.651943
0.889189 0.624275 0.602427
0.997284 0.588183 0.573010
1.000000 0.620624 0.591886
1.000000 0.755924 0.684726
0.000000 0.687107 0.689468
0.000000 0.687107 0.689468
0.000000 0.687208 0.692675
0.000000 0.802135 0.625939
0.322602 0.827479 0.610713
0.831878 0.824496 0.625514
0.959341 0.788755 0.600268
1.000000 0.764984 0.615332
1.000000 0.796480 0.695440
0.000000 0.830687 0.618699
0.000000 0.830687 0.618699
0.000000 0.830687 0.618699
0.000000 0.872642 0.557362
0.000000 0.905915 0.534944
0.692915 0.906205 0.538415
0.924733 0.903304 0.591642
0.996533 0.881041 0.632696
1.000000 0.873252 0.721028
0.000000 0.915253 0.589629
0.000000 0.915253 0.589629
0.000000 0.915253 0.589629
0.000000 0.915366 0.599400
0.000000 0.959098 0.514232
0.334449 0.959917 0.511763
0.847465 0.955323 0.555509
0.975492 0.952058 0.623113
1.000000 0.940965 0.739951
0.000000 0.970554 0.573060
0.000000 0.970554 0.573060
0.000000 0.970574 0.576118
0.000000 0.970574 0.576118
0.000000 0.970636 0.585304
0.000000 0.998763 0.531919
0.690099 0.991808 0.568987
0.922207 0.985966 0.640659
1.000000 0.982680 0.731845
0.000000 0.000000 0.482417
0.000000 0.000000 0.477703
0.000000 0.000000 0.486391
0.347415 0.000000 0.506784
0.687340 0.000000 0.516870
0.872319 0.000000 0.494886
1.000000 0.000000 0.622929
1.000000 0.474247 0.681622
1.000000 0.702896 0.727504
0.000000 0.000000 0.543000
0.000000 0.000000 0.538648
0.000000 0.007309 0.545526
0.338624 0.000000 0.557569
0.710279 0.000000 0.571400
0.894864 0.000000 0.537873
1.000000 0.125542 0.630245
1.000000 0.481827 0.684959
1.000000 0.706635 0.728042
0.000000 0.051615 0.609999
0.000000 0.086544 0.602167
0.000000 0.109827 0.602748
0.305452 0.088724 0.616554
0.736166 0.000000 0.628448
0.921680 0.000000 0.592415
1.000000 0.224761 0.647311
1.000000 0.506128 0.691119
1.000000 0.711887 0.728014
0.000000 0.117387 0.705125
0.000000 0.174251 0.668613
0.000000 0.219950 0.667980
0.169553 0.254172 0.676838
0.712985 0.209956 0.689951
0.937908 0.056617 0.658078
1.000000 0.343895 0.664634
1.000000 0.551076 0.694263
1.000000 0.724801 0.730621
0.000000 0.351491 0.778610
0.000000 0.351491 0.778610
0.000000 0.475836 0.744681
0.000000 0.558239 0.751085
0.561737 0.604429 0.757683
0.902048 0.579436 0.746408
1.000000 0.549330 0.706300
1.000000 0.620224 0.700386
1.000000 0.752053 0.738708
0.000000 0.607093 0.813178
0.000000 0.607093 0.813178
0.000000 0.607093 0.813178
0.000000 0.765235 0.785226
0.137748 0.825560 0.786141
0.808260 0.824229 0.786972
0.943402 0.792470 0.749590
1.000000 0.765373 0.728983
1.000000 0.795097 0.752155
0.000000 0.817347 0.816074
0.000000 0.817347 0.816074
0.000000 0.817347 0.816074
0.000000 0.841173 0.807088
0.000000 0.909104 0.774831
0.653104 0.910456 0.765812
0.907233 0.906581 0.774119
0.988601 0.884005 0.760502
1.000000 0.872716 0.766236
0.000000 0.920273 0.780909
0.000000 0.920273 0.780909
0.000000 0.920273 0.780909
0.000000 0.921621 0.783267
0.000000 0.960973 0.722873
0.272115 0.964634 0.721091
0.827635 0.958802 0.724036
0.966090 0.955594 0.758697
1.000000 0.941409 0.788390
0.000000 0.972591 0.757775
0.000000 0.973425 0.758015
0.000000 0.973425 0.758015
0.000000 0.973443 0.760393
0.000000 0.973461 0.762752
0.000000 1.000000 0.711043
0.682345 0.992174 0.717958
0.915262 0.987471 0.746017
0.994990 0.985144 0.792140
0.000000 0.035348 0.677814
0.000000 0.048671 0.679105
0.000000 0.056242 0.681487
0.249741 0.000000 0.696344
0.597571 0.000000 0.702636
0.909759 0.000000 0.705092
1.000000 0.000000 0.691768
1.000000 0.418064 0.777649
1.000000 0.693984 0.803820
0.000000 0.079489 0.699751
0.000000 0.086665 0.701031
0.000000 0.098136 0.707313
0.211212 0.081481 0.718122
0.594465 0.000000 0.727558
0.917420 0.000000 0.729931
1.000000 0.000000 0.703386
1.000000 0.428860 0.777613
1.000000 0.697247 0.803919
0.000000 0.116867 0.730095
0.000000 0.131985 0.732039
0.000000 0.148311 0.738607
0.149592 0.153270 0.745634
0.586147 0.033579 0.751752
0.926456 0.000000 0.759252
1.000000 0.000000 0.724474
1.000000 0.451590 0.780261
1.000000 0.705382 0.805782
0.000000 0.182967 0.766144
0.000000 0.206119 0.765185
0.000000 0.226496 0.772299
0.000000 0.249666 0.779615
0.541742 0.241605 0.782394
0.915833 0.175855 0.788737
1.000000 0.145745 0.759734
1.000000 0.497885 0.784930
1.000000 0.715993 0.807558
0.000000 0.233228 0.841556
0.000000 0.312604 0.814009
0.000000 0.365553 0.812125
0.000000 0.416976 0.817722
0.415034 0.454075 0.817912
0.886315 0.438224 0.821022
1.000000 0.431923 0.796607
1.000000 0.592013 0.795548
1.000000 0.744407 0.809253
0.000000 0.527505 0.881775
0.000000 0.527505 0.881775
0.000000 0.527505 0.881775
0.000000 0.698623 0.853113
0.000000 0.755374 0.853050
0.745765 0.777995 0.851715
0.948185 0.771337 0.844250
1.000000 0.742754 0.819716
1.000000 0.794649 0.816506
0.000000 0.764380 0.894468
0.000000 0.764380 0.894468
0.000000 0.764380 0.894468
0.000000 0.764380 0.894468
0.000000 0.893226 0.873373
0.609078 0.910942 0.873273
0.892718 0.906281 0.872039
0.977071 0.886977 0.848931
1.000000 0.871315 0.833581
0.000000 0.904791 0.898247
0.000000 0.904791 0.898247
0.000000 0.904791 0.898247
0.000000 0.904887 0.900648
0.000000 0.953263 0.881422
0.000000 0.966105 0.866354
0.812488 0.960071 0.860331
0.952291 0.958669 0.864673
1.000000 0.943536 0.855272
0.000000 0.975528 0.879845
0.000000 0.975528 0.879845
0.000000 0.975528 0.879845
0.000000 0.975528 0.879845
0.000000 0.975570 0.882468
0.000000 1.000000 0.840722
0.646528 0.993882 0.836649
0.904357 0.988758 0.842899
0.988873 0.986527 0.861589
0.000000 0.166067 0.830186
0.000000 0.170917 0.832134
0.000000 0.174445 0.835106
0.176028 0.176569 0.836681
0.478467 0.148641 0.839845
0.824174 0.000000 0.842522
1.000000 0.000000 0.838950
1.000000 0.140366 0.829162
1.000000 0.655661 0.866252
0.000000 0.180377 0.837050
0.000000 0.188989 0.838976
0.000000 0.193475 0.841812
0.151005 0.198003 0.843346
0.476900 0.178072 0.842322
0.823706 0.000000 0.844902
1.000000 0.000000 0.845297
1.000000 0.190917 0.831386
1.000000 0.661535 0.866082
0.000000 0.210561 0.847517
0.000000 0.216769 0.847448
0.000000 0.228153 0.846087
0.089537 0.232191 0.849767
0.455703 0.226447 0.848798
0.818303 0.162438 0.853201
1.000000 0.132767 0.855218
1.000000 0.245795 0.835553
1.000000 0.667352 0.865912
0.000000 0.270890 0.860726
0.000000 0.279028 0.862720
0.000000 0.289646 0.859742
0.000000 0.308519 0.862965
0.418392 0.309470 0.864300
0.804922 0.282366 0.868186
1.000000 0.301479 0.869527
1.000000 0.342875 0.849123
1.000000 0.682391 0.868714
0.000000 0.353923 0.878961
0.000000 0.371118 0.881205
0.000000 0.392737 0.880560
0.000000 0.418336 0.882216
0.286241 0.438311 0.881544
0.757466 0.439908 0.880132
1.000000 0.453459 0.882553
1.000000 0.461390 0.860861
1.000000 0.716157 0.872454
0.000000 0.402634 0.922988
0.000000 0.488234 0.903554
0.000000 0.543819 0.902516
0.000000 0.585625 0.898373
0.000000 0.621672 0.901329
0.631071 0.646643 0.899510
0.954449 0.659922 0.899628
1.000000 0.662320 0.883448
1.000000 0.771504 0.879510
0.000000 0.682927 0.943932
0.000000 0.682927 0.943932
0.000000 0.682927 0.943932
0.000000 0.758944 0.926464
0.000000 0.853250 0.919746
0.363772 0.874557 0.917437
0.855993 0.880444 0.914775
0.974087 0.879599 0.910260
1.000000 0.859963 0.891603
0.000000 0.871186 0.948907
0.000000 0.871186 0.948907
0.000000 0.871186 0.948907
0.000000 0.871186 0.948907
0.000000 0.871186 0.948907
0.000000 0.963559 0.931660
0.785370 0.960000 0.929236
0.942182 0.958581 0.927789
0.998998 0.946019 0.914212
0.000000 0.964321 0.948062
0.000000 0.964321 0.948062
0.000000 0.964321 0.948062
0.000000 0.964321 0.948062
0.000000 0.964321 0.948062
0.000000 1.000000 0.932835
0.604693 0.996343 0.923328
0.888904 0.989700 0.920439
0.981806 0.988034 0.923937
0.000000 0.324285 0.922305
0.000000 0.329186 0.921208
0.000000 0.333952 0.921634
0.168034 0.334869 0.922224
0.453452 0.338341 0.922671
0.708475 0.324658 0.921270
0.972872 0.325075 0.918701
1.000000 0.378375 0.916527
1.000000 0.480836 0.905942
0.000000 0.334463 0.923362
0.000000 0.337095 0.923636
0.000000 0.341988 0.922738
0.158235 0.343065 0.923371
0.445591 0.350668 0.923720
0.702090 0.342775 0.922267
0.971265 0.342074 0.920904
1.000000 0.394252 0.917480
1.000000 0.493544 0.906956
0.000000 0.350225 0.925515
0.000000 0.353076 0.925774
0.000000 0.361129 0.924878
0.114497 0.362800 0.925485
0.421571 0.382243 0.924311
0.698728 0.367209 0.923091
0.967821 0.374552 0.921628
1.000000 0.418198 0.918299
1.000000 0.505982 0.910392
0.000000 0.392127 0.929246
0.000000 0.395575 0.929526
0.000000 0.404910 0.929722
0.000000 0.410794 0.930254
0.395178 0.423812 0.926918
0.677583 0.417133 0.926885
0.959080 0.425952 0.925362
1.000000 0.463992 0.923174
1.000000 0.542202 0.911949
0.000000 0.457689 0.934848
0.000000 0.464816 0.935057
0.000000 0.466153 0.936758
0.000000 0.473251 0.936233
0.324486 0.495916 0.933973
0.632047 0.498183 0.931659
0.933107 0.513585 0.931022
1.000000 0.560178 0.930513
1.000000 0.607627 0.917067
0.000000 0.568294 0.944211
0.000000 0.576782 0.943523
0.000000 0.589442 0.942990
0.000000 0.598822 0.942713
0.000000 0.622599 0.941671
0.546781 0.633324 0.938495
0.893544 0.641050 0.938084
1.000000 0.679338 0.936362
1.000000 0.697366 0.923775
0.000000 0.610911 0.963249
0.000000 0.666847 0.955654
0.000000 0.705968 0.952808
0.000000 0.747825 0.951997
0.000000 0.774023 0.949599
0.325681 0.794006 0.947602
0.799086 0.802720 0.944543
0.986214 0.809404 0.945676
1.000000 0.816888 0.937267
0.000000 0.813423 0.981503
0.000000 0.813423 0.981503
0.000000 0.813423 0.981503
0.000000 0.813423 0.981503
0.000000 0.899735 0.963839
0.000000 0.936413 0.960628
0.678850 0.937473 0.957425
0.920486 0.938657 0.956460
0.996906 0.938282 0.954567
0.000000 0.942183 0.982376
0.000000 0.942183 0.982376
0.000000 0.942183 0.982376
0.000000 0.942183 0.982376
0.000000 0.942183 0.982376
0.000000 0.942183 0.982376
0.420813 0.996016 0.968339
0.877661 0.989927 0.966553
0.975608 0.988615 0.962834
