Assets/Lutify-Free-LUTs-Pack/Lutify Free LUTs Pack/Film Tone Pro - Film Tone 3/Lutify.me-FilmTone3-SLog3-to-Rec709.cube
# Created with: fylm.ai - Colour Grading and Collaboration Software in Cloud 
# Website: https://fylm.ai 
# META
# Option: Gamut compress
# Block 1: IDT | Sony S-Log3 S-Gamut3
# Block 2: colourMatch | Blending Mode: Normal | {"ColorSpace":0,"CrossCovarianceLimit":50,"ReshapingIterations":1,"PercentSaturationShift":100,"PercentShadingShift":100,"ExtraShading":true,"PercentTint":100,"PercentModified":100}
# Block 3: subtractiveColour | Blending Mode: Normal | {"sliders":{"gainY":0.6,"C":0.3,"M":0.3,"Y":0.3}}
# Block 4: LUT | Filmic Curve Response: Low Contrast 2 (100%)
# Block 5: logPrimaries | Blending Mode: Normal | {"wheels":{"shadows":{"Y":"0","R":"1","G":"1","B":"1"},"midtones":{"Y":"0","R":"1","G":"1","B":"1"},"highlights":{"Y":"0","R":"1","G":"1","B":"1"},"offset":{"Y":"0","R":"1","G":"1","B":"1"}},"sliders":{"shadows":{"Y":0,"R":-0.026,"G":0.03,"B":0.1},"midtones":{"Y":0,"R":0.024,"G":-0.036,"B":0.036},"highlights":{"Y":0,"R":0,"G":0.044,"B":-0.128},"offset":{"Y":0,"R":0,"G":0,"B":0}}}
# Block 6: hueSaturation | Blending Mode: Normal | {"hue":0,"saturation":-0.1}
# Block 7: ODT | Rec709
TITLE "Lutify.me-FilmTone3-SLog3-to-Rec709" 
LUT_3D_SIZE 33
0.000000 0.000000 0.000000
0.000000 0.000000 0.000000
0.000000 0.000000 0.000000
0.000000 0.000000 0.000000
0.000000 0.000000 0.000000
0.045638 0.000000 0.000000
0.074208 0.000000 0.000000
0.105619 0.000000 0.000000
0.129601 0.000000 0.000000
0.160698 0.000000 0.000000
0.195115 0.000000 0.000000
0.230243 0.000000 0.000000
0.277903 0.000000 0.000000
0.326305 0.000000 0.000000
0.380759 0.000000 0.000000
0.441965 0.000000 0.000000
0.522159 0.000000 0.000000
0.608551 0.000000 0.000000
0.684959 0.000000 0.000000
0.761523 0.000000 0.037980
0.840424 0.000000 0.061819
0.918105 0.000000 0.089080
0.970204 0.000000 0.122720
1.000000 0.000000 0.158275
1.000000 0.161378 0.212594
1.000000 0.280769 0.261312
1.000000 0.385475 0.315913
1.000000 0.479815 0.382764
1.000000 0.577438 0.457195
1.000000 0.646866 0.516594
1.000000 0.716743 0.578222
1.000000 0.779962 0.645410
1.000000 0.823341 0.707765
0.000000 0.000000 0.000000
0.000000 0.000000 0.000000
0.000000 0.000000 0.000000
0.000000 0.000000 0.000000
0.000000 0.000000 0.000000
0.048633 0.000000 0.000000
0.075356 0.000000 0.000000
0.107126 0.000000 0.000000
0.131012 0.000000 0.000000
0.162616 0.000000 0.000000
0.197619 0.000000 0.000000
0.236446 0.000000 0.000000
0.281752 0.000000 0.000000
0.333158 0.000000 0.000000
0.388913 0.000000 0.000000
0.446140 0.000000 0.000000
0.527020 0.000000 0.000000
0.609460 0.000000 0.000000
0.686285 0.000000 0.000000
0.762429 0.000000 0.038017
0.848093 0.000000 0.061273
0.918309 0.000000 0.088697
0.972899 0.000000 0.124964
1.000000 0.000000 0.158382
1.000000 0.173917 0.213945
1.000000 0.284961 0.261176
1.000000 0.389061 0.315800
1.000000 0.483145 0.382689
1.000000 0.577438 0.457195
1.000000 0.646866 0.516594
1.000000 0.716743 0.578222
1.000000 0.779962 0.645410
1.000000 0.823341 0.707765
0.000000 0.000000 0.000000
0.000000 0.000000 0.000000
0.000000 0.000000 0.000000
0.000000 0.000000 0.000000
0.000000 0.000000 0.000000
0.050105 0.000000 0.000000
0.076293 0.000000 0.000000
0.109372 0.000000 0.000000
0.132778 0.000000 0.000000
0.166662 0.000000 0.000000
0.201679 0.000000 0.000000
0.241499 0.000000 0.000000
0.287506 0.000000 0.000000
0.340227 0.000000 0.000000
0.392598 0.000000 0.000000
0.453193 0.000000 0.000000
0.528395 0.000000 0.000000
0.614338 0.000000 0.000000
0.687212 0.000000 0.000000
0.766665 0.000000 0.037155
0.848792 0.000000 0.062503
0.921776 0.000000 0.090369
0.972916 0.000000 0.124726
1.000000 0.000000 0.158247
1.000000 0.173917 0.213945
1.000000 0.284961 0.261176
1.000000 0.389997 0.320770
1.000000 0.483145 0.382689
1.000000 0.577438 0.457195
1.000000 0.646866 0.516594
1.000000 0.716743 0.578222
1.000000 0.779962 0.645410
1.000000 0.823341 0.707765
0.000000 0.000000 0.000000
0.000000 0.000000 0.000000
0.000000 0.000000 0.000000
0.000000 0.000000 0.000000
0.005750 0.000000 0.000000
0.054587 0.000000 0.000000
0.080249 0.000000 0.000000
0.112601 0.000000 0.000000
0.136024 0.000000 0.000000
0.169857 0.000000 0.000000
0.207221 0.000000 0.000000
0.248515 0.000000 0.000000
0.293618 0.000000 0.000000
0.343283 0.000000 0.000000
0.401255 0.000000 0.000000
0.460598 0.000000 0.000000
0.533032 0.000000 0.000000
0.615516 0.000000 0.000000
0.691815 0.000000 0.000000
0.767320 0.000000 0.038602
0.849115 0.000000 0.062054
0.921838 0.000000 0.090231
0.972923 0.000000 0.124603
1.000000 0.000000 0.160665
1.000000 0.179779 0.213802
1.000000 0.285578 0.261518
1.000000 0.389997 0.320770
1.000000 0.483145 0.382689
1.000000 0.577438 0.457195
1.000000 0.646866 0.516594
1.000000 0.716743 0.578222
1.000000 0.781770 0.645503
1.000000 0.823341 0.707765
0.000000 0.019379 0.000000
0.000000 0.019501 0.000000
0.000000 0.019799 0.000000
0.000000 0.020582 0.000000
0.000000 0.025587 0.000000
0.052981 0.006718 0.000000
0.085761 0.000000 0.000000
0.116805 0.000000 0.000000
0.141301 0.000000 0.000000
0.176613 0.000000 0.000000
0.212025 0.000000 0.000000
0.254192 0.000000 0.000000
0.298050 0.000000 0.000000
0.350899 0.000000 0.000000
0.407616 0.000000 0.000000
0.471094 0.000000 0.000000
0.540709 0.000000 0.000000
0.620274 0.000000 0.000000
0.693004 0.000000 0.000000
0.767954 0.000000 0.037614
0.849329 0.000000 0.061733
0.921962 0.000000 0.089946
0.973018 0.000000 0.125514
1.000000 0.000000 0.160524
1.000000 0.185809 0.213944
1.000000 0.293840 0.261238
1.000000 0.397128 0.320550
1.000000 0.491220 0.383521
1.000000 0.577438 0.457195
1.000000 0.646866 0.516594
1.000000 0.716743 0.578222
1.000000 0.781770 0.645503
1.000000 0.823341 0.707765
0.000000 0.046684 0.000000
0.000000 0.045968 0.000000
0.000000 0.046169 0.000000
0.000000 0.048277 0.000000
0.000000 0.049327 0.000000
0.045347 0.049682 0.000000
0.082082 0.039131 0.000000
0.120587 0.015238 0.000000
0.152399 0.000000 0.000000
0.190144 0.000000 0.000000
0.224567 0.000000 0.000000
0.263836 0.000000 0.000000
0.302796 0.000000 0.000000
0.358575 0.000000 0.000000
0.417078 0.000000 0.000000
0.475466 0.000000 0.000000
0.541980 0.000000 0.000000
0.621458 0.000000 0.000000
0.693795 0.000000 0.000000
0.768595 0.000000 0.037773
0.850013 0.000000 0.062912
0.922308 0.000000 0.090346
0.973020 0.000000 0.125385
1.000000 0.000000 0.160231
1.000000 0.185809 0.213944
1.000000 0.294143 0.265102
1.000000 0.397128 0.320550
1.000000 0.491220 0.383521
1.000000 0.577438 0.457195
1.000000 0.646866 0.516594
1.000000 0.719142 0.578251
1.000000 0.781770 0.645503
1.000000 0.823341 0.707765
0.000000 0.063195 0.000000
0.000000 0.063349 0.000000
0.000000 0.063542 0.000000
0.000000 0.065864 0.000000
0.000000 0.069779 0.000000
0.000000 0.072627 0.000000
0.076321 0.068417 0.000000
0.120010 0.055908 0.000000
0.157669 0.036894 0.000000
0.201789 0.000000 0.000000
0.239011 0.000000 0.000000
0.280018 0.000000 0.000000
0.316038 0.000000 0.000000
0.365209 0.000000 0.000000
0.421833 0.000000 0.000000
0.480125 0.000000 0.000000
0.546932 0.000000 0.000000
0.626365 0.000000 0.000000
0.698665 0.000000 0.000000
0.773219 0.000000 0.038536
0.853983 0.000000 0.062193
0.922366 0.000000 0.090189
0.973022 0.000000 0.125117
1.000000 0.000000 0.160175
1.000000 0.196761 0.213639
1.000000 0.302276 0.264823
1.000000 0.397128 0.320550
1.000000 0.491220 0.383521
1.000000 0.580594 0.457142
1.000000 0.649773 0.516569
1.000000 0.719142 0.578251
1.000000 0.781770 0.645503
1.000000 0.823341 0.707765
0.000000 0.084250 0.000000
0.000000 0.085608 0.000000
0.000000 0.084468 0.000000
0.000000 0.087357 0.000000
0.000000 0.092168 0.000000
0.000000 0.097622 0.000000
0.050730 0.098361 0.000000
0.117539 0.091962 0.000000
0.166682 0.074104 0.000000
0.212959 0.053282 0.000000
0.256632 0.000000 0.000000
0.293747 0.000000 0.000000
0.329513 0.000000 0.000000
0.377592 0.000000 0.000000
0.432435 0.000000 0.000000
0.488822 0.000000 0.000000
0.552564 0.000000 0.000000
0.631551 0.000000 0.000000
0.700256 0.000000 0.000000
0.773843 0.000000 0.037219
0.854491 0.000000 0.061194
0.922803 0.000000 0.091577
0.973098 0.000000 0.125879
1.000000 0.000000 0.164151
1.000000 0.202233 0.215133
1.000000 0.310296 0.264533
1.000000 0.400682 0.320437
1.000000 0.494531 0.383443
1.000000 0.580594 0.457142
1.000000 0.649773 0.516569
1.000000 0.719142 0.578251
1.000000 0.781770 0.645503
1.000000 0.823341 0.707765
0.000000 0.108366 0.000000
0.000000 0.110953 0.000000
0.000000 0.112867 0.000000
0.000000 0.113212 0.000000
0.000000 0.119107 0.000000
0.000000 0.123327 0.000000
0.000000 0.130770 0.000000
0.103441 0.128958 0.000000
0.166956 0.117069 0.000000
0.222756 0.098344 0.000000
0.268286 0.075105 0.000000
0.304970 0.032672 0.000000
0.350895 0.000000 0.000000
0.399686 0.000000 0.000000
0.442043 0.000000 0.000000
0.498415 0.000000 0.000000
0.562233 0.000000 0.000000
0.645044 0.000000 0.000000
0.705391 0.000000 0.000000
0.778948 0.000000 0.036520
0.859145 0.000000 0.061113
0.923012 0.000000 0.090873
0.975506 0.000000 0.125470
1.000000 0.000000 0.163508
1.000000 0.212498 0.214809
1.000000 0.314269 0.264384
1.000000 0.404229 0.320322
1.000000 0.494531 0.383443
1.000000 0.580594 0.457142
1.000000 0.649773 0.516569
1.000000 0.719142 0.578251
1.000000 0.781770 0.645503
1.000000 0.823341 0.707765
0.000000 0.139015 0.000000
0.000000 0.144461 0.000000
0.000000 0.148032 0.000000
0.000000 0.148470 0.000000
0.000000 0.154963 0.000000
0.000000 0.160062 0.000000
0.000000 0.168719 0.000000
0.000000 0.169649 0.000000
0.142824 0.173325 0.000000
0.221310 0.155945 0.000000
0.282420 0.130737 0.000000
0.325354 0.106076 0.000000
0.368347 0.080533 0.000000
0.414145 0.000000 0.000000
0.469910 0.000000 0.000000
0.516988 0.000000 0.000000
0.580240 0.000000 0.000000
0.658756 0.000000 0.000000
0.714874 0.000000 0.000000
0.780555 0.000000 0.034606
0.860267 0.000000 0.062096
0.923510 0.000000 0.091827
0.975525 0.000000 0.126023
1.000000 0.048152 0.163053
1.000000 0.212850 0.215100
1.000000 0.322433 0.268028
1.000000 0.411702 0.327077
1.000000 0.497841 0.383364
1.000000 0.584480 0.457611
1.000000 0.653422 0.517118
1.000000 0.721527 0.578282
1.000000 0.783634 0.648328
1.000000 0.823396 0.710156
0.000000 0.170337 0.000000
0.000000 0.174424 0.000000
0.000000 0.180083 0.000000
0.000000 0.180710 0.000000
0.000000 0.187053 0.000000
0.000000 0.194328 0.000000
0.000000 0.201551 0.000000
0.000000 0.208946 0.000000
0.083101 0.209672 0.000000
0.206057 0.209708 0.000000
0.285476 0.185064 0.000000
0.339048 0.163990 0.000000
0.386370 0.145354 0.000000
0.432214 0.120113 0.000000
0.486824 0.073154 0.000000
0.541434 0.000000 0.000000
0.596451 0.000000 0.000000
0.666246 0.000000 0.000000
0.732382 0.000000 0.000000
0.790031 0.000000 0.025254
0.865103 0.000000 0.063402
0.927220 0.000000 0.094596
0.978003 0.000000 0.128863
1.000000 0.107164 0.165385
1.000000 0.232722 0.217762
1.000000 0.330219 0.267724
1.000000 0.415229 0.326964
1.000000 0.504710 0.388452
1.000000 0.587873 0.463060
1.000000 0.653422 0.517118
1.000000 0.721527 0.578282
1.000000 0.783634 0.648328
1.000000 0.824883 0.710253
0.000000 0.208328 0.000000
0.000000 0.210187 0.000000
0.000000 0.218388 0.000000
0.000000 0.219239 0.000000
0.000000 0.226159 0.000000
0.000000 0.235433 0.000000
0.000000 0.237700 0.000000
0.000000 0.252601 0.000000
0.000000 0.256692 0.000000
0.146945 0.256621 0.000000
0.271633 0.250885 0.000000
0.337825 0.231200 0.000000
0.400181 0.203584 0.000000
0.459417 0.180229 0.000000
0.507086 0.154768 0.000000
0.569357 0.121991 0.000000
0.617428 0.053524 0.000000
0.682438 0.000000 0.000000
0.743536 0.000000 0.000000
0.807125 0.000000 0.012033
0.873276 0.000000 0.064126
0.933625 0.000000 0.095828
0.982475 0.000000 0.130005
1.000000 0.154352 0.167026
1.000000 0.242467 0.217692
1.000000 0.342965 0.269957
1.000000 0.422881 0.327155
1.000000 0.512003 0.388789
1.000000 0.587873 0.463060
1.000000 0.656295 0.517096
1.000000 0.723899 0.578315
1.000000 0.783634 0.648328
1.000000 0.824883 0.710253
0.000000 0.248067 0.000000
0.000000 0.251769 0.000000
0.000000 0.260899 0.000000
0.000000 0.261694 0.000000
0.000000 0.268367 0.000000
0.000000 0.273496 0.000000
0.000000 0.281318 0.000000
0.000000 0.288644 0.000000
0.000000 0.297682 0.000000
0.000000 0.299746 0.000000
0.215631 0.298772 0.000000
0.328930 0.294665 0.000000
0.402921 0.276185 0.000000
0.470112 0.249215 0.000000
0.525827 0.233408 0.000000
0.588261 0.209646 0.000000
0.642454 0.177077 0.000000
0.696147 0.129836 0.000000
0.755940 0.028121 0.000000
0.817383 0.000000 0.000000
0.884865 0.000000 0.063330
0.936884 0.000000 0.095682
0.986498 0.068327 0.130378
1.000000 0.190151 0.171845
1.000000 0.269731 0.219935
1.000000 0.358070 0.269301
1.000000 0.436996 0.329055
1.000000 0.525181 0.388460
1.000000 0.594174 0.462956
1.000000 0.659156 0.517075
1.000000 0.726257 0.578350
1.000000 0.785425 0.648425
1.000000 0.824883 0.710253
0.000000 0.294425 0.000000
0.000000 0.300800 0.000000
0.000000 0.305763 0.000000
0.000000 0.310955 0.000000
0.000000 0.316985 0.000000
0.000000 0.325033 0.000000
0.000000 0.334159 0.000000
0.000000 0.337272 0.000000
0.000000 0.350516 0.000000
0.000000 0.363864 0.000000
0.000000 0.363292 0.000000
0.244655 0.365097 0.000000
0.379526 0.361742 0.000000
0.476843 0.334414 0.000000
0.544662 0.313133 0.000000
0.605163 0.286438 0.000000
0.661029 0.269721 0.000000
0.718211 0.248181 0.000000
0.777120 0.219342 0.000000
0.829178 0.168729 0.000000
0.892879 0.098531 0.056687
0.945296 0.114099 0.096844
0.987742 0.173781 0.132137
1.000000 0.225449 0.171837
1.000000 0.304272 0.222313
1.000000 0.373374 0.274767
1.000000 0.448020 0.329113
1.000000 0.531889 0.390936
1.000000 0.600595 0.465615
1.000000 0.662005 0.517055
1.000000 0.732356 0.585237
1.000000 0.787208 0.648523
1.000000 0.826363 0.710353
0.000000 0.350878 0.000000
0.000000 0.356464 0.000000
0.000000 0.364796 0.000000
0.000000 0.371593 0.000000
0.000000 0.373296 0.000000
0.000000 0.380528 0.000000
0.000000 0.388086 0.000000
0.000000 0.398786 0.000000
0.000000 0.402219 0.000000
0.000000 0.418188 0.000000
0.000000 0.424547 0.000000
0.052064 0.426517 0.000000
0.286587 0.426024 0.000000
0.446585 0.421934 0.000000
0.544519 0.401142 0.000000
0.610473 0.375982 0.000000
0.678890 0.366551 0.000000
0.733756 0.341516 0.000000
0.788739 0.322337 0.000000
0.846119 0.297786 0.000000
0.905412 0.239377 0.000000
0.949700 0.217447 0.095476
0.990782 0.232815 0.135349
1.000000 0.275187 0.173186
1.000000 0.340593 0.225893
1.000000 0.399752 0.278088
1.000000 0.466136 0.333747
1.000000 0.545797 0.393749
1.000000 0.606895 0.465508
1.000000 0.670582 0.519789
1.000000 0.734649 0.585280
1.000000 0.788985 0.648623
1.000000 0.829299 0.710556
0.000000 0.407379 0.000000
0.000000 0.416700 0.000000
0.000000 0.424176 0.000000
0.000000 0.431426 0.000000
0.000000 0.433406 0.000000
0.000000 0.438024 0.000000
0.000000 0.442867 0.000000
0.000000 0.454743 0.000000
0.000000 0.463653 0.000000
0.000000 0.476977 0.000000
0.000000 0.484351 0.000000
0.000000 0.498898 0.000000
0.069790 0.500197 0.000000
0.357802 0.498364 0.000000
0.506531 0.497661 0.000000
0.605108 0.463211 0.000000
0.681283 0.444114 0.000000
0.752005 0.429024 0.000000
0.801201 0.409107 0.000000
0.852453 0.394969 0.000000
0.908379 0.374139 0.000000
0.953073 0.330099 0.075891
0.989134 0.317019 0.135077
1.000000 0.336921 0.176819
1.000000 0.375102 0.229162
1.000000 0.425668 0.281436
1.000000 0.491370 0.336176
1.000000 0.559035 0.396068
1.000000 0.620279 0.468587
1.000000 0.676162 0.519764
1.000000 0.741440 0.585422
1.000000 0.791372 0.654856
1.000000 0.830756 0.710660
0.000000 0.488829 0.000000
0.000000 0.496630 0.000000
0.000000 0.504247 0.000000
0.000000 0.508892 0.000000
0.000000 0.510430 0.000000
0.000000 0.512077 0.000000
0.000000 0.516842 0.000000
0.000000 0.519347 0.000000
0.000000 0.531121 0.000000
0.000000 0.540781 0.000000
0.000000 0.553315 0.000000
0.000000 0.556255 0.000000
0.000000 0.564690 0.000000
0.219451 0.564338 0.000000
0.409127 0.569052 0.000000
0.560718 0.564585 0.000000
0.668831 0.539049 0.000000
0.752436 0.516716 0.000000
0.814437 0.506805 0.000000
0.861864 0.487717 0.000000
0.911067 0.472914 0.000000
0.952328 0.443989 0.037231
0.990207 0.411125 0.123697
1.000000 0.401983 0.184218
1.000000 0.424213 0.237895
1.000000 0.466311 0.287004
1.000000 0.526120 0.340272
1.000000 0.573447 0.399402
1.000000 0.629826 0.471209
1.000000 0.687794 0.520316
1.000000 0.748179 0.588363
1.000000 0.794871 0.655064
1.000000 0.833183 0.716739
0.000000 0.563309 0.000000
0.000000 0.568196 0.000000
0.000000 0.572521 0.000000
0.000000 0.577308 0.000000
0.000000 0.585079 0.000000
0.000000 0.586319 0.000000
0.000000 0.588000 0.000000
0.000000 0.589890 0.000000
0.000000 0.595510 0.000000
0.000000 0.604281 0.000000
0.000000 0.616260 0.000000
0.000000 0.625321 0.000000
0.000000 0.627727 0.000000
0.000000 0.641782 0.000000
0.300119 0.640663 0.000000
0.482914 0.638251 0.000000
0.625405 0.637366 0.000000
0.738757 0.610893 0.000000
0.809436 0.592851 0.000000
0.865674 0.574215 0.000000
0.905120 0.567423 0.000000
0.945257 0.553386 0.000000
0.981476 0.526541 0.119524
1.000000 0.506869 0.177847
1.000000 0.496233 0.240292
1.000000 0.522717 0.290830
1.000000 0.553850 0.344739
1.000000 0.599752 0.404080
1.000000 0.646579 0.472007
1.000000 0.695966 0.523105
1.000000 0.754771 0.591331
1.000000 0.798402 0.657998
1.000000 0.836029 0.716947
0.000000 0.637233 0.000000
0.000000 0.641733 0.000000
0.000000 0.649134 0.000000
0.000000 0.649923 0.000000
0.000000 0.654189 0.000000
0.000000 0.655429 0.000000
0.000000 0.656778 0.000000
0.000000 0.658666 0.000000
0.000000 0.663534 0.000000
0.000000 0.672024 0.000000
0.000000 0.677728 0.000000
0.000000 0.686018 0.000000
0.000000 0.694533 0.000000
0.000000 0.696119 0.000000
0.000000 0.708529 0.000000
0.363112 0.710503 0.000000
0.547169 0.710123 0.000000
0.696403 0.705393 0.000000
0.789313 0.680979 0.000000
0.851067 0.667830 0.000000
0.900007 0.647497 0.000000
0.941365 0.637193 0.000000
0.974402 0.621005 0.098152
1.000000 0.595352 0.181135
1.000000 0.580935 0.241735
1.000000 0.571816 0.295616
1.000000 0.591284 0.346261
1.000000 0.626628 0.412049
1.000000 0.670650 0.474489
1.000000 0.718088 0.529975
1.000000 0.765856 0.595107
1.000000 0.805300 0.661149
1.000000 0.838892 0.719489
0.000000 0.710920 0.000000
0.000000 0.711917 0.000000
0.000000 0.715643 0.000000
0.000000 0.716624 0.000000
0.000000 0.720418 0.000000
0.000000 0.721165 0.000000
0.000000 0.725335 0.000000
0.000000 0.729775 0.000000
0.000000 0.730863 0.000000
0.000000 0.732411 0.000000
0.000000 0.733669 0.000000
0.000000 0.741479 0.000000
0.000000 0.748967 0.000000
0.000000 0.752872 0.000000
0.000000 0.761762 0.000000
0.237974 0.762879 0.000000
0.456182 0.763394 0.000000
0.624176 0.761876 0.000000
0.757087 0.757105 0.000000
0.839447 0.736454 0.000000
0.887591 0.722196 0.000000
0.931336 0.709406 0.000000
0.962079 0.704073 0.090348
0.989773 0.689773 0.176875
1.000000 0.667036 0.258254
1.000000 0.651221 0.312180
1.000000 0.642617 0.353672
1.000000 0.665274 0.417138
1.000000 0.697087 0.480460
1.000000 0.737930 0.535857
1.000000 0.777934 0.598424
1.000000 0.811182 0.662809
1.000000 0.843099 0.722128
0.000000 0.775073 0.085660
0.000000 0.775998 0.087468
0.000000 0.781880 0.068897
0.000000 0.782591 0.070865
0.000000 0.785515 0.046574
0.000000 0.785675 0.000000
0.000000 0.788738 0.000000
0.000000 0.789223 0.000000
0.000000 0.790099 0.000000
0.000000 0.791028 0.000000
0.000000 0.792431 0.000000
0.000000 0.795897 0.000000
0.000000 0.801954 0.000000
0.000000 0.807473 0.000000
0.000000 0.812208 0.000000
0.000000 0.812939 0.000000
0.368901 0.812992 0.000000
0.560520 0.811348 0.000000
0.688279 0.811706 0.000000
0.805404 0.807014 0.000000
0.872925 0.790468 0.000000
0.918137 0.778595 0.000000
0.950860 0.768651 0.115634
0.976190 0.761244 0.194504
0.999846 0.747200 0.268286
1.000000 0.733341 0.327020
1.000000 0.717194 0.378074
1.000000 0.713165 0.423679
1.000000 0.732247 0.486810
1.000000 0.761463 0.542693
1.000000 0.790202 0.603113
1.000000 0.821008 0.666229
1.000000 0.847602 0.725363
0.000000 0.827688 0.184638
0.000000 0.832427 0.184851
0.000000 0.832760 0.185508
0.000000 0.832948 0.182357
0.000000 0.835289 0.182579
0.000000 0.835468 0.179393
0.000000 0.835644 0.176173
0.000000 0.838034 0.169286
0.000000 0.838484 0.166676
0.000000 0.839141 0.168472
0.000000 0.839745 0.170289
0.000000 0.840453 0.172749
0.000000 0.842814 0.159465
0.000000 0.846998 0.145966
0.000000 0.850707 0.141870
0.000000 0.855474 0.127999
0.219271 0.854944 0.103613
0.497372 0.853207 0.104062
0.644569 0.852609 0.065619
0.749682 0.848979 0.080701
0.839354 0.845229 0.048330
0.903614 0.833083 0.000000
0.938901 0.823482 0.126902
0.966056 0.817085 0.215586
0.987638 0.805377 0.291598
1.000000 0.796119 0.353952
1.000000 0.787116 0.399043
1.000000 0.778440 0.448821
1.000000 0.773645 0.506691
1.000000 0.787539 0.554155
1.000000 0.805178 0.607524
1.000000 0.830851 0.670342
1.000000 0.856768 0.726208
0.000000 0.871226 0.277846
0.000000 0.871264 0.274801
0.000000 0.871458 0.275331
0.000000 0.871647 0.275863
0.000000 0.873476 0.269874
0.000000 0.873699 0.270548
0.000000 0.873813 0.267774
0.000000 0.874022 0.268455
0.000000 0.875926 0.262889
0.000000 0.876123 0.260534
0.000000 0.878122 0.255689
0.000000 0.878428 0.257418
0.000000 0.878683 0.259764
0.000000 0.880366 0.259453
0.000000 0.881480 0.249424
0.000000 0.885730 0.250009
0.000000 0.887236 0.234634
0.397139 0.886899 0.225195
0.586618 0.882806 0.225208
0.706518 0.881790 0.213475
0.802298 0.878155 0.217023
0.880748 0.874819 0.212154
0.928448 0.865202 0.201166
0.956851 0.857270 0.246209
0.978457 0.852071 0.325476
0.998775 0.845285 0.374646
1.000000 0.835656 0.420618
1.000000 0.824754 0.475303
1.000000 0.817754 0.528334
1.000000 0.814574 0.571467
1.000000 0.824849 0.618754
1.000000 0.843613 0.680611
1.000000 0.864990 0.734867
0.000000 0.903619 0.360495
0.000000 0.903647 0.360631
0.000000 0.903727 0.361039
0.000000 0.903732 0.358089
0.000000 0.903807 0.358500
0.000000 0.905343 0.359197
0.000000 0.905317 0.353169
0.000000 0.905377 0.353585
0.000000 0.905422 0.351060
0.000000 0.906931 0.349130
0.000000 0.906921 0.343824
0.000000 0.908393 0.345878
0.000000 0.909660 0.345053
0.000000 0.912087 0.348304
0.000000 0.911521 0.343909
0.000000 0.910736 0.336388
0.000000 0.911907 0.334460
0.302245 0.913015 0.331453
0.534580 0.912495 0.323665
0.667886 0.908527 0.323300
0.763961 0.907199 0.313504
0.849400 0.903714 0.320910
0.908215 0.901146 0.318611
0.942777 0.893630 0.302872
0.969521 0.884723 0.346989
0.990612 0.880190 0.403964
1.000000 0.873500 0.449591
1.000000 0.867029 0.496855
1.000000 0.858321 0.554182
1.000000 0.853105 0.594914
1.000000 0.850489 0.636839
1.000000 0.859495 0.688773
1.000000 0.874676 0.740899
0.000000 0.930317 0.449418
0.000000 0.930318 0.449689
0.000000 0.930317 0.449825
0.000000 0.930275 0.447224
0.000000 0.930271 0.447360
0.000000 0.931423 0.448148
0.000000 0.931409 0.448421
0.000000 0.931340 0.445832
0.000000 0.931303 0.446244
0.000000 0.933435 0.441885
0.000000 0.933295 0.439460
0.000000 0.934145 0.438168
0.000000 0.933861 0.439302
0.000000 0.934623 0.434673
0.000000 0.935219 0.436712
0.000000 0.934220 0.435843
0.000000 0.932815 0.429053
0.276948 0.934652 0.432212
0.484071 0.933540 0.428434
0.629050 0.931646 0.416765
0.733722 0.928026 0.419348
0.817880 0.927589 0.411741
0.880217 0.924966 0.420382
0.929484 0.922793 0.412702
0.957759 0.916590 0.407227
0.981414 0.908783 0.427868
1.000000 0.903870 0.477895
1.000000 0.900646 0.528901
1.000000 0.894381 0.575134
1.000000 0.885366 0.621226
1.000000 0.881279 0.658126
1.000000 0.879836 0.701135
1.000000 0.888125 0.752221
0.000000 0.954876 0.521947
0.000000 0.954846 0.522082
0.000000 0.954738 0.516216
0.000000 0.954673 0.516488
0.000000 0.954604 0.516760
0.000000 0.955521 0.517497
0.000000 0.955447 0.517770
0.000000 0.955409 0.517907
0.000000 0.955289 0.518317
0.000000 0.955139 0.515672
0.000000 0.955897 0.516837
0.000000 0.955550 0.511577
0.000000 0.957103 0.510518
0.000000 0.956646 0.508480
0.000000 0.956997 0.510276
0.000000 0.957183 0.512236
0.000000 0.956719 0.505983
0.286558 0.953550 0.505342
0.461788 0.952679 0.503847
0.585656 0.952247 0.503602
