Assets/Lutify-Free-LUTs-Pack/Lutify Free LUTs Pack/Film Tone Pro - Film Tone 3/Lutify.me-FilmTone3-RWG-to-Rec709.cube
# Created with: fylm.ai - Colour Grading and Collaboration Software in Cloud 
# Website: https://fylm.ai 
# META
# Option: Gamut compress
# Block 1: IDT | RED REDWideGamutRGB Log3G10
# Block 2: colourMatch | Blending Mode: Normal | {"ColorSpace":0,"CrossCovarianceLimit":50,"ReshapingIterations":1,"PercentSaturationShift":100,"PercentShadingShift":100,"ExtraShading":true,"PercentTint":100,"PercentModified":100}
# Block 3: subtractiveColour | Blending Mode: Normal | {"sliders":{"gainY":0.6,"C":0.3,"M":0.3,"Y":0.3}}
# Block 4: LUT | Filmic Curve Response: Low Contrast 2 (100%)
# Block 5: logPrimaries | Blending Mode: Normal | {"wheels":{"shadows":{"Y":"0","R":"1","G":"1","B":"1"},"midtones":{"Y":"0","R":"1","G":"1","B":"1"},"highlights":{"Y":"0","R":"1","G":"1","B":"1"},"offset":{"Y":"0","R":"1","G":"1","B":"1"}},"sliders":{"shadows":{"Y":0,"R":-0.026,"G":0.03,"B":0.1},"midtones":{"Y":0,"R":0.024,"G":-0.036,"B":0.036},"highlights":{"Y":0,"R":0,"G":0.044,"B":-0.128},"offset":{"Y":0,"R":0,"G":0,"B":0}}}
# Block 6: hueSaturation | Blending Mode: Normal | {"hue":0,"saturation":-0.1}
# Block 7: ODT | Rec709
TITLE "Lutify.me-FilmTone3-RWG-to-Rec709" 
LUT_3D_SIZE 5
0.000000 0.000000 0.000000
0.201360 0.000000 0.000000
0.802580 0.000000 0.000000
1.000000 0.605503 0.291656
1.000000 0.962967 0.884500
0.000000 0.180952 0.000000
0.300866 0.186564 0.000000
0.834614 0.000000 0.000000
1.000000 0.617476 0.286637
1.000000 0.962951 0.883909
0.000000 0.693059 0.000000
0.000000 0.722907 0.000000
0.915172 0.678169 0.000000
1.000000 0.710952 0.122309
1.000000 0.964320 0.883062
0.255394 0.988163 0.000000
0.356246 0.988199 0.000000
0.737965 0.980519 0.000000
1.000000 0.952656 0.412650
1.000000 0.978248 0.882578
0.943606 1.000000 0.880273
0.943606 1.000000 0.880273
0.949674 1.000000 0.881029
0.989236 1.000000 0.892589
1.000000 1.000000 0.945661
0.000000 0.000000 0.110105
0.183572 0.000000 0.061376
0.801895 0.000000 0.087323
1.000000 0.607563 0.326033
1.000000 0.962967 0.884500
0.000000 0.144743 0.273153
0.195716 0.225208 0.237163
0.821712 0.000000 0.070225
1.000000 0.616600 0.323309
1.000000 0.962967 0.884500
0.000000 0.686967 0.000000
0.000000 0.715992 0.000000
0.913703 0.674882 0.000000
1.000000 0.722611 0.204144
1.000000 0.964335 0.883648
0.241561 0.988278 0.000000
0.337739 0.988448 0.000000
0.737965 0.980519 0.000000
1.000000 0.952656 0.412650
1.000000 0.977984 0.882509
0.943606 1.000000 0.880273
0.943606 1.000000 0.880273
0.949674 1.000000 0.881029
0.989236 1.000000 0.892589
1.000000 1.000000 0.945661
0.000000 0.000000 0.279743
0.119103 0.000000 0.272624
0.687513 0.000000 0.135096
1.000000 0.599252 0.558736
1.000000 0.962718 0.889330
0.000000 0.000000 0.537226
0.000000 0.000000 0.532679
0.759965 0.000000 0.390881
1.000000 0.613131 0.559552
1.000000 0.962718 0.889330
0.000000 0.577466 0.802528
0.000000 0.680910 0.767235
0.781388 0.799595 0.759391
1.000000 0.727462 0.551201
1.000000 0.964473 0.888972
0.000000 0.988049 0.000000
0.206710 0.987936 0.000000
0.725270 0.980447 0.000000
1.000000 0.952021 0.411107
1.000000 0.978579 0.886045
0.943044 1.000000 0.880205
0.943044 1.000000 0.880205
0.949674 1.000000 0.881029
0.988634 1.000000 0.892376
1.000000 1.000000 0.945661
0.430234 0.000000 0.514055
0.464778 0.000000 0.514838
0.733188 0.000000 0.481175
1.000000 0.000000 0.332005
1.000000 0.961423 0.929996
0.267800 0.000000 0.803095
0.315458 0.000000 0.800910
0.675887 0.000000 0.705321
1.000000 0.000000 0.327725
1.000000 0.961778 0.930026
0.000000 0.427950 0.947000
0.000000 0.431346 0.947253
0.550707 0.444566 0.943192
1.000000 0.258395 0.902338
1.000000 0.962840 0.930118
0.000000 0.943769 0.988134
0.000000 0.943769 0.988134
0.000000 0.999444 0.975335
0.976605 0.988903 0.963962
1.000000 0.979086 0.933406
0.934418 1.000000 0.879224
0.935586 1.000000 0.879352
0.941345 1.000000 0.880005
0.986876 1.000000 0.889541
1.000000 1.000000 0.945661
1.000000 0.000000 0.747436
1.000000 0.000000 0.747557
1.000000 0.000000 0.742605
1.000000 0.000000 0.702530
1.000000 0.564277 0.662886
1.000000 0.000000 0.747436
1.000000 0.000000 0.747557
1.000000 0.000000 0.742605
1.000000 0.000000 0.702530
1.000000 0.564277 0.662886
0.951485 0.245297 1.000000
0.953877 0.244766 1.000000
0.979155 0.234671 1.000000
1.000000 0.000000 1.000000
1.000000 0.564277 0.662886
0.753608 0.900659 1.000000
0.756672 0.900548 1.000000
0.784408 0.903000 1.000000
0.938849 0.901736 1.000000
1.000000 0.919625 1.000000
0.554557 1.000000 1.000000
0.554557 1.000000 1.000000
0.554557 1.000000 1.000000
0.921134 1.000000 1.000000
1.000000 1.000000 1.000000
