Assets/Lutify-Free-LUTs-Pack/Lutify Free LUTs Pack/Film Tone Pro - Film Tone 3/Lutify.me-FilmTone3-SLog3Venice-to-Rec709.cube
# Created with: fylm.ai - Colour Grading and Collaboration Software in Cloud 
# Website: https://fylm.ai 
# META
# Option: Gamut compress
# Block 1: IDT | Sony Venice S-Log3 S-Gamut3
# Block 2: colourMatch | Blending Mode: Normal | {"ColorSpace":0,"CrossCovarianceLimit":50,"ReshapingIterations":1,"PercentSaturationShift":100,"PercentShadingShift":100,"ExtraShading":true,"PercentTint":100,"PercentModified":100}
# Block 3: subtractiveColour | Blending Mode: Normal | {"sliders":{"gainY":0.6,"C":0.3,"M":0.3,"Y":0.3}}
# Block 4: LUT | Filmic Curve Response: Low Contrast 2 (100%)
# Block 5: logPrimaries | Blending Mode: Normal | {"wheels":{"shadows":{"Y":"0","R":"1","G":"1","B":"1"},"midtones":{"Y":"0","R":"1","G":"1","B":"1"},"highlights":{"Y":"0","R":"1","G":"1","B":"1"},"offset":{"Y":"0","R":"1","G":"1","B":"1"}},"sliders":{"shadows":{"Y":0,"R":-0.026,"G":0.03,"B":0.1},"midtones":{"Y":0,"R":0.024,"G":-0.036,"B":0.036},"highlights":{"Y":0,"R":0,"G":0.044,"B":-0.128},"offset":{"Y":0,"R":0,"G":0,"B":0}}}
# Block 6: hueSaturation | Blending Mode: Normal | {"hue":0,"saturation":-0.1}
# Block 7: ODT | Rec709
TITLE "Lutify.me-FilmTone3-SLog3Venice-to-Rec709" 
LUT_3D_SIZE 5
0.000000 0.000000 0.000000
0.136131 0.000000 0.000000
0.535538 0.000000 0.000000
1.000000 0.161223 0.203884
1.000000 0.824132 0.703840
0.000000 0.108366 0.000000
0.163190 0.120392 0.000000
0.575581 0.000000 0.000000
1.000000 0.213416 0.206487
1.000000 0.825592 0.703943
0.000000 0.453393 0.000000
0.000000 0.515554 0.000000
0.663064 0.546363 0.000000
1.000000 0.423987 0.221168
1.000000 0.832836 0.706848
0.000000 0.881949 0.552242
0.000000 0.908280 0.488121
0.000000 0.935185 0.461641
0.955648 0.918735 0.410957
1.000000 0.886559 0.743204
0.000000 1.000000 0.893183
0.000000 1.000000 0.889082
0.209803 1.000000 0.888049
0.806084 1.000000 0.884964
1.000000 1.000000 0.894312
0.000000 0.000000 0.061204
0.126160 0.000000 0.039192
0.536445 0.000000 0.045026
1.000000 0.163838 0.226398
1.000000 0.824187 0.706213
0.000000 0.090968 0.164566
0.115798 0.132215 0.139665
0.575795 0.000000 0.056774
1.000000 0.214453 0.227206
1.000000 0.825646 0.706314
0.000000 0.468792 0.210439
0.000000 0.528952 0.122505
0.646912 0.579699 0.000000
1.000000 0.426018 0.251088
1.000000 0.832888 0.709201
0.000000 0.878807 0.574963
0.000000 0.908414 0.516714
0.000000 0.935386 0.483505
0.954493 0.921082 0.441743
1.000000 0.886593 0.745290
0.000000 1.000000 0.894072
0.000000 1.000000 0.891031
0.210326 1.000000 0.889023
0.806096 1.000000 0.885852
1.000000 1.000000 0.894943
0.000000 0.000000 0.215276
0.057212 0.000000 0.198957
0.482916 0.000000 0.111811
1.000000 0.148936 0.360019
1.000000 0.824570 0.722583
0.000000 0.000000 0.364803
0.000000 0.027973 0.346596
0.561550 0.000000 0.286040
1.000000 0.208924 0.368030
1.000000 0.824570 0.722583
0.000000 0.399684 0.621673
0.000000 0.470048 0.591515
0.594801 0.608253 0.582115
1.000000 0.425478 0.408981
1.000000 0.833253 0.725427
0.000000 0.879322 0.721959
0.000000 0.905117 0.667296
0.000000 0.939186 0.634869
0.944781 0.926575 0.599394
1.000000 0.886795 0.757581
0.000000 1.000000 0.899337
0.000000 1.000000 0.897170
0.181696 1.000000 0.894637
0.805911 1.000000 0.890901
1.000000 1.000000 0.898732
0.000000 0.000000 0.701430
0.000000 0.000000 0.698460
0.453239 0.000000 0.689383
1.000000 0.000000 0.505313
1.000000 0.819392 0.805742
0.000000 0.081287 0.734908
0.000000 0.072786 0.737921
0.451168 0.000000 0.730564
1.000000 0.000000 0.601653
1.000000 0.820883 0.805755
0.000000 0.299583 0.822402
0.000000 0.308354 0.824914
0.348142 0.325825 0.827149
1.000000 0.043990 0.774646
1.000000 0.828752 0.807923
0.000000 0.818350 0.924204
0.000000 0.818350 0.924204
0.000000 0.922417 0.906591
0.916550 0.930299 0.898206
1.000000 0.886928 0.830126
0.000000 1.000000 0.956826
0.000000 1.000000 0.956826
0.000000 1.000000 0.932846
0.798841 1.000000 0.925394
1.000000 1.000000 0.925379
0.596322 0.420651 0.971797
0.610050 0.419687 0.971755
0.691140 0.409606 0.970754
0.986570 0.362124 0.966876
1.000000 0.349567 0.914269
0.593269 0.434228 0.973025
0.607104 0.433319 0.972984
0.688833 0.423794 0.972796
0.984797 0.378540 0.968200
1.000000 0.373691 0.916615
0.561504 0.512383 0.975894
0.571332 0.511959 0.975871
0.645687 0.514961 0.975426
0.962488 0.479576 0.971279
1.000000 0.495538 0.934114
0.206295 0.811575 0.984735
0.253149 0.811297 0.984724
0.423403 0.815880 0.984251
0.842630 0.819964 0.980259
1.000000 0.817841 0.963014
0.000000 0.999183 1.000000
0.000000 0.999183 1.000000
0.000000 0.999183 1.000000
0.701790 1.000000 0.998703
0.998895 1.000000 0.994971
