Assets/Lutify-Free-LUTs-Pack/Lutify Free LUTs Pack/Film Tone Pro - Film Tone 3/Lutify.me-FilmTone3-FLog-to-Rec709.cube
# Created with: fylm.ai - Colour Grading and Collaboration Software in Cloud 
# Website: https://fylm.ai 
# META
# Option: Gamut compress
# Block 1: IDT | Fujifilm F-Gamut F-Log
# Block 2: colourMatch | Blending Mode: Normal | {"ColorSpace":0,"CrossCovarianceLimit":50,"ReshapingIterations":1,"PercentSaturationShift":100,"PercentShadingShift":100,"ExtraShading":true,"PercentTint":100,"PercentModified":100}
# Block 3: subtractiveColour | Blending Mode: Normal | {"sliders":{"gainY":0.6,"C":0.3,"M":0.3,"Y":0.3}}
# Block 4: LUT | Filmic Curve Response: Low Contrast 2 (100%)
# Block 5: logPrimaries | Blending Mode: Normal | {"wheels":{"shadows":{"Y":"0","R":"1","G":"1","B":"1"},"midtones":{"Y":"0","R":"1","G":"1","B":"1"},"highlights":{"Y":"0","R":"1","G":"1","B":"1"},"offset":{"Y":"0","R":"1","G":"1","B":"1"}},"sliders":{"shadows":{"Y":0,"R":-0.026,"G":0.03,"B":0.1},"midtones":{"Y":0,"R":0.024,"G":-0.036,"B":0.036},"highlights":{"Y":0,"R":0,"G":0.044,"B":-0.128},"offset":{"Y":0,"R":0,"G":0,"B":0}}}
# Block 6: hueSaturation | Blending Mode: Normal | {"hue":0,"saturation":-0.1}
# Block 7: ODT | Rec709
TITLE "Lutify.me-FilmTone3-FLog-to-Rec709" 
LUT_3D_SIZE 5
0.000000 0.000000 0.000000
0.112646 0.000000 0.000000
0.377831 0.000000 0.000000
0.837199 0.000000 0.070536
1.000000 0.427473 0.334441
0.000000 0.088390 0.000000
0.139153 0.095277 0.000000
0.427390 0.000000 0.000000
0.844416 0.000000 0.074793
1.000000 0.441526 0.333986
0.000000 0.351429 0.000000
0.000000 0.387343 0.000000
0.529221 0.380493 0.000000
0.891776 0.267568 0.064428
1.000000 0.496096 0.343761
0.000000 0.773579 0.147482
0.000000 0.776150 0.143963
0.000000 0.796283 0.083820
0.867710 0.784282 0.024019
1.000000 0.733365 0.401586
0.000000 0.965898 0.606385
0.000000 0.967006 0.605233
0.253662 0.966740 0.598332
0.740783 0.959950 0.594813
0.982407 0.951041 0.604583
0.000000 0.000000 0.062243
0.100638 0.000000 0.046725
0.386641 0.000000 0.046477
0.843640 0.000000 0.110244
1.000000 0.427734 0.339321
0.000000 0.089362 0.143297
0.105881 0.121118 0.129913
0.429547 0.000000 0.064385
0.849783 0.000000 0.112434
1.000000 0.442047 0.343850
0.000000 0.376749 0.133765
0.000000 0.411462 0.097648
0.513221 0.435777 0.000000
0.894408 0.290612 0.126686
1.000000 0.496610 0.354039
0.000000 0.776332 0.244240
0.000000 0.784006 0.237788
0.000000 0.801152 0.203608
0.862712 0.788916 0.180599
1.000000 0.736588 0.418814
0.000000 0.965966 0.621521
0.000000 0.967082 0.623320
0.253095 0.966796 0.613238
0.737389 0.960126 0.609043
0.981133 0.951154 0.619700
0.000000 0.000000 0.268090
0.000000 0.000000 0.261890
0.418951 0.000000 0.224604
0.861012 0.000000 0.265761
1.000000 0.437696 0.399316
0.000000 0.067158 0.341232
0.000000 0.087859 0.336085
0.482665 0.000000 0.304937
0.866730 0.000000 0.276386
1.000000 0.444834 0.401937
0.000000 0.372073 0.480993
0.000000 0.431941 0.478223
0.464689 0.487971 0.474513
0.893511 0.337987 0.337339
1.000000 0.502804 0.413477
0.000000 0.788861 0.509701
0.000000 0.801084 0.500280
0.000000 0.814941 0.490354
0.856498 0.806688 0.475106
1.000000 0.743760 0.480380
0.000000 0.966214 0.681221
0.000000 0.967293 0.676959
0.277733 0.966747 0.672824
0.726654 0.960682 0.663496
0.976579 0.952215 0.673956
0.000000 0.165927 0.637637
0.000000 0.176942 0.643420
0.368396 0.164117 0.655463
0.904967 0.000000 0.603708
1.000000 0.473198 0.630396
0.000000 0.194399 0.652436
0.000000 0.205420 0.648259
0.358768 0.207535 0.663593
0.911438 0.000000 0.618802
1.000000 0.487666 0.630626
0.000000 0.376151 0.716612
0.000000 0.395997 0.717395
0.257829 0.432962 0.724650
0.917787 0.380897 0.699155
1.000000 0.547269 0.640044
0.000000 0.787017 0.794085
0.000000 0.794801 0.796505
0.000000 0.823922 0.799432
0.813700 0.831927 0.791659
1.000000 0.761549 0.699874
0.000000 0.970736 0.818410
0.000000 0.971181 0.818743
0.212927 0.970042 0.818648
0.716608 0.964299 0.813943
0.967164 0.959005 0.812211
0.000000 0.523269 0.896073
0.000000 0.523193 0.896244
0.293544 0.534652 0.896690
0.792793 0.535690 0.893705
1.000000 0.521917 0.870001
0.000000 0.539510 0.897022
0.000000 0.539460 0.897192
0.286828 0.541323 0.897950
0.791082 0.542878 0.894962
1.000000 0.536076 0.871338
0.000000 0.582366 0.902797
0.000000 0.582221 0.901542
0.233859 0.591120 0.901924
0.780960 0.595745 0.897585
1.000000 0.585647 0.878135
0.000000 0.778940 0.916465
0.000000 0.781502 0.916473
0.000000 0.790803 0.915375
0.699664 0.801498 0.911393
1.000000 0.790563 0.903450
0.000000 0.973293 0.942651
0.000000 0.973564 0.942718
0.000000 0.970922 0.940748
0.701451 0.968084 0.940244
0.949510 0.966733 0.935836
