Assets/Lutify-Free-LUTs-Pack/Lutify Free LUTs Pack/Film Tone Pro - Film Tone 3/Lutify.me-FilmTone3-BMDFilmGen4-to-Rec709.cube
# Created with: fylm.ai - Colour Grading and Collaboration Software in Cloud 
# Website: https://fylm.ai 
# META
# Option: Gamut compress
# Block 1: IDT | BMD Wide Gamut BMDFilm Gen 4
# Block 2: colourMatch | Blending Mode: Normal | {"ColorSpace":0,"CrossCovarianceLimit":50,"ReshapingIterations":1,"PercentSaturationShift":100,"PercentShadingShift":100,"ExtraShading":true,"PercentTint":100,"PercentModified":100}
# Block 3: subtractiveColour | Blending Mode: Normal | {"sliders":{"gainY":0.6,"C":0.3,"M":0.3,"Y":0.3}}
# Block 4: LUT | Filmic Curve Response: Low Contrast 2 (100%)
# Block 5: logPrimaries | Blending Mode: Normal | {"wheels":{"shadows":{"Y":"0","R":"1","G":"1","B":"1"},"midtones":{"Y":"0","R":"1","G":"1","B":"1"},"highlights":{"Y":"0","R":"1","G":"1","B":"1"},"offset":{"Y":"0","R":"1","G":"1","B":"1"}},"sliders":{"shadows":{"Y":0,"R":-0.026,"G":0.03,"B":0.1},"midtones":{"Y":0,"R":0.024,"G":-0.036,"B":0.036},"highlights":{"Y":0,"R":0,"G":0.044,"B":-0.128},"offset":{"Y":0,"R":0,"G":0,"B":0}}}
# Block 6: hueSaturation | Blending Mode: Normal | {"hue":0,"saturation":-0.1}
# Block 7: ODT | Rec709
TITLE "Lutify.me-FilmTone3-BMDFilmGen4-to-Rec709" 
LUT_3D_SIZE 33
0.000000 0.000000 0.000000
0.000000 0.000000 0.000000
0.000000 0.000000 0.000000
0.043665 0.000000 0.000000
0.076072 0.000000 0.000000
0.106093 0.000000 0.000000
0.128555 0.000000 0.000000
0.154509 0.000000 0.000000
0.181400 0.000000 0.000000
0.212399 0.000000 0.000000
0.246520 0.000000 0.000000
0.281113 0.000000 0.000000
0.312482 0.000000 0.000000
0.348389 0.000000 0.000000
0.391774 0.000000 0.000000
0.434205 0.000000 0.000000
0.475585 0.000000 0.000000
0.523921 0.000000 0.000000
0.568397 0.000000 0.000000
0.621869 0.000000 0.000000
0.673720 0.000000 0.000000
0.714986 0.000000 0.000000
0.763381 0.000000 0.000000
0.809132 0.000000 0.000000
0.860389 0.000000 0.000000
0.906955 0.000000 0.041348
0.939263 0.000000 0.059565
0.969956 0.000000 0.079661
1.000000 0.127560 0.105118
1.000000 0.210821 0.127355
1.000000 0.274325 0.149369
1.000000 0.337288 0.177836
1.000000 0.393087 0.208407
0.000000 0.000000 0.000000
0.000000 0.000000 0.000000
0.000000 0.000000 0.000000
0.052518 0.000000 0.000000
0.082553 0.000000 0.000000
0.113754 0.000000 0.000000
0.134565 0.000000 0.000000
0.164947 0.000000 0.000000
0.194695 0.000000 0.000000
0.222900 0.000000 0.000000
0.257372 0.000000 0.000000
0.289078 0.000000 0.000000
0.321652 0.000000 0.000000
0.358491 0.000000 0.000000
0.398449 0.000000 0.000000
0.441272 0.000000 0.000000
0.480010 0.000000 0.000000
0.527924 0.000000 0.000000
0.573053 0.000000 0.000000
0.626527 0.000000 0.000000
0.678319 0.000000 0.000000
0.722635 0.000000 0.000000
0.767602 0.000000 0.000000
0.813435 0.000000 0.000000
0.860666 0.000000 0.000000
0.907127 0.000000 0.039017
0.939301 0.000000 0.058411
0.969915 0.000000 0.079135
0.999930 0.142055 0.104181
1.000000 0.215708 0.126909
1.000000 0.274325 0.149369
1.000000 0.341144 0.177444
1.000000 0.393087 0.208407
0.000000 0.015384 0.000000
0.000000 0.019170 0.000000
0.000000 0.025060 0.000000
0.056206 0.010628 0.000000
0.092913 0.000000 0.000000
0.122497 0.000000 0.000000
0.145264 0.000000 0.000000
0.177118 0.000000 0.000000
0.206009 0.000000 0.000000
0.232970 0.000000 0.000000
0.267280 0.000000 0.000000
0.295692 0.000000 0.000000
0.330978 0.000000 0.000000
0.369412 0.000000 0.000000
0.408171 0.000000 0.000000
0.448807 0.000000 0.000000
0.491156 0.000000 0.000000
0.533490 0.000000 0.000000
0.578402 0.000000 0.000000
0.635338 0.000000 0.000000
0.686448 0.000000 0.000000
0.727255 0.000000 0.000000
0.771807 0.000000 0.000000
0.813901 0.000000 0.000000
0.867836 0.000000 0.000000
0.910402 0.000000 0.036427
0.942419 0.000000 0.061663
0.969827 0.000000 0.078035
0.999818 0.148736 0.103695
1.000000 0.220517 0.126750
1.000000 0.282825 0.148481
1.000000 0.341144 0.177444
1.000000 0.396735 0.208064
0.000000 0.051027 0.000000
0.000000 0.053462 0.000000
0.000000 0.056298 0.000000
0.052405 0.057646 0.000000
0.092249 0.048882 0.000000
0.132244 0.036672 0.000000
0.160573 0.000000 0.000000
0.194851 0.000000 0.000000
0.226849 0.000000 0.000000
0.256706 0.000000 0.000000
0.285804 0.000000 0.000000
0.309579 0.000000 0.000000
0.340082 0.000000 0.000000
0.379157 0.000000 0.000000
0.418287 0.000000 0.000000
0.453774 0.000000 0.000000
0.496310 0.000000 0.000000
0.545672 0.000000 0.000000
0.587169 0.000000 0.000000
0.643914 0.000000 0.000000
0.687667 0.000000 0.000000
0.731874 0.000000 0.000000
0.776144 0.000000 0.000000
0.817813 0.000000 0.000000
0.868094 0.000000 0.000000
0.910503 0.000000 0.034387
0.942451 0.000000 0.059870
0.969680 0.000000 0.076260
0.999586 0.161252 0.102684
1.000000 0.225270 0.126282
1.000000 0.291181 0.147560
1.000000 0.344984 0.177046
1.000000 0.396735 0.208064
0.000000 0.074687 0.000000
0.000000 0.077412 0.000000
0.000000 0.083285 0.000000
0.000000 0.088066 0.000000
0.093818 0.084356 0.000000
0.135029 0.075460 0.000000
0.173900 0.064556 0.000000
0.209840 0.045456 0.000000
0.241871 0.000000 0.000000
0.273674 0.000000 0.000000
0.299775 0.000000 0.000000
0.328684 0.000000 0.000000
0.356519 0.000000 0.000000
0.392281 0.000000 0.000000
0.426646 0.000000 0.000000
0.465506 0.000000 0.000000
0.508358 0.000000 0.000000
0.551533 0.000000 0.000000
0.599655 0.000000 0.000000
0.649186 0.000000 0.000000
0.692685 0.000000 0.000000
0.736621 0.000000 0.000000
0.777264 0.000000 0.000000
0.822088 0.000000 0.000000
0.871752 0.000000 0.000000
0.913724 0.000000 0.030927
0.945229 0.000000 0.056639
0.971922 0.061680 0.074565
0.999213 0.172525 0.098681
1.000000 0.229962 0.125804
1.000000 0.295310 0.147087
1.000000 0.352615 0.176230
1.000000 0.400374 0.207716
0.000000 0.100077 0.000000
0.000000 0.105209 0.000000
0.000000 0.110486 0.000000
0.000000 0.116312 0.000000
0.084404 0.116677 0.000000
0.142416 0.112853 0.000000
0.183312 0.099836 0.000000
0.226098 0.088272 0.000000
0.258123 0.078496 0.000000
0.287097 0.059837 0.000000
0.312800 0.028357 0.000000
0.345382 0.000000 0.000000
0.377231 0.000000 0.000000
0.417514 0.000000 0.000000
0.451393 0.000000 0.000000
0.482604 0.000000 0.000000
0.515677 0.000000 0.000000
0.561385 0.000000 0.000000
0.605332 0.000000 0.000000
0.654485 0.000000 0.000000
0.697981 0.000000 0.000000
0.737933 0.000000 0.000000
0.781975 0.000000 0.000000
0.823020 0.000000 0.000000
0.875527 0.000000 0.000000
0.916978 0.000000 0.022687
0.945218 0.000000 0.054275
0.971727 0.100054 0.072441
1.000000 0.183194 0.097792
1.000000 0.239178 0.124809
1.000000 0.303721 0.146451
1.000000 0.356408 0.175812
1.000000 0.404005 0.207363
0.000000 0.128571 0.000000
0.000000 0.134191 0.000000
0.000000 0.139792 0.000000
0.000000 0.152960 0.000000
0.029651 0.154553 0.000000
0.129792 0.155351 0.000000
0.188743 0.148112 0.000000
0.234655 0.133191 0.000000
0.274978 0.120414 0.000000
0.303027 0.106364 0.000000
0.334880 0.090925 0.000000
0.365475 0.073996 0.000000
0.396669 0.048169 0.000000
0.430982 0.000000 0.000000
0.465285 0.000000 0.000000
0.502850 0.000000 0.000000
0.539909 0.000000 0.000000
0.568178 0.000000 0.000000
0.615206 0.000000 0.000000
0.660120 0.000000 0.000000
0.703430 0.000000 0.000000
0.743065 0.000000 0.000000
0.783345 0.000000 0.000000
0.830985 0.000000 0.000000
0.876283 0.000000 0.000000
0.917123 0.000000 0.004912
0.947875 0.000000 0.049866
0.973874 0.124375 0.070368
1.000000 0.198772 0.095907
1.000000 0.252651 0.123219
1.000000 0.307615 0.144342
1.000000 0.359903 0.171971
1.000000 0.411382 0.208483
0.000000 0.157803 0.000000
0.000000 0.167454 0.000000
0.000000 0.171730 0.000000
0.000000 0.181171 0.000000
0.000000 0.183035 0.000000
0.111978 0.186297 0.000000
0.182989 0.188531 0.000000
0.234999 0.176477 0.000000
0.282642 0.159858 0.000000
0.314599 0.147805 0.000000
0.347251 0.137161 0.000000
0.379645 0.126350 0.000000
0.412064 0.113043 0.000000
0.444656 0.097954 0.000000
0.479812 0.071011 0.000000
0.514484 0.011150 0.000000
0.558210 0.000000 0.000000
0.590089 0.000000 0.000000
0.626074 0.000000 0.000000
0.673626 0.000000 0.000000
0.709056 0.000000 0.000000
0.748336 0.000000 0.000000
0.788146 0.000000 0.000000
0.835453 0.000000 0.000000
0.880026 0.000000 0.000000
0.920446 0.000000 0.000000
0.947741 0.000000 0.042607
0.978198 0.149975 0.067441
1.000000 0.208652 0.094558
1.000000 0.256822 0.119859
1.000000 0.319594 0.142765
1.000000 0.363670 0.171525
1.000000 0.415411 0.208511
0.000000 0.189435 0.000000
0.000000 0.198136 0.000000
0.000000 0.203295 0.000000
0.000000 0.213860 0.000000
0.000000 0.218402 0.000000
0.053496 0.218832 0.000000
0.167571 0.219031 0.000000
0.239615 0.214254 0.000000
0.289201 0.200673 0.000000
0.330725 0.191301 0.000000
0.363149 0.178501 0.000000
0.393120 0.164866 0.000000
0.430277 0.155427 0.000000
0.467251 0.141980 0.000000
0.497180 0.127821 0.000000
0.532492 0.113748 0.000000
0.572823 0.091989 0.000000
0.607657 0.054140 0.000000
0.643957 0.000000 0.000000
0.680657 0.000000 0.000000
0.715037 0.000000 0.000000
0.753759 0.000000 0.000000
0.793177 0.000000 0.000000
0.836701 0.000000 0.000000
0.883754 0.000000 0.000000
0.920577 0.000000 0.000000
0.950355 0.109336 0.038476
0.977947 0.173578 0.067155
1.000000 0.223202 0.095629
1.000000 0.270189 0.121220
1.000000 0.331374 0.141100
1.000000 0.375240 0.170517
1.000000 0.426185 0.207400
0.000000 0.221937 0.000000
0.000000 0.230775 0.000000
0.000000 0.233138 0.000000
0.000000 0.247191 0.000000
0.000000 0.250676 0.000000
0.000000 0.251738 0.000000
0.146448 0.251260 0.000000
0.224448 0.253003 0.000000
0.286970 0.244396 0.000000
0.332001 0.233584 0.000000
0.374799 0.218052 0.000000
0.408642 0.208090 0.000000
0.445610 0.192682 0.000000
0.480948 0.179865 0.000000
0.518178 0.169409 0.000000
0.553770 0.160053 0.000000
0.584152 0.151057 0.000000
0.618535 0.135798 0.000000
0.661546 0.115785 0.000000
0.687519 0.100142 0.000000
0.725254 0.073199 0.000000
0.766924 0.000000 0.000000
0.801729 0.000000 0.000000
0.840967 0.000000 0.000000
0.884561 0.000000 0.000000
0.920613 0.090516 0.000000
0.950053 0.150814 0.022425
0.979675 0.198816 0.061889
1.000000 0.236761 0.093685
1.000000 0.291242 0.118019
1.000000 0.339274 0.141629
1.000000 0.386359 0.169075
1.000000 0.429764 0.207020
0.000000 0.258666 0.000000
0.000000 0.261773 0.000000
0.000000 0.264247 0.000000
0.000000 0.275901 0.000000
0.000000 0.279773 0.000000
0.000000 0.281203 0.000000
0.115965 0.281389 0.000000
0.203516 0.286465 0.000000
0.278576 0.286279 0.000000
0.332499 0.275036 0.000000
0.378079 0.259054 0.000000
0.425573 0.243837 0.000000
0.466686 0.234419 0.000000
0.501428 0.223038 0.000000
0.536860 0.217413 0.000000
0.565962 0.209818 0.000000
0.599320 0.203140 0.000000
0.630579 0.196616 0.000000
0.672720 0.180533 0.000000
0.705487 0.170881 0.000000
0.739296 0.159842 0.000000
0.773644 0.154555 0.000000
0.811795 0.137783 0.000000
0.846331 0.136746 0.000000
0.888274 0.132415 0.000000
0.923578 0.157945 0.000000
0.954642 0.191520 0.000000
0.979159 0.222618 0.059576
1.000000 0.258736 0.089449
1.000000 0.307625 0.115543
1.000000 0.351024 0.140203
1.000000 0.393721 0.168075
1.000000 0.440468 0.205849
0.000000 0.291515 0.000000
0.000000 0.293336 0.000000
0.000000 0.297729 0.000000
0.000000 0.306068 0.000000
0.000000 0.308135 0.000000
0.000000 0.312014 0.000000
0.000000 0.312727 0.000000
0.184474 0.316773 0.000000
0.259123 0.317729 0.000000
0.327321 0.315274 0.000000
0.380563 0.302913 0.000000
0.434077 0.287043 0.000000
0.479653 0.275799 0.000000
0.523896 0.271051 0.000000
0.553978 0.262456 0.000000
0.587403 0.257908 0.000000
0.614018 0.251327 0.000000
0.651550 0.240263 0.000000
0.687098 0.234471 0.000000
0.722969 0.224855 0.000000
0.753074 0.222402 0.000000
0.786950 0.215456 0.000000
0.817742 0.216012 0.000000
0.857873 0.211039 0.000000
0.894848 0.202521 0.000000
0.928859 0.204331 0.000000
0.956739 0.218987 0.000000
0.980510 0.248768 0.049786
1.000000 0.288494 0.086552
1.000000 0.327695 0.115259
1.000000 0.366161 0.137668
1.000000 0.404975 0.170128
1.000000 0.448380 0.205859
0.000000 0.327309 0.000000
0.000000 0.333561 0.000000
0.000000 0.340136 0.000000
0.000000 0.347072 0.000000
0.000000 0.349035 0.000000
0.000000 0.353598 0.000000
0.000000 0.359849 0.000000
0.131873 0.360186 0.000000
0.227289 0.362260 0.000000
0.298204 0.360965 0.000000
0.380095 0.358508 0.000000
0.438515 0.339410 0.000000
0.488204 0.330709 0.000000
0.533216 0.313551 0.000000
0.572180 0.304327 0.000000
0.603396 0.300907 0.000000
0.630888 0.297679 0.000000
0.668525 0.287441 0.000000
0.696778 0.281400 0.000000
0.729323 0.277713 0.000000
0.765613 0.269968 0.000000
0.799460 0.265861 0.000000
0.835891 0.260610 0.000000
0.861657 0.262043 0.000000
0.900796 0.256963 0.000000
0.930591 0.253628 0.000000
0.957806 0.265147 0.000000
0.981214 0.286460 0.032135
1.000000 0.316639 0.078539
1.000000 0.347277 0.111885
1.000000 0.381621 0.138969
1.000000 0.420163 0.168808
1.000000 0.462516 0.204197
0.000000 0.365001 0.000000
0.000000 0.374209 0.000000
0.000000 0.378407 0.000000
0.000000 0.383103 0.000000
0.000000 0.385370 0.000000
0.000000 0.395476 0.000000
0.000000 0.396863 0.000000
0.000000 0.397741 0.000000
0.186834 0.400961 0.000000
0.272776 0.400590 0.000000
0.354774 0.399196 0.000000
0.428982 0.396747 0.000000
0.485866 0.379036 0.000000
0.538553 0.363789 0.000000
0.584092 0.354330 0.000000
0.617291 0.342459 0.000000
0.649249 0.339382 0.000000
0.677302 0.339612 0.000000
0.712815 0.333586 0.000000
0.741919 0.331737 0.000000
0.777771 0.325523 0.000000
0.811327 0.323806 0.000000
0.842948 0.314668 0.000000
0.876692 0.320164 0.000000
0.905136 0.319524 0.000000
0.931205 0.319209 0.000000
0.957587 0.320115 0.000000
0.981086 0.325703 0.000000
0.999755 0.347812 0.071422
1.000000 0.369953 0.106313
1.000000 0.400059 0.135430
1.000000 0.438151 0.166000
1.000000 0.476851 0.206385
0.000000 0.403997 0.000000
0.000000 0.411087 0.000000
0.000000 0.415657 0.000000
0.000000 0.420365 0.000000
0.000000 0.428351 0.000000
0.000000 0.430508 0.000000
0.000000 0.431736 0.000000
0.000000 0.432949 0.000000
0.131734 0.433575 0.000000
0.242135 0.436518 0.000000
0.332885 0.438624 0.000000
0.412867 0.436733 0.000000
0.486742 0.430890 0.000000
0.548491 0.412157 0.000000
0.584144 0.409952 0.000000
0.628191 0.394240 0.000000
0.658613 0.382315 0.000000
0.694785 0.376025 0.000000
0.719857 0.377366 0.000000
0.756040 0.375303 0.000000
0.781989 0.374572 0.000000
0.817936 0.369936 0.000000
0.852072 0.365464 0.000000
0.881481 0.365420 0.000000
0.908997 0.366000 0.000000
0.934245 0.367092 0.000000
0.957004 0.368682 0.000000
0.979864 0.374624 0.000000
0.998968 0.381287 0.043158
1.000000 0.399992 0.102440
1.000000 0.422158 0.131152
1.000000 0.456137 0.164923
1.000000 0.498200 0.204138
0.000000 0.443489 0.000000
0.000000 0.450951 0.000000
0.000000 0.455615 0.000000
0.000000 0.460333 0.000000
0.000000 0.465155 0.000000
0.000000 0.466878 0.000000
0.000000 0.468172 0.000000
0.000000 0.478554 0.000000
0.000000 0.479385 0.000000
0.197492 0.482698 0.000000
0.301771 0.482187 0.000000
0.390833 0.480795 0.000000
0.468700 0.478681 0.000000
0.543108 0.462968 0.000000
0.591574 0.450846 0.000000
0.637534 0.438384 0.000000
0.677586 0.422657 0.000000
0.707319 0.420437 0.000000
0.729469 0.412153 0.000000
0.765864 0.413448 0.000000
0.791773 0.416318 0.000000
0.823614 0.412553 0.000000
0.856955 0.412549 0.000000
0.885312 0.409692 0.000000
0.911874 0.411218 0.000000
0.933705 0.413284 0.000000
0.958707 0.408788 0.000000
0.978317 0.418357 0.000000
1.000000 0.425346 0.000000
1.000000 0.432854 0.091277
1.000000 0.455153 0.129988
1.000000 0.488285 0.159457
1.000000 0.519043 0.201283
0.000000 0.491880 0.000000
0.000000 0.496071 0.000000
0.000000 0.503536 0.000000
0.000000 0.504959 0.000000
0.000000 0.509689 0.000000
0.000000 0.510934 0.000000
0.000000 0.512015 0.000000
0.000000 0.516230 0.000000
0.000000 0.520191 0.000000
0.113117 0.520554 0.000000
0.262198 0.523511 0.000000
0.361917 0.519345 0.000000
0.445976 0.517692 0.000000
0.529176 0.515141 0.000000
0.585721 0.503020 0.000000
0.638435 0.493811 0.000000
0.681145 0.481450 0.000000
0.718476 0.462485 0.000000
0.748174 0.463791 0.000000
0.774794 0.448759 0.000000
0.806424 0.464822 0.000000
0.830895 0.465289 0.000000
0.857654 0.466736 0.000000
0.890625 0.464243 0.000000
0.910934 0.463078 0.000000
0.934097 0.465547 0.000000
0.959699 0.469079 0.000000
0.978648 0.475609 0.000000
0.996644 0.479321 0.000000
1.000000 0.486943 0.074202
1.000000 0.498180 0.123134
1.000000 0.516578 0.157900
1.000000 0.540120 0.198702
0.000000 0.535211 0.000000
0.000000 0.536100 0.000000
0.000000 0.543492 0.000000
0.000000 0.547672 0.000000
0.000000 0.548736 0.000000
0.000000 0.549815 0.000000
0.000000 0.550896 0.000000
0.000000 0.554989 0.000000
0.000000 0.558766 0.000000
0.000000 0.562334 0.000000
0.180701 0.562292 0.000000
0.322658 0.561634 0.000000
0.413726 0.557193 0.000000
0.502701 0.555167 0.000000
0.581805 0.552539 0.000000
0.627694 0.547320 0.000000
0.672806 0.538502 0.000000
0.714408 0.516150 0.000000
0.758547 0.506780 0.000000
0.788002 0.504980 0.000000
0.809217 0.504208 0.000000
0.842550 0.511383 0.000000
0.865178 0.512986 0.000000
0.889030 0.515142 0.000000
0.916359 0.510913 0.000000
0.939957 0.513456 0.000000
0.958215 0.517457 0.000000
0.977070 0.521504 0.000000
0.992591 0.525456 0.000000
1.000000 0.529473 0.032775
1.000000 0.533928 0.117806
1.000000 0.544940 0.156661
1.000000 0.561071 0.195965
0.000000 0.576162 0.000000
0.000000 0.583445 0.000000
0.000000 0.584004 0.000000
0.000000 0.587922 0.000000
0.000000 0.588502 0.000000
0.000000 0.589403 0.000000
0.000000 0.590444 0.000000
0.000000 0.594457 0.000000
0.000000 0.598156 0.000000
0.000000 0.601700 0.000000
0.000000 0.601815 0.000000
0.274110 0.601321 0.000000
0.378006 0.600347 0.000000
0.477327 0.595417 0.000000
0.551030 0.593296 0.000000
0.612141 0.591247 0.000000
0.662013 0.589254 0.000000
0.710488 0.570198 0.000000
0.762433 0.553952 0.000000
0.800428 0.545112 0.000000
0.824130 0.543882 0.000000
0.843663 0.547610 0.000000
0.868508 0.552571 0.000000
0.888970 0.558780 0.000000
0.913107 0.558610 0.000000
0.939145 0.554635 0.000000
0.958668 0.558554 0.000000
0.974900 0.562742 0.000000
0.991537 0.567136 0.000000
1.000000 0.571423 0.000000
1.000000 0.575743 0.101613
1.000000 0.580371 0.152266
1.000000 0.589294 0.196957
0.000000 0.617701 0.000000
0.000000 0.624528 0.000000
0.000000 0.624950 0.000000
0.000000 0.628517 0.000000
0.000000 0.628909 0.000000
0.000000 0.629596 0.000000
0.000000 0.630289 0.000000
0.000000 0.631117 0.000000
0.000000 0.634967 0.000000
0.000000 0.638444 0.000000
0.000000 0.641783 0.000000
0.213226 0.641466 0.000000
0.343205 0.640702 0.000000
0.440005 0.639456 0.000000
0.521663 0.634359 0.000000
0.579490 0.635938 0.000000
0.638542 0.640493 0.000000
0.706280 0.627701 0.000000
0.758781 0.605057 0.000000
0.800326 0.586074 0.000000
0.838338 0.577497 0.000000
0.856045 0.580219 0.000000
0.874018 0.585382 0.000000
0.890469 0.594991 0.000000
0.910738 0.601963 0.000000
0.937341 0.595351 0.000000
0.958659 0.595825 0.000000
0.974295 0.600442 0.000000
0.990095 0.604760 0.000000
1.000000 0.609327 0.000000
1.000000 0.613671 0.072582
1.000000 0.618176 0.142587
1.000000 0.623461 0.191647
0.000000 0.662296 0.000000
0.000000 0.665696 0.000000
0.000000 0.666006 0.000000
0.000000 0.669559 0.000000
0.000000 0.669922 0.000000
0.000000 0.670406 0.000000
0.000000 0.670843 0.000000
0.000000 0.671510 0.000000
0.000000 0.672058 0.000000
0.000000 0.675557 0.000000
0.000000 0.678878 0.000000
0.137312 0.681914 0.000000
0.290161 0.681064 0.000000
0.391073 0.680082 0.000000
0.482416 0.675433 0.000000
0.561734 0.673564 0.000000
0.619558 0.674978 0.000000
0.684575 0.675834 0.000000
0.749645 0.662956 0.000000
0.794618 0.640829 0.000000
0.838645 0.625453 0.000000
0.868023 0.610748 0.000000
0.879790 0.620994 0.000000
0.891990 0.633984 0.000000
0.907206 0.641231 0.000000
0.933057 0.642069 0.000000
0.952906 0.639523 0.000000
0.970461 0.640897 0.000000
0.985619 0.645302 0.000000
0.999233 0.650276 0.000000
1.000000 0.654301 0.000000
1.000000 0.658576 0.127273
1.000000 0.663517 0.184861
0.000000 0.700561 0.000000
0.000000 0.704277 0.000000
0.000000 0.704394 0.000000
0.000000 0.704652 0.000000
0.000000 0.708216 0.000000
0.000000 0.708434 0.000000
0.000000 0.708692 0.000000
0.000000 0.709112 0.000000
0.000000 0.709344 0.000000
0.000000 0.709650 0.000000
0.000000 0.712683 0.000000
0.000000 0.715515 0.000000
0.233582 0.717961 0.000000
0.349940 0.717097 0.000000
0.443597 0.715751 0.000000
0.519047 0.714380 0.000000
0.594658 0.709103 0.000000
0.662251 0.709808 0.000000
0.729553 0.710249 0.000000
0.777327 0.698503 0.000000
0.824828 0.680141 0.000000
0.856194 0.665803 0.000000
0.883709 0.651536 0.000000
0.894110 0.662487 0.000000
0.910274 0.672355 0.000000
0.927613 0.683056 0.000000
0.947935 0.681604 0.000000
0.965260 0.683079 0.000000
0.980637 0.684215 0.000000
0.994999 0.688621 0.000000
1.000000 0.692535 0.000000
1.000000 0.696685 0.101065
1.000000 0.700831 0.173899
0.000000 0.735163 0.000000
0.000000 0.738251 0.000000
0.000000 0.738385 0.000000
0.000000 0.738556 0.000000
0.000000 0.744697 0.000000
0.000000 0.744785 0.000000
0.000000 0.747930 0.000000
0.000000 0.747858 0.000000
0.000000 0.750805 0.000000
0.000000 0.750774 0.000000
0.000000 0.750516 0.000000
0.000000 0.750144 0.000000
0.177332 0.749570 0.000000
0.310492 0.751348 0.000000
0.410218 0.750204 0.000000
0.492348 0.748777 0.000000
0.570941 0.746839 0.000000
0.633131 0.744784 0.000000
0.705008 0.742079 0.000000
0.758575 0.742532 0.000000
0.808465 0.734371 0.000000
0.846842 0.711560 0.000000
0.870719 0.704384 0.000000
0.902528 0.684754 0.000000
0.910022 0.705275 0.000000
0.925786 0.712115 0.000000
0.943539 0.713569 0.000000
0.959664 0.721136 0.000000
0.976340 0.722893 0.000000
0.989473 0.724178 0.000000
0.998395 0.727601 0.000000
1.000000 0.731580 0.087198
1.000000 0.735130 0.164541
0.000000 0.777737 0.000000
0.000000 0.777819 0.000000
0.000000 0.777875 0.000000
0.000000 0.777947 0.000000
0.000000 0.780601 0.000000
0.000000 0.780630 0.000000
0.000000 0.780628 0.000000
0.000000 0.783166 0.000000
0.000000 0.782988 0.000000
0.000000 0.785453 0.000000
0.000000 0.785111 0.000000
0.000000 0.784643 0.000000
0.120414 0.784058 0.000000
0.273983 0.785964 0.000000
0.380560 0.784772 0.000000
0.461516 0.785749 0.000000
0.540056 0.783802 0.000000
0.606039 0.781819 0.000000
0.671753 0.779415 0.000000
0.734186 0.776950 0.000000
0.795117 0.774128 0.000000
0.828629 0.769851 0.000000
0.859580 0.752174 0.000000
0.890659 0.739594 0.000000
0.922718 0.718866 0.000000
0.926708 0.741192 0.000000
0.940245 0.750652 0.000000
0.956048 0.752464 0.000000
0.969190 0.757024 0.000000
0.981750 0.760988 0.000000
0.993697 0.761801 0.000000
1.000000 0.765285 0.053450
1.000000 0.765859 0.159455
0.000000 0.811206 0.000000
0.000000 0.811159 0.000000
0.000000 0.811183 0.000000
0.000000 0.811112 0.000000
0.000000 0.813305 0.000000
0.000000 0.813121 0.000000
0.000000 0.812999 0.000000
0.000000 0.812778 0.000000
0.000000 0.812673 0.000000
0.000000 0.812313 0.000000
0.000000 0.812087 0.000000
0.000000 0.811550 0.000000
0.117943 0.813002 0.000000
0.266938 0.814257 0.000000
0.348906 0.817526 0.000000
0.434242 0.816252 0.000000
0.524981 0.814397 0.000000
0.586622 0.814613 0.000000
0.644759 0.812554 0.000000
0.701135 0.810260 0.000000
0.758669 0.807752 0.000000
0.807560 0.805252 0.000000
0.846144 0.803391 0.000000
0.876930 0.788020 0.000000
0.906803 0.771830 0.000000
0.936224 0.758057 0.000000
0.937100 0.776107 0.000000
0.949589 0.785155 0.000000
0.964100 0.784334 0.000000
0.978360 0.788594 0.000000
0.989059 0.789339 0.000000
1.000000 0.792236 0.000000
1.000000 0.793029 0.158623
0.000000 0.834655 0.000000
0.000000 0.836711 0.000000
0.000000 0.836585 0.000000
0.000000 0.836564 0.000000
0.000000 0.836354 0.000000
0.000000 0.836134 0.000000
0.000000 0.838059 0.000000
0.000000 0.837786 0.000000
0.000000 0.837631 0.000000
0.000000 0.837271 0.000000
0.000000 0.837014 0.000000
0.000000 0.836395 0.000000
0.117611 0.835831 0.000000
0.268091 0.838875 0.000000
0.349227 0.837849 0.000000
0.441660 0.838337 0.000000
0.512718 0.838605 0.000000
0.578045 0.836769 0.000000
0.642113 0.834524 0.000000
0.689395 0.832592 0.000000
