Assets/Lutify-Free-LUTs-Pack/Lutify Free LUTs Pack/Film Tone Pro - Film Tone 3/Lutify.me-FilmTone3-DWG-to-DWG.cube
# Created with: fylm.ai - Colour Grading and Collaboration Software in Cloud 
# Website: https://fylm.ai 
# META
# Option: Gamut compress
# Block 2: colourMatch | Blending Mode: Normal | {"ColorSpace":0,"CrossCovarianceLimit":50,"ReshapingIterations":1,"PercentSaturationShift":100,"PercentShadingShift":100,"ExtraShading":true,"PercentTint":100,"PercentModified":100}
# Block 3: subtractiveColour | Blending Mode: Normal | {"sliders":{"gainY":0.6,"C":0.3,"M":0.3,"Y":0.3}}
# Block 4: LUT | Filmic Curve Response: Low Contrast 2 (100%)
# Block 5: logPrimaries | Blending Mode: Normal | {"wheels":{"shadows":{"Y":"0","R":"1","G":"1","B":"1"},"midtones":{"Y":"0","R":"1","G":"1","B":"1"},"highlights":{"Y":"0","R":"1","G":"1","B":"1"},"offset":{"Y":"0","R":"1","G":"1","B":"1"}},"sliders":{"shadows":{"Y":0,"R":-0.026,"G":0.03,"B":0.1},"midtones":{"Y":0,"R":0.024,"G":-0.036,"B":0.036},"highlights":{"Y":0,"R":0,"G":0.044,"B":-0.128},"offset":{"Y":0,"R":0,"G":0,"B":0}}}
# Block 6: hueSaturation | Blending Mode: Normal | {"hue":0,"saturation":-0.1}
TITLE "dwg" 
LUT_3D_SIZE 9
-0.016000 -0.002293 0.006450
0.080258 -0.007317 0.002178
0.206157 0.014391 0.035436
0.328699 0.080957 0.102527
0.430813 0.170744 0.183250
0.529339 0.280435 0.275115
0.635040 0.393139 0.379916
0.760470 0.503928 0.504277
0.905585 0.622559 0.643568
-0.013616 0.088792 0.016698
0.111299 0.099938 0.029095
0.237474 0.085634 0.058131
0.334280 0.104473 0.108727
0.432711 0.181125 0.185336
0.529551 0.284374 0.275652
0.635041 0.394595 0.379925
0.760470 0.503928 0.504277
0.905543 0.622496 0.643449
0.006218 0.205368 0.053320
0.093030 0.222630 0.067267
0.272874 0.226597 0.106559
0.365432 0.206499 0.143969
0.441278 0.211658 0.194362
0.531060 0.295200 0.277682
0.635087 0.397567 0.380151
0.760427 0.504485 0.504093
0.907883 0.623683 0.645533
0.076289 0.315152 0.120263
0.119452 0.320495 0.127071
0.259901 0.332643 0.153222
0.399469 0.327776 0.197030
0.476187 0.311026 0.236531
0.540810 0.323730 0.287502
0.637515 0.406480 0.382634
0.761596 0.506870 0.504984
0.907925 0.624278 0.645625
0.187394 0.412988 0.201130
0.206687 0.416259 0.205213
0.264144 0.420253 0.213935
0.403421 0.427701 0.247121
0.498372 0.417958 0.282608
0.577138 0.403721 0.328861
0.646907 0.428857 0.390374
0.767442 0.516285 0.509575
0.907968 0.626468 0.645639
0.309908 0.504785 0.287114
0.317902 0.505162 0.288183
0.343449 0.506363 0.291887
0.399946 0.507939 0.301383
0.512267 0.514431 0.336179
0.601341 0.503888 0.374355
0.694459 0.493983 0.437284
0.772377 0.538757 0.513102
0.912903 0.636170 0.650191
0.428129 0.608213 0.387652
0.432273 0.608402 0.388207
0.442796 0.607737 0.388922
0.464175 0.607573 0.391482
0.510377 0.609808 0.400989
0.617253 0.618332 0.437652
0.721282 0.599083 0.483244
0.833270 0.597919 0.569022
0.918639 0.658834 0.655276
0.546680 0.725773 0.503405
0.547729 0.725820 0.503546
0.548778 0.725868 0.503687
0.555225 0.726163 0.504716
0.572561 0.726961 0.507608
0.619906 0.729210 0.516880
0.748739 0.740154 0.561880
0.865322 0.711595 0.617180
0.994984 0.725463 0.725981
0.664820 0.857333 0.632995
0.664820 0.857333 0.632995
0.665873 0.857380 0.633137
0.666926 0.857428 0.633279
0.675347 0.857807 0.634413
0.695785 0.858738 0.637613
0.751333 0.867132 0.653038
0.896792 0.866871 0.697749
1.027754 0.845962 0.772635
-0.020619 0.004941 0.065252
0.075678 0.007830 0.057075
0.201987 0.018538 0.057889
0.321787 0.079079 0.107731
0.429960 0.173980 0.187824
0.530267 0.281040 0.277669
0.635552 0.393862 0.381616
0.760598 0.504130 0.504719
0.905585 0.622559 0.643568
-0.002342 0.094719 0.122546
0.101478 0.113015 0.116482
0.224821 0.079684 0.080786
0.329813 0.105563 0.115018
0.432755 0.182764 0.190105
0.530523 0.285624 0.278312
0.635595 0.395361 0.381748
0.760512 0.503995 0.504424
0.905585 0.622559 0.643568
0.009884 0.209777 0.108686
0.084219 0.224994 0.104335
0.261215 0.235697 0.119046
0.359754 0.210730 0.146675
0.439310 0.216665 0.197979
0.532118 0.298625 0.280648
0.635725 0.399142 0.382154
0.760555 0.504686 0.504535
0.907925 0.623746 0.645651
0.070341 0.315280 0.137586
0.108317 0.323190 0.141967
0.236914 0.338005 0.157681
0.388531 0.335052 0.194668
0.464040 0.320053 0.230757
0.541046 0.329069 0.290390
0.638066 0.407925 0.384125
0.761724 0.507056 0.505418
0.907925 0.624278 0.645625
0.177229 0.417252 0.208658
0.197061 0.418128 0.209931
0.251052 0.422447 0.215713
0.384592 0.428835 0.242635
0.498321 0.416884 0.282138
0.577138 0.403721 0.328861
0.647755 0.432297 0.392348
0.767698 0.516659 0.510444
0.907968 0.626468 0.645639
0.297387 0.508384 0.290153
0.305090 0.509691 0.291523
0.327676 0.510386 0.293735
0.386247 0.511852 0.302183
0.511125 0.514354 0.335719
0.601341 0.503888 0.374355
0.694459 0.493983 0.437284
0.772629 0.538311 0.513598
0.912946 0.636230 0.650308
0.415281 0.612247 0.389993
0.416317 0.612294 0.390132
0.423570 0.612624 0.391103
0.454743 0.609444 0.391875
0.510377 0.609808 0.400989
0.617253 0.618332 0.437652
0.721282 0.599083 0.483244
0.833270 0.597919 0.569022
0.918723 0.658937 0.655462
0.529486 0.729627 0.505250
0.531583 0.729722 0.505531
0.540546 0.726654 0.503619
0.555225 0.726163 0.504716
0.572561 0.726961 0.507608
0.619906 0.729210 0.516880
0.748739 0.740154 0.561880
0.865322 0.711595 0.617180
0.994984 0.725463 0.725981
0.664820 0.857333 0.632995
0.664820 0.857333 0.632995
0.665873 0.857380 0.633137
0.666926 0.857428 0.633279
0.675347 0.857807 0.634413
0.695785 0.858738 0.637613
0.751333 0.867132 0.653038
0.896792 0.866871 0.697749
1.027754 0.845962 0.772635
-0.009417 0.031057 0.133483
0.043700 0.032665 0.126739
0.193805 0.028743 0.105011
0.319562 0.084211 0.149249
0.429042 0.175420 0.205265
0.529761 0.284713 0.285504
0.636790 0.394974 0.386074
0.760939 0.504668 0.505900
0.905670 0.622685 0.643804
0.007595 0.073679 0.178533
0.051026 0.074369 0.169574
0.209857 0.071585 0.153041
0.329727 0.112095 0.168984
0.431235 0.187258 0.208249
0.531179 0.289087 0.287017
0.636834 0.395748 0.386207
0.760939 0.504668 0.505900
0.905670 0.622685 0.643804
0.065502 0.223057 0.269025
0.098767 0.237395 0.265801
0.253203 0.264916 0.269325
0.356130 0.219346 0.214233
0.439397 0.222961 0.217653
0.535263 0.301632 0.291239
0.637006 0.400276 0.386659
0.760982 0.505359 0.506010
0.905670 0.622685 0.643804
0.094788 0.331413 0.260087
0.121760 0.337187 0.255837
0.231595 0.352320 0.248560
0.381268 0.360170 0.242989
0.460613 0.332969 0.247114
0.540131 0.334108 0.298041
0.639557 0.410684 0.388974
0.760982 0.507230 0.505900
0.908052 0.624468 0.645980
0.174593 0.426732 0.257472
0.193699 0.428747 0.257596
0.242796 0.432814 0.257307
0.356569 0.442733 0.262633
0.485333 0.430715 0.281327
0.560340 0.421880 0.323827
0.647576 0.434238 0.395564
0.765787 0.516308 0.509918
0.908095 0.626657 0.645994
0.296141 0.518388 0.312643
0.302627 0.518613 0.312926
0.319620 0.520175 0.313961
0.360672 0.523871 0.316016
0.480973 0.522584 0.330910
0.601341 0.503888 0.374355
0.694415 0.493093 0.437091
0.773560 0.539453 0.515815
0.913073 0.636409 0.650659
0.409306 0.621898 0.401658
0.410207 0.621858 0.401604
0.416036 0.622872 0.402570
0.429136 0.623203 0.402869
0.483251 0.614242 0.399864
0.617253 0.618332 0.437652
0.721282 0.599083 0.483244
0.833270 0.597919 0.569022
0.918892 0.659144 0.655834
0.511122 0.743333 0.516905
0.510995 0.743207 0.516753
0.512699 0.743003 0.516620
0.519559 0.742234 0.516181
0.566056 0.726662 0.506523
0.619906 0.729210 0.516880
0.748739 0.740154 0.561880
0.865322 0.711595 0.617180
0.994984 0.725463 0.725981
0.629201 0.875412 0.646833
0.630185 0.875457 0.646937
0.635607 0.872229 0.644318
0.655404 0.865019 0.639054
0.675347 0.857807 0.634413
0.695785 0.858738 0.637613
0.751333 0.867132 0.653038
0.896792 0.866871 0.697749
1.027754 0.845962 0.772635
0.014942 0.072343 0.197511
0.040808 0.062454 0.181953
0.177069 0.072585 0.185244
0.302109 0.063870 0.145931
0.426718 0.182504 0.269449
0.530995 0.291825 0.316209
0.638446 0.398987 0.399540
0.759764 0.506884 0.508863
0.905883 0.623018 0.644508
0.038754 0.108002 0.239415
0.055944 0.101274 0.227665
0.173796 0.104586 0.224523
0.308908 0.088016 0.187444
0.431822 0.195241 0.278005
0.532365 0.295295 0.317285
0.638489 0.399744 0.399663
0.759764 0.506884 0.508863
0.905883 0.623018 0.644508
0.092275 0.187928 0.311213
0.101616 0.188862 0.304854
0.188298 0.199929 0.306651
0.344474 0.196459 0.297041
0.440427 0.232216 0.295388
0.534564 0.310169 0.321413
0.639870 0.403942 0.401104
0.762058 0.508382 0.510492
0.905883 0.623018 0.644508
0.147624 0.328304 0.374597
0.153278 0.339461 0.370958
0.226877 0.363188 0.374406
0.376289 0.380681 0.376763
0.464816 0.347435 0.338755
0.544531 0.342601 0.331837
0.642761 0.414631 0.404369
0.762143 0.510383 0.510638
0.905925 0.623613 0.644601
0.192388 0.437828 0.373888
0.206331 0.441211 0.374257
0.251447 0.447954 0.372281
0.358923 0.457032 0.367083
0.482731 0.466400 0.362801
0.562993 0.439263 0.358737
0.648244 0.440068 0.409327
0.763567 0.517504 0.511950
0.908350 0.627037 0.646703
0.295807 0.527762 0.373557
0.302601 0.529177 0.374017
0.321999 0.532216 0.374940
0.365552 0.534784 0.373600
0.459181 0.546591 0.377382
0.578173 0.531568 0.375753
0.668045 0.524956 0.429533
0.775432 0.543398 0.521318
0.913412 0.636360 0.651622
0.411814 0.634265 0.433887
0.412630 0.634213 0.433444
0.418306 0.634388 0.433489
0.433084 0.637053 0.434969
0.467688 0.638533 0.433794
0.570508 0.633788 0.433665
0.721234 0.598020 0.482833
0.833227 0.597110 0.568870
0.919441 0.659841 0.657057
0.513739 0.755073 0.533697
0.515728 0.755164 0.533912
0.516529 0.755036 0.533613
0.520575 0.757245 0.535411
0.530369 0.757658 0.534875
0.571441 0.747613 0.525511
0.748739 0.740154 0.561880
0.865322 0.711595 0.617180
0.994984 0.725463 0.725981
0.616522 0.895046 0.665727
0.616479 0.895004 0.665676
0.617274 0.894963 0.665651
0.619631 0.894634 0.665358
0.625059 0.895600 0.666224
0.689883 0.864255 0.641660
0.751333 0.867132 0.653038
0.896792 0.866871 0.697749
1.027754 0.845962 0.772635
0.039175 0.093755 0.225838
0.069066 0.089269 0.218037
0.145305 0.095418 0.221212
0.287665 0.099266 0.211978
0.394749 0.114371 0.204963
0.527773 0.293200 0.378939
0.637228 0.402684 0.427130
0.761636 0.509997 0.518955
0.903440 0.624572 0.645029
0.055788 0.119945 0.258556
0.076978 0.113050 0.248853
0.139935 0.111030 0.242774
0.288426 0.104802 0.220628
0.394749 0.114371 0.204963
0.529536 0.298782 0.383006
0.637409 0.404428 0.428312
0.761636 0.509997 0.518955
0.903440 0.624572 0.645029
0.122819 0.208376 0.349908
0.130622 0.207095 0.346241
0.164767 0.207369 0.344108
0.303190 0.213018 0.346185
0.408821 0.179923 0.298620
0.532036 0.311990 0.388864
0.638744 0.407619 0.429364
0.761679 0.510670 0.519059
0.903440 0.624572 0.645029
0.171130 0.289247 0.405480
0.175805 0.292469 0.402968
0.202468 0.303622 0.405847
0.316696 0.318730 0.410568
0.453049 0.314267 0.403902
0.542212 0.351155 0.404142
0.644130 0.420559 0.434067
0.764056 0.513453 0.520671
0.903440 0.625088 0.644970
0.224232 0.415055 0.461589
0.224334 0.424133 0.459105
0.244587 0.445073 0.461512
0.347281 0.466721 0.467578
0.478464 0.480007 0.469492
0.563660 0.450036 0.438473
0.650394 0.448291 0.442080
0.765694 0.521410 0.522728
0.905907 0.628552 0.647205
0.304189 0.537774 0.470098
0.309165 0.537941 0.468761
0.320934 0.540455 0.466705
0.367770 0.546808 0.466025
0.458375 0.560801 0.465356
0.577169 0.566128 0.463294
0.669779 0.540142 0.467018
0.772696 0.547063 0.530175
0.909627 0.636446 0.650360
0.410098 0.641287 0.481842
0.410876 0.641268 0.481382
0.415476 0.642575 0.481857
0.431701 0.644344 0.482261
0.468466 0.649100 0.483944
0.559426 0.659954 0.488719
0.687533 0.649354 0.490574
0.798777 0.638161 0.556436
0.920712 0.661528 0.660381
0.515153 0.767507 0.561332
0.516071 0.767551 0.561414
0.516989 0.767595 0.561496
0.521361 0.767670 0.561094
0.534902 0.771393 0.562950
0.567490 0.771972 0.562170
0.674592 0.772274 0.564002
0.865322 0.711595 0.617180
0.992514 0.722326 0.723438
0.619518 0.907353 0.681998
0.619518 0.907353 0.681998
0.620381 0.907397 0.682072
0.621091 0.907310 0.681838
0.627608 0.909777 0.684100
0.638707 0.911612 0.685183
0.678294 0.900530 0.673899
0.896792 0.866871 0.697749
1.027754 0.845962 0.772635
0.104421 0.139158 0.280203
0.118704 0.139342 0.279767
0.166705 0.142236 0.281309
0.271255 0.153408 0.289383
0.383635 0.151455 0.270454
0.480977 0.177060 0.274206
0.630790 0.399310 0.474357
0.760809 0.512576 0.538897
0.904818 0.626117 0.651089
0.104421 0.139158 0.280203
0.118704 0.139342 0.279767
0.166705 0.142236 0.281309
0.271255 0.153408 0.289383
0.383569 0.150881 0.269605
0.480977 0.177060 0.274206
0.630875 0.400337 0.474493
0.760809 0.512576 0.538897
0.904818 0.626117 0.651089
0.111124 0.155429 0.299569
0.122430 0.152718 0.295757
0.165429 0.153484 0.294950
0.271255 0.153408 0.289383
0.383569 0.150881 0.269605
0.480977 0.177060 0.274206
0.633558 0.405762 0.475865
0.760894 0.513854 0.539080
0.904818 0.626117 0.651089
0.207541 0.300171 0.439720
0.211502 0.301078 0.439858
0.223516 0.303364 0.439233
0.277604 0.309009 0.442534
0.415972 0.316431 0.445883
0.506848 0.286410 0.413280
0.636036 0.419427 0.484027
0.762231 0.516865 0.540199
0.904860 0.626699 0.651177
0.251756 0.387911 0.490419
0.253542 0.390903 0.488782
0.263163 0.395563 0.489289
0.307792 0.407445 0.493165
0.426455 0.421277 0.498820
0.550294 0.418401 0.492193
0.645603 0.454073 0.498002
0.767499 0.526763 0.545147
0.905072 0.629609 0.651617
0.307121 0.499612 0.550133
0.303279 0.508365 0.545082
0.309479 0.522301 0.544297
0.348501 0.543409 0.549066
0.453506 0.564416 0.552793
0.571375 0.577496 0.556140
0.666555 0.548113 0.530652
0.773725 0.552374 0.553272
0.909090 0.638916 0.655506
0.410671 0.650568 0.559757
0.412711 0.650700 0.559919
0.417016 0.652066 0.560590
0.432144 0.652653 0.558485
0.468398 0.658562 0.558484
0.556884 0.674951 0.560364
0.682219 0.682110 0.564077
0.797055 0.652068 0.582429
0.917515 0.665663 0.664637
0.517139 0.774246 0.594855
0.518010 0.774291 0.594926
0.518882 0.774335 0.594997
0.524234 0.775697 0.595717
0.535105 0.778421 0.597189
0.567514 0.785269 0.600238
0.660023 0.796387 0.607934
0.822194 0.787165 0.626656
0.944901 0.768354 0.696889
0.622237 0.918485 0.701224
0.622237 0.918485 0.701224
0.623087 0.918528 0.701296
0.624787 0.918615 0.701439
0.627983 0.918654 0.701228
0.639343 0.921282 0.703204
0.675810 0.925690 0.706455
0.801082 0.926412 0.712937
1.027665 0.844025 0.772125
0.188848 0.188530 0.335423
0.196304 0.188334 0.334972
0.220633 0.190733 0.336933
0.289273 0.198080 0.342440
0.376390 0.206547 0.345467
0.469724 0.207120 0.327585
0.564322 0.245116 0.344343
0.750273 0.504596 0.571999
0.904502 0.626397 0.662166
0.188848 0.188530 0.335423
0.196304 0.188334 0.334972
0.220633 0.190733 0.336933
0.289273 0.198080 0.342440
0.376390 0.206547 0.345467
0.469724 0.207120 0.327585
0.564322 0.245116 0.344343
0.750273 0.504596 0.571999
0.904502 0.626397 0.662166
0.187706 0.188412 0.335322
0.196304 0.188334 0.334972
0.220633 0.190733 0.336933
0.288325 0.197958 0.342354
0.374256 0.206134 0.345195
0.469724 0.207120 0.327585
0.564322 0.245116 0.344343
0.750412 0.505863 0.572844
0.904502 0.626397 0.662166
0.186564 0.188293 0.335220
0.193878 0.188093 0.334768
0.219207 0.190594 0.336822
0.288325 0.197958 0.342354
0.374256 0.206134 0.345195
0.469724 0.207120 0.327585
0.564322 0.245116 0.344343
0.751880 0.509713 0.574440
0.904631 0.627659 0.662654
0.295081 0.397832 0.529212
0.295446 0.397137 0.527635
0.303553 0.400928 0.529740
0.328636 0.406264 0.532735
0.390250 0.410342 0.532966
0.513638 0.414234 0.533864
0.609516 0.386473 0.506541
0.755319 0.523060 0.580388
0.904844 0.630516 0.663079
0.340188 0.484669 0.580649
0.342038 0.485951 0.581469
0.348279 0.490125 0.583789
0.367158 0.497847 0.584283
0.416181 0.507034 0.586738
0.523550 0.518709 0.588041
0.651916 0.516719 0.583711
0.767032 0.555105 0.595966
0.907906 0.640448 0.666688
0.409098 0.588496 0.655659
0.403021 0.595598 0.648955
0.400077 0.612044 0.643051
0.413539 0.629637 0.644642
0.455078 0.650449 0.645927
0.550574 0.678128 0.651008
0.674821 0.693267 0.652258
0.789452 0.655214 0.630507
0.917795 0.668652 0.677199
0.516274 0.782225 0.664408
0.516925 0.782269 0.664461
0.516925 0.782269 0.664461
0.521702 0.784731 0.664954
0.536244 0.788885 0.666627
0.570013 0.792474 0.664919
0.655047 0.808895 0.666835
0.806313 0.818188 0.676194
0.939920 0.783136 0.710624
0.621377 0.924390 0.723735
0.622110 0.924433 0.723794
0.622110 0.924433 0.723794
0.623629 0.924520 0.723918
0.628576 0.925836 0.724432
0.642380 0.928799 0.726831
0.677210 0.935925 0.731832
0.783260 0.947805 0.743688
0.966884 0.940284 0.773767
0.294771 0.240429 0.390580
0.298951 0.240855 0.390899
0.309452 0.241971 0.391721
0.333526 0.241791 0.390383
0.392693 0.249356 0.394999
0.458921 0.249188 0.386884
0.552243 0.267087 0.386150
0.659441 0.326763 0.423615
0.888600 0.618267 0.685611
0.294771 0.240429 0.390580
0.298951 0.240855 0.390899
0.309452 0.241971 0.391721
0.333526 0.241791 0.390383
0.392693 0.249356 0.394999
0.458921 0.249188 0.386884
0.552243 0.267087 0.386150
0.659441 0.326763 0.423615
0.890925 0.619378 0.686764
0.294771 0.240429 0.390580
0.297279 0.240684 0.390772
0.309452 0.241971 0.391721
0.333526 0.241791 0.390383
0.392693 0.249356 0.394999
0.458921 0.249188 0.386884
0.552243 0.267087 0.386150
0.659441 0.326763 0.423615
0.890925 0.619378 0.686764
0.293935 0.240344 0.390517
0.297279 0.240684 0.390772
0.308535 0.241869 0.391647
0.333526 0.241791 0.390383
0.392693 0.249356 0.394999
0.458921 0.249188 0.386884
0.552243 0.267087 0.386150
0.659441 0.326763 0.423615
0.891010 0.620198 0.686889
0.293100 0.240259 0.390453
0.294771 0.240429 0.390580
0.306699 0.241664 0.391500
0.332606 0.241686 0.390309
0.391656 0.249188 0.394889
0.458921 0.249188 0.386884
0.552189 0.266600 0.385437
0.659441 0.326763 0.423615
0.891322 0.623124 0.688448
0.399453 0.503026 0.629983
0.400440 0.503540 0.630208
0.403996 0.504538 0.630910
0.412540 0.506262 0.632321
0.438261 0.508676 0.631338
0.491965 0.512546 0.631520
0.610720 0.516617 0.633056
0.729578 0.492602 0.605182
0.895832 0.634697 0.695027
0.449998 0.591192 0.689919
0.451046 0.592021 0.690279
0.453986 0.592915 0.691173
0.459450 0.594414 0.689845
0.479146 0.601170 0.691318
0.523044 0.610173 0.692972
0.620699 0.620212 0.692304
0.770219 0.618687 0.688085
0.908883 0.668672 0.710006
0.537335 0.695138 0.785998
0.529547 0.698859 0.777797
0.517335 0.716063 0.764019
0.520594 0.739127 0.763576
0.534214 0.760579 0.762980
0.571754 0.779081 0.766338
0.655948 0.810233 0.769763
0.791876 0.827313 0.767211
0.933845 0.789070 0.751562
0.631290 0.932765 0.791061
0.631290 0.932765 0.791061
0.631894 0.932809 0.791112
0.632498 0.932851 0.791164
0.636530 0.935206 0.790635
0.647341 0.938139 0.791945
0.677974 0.943936 0.790709
0.776567 0.960087 0.794028
0.952782 0.971697 0.812460
0.398208 0.288014 0.438492
0.399204 0.288148 0.438581
0.402191 0.288549 0.438848
0.410173 0.289620 0.439562
0.432976 0.293200 0.441885
0.480690 0.299481 0.444433
0.540177 0.299415 0.434485
0.643034 0.334798 0.447639
0.769756 0.426159 0.518019
0.398208 0.288014 0.438492
0.399204 0.288148 0.438581
0.402191 0.288549 0.438848
0.410173 0.289620 0.439562
0.432976 0.293200 0.441885
0.480690 0.299481 0.444433
0.540177 0.299415 0.434485
0.643034 0.334798 0.447639
0.769756 0.426159 0.518019
0.398208 0.288014 0.438492
0.399204 0.288148 0.438581
0.402191 0.288549 0.438848
0.410173 0.289620 0.439562
0.432976 0.293200 0.441885
0.480690 0.299481 0.444433
0.540177 0.299415 0.434485
0.643034 0.334798 0.447639
0.769756 0.426159 0.518019
0.398208 0.288014 0.438492
0.399204 0.288148 0.438581
0.402191 0.288549 0.438848
0.410173 0.289620 0.439562
0.432976 0.293200 0.441885
0.480690 0.299481 0.444433
0.540177 0.299415 0.434485
0.643034 0.334798 0.447639
0.769756 0.426159 0.518019
0.398208 0.288014 0.438492
0.398208 0.288014 0.438492
0.402191 0.288549 0.438848
0.410173 0.289620 0.439562
0.432976 0.293200 0.441885
0.480690 0.299481 0.444433
0.540177 0.299415 0.434485
0.643034 0.334798 0.447639
0.769756 0.426159 0.518019
0.396216 0.287747 0.438314
0.397212 0.287881 0.438403
0.399204 0.288148 0.438581
0.408166 0.289351 0.439383
0.431931 0.293028 0.441775
0.479607 0.299259 0.444294
0.539049 0.299048 0.434255
0.643034 0.334798 0.447639
0.769756 0.426159 0.518019
0.520989 0.617816 0.750082
0.521519 0.618244 0.750220
0.521994 0.618333 0.750307
0.524663 0.619162 0.750837
0.530786 0.618950 0.749719
0.549734 0.621242 0.749016
0.595645 0.623830 0.748680
0.721343 0.626703 0.748314
0.867271 0.610720 0.720868
0.579973 0.712926 0.819807
0.580115 0.712968 0.819849
0.581039 0.713757 0.820167
0.582887 0.714314 0.820721
0.585119 0.715152 0.817788
0.600938 0.721405 0.818854
0.630959 0.727731 0.816301
0.731946 0.738089 0.814902
0.913022 0.739791 0.811723
0.678779 0.821828 0.928306
0.678779 0.821828 0.928306
0.659680 0.834346 0.908224
0.652071 0.860980 0.898673
0.658407 0.886296 0.900508
0.670964 0.910164 0.902127
0.693725 0.928385 0.900787
0.774058 0.961892 0.905499
0.936948 0.979853 0.905487
