Assets/Lutify-Free-LUTs-Pack/Lutify Free LUTs Pack/Film Tone Pro - Film Tone 3/Lutify.me-FilmTone3-SLog3CineVenice-to-Rec709.cube
# Created with: fylm.ai - Colour Grading and Collaboration Software in Cloud 
# Website: https://fylm.ai 
# META
# Option: Gamut compress
# Block 1: IDT | Sony Venice S-Log3 S-Gamut3.Cine
# Block 2: colourMatch | Blending Mode: Normal | {"ColorSpace":0,"CrossCovarianceLimit":50,"ReshapingIterations":1,"PercentSaturationShift":100,"PercentShadingShift":100,"ExtraShading":true,"PercentTint":100,"PercentModified":100}
# Block 3: subtractiveColour | Blending Mode: Normal | {"sliders":{"gainY":0.6,"C":0.3,"M":0.3,"Y":0.3}}
# Block 4: LUT | Filmic Curve Response: Low Contrast 2 (100%)
# Block 5: logPrimaries | Blending Mode: Normal | {"wheels":{"shadows":{"Y":"0","R":"1","G":"1","B":"1"},"midtones":{"Y":"0","R":"1","G":"1","B":"1"},"highlights":{"Y":"0","R":"1","G":"1","B":"1"},"offset":{"Y":"0","R":"1","G":"1","B":"1"}},"sliders":{"shadows":{"Y":0,"R":-0.026,"G":0.03,"B":0.1},"midtones":{"Y":0,"R":0.024,"G":-0.036,"B":0.036},"highlights":{"Y":0,"R":0,"G":0.044,"B":-0.128},"offset":{"Y":0,"R":0,"G":0,"B":0}}}
# Block 6: hueSaturation | Blending Mode: Normal | {"hue":0,"saturation":-0.1}
# Block 7: ODT | Rec709
TITLE "Lutify.me-FilmTone3-SLog3CineVenice-to-Rec709" 
LUT_3D_SIZE 5
0.000000 0.000000 0.000000
0.120977 0.000000 0.000000
0.478956 0.000000 0.000000
1.000000 0.000000 0.124794
1.000000 0.770540 0.597388
0.000000 0.120549 0.000000
0.166644 0.130765 0.000000
0.542093 0.000000 0.000000
1.000000 0.000000 0.127387
1.000000 0.772338 0.597479
0.000000 0.542265 0.000000
0.000000 0.560088 0.000000
0.679979 0.532714 0.000000
1.000000 0.368745 0.115867
1.000000 0.785975 0.607554
0.000000 0.939438 0.401806
0.000000 0.939984 0.397308
0.474493 0.938440 0.384514
0.960473 0.918724 0.257015
1.000000 0.872917 0.653131
0.859734 1.000000 0.876881
0.861003 1.000000 0.876935
0.867267 1.000000 0.876354
0.914410 1.000000 0.876660
1.000000 1.000000 0.870804
0.000000 0.000000 0.063147
0.102593 0.000000 0.039166
0.469528 0.000000 0.030862
1.000000 0.000000 0.150337
1.000000 0.768805 0.599840
0.000000 0.099813 0.163537
0.115798 0.132215 0.139665
0.535660 0.000000 0.045820
1.000000 0.000000 0.154022
1.000000 0.770614 0.599928
0.000000 0.561450 0.000000
0.000000 0.576560 0.000000
0.657692 0.580875 0.000000
1.000000 0.371949 0.157143
1.000000 0.786043 0.610096
0.000000 0.941164 0.441287
0.000000 0.940441 0.439472
0.475628 0.938743 0.422898
0.960441 0.919346 0.306183
1.000000 0.874110 0.655839
0.859733 1.000000 0.877735
0.861002 1.000000 0.877789
0.867264 1.000000 0.877209
0.914396 1.000000 0.877477
1.000000 1.000000 0.870804
0.000000 0.000000 0.171679
0.059075 0.000000 0.143435
0.447285 0.000000 0.080839
1.000000 0.000000 0.300171
1.000000 0.768251 0.626575
0.000000 0.000000 0.331450
0.000000 0.000000 0.312949
0.471509 0.000000 0.181670
1.000000 0.000000 0.313786
1.000000 0.771559 0.633474
0.000000 0.514847 0.595634
0.000000 0.556930 0.599388
0.594801 0.608253 0.582115
1.000000 0.369530 0.368434
1.000000 0.787234 0.634325
0.000000 0.942828 0.608012
0.000000 0.943156 0.606354
0.454660 0.941339 0.596108
0.948819 0.928826 0.542161
1.000000 0.873456 0.687094
0.859734 1.000000 0.883616
0.859734 1.000000 0.883616
0.864769 1.000000 0.882153
0.914033 1.000000 0.882205
1.000000 1.000000 0.878675
0.151616 0.000000 0.329946
0.199981 0.000000 0.331681
0.459996 0.000000 0.316654
0.947663 0.000000 0.197567
1.000000 0.749189 0.770989
0.136123 0.000000 0.360494
0.195815 0.000000 0.348046
0.459714 0.000000 0.312186
0.947663 0.000000 0.197567
1.000000 0.751238 0.773168
0.000000 0.225394 0.806045
0.000000 0.229669 0.808364
0.326243 0.222681 0.807078
1.000000 0.000000 0.691538
1.000000 0.774182 0.778476
0.000000 0.935316 0.907338
0.000000 0.936095 0.907658
0.000000 0.938058 0.904916
0.916550 0.930299 0.898206
1.000000 0.871481 0.809053
0.854767 1.000000 0.919842
0.854767 1.000000 0.919842
0.862323 1.000000 0.920049
0.909120 1.000000 0.918465
1.000000 1.000000 0.916292
0.726715 0.000000 0.594062
0.730599 0.000000 0.594157
0.768922 0.000000 0.579094
0.940150 0.000000 0.516803
1.000000 0.000000 0.404258
0.726715 0.000000 0.594062
0.730599 0.000000 0.594157
0.768922 0.000000 0.579094
0.940150 0.000000 0.516803
1.000000 0.000000 0.404258
0.730599 0.000000 0.594157
0.738365 0.000000 0.587918
0.768922 0.000000 0.579094
0.945112 0.000000 0.517092
1.000000 0.000000 0.404258
0.382763 0.749282 0.984984
0.398111 0.748834 0.983855
0.495543 0.747161 0.983190
0.848152 0.741858 0.979426
1.000000 0.633058 0.953296
0.785864 1.000000 0.998290
0.787482 1.000000 0.998290
0.800617 1.000000 0.998288
0.874332 1.000000 0.997588
0.998895 1.000000 0.994971
