Assets/Lutify-Free-LUTs-Pack/Lutify Free LUTs Pack/Film Tone Pro - Film Tone 3/Lutify.me-FilmTone3-ProTune-to-Rec709.cube
# Created with: fylm.ai - Colour Grading and Collaboration Software in Cloud 
# Website: https://fylm.ai 
# META
# Option: Gamut compress
# Block 1: IDT | GoPro ProTune Native ProTune Flat
# Block 2: colourMatch | Blending Mode: Normal | {"ColorSpace":0,"CrossCovarianceLimit":50,"ReshapingIterations":1,"PercentSaturationShift":100,"PercentShadingShift":100,"ExtraShading":true,"PercentTint":100,"PercentModified":100}
# Block 3: subtractiveColour | Blending Mode: Normal | {"sliders":{"gainY":0.6,"C":0.3,"M":0.3,"Y":0.3}}
# Block 4: LUT | Filmic Curve Response: Low Contrast 2 (100%)
# Block 5: logPrimaries | Blending Mode: Normal | {"wheels":{"shadows":{"Y":"0","R":"1","G":"1","B":"1"},"midtones":{"Y":"0","R":"1","G":"1","B":"1"},"highlights":{"Y":"0","R":"1","G":"1","B":"1"},"offset":{"Y":"0","R":"1","G":"1","B":"1"}},"sliders":{"shadows":{"Y":0,"R":-0.026,"G":0.03,"B":0.1},"midtones":{"Y":0,"R":0.024,"G":-0.036,"B":0.036},"highlights":{"Y":0,"R":0,"G":0.044,"B":-0.128},"offset":{"Y":0,"R":0,"G":0,"B":0}}}
# Block 6: hueSaturation | Blending Mode: Normal | {"hue":0,"saturation":-0.1}
# Block 7: ODT | Rec709
TITLE "Lutify.me-FilmTone3-ProTune-to-Rec709" 
LUT_3D_SIZE 5
0.000000 0.000000 0.000000
0.069605 0.000000 0.000000
0.178471 0.000000 0.000000
0.355518 0.000000 0.024006
0.638338 0.000000 0.069331
0.000000 0.082967 0.000000
0.090509 0.077792 0.000000
0.223852 0.000000 0.000000
0.388795 0.000000 0.031245
0.661404 0.000000 0.082049
0.000000 0.239926 0.000000
0.068544 0.241396 0.000000
0.328658 0.208633 0.000000
0.488010 0.099862 0.000000
0.713311 0.000000 0.092124
0.000000 0.467036 0.000000
0.228463 0.464033 0.000000
0.427976 0.461058 0.000000
0.668803 0.394273 0.000000
0.805022 0.346083 0.000000
0.497745 0.715744 0.000000
0.520177 0.715320 0.000000
0.604801 0.713341 0.000000
0.764127 0.701732 0.000000
0.908570 0.634124 0.000000
0.000000 0.000000 0.056903
0.053533 0.000000 0.056181
0.175459 0.000000 0.040563
0.352320 0.000000 0.045869
0.633553 0.000000 0.081261
0.000000 0.079952 0.092718
0.067766 0.083509 0.088042
0.216850 0.000000 0.063095
0.391996 0.000000 0.058344
0.663848 0.000000 0.096939
0.000000 0.248540 0.000000
0.000000 0.253088 0.000000
0.291315 0.233901 0.000000
0.492151 0.102627 0.039612
0.713141 0.000000 0.114190
0.000000 0.463941 0.000000
0.222712 0.464049 0.000000
0.419015 0.461315 0.000000
0.632672 0.419401 0.000000
0.809469 0.354552 0.000000
0.497745 0.715744 0.000000
0.520177 0.715320 0.000000
0.604801 0.713341 0.000000
0.764127 0.701732 0.000000
0.904004 0.634144 0.000000
0.000000 0.000000 0.131591
0.000000 0.000000 0.125045
0.171828 0.000000 0.099344
0.349508 0.000000 0.073377
0.630955 0.000000 0.118940
0.000000 0.027650 0.193751
0.000000 0.029302 0.182303
0.205518 0.000000 0.162007
0.383365 0.000000 0.121856
0.658757 0.000000 0.147175
0.000000 0.261079 0.274255
0.000000 0.266724 0.269142
0.236060 0.269998 0.276076
0.489388 0.106137 0.211530
0.719740 0.000000 0.193897
0.000000 0.513498 0.000000
0.000000 0.514983 0.000000
0.110098 0.521106 0.000000
0.576067 0.507480 0.000000
0.808757 0.369571 0.182075
0.488468 0.712802 0.000000
0.520177 0.715320 0.000000
0.604801 0.713341 0.000000
0.765272 0.698521 0.000000
0.870390 0.675455 0.000000
0.000000 0.000000 0.272641
0.000000 0.000000 0.268436
0.113678 0.000000 0.250839
0.358951 0.000000 0.152303
0.601640 0.000000 0.116833
0.000000 0.012820 0.325604
0.000000 0.019293 0.320630
0.107783 0.000000 0.313920
0.401035 0.000000 0.236999
0.629191 0.000000 0.188324
0.000000 0.137964 0.435755
0.000000 0.145326 0.432173
0.110942 0.144802 0.427894
0.496898 0.000000 0.395956
0.719466 0.000000 0.328761
0.000000 0.536864 0.521090
0.000000 0.545122 0.520412
0.000000 0.547745 0.516732
0.514514 0.542815 0.519407
0.804292 0.365492 0.448635
0.000000 0.783486 0.212932
0.000000 0.786010 0.216487
0.209907 0.785262 0.218682
0.521128 0.782169 0.240654
0.825952 0.774416 0.320130
0.000000 0.000000 0.510827
0.000000 0.000000 0.510368
0.000000 0.000000 0.510529
0.302195 0.000000 0.485935
0.609488 0.000000 0.205762
0.000000 0.042170 0.540140
0.000000 0.044928 0.536822
0.000000 0.037547 0.536084
0.315262 0.000000 0.519059
0.640133 0.000000 0.308550
0.000000 0.116536 0.593473
0.000000 0.116995 0.593087
0.000000 0.121352 0.590511
0.347057 0.019768 0.587070
0.739386 0.000000 0.515735
0.000000 0.374843 0.693352
0.000000 0.370454 0.691643
0.000000 0.373171 0.690105
0.354810 0.370361 0.687480
0.823089 0.203565 0.670573
0.000000 0.797157 0.752916
0.000000 0.799460 0.750623
0.000000 0.801188 0.749484
0.414555 0.797934 0.750330
0.772490 0.788247 0.748579
