Assets/Lutify-Free-LUTs-Pack/Lutify Free LUTs Pack/Film Tone Pro - Film Tone 3/Lutify.me-FilmTone3-DJIDLog-to-Rec709.cube
# Created with: fylm.ai - Colour Grading and Collaboration Software in Cloud 
# Website: https://fylm.ai 
# META
# Option: Gamut compress
# Block 1: IDT | DJI D-Gamut D-Log
# Block 2: colourMatch | Blending Mode: Normal | {"ColorSpace":0,"CrossCovarianceLimit":50,"ReshapingIterations":1,"PercentSaturationShift":100,"PercentShadingShift":100,"ExtraShading":true,"PercentTint":100,"PercentModified":100}
# Block 3: subtractiveColour | Blending Mode: Normal | {"sliders":{"gainY":0.6,"C":0.3,"M":0.3,"Y":0.3}}
# Block 4: LUT | Filmic Curve Response: Low Contrast 2 (100%)
# Block 5: logPrimaries | Blending Mode: Normal | {"wheels":{"shadows":{"Y":"0","R":"1","G":"1","B":"1"},"midtones":{"Y":"0","R":"1","G":"1","B":"1"},"highlights":{"Y":"0","R":"1","G":"1","B":"1"},"offset":{"Y":"0","R":"1","G":"1","B":"1"}},"sliders":{"shadows":{"Y":0,"R":-0.026,"G":0.03,"B":0.1},"midtones":{"Y":0,"R":0.024,"G":-0.036,"B":0.036},"highlights":{"Y":0,"R":0,"G":0.044,"B":-0.128},"offset":{"Y":0,"R":0,"G":0,"B":0}}}
# Block 6: hueSaturation | Blending Mode: Normal | {"hue":0,"saturation":-0.1}
# Block 7: ODT | Rec709
TITLE "Lutify.me-FilmTone3-DJIDLog-to-Rec709" 
LUT_3D_SIZE 9
0.000000 0.000000 0.000000
0.000000 0.000000 0.000000
0.148117 0.000000 0.000000
0.292431 0.000000 0.000000
0.547158 0.000000 0.000000
0.858158 0.000000 0.042179
1.000000 0.309595 0.197000
1.000000 0.650187 0.440481
1.000000 0.856079 0.707135
0.000000 0.023710 0.000000
0.000000 0.037825 0.000000
0.179534 0.000000 0.000000
0.324885 0.000000 0.000000
0.569229 0.000000 0.000000
0.869434 0.000000 0.035845
1.000000 0.317880 0.199809
1.000000 0.653113 0.437698
1.000000 0.856079 0.707135
0.000000 0.144538 0.000000
0.000000 0.163168 0.000000
0.234563 0.154556 0.000000
0.401384 0.082748 0.000000
0.605141 0.000000 0.000000
0.881059 0.000000 0.000000
1.000000 0.341971 0.198594
1.000000 0.656141 0.437642
1.000000 0.856079 0.707135
0.000000 0.288750 0.000000
0.000000 0.310229 0.000000
0.168695 0.321437 0.000000
0.475444 0.288229 0.000000
0.676495 0.249521 0.000000
0.896208 0.212483 0.000000
1.000000 0.391145 0.194301
1.000000 0.671168 0.440124
1.000000 0.858679 0.709770
0.000000 0.537867 0.000000
0.000000 0.548099 0.000000
0.000000 0.557045 0.000000
0.374295 0.561054 0.000000
0.741030 0.521328 0.000000
0.916342 0.523267 0.000000
1.000000 0.549425 0.181928
1.000000 0.706729 0.444288
1.000000 0.862744 0.710887
0.000000 0.794853 0.000000
0.000000 0.795006 0.000000
0.000000 0.800167 0.000000
0.000000 0.801564 0.000000
0.603937 0.803029 0.000000
0.897395 0.778752 0.000000
0.996034 0.784669 0.128014
1.000000 0.799174 0.464309
1.000000 0.878452 0.716703
0.000000 0.934420 0.000000
0.043429 0.934105 0.000000
0.245760 0.933291 0.000000
0.387302 0.931576 0.000000
0.589504 0.931183 0.000000
0.832988 0.923934 0.000000
0.972117 0.911543 0.000000
1.000000 0.909529 0.499420
1.000000 0.918647 0.738028
0.702767 0.991222 0.518173
0.705975 0.991104 0.518379
0.709157 0.990986 0.518585
0.724704 0.990400 0.519630
0.762308 0.988902 0.520327
0.829983 0.987707 0.519296
0.932587 0.985206 0.525655
1.000000 0.978839 0.527525
1.000000 0.976089 0.782683
0.880782 1.000000 0.812785
0.881998 1.000000 0.812887
0.881998 1.000000 0.812887
0.883208 1.000000 0.812990
0.887990 1.000000 0.812408
0.900588 1.000000 0.810627
0.936008 1.000000 0.817393
0.984431 1.000000 0.825705
1.000000 1.000000 0.838733
0.000000 0.000000 0.013870
0.000000 0.000000 0.009415
0.141164 0.000000 0.000000
0.281249 0.000000 0.000000
0.544818 0.000000 0.022165
0.857583 0.000000 0.070757
1.000000 0.302690 0.211210
1.000000 0.650305 0.443212
1.000000 0.856124 0.709475
0.000000 0.000000 0.027764
0.000000 0.014712 0.024866
0.159989 0.000000 0.000000
0.308500 0.000000 0.000000
0.560846 0.000000 0.015022
0.862499 0.000000 0.070936
1.000000 0.314774 0.210440
1.000000 0.653347 0.443156
1.000000 0.856124 0.709475
0.000000 0.136302 0.000000
0.000000 0.159673 0.000000
0.204282 0.167494 0.000000
0.376976 0.109542 0.000000
0.607297 0.000000 0.000000
0.878064 0.000000 0.068953
1.000000 0.343110 0.212674
1.000000 0.656374 0.443103
1.000000 0.857406 0.709621
0.000000 0.289811 0.000000
0.000000 0.312608 0.000000
0.000000 0.337070 0.000000
0.429220 0.322843 0.000000
0.665907 0.265033 0.000000
0.899151 0.216159 0.000000
1.000000 0.392246 0.208940
1.000000 0.668330 0.442908
1.000000 0.858679 0.709770
0.000000 0.548939 0.000000
0.000000 0.556315 0.000000
0.000000 0.571365 0.000000
0.247064 0.582914 0.000000
0.705991 0.553234 0.000000
0.913478 0.531258 0.000000
1.000000 0.546749 0.195739
1.000000 0.706832 0.447034
1.000000 0.862786 0.713198
0.000000 0.799688 0.000000
0.000000 0.799912 0.000000
0.000000 0.804977 0.000000
0.000000 0.813379 0.000000
0.570230 0.812561 0.000000
0.891563 0.787820 0.000000
0.994864 0.785216 0.156127
1.000000 0.799313 0.469830
1.000000 0.878488 0.718952
0.000000 0.936173 0.086614
0.082280 0.935751 0.089154
0.251995 0.934931 0.086296
0.391165 0.933207 0.071222
0.592214 0.931713 0.048757
0.826058 0.925916 0.000000
0.972184 0.913535 0.000000
1.000000 0.909592 0.504384
1.000000 0.918672 0.740051
0.703189 0.991685 0.528435
0.703189 0.991685 0.528435
0.709554 0.991450 0.528841
0.725042 0.990865 0.529869
0.762497 0.989366 0.528350
0.829987 0.987733 0.527417
0.932474 0.985250 0.536321
1.000000 0.978904 0.535329
1.000000 0.976089 0.782683
0.880773 1.000000 0.813786
0.881989 1.000000 0.813888
0.881989 1.000000 0.813888
0.883198 1.000000 0.813989
0.887980 1.000000 0.813404
0.900576 1.000000 0.811612
0.935990 1.000000 0.818291
0.983935 1.000000 0.826285
1.000000 1.000000 0.839265
0.000000 0.000000 0.085675
0.000000 0.000000 0.066874
0.131000 0.000000 0.051837
0.275879 0.000000 0.053482
0.544286 0.000000 0.069552
0.863415 0.000000 0.115632
1.000000 0.304456 0.232493
1.000000 0.650890 0.456960
1.000000 0.856169 0.711807
0.000000 0.000000 0.106247
0.000000 0.000000 0.094622
0.140506 0.000000 0.079303
0.305146 0.000000 0.078414
0.563517 0.000000 0.073942
0.867706 0.000000 0.114614
1.000000 0.316801 0.235552
1.000000 0.650890 0.456960
1.000000 0.856169 0.711807
0.000000 0.116171 0.209198
0.000000 0.137665 0.196456
0.149004 0.179824 0.189387
0.369497 0.116173 0.131506
0.600728 0.000000 0.085434
0.879398 0.000000 0.114100
1.000000 0.345085 0.238398
1.000000 0.656952 0.456863
1.000000 0.857450 0.711951
0.000000 0.300567 0.182385
0.000000 0.320982 0.166018
0.000000 0.361701 0.135751
0.395633 0.370275 0.105354
0.670495 0.275954 0.053746
0.903005 0.221345 0.107870
1.000000 0.394434 0.239441
1.000000 0.668782 0.453923
1.000000 0.858723 0.712097
0.000000 0.568097 0.000000
0.000000 0.571935 0.000000
0.000000 0.590520 0.000000
0.117772 0.608989 0.000000
0.686704 0.599983 0.000000
0.910419 0.552837 0.000000
1.000000 0.542180 0.236368
1.000000 0.704520 0.458085
1.000000 0.862829 0.715499
0.000000 0.811630 0.000000
0.000000 0.811607 0.000000
0.000000 0.816468 0.000000
0.000000 0.820257 0.000000
0.566319 0.819339 0.000000
0.886319 0.803963 0.000000
0.991303 0.790966 0.216289
1.000000 0.797642 0.480761
1.000000 0.878559 0.723423
0.000000 0.936977 0.201975
0.000000 0.936705 0.195665
0.213588 0.936041 0.197239
0.351190 0.935730 0.198334
0.579913 0.933005 0.194565
0.824684 0.927915 0.180350
0.970802 0.917001 0.160273
1.000000 0.909748 0.516906
1.000000 0.918698 0.742065
0.703344 0.991720 0.543858
0.703344 0.991720 0.543858
0.709701 0.991484 0.544254
0.719054 0.991133 0.544855
0.759846 0.989520 0.545556
0.829959 0.987781 0.544034
0.932132 0.985711 0.552689
1.000000 0.979064 0.553750
1.000000 0.976107 0.785425
0.880764 1.000000 0.814787
0.880764 1.000000 0.814787
0.881980 1.000000 0.814888
0.883189 1.000000 0.814990
0.887959 1.000000 0.815398
0.900536 1.000000 0.814575
0.934234 1.000000 0.819841
0.983806 1.000000 0.828835
1.000000 1.000000 0.841416
0.000000 0.000000 0.154498
0.000000 0.000000 0.119907
0.104427 0.000000 0.113042
0.271209 0.000000 0.080685
0.534602 0.000000 0.156052
0.867198 0.000000 0.188703
1.000000 0.307382 0.280718
1.000000 0.645223 0.481673
1.000000 0.856302 0.718750
0.000000 0.000000 0.190926
0.000000 0.000000 0.167522
0.097945 0.000000 0.160993
0.290347 0.000000 0.134161
0.565880 0.000000 0.188469
0.872131 0.000000 0.196139
1.000000 0.319722 0.280614
1.000000 0.651933 0.482095
1.000000 0.856302 0.718750
0.000000 0.048494 0.296280
0.000000 0.063662 0.283373
0.045082 0.086790 0.286167
0.370380 0.000000 0.269752
0.603196 0.000000 0.223158
0.880452 0.000000 0.203729
1.000000 0.347605 0.284182
1.000000 0.654966 0.482055
1.000000 0.857583 0.718886
0.000000 0.249473 0.387270
0.000000 0.287338 0.378815
0.000000 0.351501 0.383838
0.346394 0.375556 0.368583
0.657191 0.283666 0.282911
0.896867 0.203693 0.214048
1.000000 0.401199 0.287236
1.000000 0.669790 0.479060
1.000000 0.858854 0.719025
0.000000 0.577459 0.349787
0.000000 0.586050 0.351492
0.000000 0.605399 0.331971
0.000000 0.626132 0.322745
0.667064 0.629407 0.291484
0.910903 0.551916 0.219052
1.000000 0.545839 0.302099
1.000000 0.705442 0.483270
1.000000 0.862955 0.722352
0.000000 0.818385 0.244942
0.000000 0.818573 0.236615
0.000000 0.821297 0.238730
0.000000 0.829013 0.210833
0.526746 0.832591 0.185366
0.877128 0.824216 0.167223
0.990942 0.791643 0.321840
1.000000 0.798196 0.503227
1.000000 0.876431 0.727522
0.000000 0.937828 0.328065
0.000000 0.937530 0.328611
0.000000 0.937952 0.330632
0.329013 0.937291 0.328238
0.573618 0.934415 0.319449
0.826553 0.929208 0.312564
0.967541 0.921931 0.300630
1.000000 0.911093 0.545619
1.000000 0.918775 0.748054
0.700306 0.991896 0.575574
0.703514 0.991778 0.575762
0.709855 0.991543 0.576140
0.719184 0.991192 0.576713
0.760363 0.990883 0.581327
0.829795 0.987855 0.574283
0.929215 0.985943 0.588712
1.000000 0.980130 0.587113
1.000000 0.976134 0.789518
0.879497 1.000000 0.819706
0.880718 1.000000 0.819803
0.880718 1.000000 0.819803
0.882402 1.000000 0.821786
0.887160 1.000000 0.821193
0.898590 1.000000 0.820247
0.933212 1.000000 0.824195
0.982725 1.000000 0.832343
1.000000 1.000000 0.844698
0.000000 0.000000 0.236376
0.000000 0.000000 0.202960
0.028066 0.000000 0.196388
0.254034 0.000000 0.194551
0.470181 0.000000 0.155886
0.863771 0.000000 0.368339
1.000000 0.292841 0.410881
1.000000 0.640896 0.527589
1.000000 0.856569 0.732378
0.000000 0.000000 0.294051
0.000000 0.000000 0.268924
0.000000 0.000000 0.269760
0.250672 0.000000 0.280158
0.509252 0.000000 0.235884
0.869076 0.000000 0.380356
1.000000 0.309344 0.410843
1.000000 0.643986 0.527556
1.000000 0.856569 0.732378
0.000000 0.000000 0.401649
0.000000 0.014229 0.384039
0.000000 0.033884 0.385107
0.241188 0.000000 0.392316
0.598758 0.000000 0.367265
0.878401 0.000000 0.402576
1.000000 0.337647 0.413808
1.000000 0.647061 0.527525
1.000000 0.856569 0.732378
0.000000 0.136911 0.509071
0.000000 0.162157 0.508784
0.000000 0.189519 0.503305
0.206566 0.219936 0.516387
0.668849 0.155242 0.504682
0.900651 0.131435 0.441967
1.000000 0.387784 0.422239
1.000000 0.662880 0.530755
1.000000 0.859115 0.732623
0.000000 0.515108 0.608626
0.000000 0.537329 0.608517
0.000000 0.573539 0.612696
0.000000 0.618880 0.609982
0.626316 0.634583 0.605495
0.897074 0.562567 0.516638
1.000000 0.541058 0.442233
1.000000 0.698767 0.540299
1.000000 0.863207 0.735795
0.000000 0.827213 0.584815
0.000000 0.829765 0.585833
0.000000 0.830505 0.585307
0.000000 0.836461 0.574911
0.478430 0.840357 0.561818
0.857656 0.835756 0.545010
0.986060 0.797654 0.481564
1.000000 0.797381 0.560066
1.000000 0.876650 0.740629
0.000000 0.942095 0.532271
0.000000 0.941805 0.532700
0.000000 0.943193 0.531534
0.287131 0.941462 0.533743
0.554524 0.937667 0.530255
0.807227 0.934658 0.519417
0.958447 0.930069 0.513554
1.000000 0.913724 0.609698
1.000000 0.917258 0.763176
0.693079 0.991785 0.656596
0.699895 0.991983 0.657939
0.706258 0.991748 0.658262
0.715645 0.991397 0.656310
0.756828 0.990656 0.658340
0.826628 0.988079 0.655292
0.924068 0.986273 0.659940
1.000000 0.982466 0.661171
1.000000 0.976558 0.800020
0.876932 1.000000 0.830583
0.876932 1.000000 0.830583
0.878163 1.000000 0.830672
0.879387 1.000000 0.830761
0.883498 1.000000 0.831733
0.897880 1.000000 0.832527
0.931221 1.000000 0.835030
0.981377 1.000000 0.843043
1.000000 1.000000 0.853010
0.000000 0.000000 0.338302
0.000000 0.000000 0.332925
0.000000 0.000000 0.334955
0.148939 0.000000 0.344369
0.483373 0.000000 0.366764
0.779433 0.000000 0.382239
1.000000 0.180195 0.623037
1.000000 0.639605 0.642650
1.000000 0.853409 0.766491
0.000000 0.000000 0.421323
0.000000 0.000000 0.419806
0.000000 0.000000 0.419803
0.113750 0.000000 0.435878
0.501748 0.000000 0.466284
0.813749 0.000000 0.447015
1.000000 0.203404 0.626618
1.000000 0.642828 0.645685
1.000000 0.853409 0.766491
0.000000 0.000000 0.533607
0.000000 0.000000 0.538713
0.000000 0.000000 0.540722
0.000000 0.000000 0.546422
0.508294 0.000000 0.559439
0.851502 0.000000 0.519596
1.000000 0.243914 0.633377
1.000000 0.645934 0.645667
1.000000 0.854707 0.766571
0.000000 0.091910 0.618834
0.000000 0.095855 0.623317
0.000000 0.110417 0.632398
0.000000 0.122113 0.638954
0.513308 0.000000 0.645919
0.898124 0.000000 0.611339
1.000000 0.319568 0.647296
1.000000 0.661873 0.648976
1.000000 0.857320 0.768773
0.000000 0.340807 0.729532
0.000000 0.359150 0.733280
0.000000 0.375626 0.740048
0.000000 0.410919 0.739608
0.462255 0.450118 0.743111
0.913132 0.436899 0.732674
1.000000 0.490688 0.683590
1.000000 0.697917 0.655693
1.000000 0.861101 0.769023
0.000000 0.788225 0.803636
0.000000 0.789802 0.802887
0.000000 0.797657 0.805310
0.000000 0.819833 0.802763
0.333534 0.838759 0.802528
0.822613 0.837424 0.798434
0.966302 0.801437 0.744383
1.000000 0.791508 0.680286
1.000000 0.875049 0.775322
0.000000 0.945005 0.786262
0.000000 0.944751 0.786487
0.000000 0.944210 0.786934
0.000000 0.945817 0.786155
0.465313 0.943092 0.784787
0.776015 0.939109 0.772168
0.935603 0.936846 0.768295
1.000000 0.913805 0.728905
1.000000 0.915013 0.788269
0.676198 0.993698 0.776141
0.676198 0.993698 0.776141
0.682884 0.993463 0.776326
0.693113 0.993523 0.773274
0.730489 0.992960 0.773527
0.807191 0.990189 0.773402
0.914389 0.987883 0.771006
0.994257 0.985511 0.781411
1.000000 0.977925 0.828941
0.872926 1.000000 0.858959
0.872926 1.000000 0.858959
0.875403 1.000000 0.859097
0.876632 1.000000 0.859167
0.880302 1.000000 0.857467
0.894203 1.000000 0.859490
0.928381 1.000000 0.862633
0.980453 1.000000 0.866548
1.000000 1.000000 0.876425
0.000000 0.000000 0.587344
0.000000 0.000000 0.590329
0.000000 0.000000 0.592325
0.000000 0.000000 0.603522
0.349131 0.000000 0.631690
0.806703 0.000000 0.673080
1.000000 0.000000 0.669432
1.000000 0.585277 0.812872
1.000000 0.851840 0.823946
0.000000 0.000000 0.636459
0.000000 0.000000 0.639357
0.000000 0.000000 0.644307
0.000000 0.000000 0.652939
0.329209 0.000000 0.664799
0.801932 0.000000 0.701923
1.000000 0.000000 0.685213
1.000000 0.588496 0.812810
1.000000 0.851840 0.823946
0.000000 0.000000 0.692922
0.000000 0.000000 0.698282
0.000000 0.000000 0.699618
0.000000 0.000000 0.705329
0.332110 0.000000 0.719800
0.803692 0.000000 0.735568
1.000000 0.000000 0.717876
1.000000 0.595024 0.814714
1.000000 0.851840 0.823946
0.000000 0.092847 0.761981
0.000000 0.097155 0.761487
0.000000 0.099639 0.765325
0.000000 0.108773 0.771846
0.306805 0.080685 0.778745
0.808981 0.000000 0.784520
1.000000 0.000000 0.755959
1.000000 0.608637 0.816566
1.000000 0.853209 0.825654
0.000000 0.256814 0.827889
0.000000 0.263898 0.829318
0.000000 0.271975 0.829753
0.000000 0.286834 0.831269
0.261851 0.306119 0.832828
0.821055 0.269566 0.833534
1.000000 0.251970 0.811714
1.000000 0.650767 0.821648
1.000000 0.859679 0.825779
0.000000 0.623531 0.881315
0.000000 0.624676 0.881862
0.000000 0.630212 0.881295
0.000000 0.646738 0.879534
0.000000 0.685712 0.878056
0.729737 0.710074 0.875454
0.985615 0.721057 0.868635
1.000000 0.762538 0.836589
1.000000 0.873890 0.831836
0.000000 0.933142 0.908481
0.000000 0.934160 0.908576
0.000000 0.935026 0.908796
0.000000 0.935311 0.909339
0.000000 0.936533 0.907288
0.722311 0.937229 0.906047
0.921524 0.934681 0.905038
1.000000 0.915812 0.867630
1.000000 0.913541 0.846142
0.619041 0.995785 0.901314
0.623005 0.995661 0.901345
0.630789 0.995416 0.901408
0.645801 0.994933 0.901534
0.691283 0.994596 0.900177
0.790197 0.992254 0.897734
0.897537 0.989894 0.893019
0.983775 0.987824 0.893080
1.000000 0.977784 0.876812
0.869336 1.000000 0.903205
0.869336 1.000000 0.903205
0.870557 1.000000 0.903248
0.871773 1.000000 0.903291
0.876578 1.000000 0.902672
0.890012 1.000000 0.903345
0.925772 1.000000 0.903432
0.975006 1.000000 0.904323
1.000000 1.000000 0.912981
0.000000 0.000000 0.837154
0.000000 0.000000 0.837928
0.000000 0.000000 0.839404
0.000000 0.000000 0.841017
0.318728 0.000000 0.842111
0.649833 0.000000 0.849942
1.000000 0.000000 0.869318
1.000000 0.000000 0.860647
1.000000 0.824952 0.914064
0.000000 0.000000 0.849260
0.000000 0.000000 0.849779
0.000000 0.000000 0.850965
0.000000 0.000000 0.850782
0.318029 0.000000 0.853643
0.659338 0.000000 0.856859
1.000000 0.000000 0.875239
1.000000 0.000000 0.864410
1.000000 0.824952 0.914064
0.000000 0.057905 0.865384
0.000000 0.059953 0.865918
0.000000 0.051421 0.866905
0.000000 0.033420 0.866377
0.313022 0.000000 0.867324
0.661214 0.000000 0.869638
1.000000 0.000000 0.882767
1.000000 0.000000 0.870096
1.000000 0.826584 0.916042
0.000000 0.137915 0.886193
0.000000 0.137364 0.886569
0.000000 0.135474 0.887449
0.000000 0.143362 0.887086
0.289030 0.132964 0.887606
0.666972 0.000000 0.887364
1.000000 0.000000 0.893395
1.000000 0.191243 0.877380
1.000000 0.828921 0.916119
0.000000 0.274967 0.918972
0.000000 0.277233 0.919187
0.000000 0.281546 0.916878
0.000000 0.290173 0.916206
0.212810 0.300673 0.917411
0.631711 0.295749 0.915233
1.000000 0.276034 0.914455
1.000000 0.375802 0.896949
1.000000 0.836295 0.916878
0.000000 0.525491 0.939692
0.000000 0.525564 0.938687
0.000000 0.526100 0.938903
0.000000 0.530190 0.938171
0.000000 0.556455 0.936972
0.563872 0.572158 0.935738
0.973704 0.581938 0.932473
1.000000 0.621962 0.920327
1.000000 0.856594 0.918444
0.000000 0.852442 0.954262
0.000000 0.852432 0.954310
0.000000 0.856173 0.954195
0.000000 0.857833 0.954245
0.000000 0.858364 0.954502
0.494524 0.869308 0.950916
0.876400 0.872877 0.949551
1.000000 0.880527 0.944910
1.000000 0.901580 0.926134
0.319195 0.993719 0.969431
0.338969 0.993470 0.969443
0.357364 0.993220 0.969454
0.410098 0.993381 0.969459
0.529006 0.993719 0.968447
0.693175 0.990969 0.967117
0.874800 0.988968 0.966497
0.974842 0.987663 0.961640
1.000000 0.977391 0.947318
0.856005 1.000000 0.965364
0.856005 1.000000 0.965364
0.856005 1.000000 0.965364
0.858488 1.000000 0.965395
0.862125 1.000000 0.964486
0.874029 1.000000 0.963681
0.911170 1.000000 0.963355
0.966661 1.000000 0.962216
1.000000 1.000000 0.961312
0.296694 0.168663 0.958392
0.306292 0.167530 0.958392
0.325222 0.165091 0.958388
0.371658 0.157806 0.958344
0.469331 0.140275 0.958121
0.668245 0.063182 0.956271
0.938488 0.000000 0.957924
1.000000 0.262065 0.963064
1.000000 0.549486 0.950710
0.290715 0.176085 0.961427
0.304729 0.178883 0.961419
0.323881 0.176676 0.961413
0.366127 0.170719 0.960370
0.468880 0.154986 0.960131
0.668086 0.101907 0.957270
0.937951 0.000000 0.958834
1.000000 0.272319 0.964646
1.000000 0.551943 0.950646
0.292057 0.197626 0.964324
0.301978 0.196741 0.964322
0.321485 0.194841 0.964314
0.363872 0.194461 0.964251
0.459022 0.181771 0.964027
0.663544 0.148625 0.961159
0.937108 0.000000 0.962438
1.000000 0.300116 0.965181
1.000000 0.562999 0.951268
0.279980 0.249276 0.968650
0.295916 0.248372 0.968648
0.311475 0.247402 0.968643
0.356669 0.244051 0.968603
0.449958 0.236835 0.968390
0.648198 0.231022 0.966444
0.934138 0.196757 0.965581
1.000000 0.347442 0.967759
1.000000 0.579715 0.954181
0.255972 0.346203 0.978109
0.268966 0.345886 0.978105
0.293758 0.345023 0.977284
0.344079 0.346049 0.977173
0.433458 0.350154 0.976008
0.631726 0.352565 0.973323
0.916581 0.343688 0.973046
1.000000 0.446209 0.971896
1.000000 0.637039 0.957231
0.000000 0.548480 0.984933
0.036982 0.548434 0.984932
0.140481 0.548282 0.984927
0.228852 0.551097 0.984770
0.361592 0.562296 0.982809
0.582637 0.566497 0.982014
0.868173 0.572932 0.980266
1.000000 0.622688 0.977816
1.000000 0.723616 0.964139
0.000000 0.782693 0.989235
0.000000 0.785087 0.988575
0.000000 0.784944 0.988569
0.000000 0.784675 0.988555
0.218749 0.786049 0.987839
0.523245 0.794275 0.986879
0.804556 0.799010 0.984127
1.000000 0.814744 0.981846
1.000000 0.842531 0.972964
0.269237 0.953680 0.993318
0.282800 0.953550 0.993313
0.296058 0.954273 0.993250
0.341525 0.953739 0.993229
0.431898 0.954025 0.993059
0.611210 0.953835 0.992628
0.791213 0.952061 0.991214
0.952215 0.954475 0.989703
1.000000 0.959864 0.987744
0.781515 1.000000 0.999050
0.781515 1.000000 0.999050
0.783190 1.000000 0.999049
0.786395 1.000000 0.999042
0.798757 1.000000 0.998670
0.823915 1.000000 0.998673
0.876111 1.000000 0.997781
0.954256 1.000000 0.997325
0.999694 1.000000 0.995865
