Assets/Lutify-Free-LUTs-Pack/Lutify Free LUTs Pack/Film Tone Pro - Film Tone 3/Lutify.me-FilmTone3-CanonLog2-to-Rec709.cube
# Created with: fylm.ai - Colour Grading and Collaboration Software in Cloud 
# Website: https://fylm.ai 
# META
# Option: Gamut compress
# Block 1: IDT | CanonLog2 Cinema Gamut Daylight
# Block 2: colourMatch | Blending Mode: Normal | {"ColorSpace":0,"CrossCovarianceLimit":50,"ReshapingIterations":1,"PercentSaturationShift":100,"PercentShadingShift":100,"ExtraShading":true,"PercentTint":100,"PercentModified":100}
# Block 3: subtractiveColour | Blending Mode: Normal | {"sliders":{"gainY":0.6,"C":0.3,"M":0.3,"Y":0.3}}
# Block 4: LUT | Filmic Curve Response: Low Contrast 2 (100%)
# Block 5: logPrimaries | Blending Mode: Normal | {"wheels":{"shadows":{"Y":"0","R":"1","G":"1","B":"1"},"midtones":{"Y":"0","R":"1","G":"1","B":"1"},"highlights":{"Y":"0","R":"1","G":"1","B":"1"},"offset":{"Y":"0","R":"1","G":"1","B":"1"}},"sliders":{"shadows":{"Y":0,"R":-0.026,"G":0.03,"B":0.1},"midtones":{"Y":0,"R":0.024,"G":-0.036,"B":0.036},"highlights":{"Y":0,"R":0,"G":0.044,"B":-0.128},"offset":{"Y":0,"R":0,"G":0,"B":0}}}
# Block 6: hueSaturation | Blending Mode: Normal | {"hue":0,"saturation":-0.1}
# Block 7: ODT | Rec709
TITLE "Lutify.me-FilmTone3-CanonLog2-to-Rec709" 
LUT_3D_SIZE 9
0.000000 0.000000 0.000000
0.000000 0.000000 0.000000
0.133902 0.000000 0.000000
0.291661 0.000000 0.000000
0.568043 0.000000 0.000000
0.905895 0.000000 0.082782
1.000000 0.241017 0.262428
1.000000 0.642408 0.535179
1.000000 0.864495 0.782538
0.000000 0.025408 0.000000
0.000000 0.030118 0.000000
0.151348 0.000000 0.000000
0.318561 0.000000 0.000000
0.586371 0.000000 0.000000
0.910132 0.000000 0.081531
1.000000 0.250930 0.262537
1.000000 0.645267 0.535160
1.000000 0.866620 0.782690
0.000000 0.124173 0.000000
0.000000 0.132900 0.000000
0.194833 0.128737 0.000000
0.386005 0.000000 0.000000
0.617952 0.000000 0.000000
0.914629 0.000000 0.078772
1.000000 0.269811 0.260841
1.000000 0.648004 0.532370
1.000000 0.866620 0.782690
0.000000 0.284064 0.000000
0.000000 0.302020 0.000000
0.000000 0.325566 0.000000
0.479653 0.275799 0.000000
0.704988 0.160617 0.000000
0.936032 0.000000 0.039275
1.000000 0.338845 0.258619
1.000000 0.656487 0.532318
1.000000 0.867672 0.782768
0.000000 0.547620 0.000000
0.000000 0.556262 0.000000
0.000000 0.569631 0.000000
0.346888 0.574374 0.000000
0.797056 0.518036 0.000000
0.947682 0.481648 0.000000
1.000000 0.481843 0.241504
1.000000 0.691104 0.525778
1.000000 0.871816 0.783092
0.000000 0.803935 0.000000
0.000000 0.804454 0.000000
0.000000 0.805095 0.000000
0.000000 0.807334 0.000000
0.728853 0.798803 0.000000
0.963335 0.750518 0.000000
1.000000 0.769079 0.000000
1.000000 0.781685 0.528364
1.000000 0.884011 0.786339
0.015745 0.935894 0.000000
0.170559 0.935568 0.000000
0.258747 0.934999 0.000000
0.412207 0.933098 0.000000
0.660871 0.926919 0.000000
0.919386 0.918941 0.000000
1.000000 0.889232 0.000000
1.000000 0.910888 0.450137
1.000000 0.916012 0.791614
0.758161 0.989370 0.207155
0.760962 0.989256 0.207691
0.763741 0.989143 0.208227
0.771939 0.988805 0.209856
0.814542 0.986974 0.219592
0.895081 0.983242 0.248746
0.996764 0.979232 0.358145
1.000000 0.962520 0.505951
1.000000 0.980147 0.785147
0.925134 1.000000 0.662171
0.925134 1.000000 0.662171
0.926095 1.000000 0.662461
0.927060 1.000000 0.656308
0.931755 1.000000 0.657830
0.946705 1.000000 0.663338
0.979702 1.000000 0.681789
1.000000 1.000000 0.763829
1.000000 0.997902 0.851937
0.000000 0.000000 0.016954
0.000000 0.000000 0.011823
0.127074 0.000000 0.000000
0.280513 0.000000 0.000000
0.567656 0.000000 0.024420
0.907777 0.000000 0.097462
1.000000 0.241694 0.270079
1.000000 0.642408 0.535179
1.000000 0.864495 0.782538
0.000000 0.000000 0.019140
0.000000 0.000000 0.011740
0.134759 0.000000 0.000000
0.302491 0.000000 0.000000
0.583457 0.000000 0.024589
0.911892 0.000000 0.096720
1.000000 0.251590 0.270206
1.000000 0.642408 0.535179
1.000000 0.864495 0.782538
0.000000 0.114819 0.000000
0.000000 0.123807 0.000000
0.160426 0.131238 0.000000
0.361148 0.000000 0.000000
0.608765 0.000000 0.000000
0.916272 0.000000 0.094986
1.000000 0.269249 0.269757
1.000000 0.648116 0.535141
1.000000 0.866620 0.782690
0.000000 0.278001 0.000000
0.000000 0.300334 0.000000
0.000000 0.324525 0.000000
0.454718 0.287658 0.000000
0.688658 0.191554 0.000000
0.932599 0.000000 0.078387
1.000000 0.331891 0.268780
1.000000 0.656598 0.535091
1.000000 0.867672 0.782768
0.000000 0.543675 0.000000
0.000000 0.555940 0.000000
0.000000 0.569353 0.000000
0.340967 0.574435 0.000000
0.790409 0.515024 0.000000
0.948733 0.496728 0.000000
1.000000 0.482511 0.251904
1.000000 0.691207 0.528528
1.000000 0.871816 0.783092
0.000000 0.803884 0.000000
0.000000 0.804411 0.000000
0.000000 0.805068 0.000000
0.000000 0.807369 0.000000
0.728853 0.798803 0.000000
0.963335 0.750518 0.000000
1.000000 0.770461 0.000000
1.000000 0.779785 0.530969
1.000000 0.884011 0.786339
0.015745 0.935894 0.000000
0.143885 0.935678 0.000000
0.258747 0.934999 0.000000
0.412207 0.933098 0.000000
0.660871 0.926919 0.000000
0.917755 0.919005 0.000000
1.000000 0.889232 0.000000
1.000000 0.911050 0.460425
1.000000 0.916012 0.791614
0.758161 0.989370 0.207155
0.758161 0.989370 0.207155
0.763741 0.989143 0.208227
0.771939 0.988805 0.209856
0.814542 0.986974 0.219592
0.895081 0.983242 0.248746
0.996764 0.979232 0.358145
1.000000 0.961976 0.504577
1.000000 0.980147 0.785147
0.925130 1.000000 0.655711
0.925130 1.000000 0.655711
0.926099 1.000000 0.656008
0.927060 1.000000 0.656308
0.931755 1.000000 0.657830
0.946705 1.000000 0.663338
0.979702 1.000000 0.681789
1.000000 1.000000 0.763829
1.000000 0.997902 0.851937
0.000000 0.000000 0.078078
0.000000 0.000000 0.060879
0.112591 0.000000 0.046428
0.282090 0.000000 0.039461
0.562750 0.000000 0.056997
0.911112 0.000000 0.125141
1.000000 0.238019 0.281997
1.000000 0.642747 0.543526
1.000000 0.864537 0.784281
0.000000 0.000000 0.094110
0.000000 0.000000 0.080375
0.115119 0.000000 0.064005
0.294868 0.000000 0.055837
0.586999 0.000000 0.062935
0.912024 0.000000 0.124775
1.000000 0.247310 0.281819
1.000000 0.642747 0.543526
1.000000 0.864537 0.784281
0.000000 0.096815 0.167281
0.000000 0.109687 0.157972
0.118063 0.136543 0.143061
0.349384 0.000000 0.079165
0.612675 0.000000 0.064006
0.919623 0.000000 0.125057
1.000000 0.270188 0.281672
1.000000 0.645605 0.543509
1.000000 0.866661 0.784429
0.000000 0.287949 0.000000
0.000000 0.301674 0.000000
0.000000 0.342575 0.000000
0.401379 0.338825 0.000000
0.688533 0.203996 0.000000
0.930009 0.000000 0.118355
1.000000 0.333035 0.285078
1.000000 0.656708 0.537871
1.000000 0.867713 0.784504
0.000000 0.544059 0.000000
0.000000 0.552892 0.000000
0.000000 0.573225 0.000000
0.127262 0.591555 0.000000
0.769249 0.536612 0.000000
0.945214 0.507824 0.000000
1.000000 0.480228 0.271429
1.000000 0.691412 0.534045
1.000000 0.871855 0.784820
0.000000 0.803672 0.000000
0.000000 0.804321 0.000000
0.000000 0.805009 0.000000
0.000000 0.807404 0.000000
0.724629 0.798953 0.000000
0.963335 0.750518 0.000000
1.000000 0.778997 0.069021
1.000000 0.779858 0.533698
1.000000 0.884046 0.788006
0.000000 0.936000 0.000000
0.143885 0.935678 0.000000
0.244328 0.935115 0.000000
0.403962 0.933234 0.000000
0.656293 0.927070 0.000000
0.917755 0.919005 0.000000
1.000000 0.889232 0.000000
1.000000 0.912100 0.470699
1.000000 0.916039 0.793164
0.758161 0.989370 0.207155
0.758161 0.989370 0.207155
0.763741 0.989143 0.208227
0.771939 0.988805 0.209856
0.814542 0.986974 0.219592
0.895081 0.983242 0.248746
0.996764 0.979232 0.358145
1.000000 0.961976 0.504577
1.000000 0.980155 0.786243
0.925130 1.000000 0.655711
0.925130 1.000000 0.655711
0.926099 1.000000 0.656008
0.927060 1.000000 0.656308
0.931755 1.000000 0.657830
0.946705 1.000000 0.663338
0.979702 1.000000 0.681789
1.000000 1.000000 0.763829
1.000000 0.997902 0.851937
0.000000 0.000000 0.174290
0.000000 0.000000 0.116186
0.069197 0.000000 0.102116
0.275013 0.000000 0.061185
0.538225 0.000000 0.116112
0.910930 0.000000 0.193903
1.000000 0.231142 0.315858
1.000000 0.639348 0.551385
1.000000 0.864579 0.786011
0.000000 0.000000 0.196411
0.000000 0.000000 0.160636
0.051459 0.000000 0.145624
0.280495 0.000000 0.096734
0.569182 0.000000 0.149027
0.915474 0.000000 0.200208
1.000000 0.241095 0.322480
1.000000 0.642226 0.551367
1.000000 0.864579 0.786011
0.000000 0.000000 0.278644
0.000000 0.024350 0.259525
0.000000 0.038271 0.244247
0.329536 0.000000 0.205875
0.612031 0.000000 0.192430
0.923252 0.000000 0.203999
1.000000 0.254838 0.322332
1.000000 0.645093 0.551350
1.000000 0.866702 0.786156
0.000000 0.232043 0.395381
0.000000 0.260484 0.381969
0.000000 0.317624 0.368642
0.329522 0.361824 0.357469
0.682137 0.191083 0.252677
0.933637 0.000000 0.210240
1.000000 0.327238 0.324520
1.000000 0.654444 0.551864
1.000000 0.867753 0.786229
0.000000 0.570850 0.217798
0.000000 0.583500 0.208716
0.000000 0.610982 0.190631
0.000000 0.644907 0.155479
0.697957 0.648211 0.116545
0.946917 0.521446 0.173948
1.000000 0.483124 0.322149
1.000000 0.685827 0.544545
1.000000 0.871894 0.786537
0.000000 0.808316 0.000000
0.000000 0.809170 0.000000
0.000000 0.817344 0.000000
0.000000 0.825382 0.000000
0.556569 0.820084 0.000000
0.937610 0.773268 0.000000
1.000000 0.787071 0.241039
1.000000 0.780291 0.550182
1.000000 0.884081 0.789663
0.000000 0.936208 0.000000
0.015745 0.935894 0.000000
0.228742 0.935230 0.000000
0.395539 0.933369 0.000000
0.646965 0.927373 0.000000
0.917755 0.919005 0.000000
1.000000 0.889232 0.000000
1.000000 0.914380 0.501649
1.000000 0.916066 0.794710
0.755336 0.989485 0.206622
0.758161 0.989370 0.207155
0.760962 0.989256 0.207691
0.769230 0.988917 0.209311
0.812216 0.987077 0.218995
0.895081 0.983242 0.248746
0.996764 0.979232 0.358145
1.000000 0.961976 0.504577
1.000000 0.980889 0.791705
0.925130 1.000000 0.655711
0.925130 1.000000 0.655711
0.926099 1.000000 0.656008
0.927060 1.000000 0.656308
0.931755 1.000000 0.657830
0.946705 1.000000 0.663338
0.979130 1.000000 0.681339
1.000000 1.000000 0.763829
1.000000 0.997902 0.851937
0.000000 0.000000 0.272528
0.000000 0.000000 0.186660
0.000000 0.000000 0.168955
0.245683 0.000000 0.152906
0.499260 0.000000 0.095839
0.880259 0.000000 0.341982
1.000000 0.200832 0.438107
1.000000 0.630651 0.585912
1.000000 0.863719 0.794428
0.000000 0.000000 0.303775
0.000000 0.000000 0.259929
0.000000 0.000000 0.231793
0.241994 0.000000 0.213370
0.499260 0.000000 0.095839
0.893869 0.000000 0.357174
1.000000 0.211383 0.438164
1.000000 0.632379 0.586883
1.000000 0.863719 0.794428
0.000000 0.000000 0.405610
0.000000 0.000000 0.373802
0.000000 0.000000 0.354316
0.214741 0.000000 0.343491
0.526182 0.000000 0.217248
0.913609 0.000000 0.376678
1.000000 0.237091 0.441402
1.000000 0.638223 0.586855
1.000000 0.864788 0.794489
0.000000 0.080556 0.541429
0.000000 0.104412 0.521630
0.000000 0.129179 0.509489
0.143533 0.158109 0.510491
0.678114 0.000000 0.470836
0.936687 0.000000 0.428947
1.000000 0.311456 0.444728
1.000000 0.647832 0.590195
1.000000 0.866907 0.794615
0.000000 0.435675 0.657528
0.000000 0.480667 0.640660
0.000000 0.551147 0.625252
0.000000 0.623554 0.630954
0.638190 0.651284 0.618721
0.933339 0.502401 0.509819
1.000000 0.466586 0.457246
1.000000 0.684889 0.592686
1.000000 0.870036 0.794811
0.000000 0.842266 0.487170
0.000000 0.845411 0.483112
0.000000 0.850803 0.480066
0.000000 0.854869 0.471811
0.392494 0.864278 0.461936
0.880997 0.856368 0.444160
1.000000 0.794662 0.455393
1.000000 0.777460 0.594807
1.000000 0.883579 0.796787
0.000000 0.953022 0.000000
0.000000 0.952835 0.000000
0.000000 0.952474 0.000000
0.000000 0.951051 0.000000
0.391433 0.950196 0.000000
0.821755 0.938441 0.000000
0.992934 0.916965 0.000000
1.000000 0.915364 0.592265
1.000000 0.916201 0.802384
0.746724 0.989830 0.205043
0.752489 0.989599 0.206094
0.755336 0.989485 0.206622
0.769230 0.988917 0.209311
0.807497 0.987285 0.217808
0.893532 0.983317 0.247984
0.996764 0.979232 0.358145
1.000000 0.961901 0.499624
1.000000 0.981330 0.805379
0.924154 1.000000 0.655415
0.925130 1.000000 0.655711
0.925130 1.000000 0.655711
0.926099 1.000000 0.656008
0.931755 1.000000 0.657830
0.946705 1.000000 0.663338
0.979130 1.000000 0.681339
1.000000 1.000000 0.763829
1.000000 0.997902 0.851937
0.000000 0.000000 0.325197
0.000000 0.000000 0.275900
0.000000 0.000000 0.266690
0.174280 0.000000 0.268921
0.466297 0.000000 0.214472
0.778552 0.000000 0.149621
1.000000 0.000000 0.618772
1.000000 0.615514 0.685643
1.000000 0.861191 0.814658
0.000000 0.000000 0.353004
0.000000 0.000000 0.305176
0.000000 0.000000 0.286782
0.174280 0.000000 0.268921
0.466297 0.000000 0.214472
0.778552 0.000000 0.149621
1.000000 0.000000 0.619327
1.000000 0.621471 0.685618
1.000000 0.861191 0.814658
0.000000 0.000000 0.496378
0.000000 0.000000 0.455269
0.000000 0.000000 0.438108
0.035078 0.000000 0.428462
0.483874 0.000000 0.330924
0.778552 0.000000 0.149621
1.000000 0.000000 0.626515
1.000000 0.624647 0.691404
1.000000 0.861191 0.814658
0.000000 0.000000 0.664873
0.000000 0.030745 0.639180
0.000000 0.055622 0.631040
0.000000 0.075232 0.637099
0.491279 0.000000 0.632377
0.877009 0.000000 0.495766
1.000000 0.141329 0.648253
1.000000 0.640270 0.691673
1.000000 0.862324 0.816298
0.000000 0.230987 0.783109
0.000000 0.263126 0.764100
0.000000 0.303083 0.755893
0.000000 0.348940 0.760200
0.427394 0.389627 0.759810
0.959406 0.229133 0.724243
1.000000 0.399155 0.692778
1.000000 0.676055 0.697929
1.000000 0.868520 0.817337
0.000000 0.687299 0.848909
0.000000 0.715872 0.840053
0.000000 0.766983 0.824746
0.000000 0.827910 0.823474
0.000000 0.859066 0.822947
0.838995 0.855028 0.817280
0.998845 0.781891 0.744919
1.000000 0.775245 0.715321
1.000000 0.882167 0.818876
0.000000 0.963486 0.737659
0.000000 0.963260 0.738243
0.000000 0.964768 0.739260
0.000000 0.964392 0.739122
0.179630 0.961356 0.734446
0.760704 0.955882 0.719634
0.957822 0.950361 0.725935
1.000000 0.919452 0.736300
1.000000 0.914976 0.823079
0.622144 1.000000 0.475078
0.625938 1.000000 0.475274
0.629695 1.000000 0.475470
0.644348 1.000000 0.476262
0.693816 1.000000 0.472378
0.796462 1.000000 0.483608
0.936796 0.994033 0.495205
1.000000 0.984373 0.513781
1.000000 0.981568 0.839282
0.922178 1.000000 0.654828
0.922178 1.000000 0.654828
0.922178 1.000000 0.654828
0.925130 1.000000 0.655711
0.929896 1.000000 0.657216
0.944179 1.000000 0.662327
0.978553 1.000000 0.680892
1.000000 1.000000 0.763829
1.000000 0.997902 0.851937
0.000000 0.000000 0.386152
0.000000 0.000000 0.381711
0.000000 0.000000 0.381567
0.136956 0.000000 0.383917
0.437739 0.000000 0.394112
0.735504 0.000000 0.303439
1.000000 0.000000 0.236593
1.000000 0.470282 0.823653
1.000000 0.854156 0.861894
0.000000 0.000000 0.386152
0.000000 0.000000 0.381525
0.000000 0.000000 0.381383
0.136956 0.000000 0.383917
0.437739 0.000000 0.394112
0.735504 0.000000 0.303439
1.000000 0.000000 0.236593
1.000000 0.476290 0.825568
1.000000 0.854156 0.861894
0.000000 0.000000 0.388624
0.000000 0.000000 0.381432
0.000000 0.000000 0.381383
0.133262 0.000000 0.383756
0.434500 0.000000 0.394034
0.735504 0.000000 0.303439
1.000000 0.000000 0.236593
1.000000 0.488150 0.825463
1.000000 0.855310 0.861897
0.000000 0.000000 0.738648
0.000000 0.000000 0.735541
0.000000 0.000000 0.734300
0.000000 0.000000 0.737166
0.291515 0.000000 0.716888
0.783613 0.000000 0.542984
1.000000 0.000000 0.234969
1.000000 0.517451 0.829272
1.000000 0.856458 0.861901
0.000000 0.184553 0.850830
0.000000 0.188957 0.852389
0.000000 0.204704 0.847470
0.000000 0.228367 0.851406
0.167644 0.249438 0.852470
0.827201 0.051352 0.845060
1.000000 0.000000 0.765264
1.000000 0.594523 0.837662
1.000000 0.861469 0.863501
0.000000 0.495205 0.910528
0.000000 0.525642 0.907672
0.000000 0.552822 0.904665
0.000000 0.598130 0.903011
0.000000 0.640805 0.899720
0.715699 0.670348 0.897416
1.000000 0.612573 0.879381
1.000000 0.728992 0.855992
1.000000 0.877062 0.865443
0.000000 0.861528 0.944322
0.000000 0.865208 0.943231
0.000000 0.902140 0.930336
0.000000 0.934126 0.926525
0.000000 0.955916 0.924707
0.655743 0.954413 0.921880
0.935304 0.949289 0.918082
1.000000 0.911947 0.879732
1.000000 0.913288 0.871062
0.510851 1.000000 0.885695
0.515593 1.000000 0.885730
0.524915 1.000000 0.885803
0.553428 1.000000 0.886188
0.618818 1.000000 0.884966
0.741175 1.000000 0.882995
0.902537 0.998879 0.877712
0.997669 0.995382 0.882952
1.000000 0.982763 0.886620
0.865955 1.000000 0.827770
0.865955 1.000000 0.827770
0.865955 1.000000 0.827770
0.868095 1.000000 0.827940
0.873200 1.000000 0.830293
0.886455 1.000000 0.830305
0.923597 1.000000 0.836077
0.987175 1.000000 0.846099
1.000000 1.000000 0.862191
0.000000 0.000000 0.522489
0.000000 0.000000 0.520737
0.000000 0.000000 0.519913
0.169321 0.000000 0.524728
0.409921 0.000000 0.523023
0.734750 0.000000 0.496488
0.970222 0.000000 0.415394
1.000000 0.000000 0.348214
1.000000 0.801998 0.926395
0.000000 0.000000 0.522489
0.000000 0.000000 0.520737
0.000000 0.000000 0.519704
0.169321 0.000000 0.524728
0.409921 0.000000 0.523023
0.734750 0.000000 0.496488
0.970222 0.000000 0.415394
1.000000 0.000000 0.348214
1.000000 0.801998 0.926395
0.000000 0.000000 0.522489
0.000000 0.000000 0.520737
0.000000 0.000000 0.519704
0.169321 0.000000 0.524728
0.409921 0.000000 0.523023
0.734750 0.000000 0.496488
0.970222 0.000000 0.415394
1.000000 0.000000 0.345992
1.000000 0.803531 0.928183
0.000000 0.000000 0.522381
0.000000 0.000000 0.520630
0.000000 0.000000 0.519704
0.169321 0.000000 0.524728
0.409921 0.000000 0.523023
0.734750 0.000000 0.496488
0.970222 0.000000 0.415394
1.000000 0.000000 0.345992
1.000000 0.806303 0.928090
0.000000 0.121208 0.916635
0.000000 0.121674 0.917342
0.000000 0.125311 0.918543
0.000000 0.133246 0.918172
0.000000 0.121388 0.916430
0.644924 0.000000 0.906830
1.000000 0.000000 0.830193
1.000000 0.000000 0.345992
1.000000 0.818659 0.928738
0.000000 0.444578 0.962602
0.000000 0.446169 0.963017
0.000000 0.457724 0.961555
0.000000 0.475490 0.960769
0.000000 0.510621 0.958231
0.524570 0.536131 0.954190
1.000000 0.481268 0.948497
1.000000 0.327024 0.914259
1.000000 0.845033 0.932480
0.000000 0.782948 0.976220
0.000000 0.792603 0.974226
0.000000 0.804997 0.972834
0.000000 0.822602 0.971500
0.000000 0.847889 0.969769
0.289989 0.868655 0.966565
0.882158 0.864534 0.961891
1.000000 0.843350 0.954619
1.000000 0.895715 0.940405
0.000000 0.963297 0.994728
0.000000 0.963297 0.994728
0.000000 0.963297 0.994728
0.000000 0.999458 0.984087
0.000000 1.000000 0.982070
0.486457 1.000000 0.981041
0.859060 1.000000 0.978561
0.982970 0.995629 0.974733
1.000000 0.980019 0.958299
0.844191 1.000000 0.961475
0.844191 1.000000 0.961475
0.845195 1.000000 0.961492
0.846170 1.000000 0.961049
0.852178 1.000000 0.961153
0.867931 1.000000 0.960512
0.906641 1.000000 0.959413
0.970245 1.000000 0.959308
1.000000 1.000000 0.961474
0.292744 0.000000 0.656079
0.298839 0.000000 0.656253
0.317332 0.000000 0.656765
0.362027 0.000000 0.657919
0.497804 0.000000 0.657510
0.749321 0.000000 0.662633
0.962155 0.000000 0.608903
1.000000 0.000000 0.534813
1.000000 0.000000 0.491706
0.292744 0.000000 0.656079
0.298839 0.000000 0.656253
0.317332 0.000000 0.656765
0.362027 0.000000 0.657919
0.497804 0.000000 0.657510
0.749321 0.000000 0.662633
0.962155 0.000000 0.608903
1.000000 0.000000 0.534813
1.000000 0.000000 0.491706
0.292744 0.000000 0.656079
0.298839 0.000000 0.656253
0.317332 0.000000 0.656765
0.362027 0.000000 0.657919
0.497804 0.000000 0.657510
0.749321 0.000000 0.662633
0.962155 0.000000 0.608903
1.000000 0.000000 0.534813
1.000000 0.000000 0.491706
0.286680 0.000000 0.655904
0.295788 0.000000 0.656166
0.317332 0.000000 0.656765
0.362027 0.000000 0.657919
0.497804 0.000000 0.657510
0.749321 0.000000 0.662633
0.962155 0.000000 0.608903
1.000000 0.000000 0.534813
1.000000 0.000000 0.491706
0.286680 0.000000 0.655904
0.295788 0.000000 0.656166
0.311130 0.000000 0.656595
0.358751 0.000000 0.657839
0.497804 0.000000 0.657510
0.749321 0.000000 0.662633
0.962155 0.000000 0.608903
1.000000 0.000000 0.534813
1.000000 0.000000 0.491706
0.000000 0.352152 0.999489
0.000000 0.354883 0.999442
0.000000 0.355240 0.999539
0.000000 0.363051 0.997569
0.000000 0.364812 0.997653
0.531923 0.360607 0.992657
0.926305 0.268501 0.984954
1.000000 0.000000 0.959689
1.000000 0.000000 0.491706
0.000000 0.747777 1.000000
0.000000 0.747942 1.000000
0.000000 0.748507 1.000000
0.000000 0.755486 1.000000
0.000000 0.771294 1.000000
0.272339 0.784129 1.000000
0.795608 0.791182 0.997090
1.000000 0.778542 0.992893
1.000000 0.734333 0.974548
0.000000 0.946233 1.000000
0.000000 0.946499 1.000000
0.000000 0.946870 1.000000
0.000000 0.951549 1.000000
0.000000 0.958667 1.000000
0.000000 0.961440 1.000000
0.738678 0.957145 1.000000
0.956344 0.954337 0.997692
1.000000 0.945565 0.993243
0.000000 1.000000 1.000000
0.000000 1.000000 1.000000
0.000000 1.000000 1.000000
0.000000 1.000000 1.000000
0.185236 1.000000 1.000000
0.666736 1.000000 1.000000
0.833351 1.000000 1.000000
0.952861 1.000000 1.000000
1.000000 1.000000 1.000000
