Assets/Lutify-Free-LUTs-Pack/Lutify Free LUTs Pack/Film Tone Pro - Film Tone 3/Lutify.me-FilmTone3-Rec709-to-Rec709.cube
# Created with: fylm.ai - Colour Grading and Collaboration Software in Cloud 
# Website: https://fylm.ai 
# META
# Option: Gamut compress
# Block 1: IDT | Rec709
# Block 2: colourMatch | Blending Mode: Normal | {"ColorSpace":0,"CrossCovarianceLimit":50,"ReshapingIterations":1,"PercentSaturationShift":100,"PercentShadingShift":100,"ExtraShading":true,"PercentTint":100,"PercentModified":100}
# Block 3: subtractiveColour | Blending Mode: Normal | {"sliders":{"gainY":0.6,"C":0.3,"M":0.3,"Y":0.3}}
# Block 4: LUT | Filmic Curve Response: Low Contrast 2 (100%)
# Block 5: logPrimaries | Blending Mode: Normal | {"wheels":{"shadows":{"Y":"0","R":"1","G":"1","B":"1"},"midtones":{"Y":"0","R":"1","G":"1","B":"1"},"highlights":{"Y":"0","R":"1","G":"1","B":"1"},"offset":{"Y":"0","R":"1","G":"1","B":"1"}},"sliders":{"shadows":{"Y":0,"R":-0.026,"G":0.03,"B":0.1},"midtones":{"Y":0,"R":0.024,"G":-0.036,"B":0.036},"highlights":{"Y":0,"R":0,"G":0.044,"B":-0.128},"offset":{"Y":0,"R":0,"G":0,"B":0}}}
# Block 6: hueSaturation | Blending Mode: Normal | {"hue":0,"saturation":-0.1}
# Block 7: ODT | Rec709
TITLE "Lutify.me-FilmTone3-Rec709-to-Rec709" 
LUT_3D_SIZE 9
0.000000 0.000000 0.000000
0.098087 0.000000 0.000000
0.212207 0.000000 0.000000
0.328177 0.000000 0.000000
0.425039 0.000000 0.017853
0.527352 0.000000 0.019413
0.628105 0.000000 0.035275
0.721387 0.000000 0.054971
0.849865 0.000000 0.090290
0.000000 0.101478 0.000000
0.119280 0.101742 0.000000
0.241727 0.076057 0.000000
0.345620 0.047029 0.000000
0.450917 0.000000 0.000000
0.542383 0.000000 0.008227
0.641489 0.000000 0.032485
0.730118 0.000000 0.056346
0.854160 0.000000 0.095229
0.000000 0.234179 0.000000
0.120004 0.238763 0.000000
0.278279 0.234752 0.000000
0.388546 0.207493 0.000000
0.484639 0.190788 0.000000
0.573020 0.172204 0.000000
0.661574 0.153939 0.026168
0.754826 0.136724 0.060971
0.873068 0.058981 0.101625
0.091654 0.350014 0.000000
0.156410 0.349948 0.000000
0.269555 0.358713 0.000000
0.418697 0.350267 0.000000
0.514448 0.324154 0.000000
0.605938 0.307693 0.000000
0.691063 0.280597 0.000000
0.777133 0.268620 0.073555
0.894189 0.236097 0.113524
0.140464 0.459624 0.067289
0.172220 0.459640 0.067607
0.275914 0.465153 0.052078
0.406954 0.469035 0.035122
0.540655 0.457227 0.000000
0.624707 0.435814 0.000000
0.715201 0.423268 0.000000
0.803143 0.397451 0.074598
0.917917 0.366244 0.132224
0.161978 0.561152 0.111086
0.211685 0.561072 0.111541
0.309309 0.563474 0.102002
0.419767 0.565317 0.102458
0.536467 0.565752 0.103793
0.643374 0.567819 0.085884
0.732231 0.542658 0.079835
0.827287 0.524358 0.100173
0.939897 0.481500 0.156029
0.183024 0.668319 0.146680
0.208563 0.668265 0.146909
0.294737 0.667942 0.147964
0.403053 0.670325 0.148799
0.512842 0.674856 0.139484
0.623025 0.675089 0.131748
0.742925 0.680378 0.118978
0.843732 0.649427 0.127971
0.963846 0.603511 0.191277
0.000000 0.783060 0.214498
0.000000 0.782877 0.211570
0.200982 0.782549 0.212462
0.322533 0.784317 0.210568
0.445112 0.790168 0.202576
0.589316 0.796754 0.203039
0.715297 0.797205 0.195529
0.854984 0.796251 0.189375
0.972637 0.770918 0.272054
0.000000 0.940733 0.463689
0.000000 0.940641 0.463840
0.000000 0.943546 0.469075
0.000000 0.944769 0.474614
0.273238 0.948116 0.495139
0.431450 0.953315 0.512074
0.575699 0.961634 0.555158
0.763663 0.969746 0.597734
0.951781 0.977734 0.694317
0.000000 0.000000 0.070471
0.090789 0.000000 0.074781
0.218395 0.000000 0.074864
0.332190 0.000000 0.070165
0.438498 0.000000 0.064943
0.531202 0.000000 0.065731
0.632938 0.000000 0.071863
0.725351 0.000000 0.085603
0.851820 0.000000 0.108277
0.000000 0.114813 0.132588
0.106228 0.123088 0.130946
0.245862 0.096158 0.098173
0.350483 0.068811 0.082508
0.450447 0.051914 0.069943
0.542434 0.000000 0.067013
0.643139 0.000000 0.074842
0.730355 0.000000 0.086928
0.855732 0.000000 0.110044
0.000000 0.246079 0.131850
0.063062 0.253632 0.128614
0.264799 0.259279 0.123584
0.386432 0.231605 0.103735
0.487282 0.201930 0.082083
0.578855 0.190005 0.072833
0.665763 0.165718 0.078292
0.754256 0.141194 0.096194
0.874410 0.085650 0.116164
0.000000 0.363051 0.137422
0.052774 0.365590 0.134116
0.262969 0.367314 0.135423
0.414975 0.361778 0.121216
0.514220 0.349269 0.105742
0.609107 0.314184 0.087273
0.694185 0.292515 0.090942
0.778525 0.270246 0.100069
0.895113 0.237402 0.130160
0.000000 0.469814 0.154916
0.110965 0.469676 0.151236
0.261602 0.469467 0.152622
0.403754 0.476408 0.146319
0.532655 0.471191 0.131697
0.625759 0.452421 0.115712
0.716923 0.425819 0.101891
0.807435 0.398934 0.110384
0.921020 0.367067 0.147069
0.149392 0.563583 0.167854
0.183707 0.563546 0.168097
0.291056 0.566140 0.163642
0.413962 0.571108 0.161450
0.530395 0.574760 0.157120
0.645269 0.570003 0.147399
0.733481 0.544212 0.125096
0.827580 0.529081 0.130021
0.940111 0.482663 0.175364
0.168603 0.669672 0.182113
0.208864 0.669594 0.182432
0.290851 0.672567 0.182577
0.397516 0.671717 0.184312
0.508432 0.676388 0.179444
0.624048 0.676401 0.170253
0.742694 0.684996 0.159415
0.843285 0.653660 0.149484
0.963838 0.604277 0.206158
0.000000 0.783573 0.233547
0.000000 0.785992 0.230379
0.194421 0.785659 0.231254
0.319267 0.787142 0.219902
0.445532 0.790568 0.218921
0.589773 0.797128 0.219500
0.714766 0.800036 0.218575
0.855191 0.796686 0.209179
0.973858 0.771246 0.281097
0.000000 0.940733 0.463689
0.000000 0.941673 0.464463
0.000000 0.943546 0.469075
0.000000 0.944769 0.474614
0.273238 0.948116 0.495139
0.431450 0.953315 0.512074
0.575972 0.963135 0.556670
0.766551 0.969629 0.597932
0.951781 0.977734 0.694317
0.000000 0.000000 0.150494
0.078369 0.010764 0.160967
0.231913 0.000000 0.184040
0.337296 0.000000 0.186417
0.445739 0.000000 0.174160
0.546944 0.000000 0.167705
0.642084 0.000000 0.162393
0.733293 0.000000 0.147704
0.853517 0.000000 0.161645
0.000000 0.101947 0.223346
0.052541 0.107393 0.229924
0.246628 0.113857 0.230552
0.357808 0.097836 0.210115
0.461939 0.084488 0.195945
0.552239 0.047142 0.175789
0.647354 0.000000 0.168745
0.737810 0.000000 0.148455
0.857320 0.000000 0.164315
0.000000 0.262556 0.283912
0.000000 0.272412 0.283237
0.241289 0.276332 0.286645
0.382607 0.256697 0.248703
0.493356 0.228768 0.218934
0.581930 0.213037 0.200798
0.670097 0.190913 0.182229
0.756753 0.170553 0.164430
0.872085 0.121005 0.171193
0.000000 0.375147 0.290705
0.043479 0.375272 0.289251
0.228719 0.388531 0.277586
0.392431 0.391237 0.280504
0.506066 0.364154 0.256289
0.607857 0.349768 0.229304
0.694301 0.318342 0.199908
0.786413 0.294846 0.182171
0.897760 0.245329 0.182436
0.000000 0.482807 0.291839
0.075640 0.482892 0.292365
0.227545 0.488844 0.288581
0.375037 0.496340 0.280766
0.522021 0.498308 0.276148
0.624116 0.473116 0.257072
0.715354 0.439825 0.225283
0.802557 0.425429 0.200132
0.922293 0.370514 0.196292
0.119163 0.575737 0.291844
0.163677 0.575698 0.292136
0.276493 0.578356 0.287922
0.381327 0.587046 0.286202
0.502824 0.584730 0.288700
0.629234 0.583364 0.278650
0.734723 0.563606 0.248206
0.825344 0.536726 0.209443
0.944857 0.485009 0.213976
0.154587 0.677345 0.292052
0.199627 0.677049 0.286726
0.273372 0.676805 0.287518
0.366072 0.682741 0.288323
0.491860 0.684257 0.287749
0.615572 0.693981 0.278413
0.735906 0.693019 0.279530
0.844406 0.657119 0.233483
0.965503 0.606685 0.251029
0.000000 0.785342 0.299034
0.000000 0.787742 0.296041
0.187535 0.789875 0.293626
0.303661 0.794049 0.288579
0.442672 0.797067 0.281772
0.580255 0.798892 0.282507
0.716054 0.801446 0.281933
0.853311 0.804785 0.274870
0.973427 0.772353 0.319010
0.000000 0.941910 0.482659
0.000000 0.941818 0.482808
0.000000 0.943687 0.487367
0.000000 0.945866 0.490418
0.273209 0.949097 0.501814
0.431507 0.953349 0.518009
0.581254 0.962987 0.556837
0.766551 0.969629 0.597932
0.952753 0.977689 0.694609
0.000000 0.038920 0.242643
0.058333 0.041285 0.250251
0.217655 0.000000 0.264502
0.357344 0.000000 0.275313
0.462233 0.000000 0.278444
0.548297 0.000000 0.275526
0.646057 0.000000 0.257240
0.744432 0.000000 0.244996
0.858793 0.000000 0.223641
0.000000 0.095429 0.295667
0.027046 0.103927 0.299734
0.225516 0.110717 0.307036
0.369507 0.110888 0.318219
0.474571 0.109705 0.303323
0.557234 0.100988 0.292928
0.654343 0.077785 0.263353
0.748745 0.000000 0.250598
0.862533 0.000000 0.227035
0.000000 0.248224 0.359670
0.000000 0.254100 0.361698
0.209679 0.262431 0.366479
0.377959 0.273614 0.369052
0.486926 0.254359 0.343456
0.586932 0.223105 0.312549
0.677760 0.214000 0.286227
0.764492 0.181609 0.269927
0.876420 0.125661 0.235589
0.000000 0.387148 0.404667
0.000000 0.393081 0.405625
0.214462 0.404702 0.405531
0.373780 0.404783 0.394545
0.509351 0.378269 0.372802
0.600950 0.368694 0.348404
0.700824 0.330011 0.309634
0.781913 0.305579 0.291669
0.900675 0.245641 0.247310
0.000000 0.499687 0.408747
0.000000 0.499749 0.409182
0.215005 0.499553 0.408148
0.375598 0.504077 0.405051
0.498833 0.516752 0.398655
0.617193 0.491595 0.375925
0.714872 0.459287 0.343514
0.804748 0.431708 0.308763
0.923351 0.378842 0.269783
0.000000 0.592995 0.405266
0.119161 0.592946 0.405720
0.265534 0.592557 0.407206
0.376278 0.594857 0.409052
0.487257 0.599176 0.402153
0.617665 0.598289 0.396398
0.725216 0.582787 0.373188
0.824248 0.542777 0.327337
0.939689 0.496199 0.285416
0.132309 0.688152 0.412833
0.170308 0.688098 0.413074
0.256687 0.687857 0.413927
0.356948 0.693354 0.402680
0.471199 0.701396 0.398427
0.594864 0.701935 0.401505
0.736019 0.700086 0.393644
0.843774 0.678608 0.350838
0.964352 0.613078 0.310474
0.000000 0.790392 0.401557
0.000000 0.790258 0.398480
0.182795 0.792486 0.399145
0.312327 0.796654 0.400669
0.441359 0.801976 0.390377
0.573392 0.805877 0.381219
0.698728 0.806406 0.379520
0.851191 0.813130 0.368741
0.972646 0.773788 0.369467
0.000000 0.944151 0.511454
0.000000 0.945060 0.512169
0.000000 0.945863 0.513036
0.000000 0.947013 0.515386
0.273069 0.950200 0.529618
0.431954 0.955208 0.543175
0.581269 0.963032 0.568413
0.769189 0.970781 0.605338
0.956012 0.978456 0.701801
0.000000 0.057867 0.320830
0.050456 0.058576 0.326541
0.205586 0.050904 0.338656
0.338325 0.000000 0.359393
0.473736 0.000000 0.376150
0.568424 0.032912 0.370144
0.651433 0.051899 0.358110
0.745947 0.000000 0.341461
0.870016 0.000000 0.320087
0.000000 0.098418 0.359036
0.030485 0.101522 0.362539
0.197189 0.106125 0.371755
0.341242 0.113482 0.389589
0.483875 0.126640 0.404276
0.580081 0.113466 0.387893
0.656300 0.120474 0.372085
0.749875 0.085777 0.346906
0.870118 0.038065 0.320207
0.000000 0.229323 0.432436
0.000000 0.234709 0.434140
0.186933 0.249971 0.439821
0.344205 0.261568 0.442403
0.498676 0.265216 0.447033
0.583322 0.253226 0.431535
0.673214 0.233471 0.399551
0.771340 0.210139 0.364134
0.885625 0.159212 0.328171
0.000000 0.374938 0.476380
0.000000 0.377912 0.477229
0.181330 0.380835 0.480449
0.343792 0.396079 0.484292
0.495322 0.405014 0.478739
0.592732 0.386903 0.460102
0.698399 0.349619 0.430377
0.789122 0.331521 0.389740
0.900518 0.273497 0.340926
0.000000 0.502811 0.508090
0.000000 0.502848 0.508535
0.204387 0.509021 0.510306
0.347648 0.523682 0.509489
0.495080 0.523346 0.503208
0.613717 0.499291 0.481587
0.707113 0.480668 0.447620
0.805453 0.443287 0.418347
0.923028 0.397741 0.358909
0.000000 0.596550 0.515165
0.000000 0.599786 0.515420
0.215826 0.602686 0.513376
0.368319 0.601398 0.509269
0.493253 0.605716 0.508621
0.599950 0.609115 0.504783
0.721633 0.593514 0.480044
0.818611 0.561424 0.437852
0.942016 0.511148 0.375225
0.000000 0.697880 0.511658
0.145311 0.697794 0.512015
0.222114 0.703843 0.506055
0.340862 0.706273 0.504305
0.472261 0.707840 0.506724
0.590799 0.711284 0.499772
0.723693 0.712954 0.494024
0.831289 0.692461 0.460880
0.960981 0.627208 0.396073
0.000000 0.800265 0.505291
0.000000 0.800206 0.505421
0.166355 0.802170 0.502958
0.324236 0.801085 0.498019
0.439883 0.804261 0.496890
0.572202 0.810408 0.493810
0.696975 0.812958 0.491586
0.844287 0.817722 0.487741
0.975126 0.775767 0.433414
0.000000 0.945340 0.552275
0.000000 0.945340 0.552275
0.000000 0.946923 0.553878
0.000000 0.950030 0.557028
0.272792 0.953126 0.564786
0.432346 0.957060 0.577370
0.586522 0.963737 0.601345
0.768738 0.972069 0.629019
0.962039 0.978630 0.708958
0.000000 0.085673 0.405170
0.000000 0.085952 0.407317
0.191168 0.090617 0.418057
0.317366 0.079002 0.439068
0.465652 0.059792 0.454654
0.575599 0.075853 0.453637
0.671498 0.056177 0.451537
0.755930 0.068003 0.434726
0.868430 0.088671 0.416744
0.000000 0.115113 0.429343
0.000000 0.116238 0.431642
0.185865 0.123975 0.444423
0.321994 0.122486 0.462764
0.468267 0.126075 0.468806
0.582548 0.136236 0.473377
0.679191 0.125101 0.464790
0.759546 0.113929 0.441239
0.871573 0.117481 0.420002
0.000000 0.221092 0.493607
0.000000 0.226265 0.495067
0.164264 0.237442 0.496996
0.313665 0.249178 0.496092
0.462802 0.265118 0.510395
0.593948 0.265451 0.517294
0.690134 0.248150 0.495167
0.766200 0.234472 0.461299
0.886295 0.189938 0.427280
0.000000 0.349694 0.538779
0.000000 0.352424 0.539556
0.116678 0.371130 0.536145
0.303435 0.380726 0.540007
0.464375 0.389784 0.543976
0.604095 0.399501 0.547589
0.691204 0.385772 0.527908
0.780180 0.354902 0.487254
0.906812 0.290552 0.443904
0.000000 0.491788 0.568208
0.000000 0.495016 0.568610
0.108176 0.495093 0.570495
0.323462 0.497063 0.573416
0.455913 0.520045 0.576151
0.593305 0.528184 0.576129
0.694549 0.497155 0.550362
0.807882 0.452201 0.503642
0.926875 0.404637 0.463307
0.000000 0.602272 0.596400
0.000000 0.602226 0.596736
0.219865 0.605164 0.598014
0.334776 0.610978 0.599570
0.463745 0.615611 0.598673
0.606189 0.614828 0.592111
0.714669 0.597620 0.575910
0.818043 0.572057 0.528406
0.945074 0.515243 0.473598
0.000000 0.700594 0.599752
0.000000 0.706996 0.599724
0.173376 0.706737 0.600650
0.311768 0.712344 0.598749
0.459749 0.713727 0.597905
0.592321 0.716932 0.594210
0.714365 0.724938 0.587684
0.835026 0.702001 0.563422
0.962243 0.631025 0.481342
0.000000 0.804787 0.593579
0.000000 0.804731 0.593702
0.000000 0.806739 0.594474
0.249485 0.810576 0.595926
0.407733 0.813394 0.594905
0.545610 0.815112 0.597807
0.689540 0.818997 0.585782
0.838411 0.823596 0.583924
0.973555 0.786756 0.501846
0.000000 0.946628 0.615137
0.000000 0.946628 0.615137
0.000000 0.948154 0.613444
0.000000 0.951078 0.616377
0.284083 0.954171 0.620460
0.440711 0.960393 0.631016
0.591512 0.965165 0.646856
0.767996 0.972766 0.667997
0.967029 0.980147 0.720360
0.000000 0.123733 0.507805
0.000000 0.124239 0.509282
0.160282 0.128495 0.508897
0.298772 0.128010 0.521217
0.436842 0.129721 0.533137
0.555035 0.121571 0.546746
0.682292 0.115279 0.551389
0.780405 0.038989 0.538871
0.872446 0.107925 0.518700
0.000000 0.145187 0.519450
0.000000 0.147371 0.520907
0.149901 0.154638 0.523228
0.294398 0.156823 0.532194
0.438954 0.153378 0.543712
0.558030 0.150286 0.554069
0.685506 0.154408 0.558665
0.783118 0.130319 0.543010
0.874995 0.139663 0.522280
0.000000 0.221182 0.554583
0.000000 0.226358 0.555751
0.122813 0.232420 0.559652
0.281431 0.238883 0.567802
0.436267 0.242620 0.575810
0.574282 0.252777 0.579981
0.691226 0.269513 0.586940
0.788248 0.241966 0.567267
0.884937 0.205176 0.533009
0.000000 0.340649 0.603177
0.000000 0.343288 0.603856
0.077272 0.348338 0.600002
0.273691 0.362884 0.606964
0.418699 0.375232 0.607268
0.555506 0.385575 0.613908
0.699307 0.392573 0.620872
0.797543 0.375136 0.597919
0.901686 0.326641 0.551028
0.000000 0.465436 0.636225
0.000000 0.468647 0.636747
0.000000 0.471876 0.638358
0.271248 0.483697 0.644314
0.412085 0.490814 0.646975
0.565641 0.498225 0.643839
0.702965 0.510803 0.650451
0.796550 0.487802 0.620928
0.923437 0.432520 0.568812
0.000000 0.584706 0.664744
0.000000 0.584694 0.665072
0.115713 0.587762 0.666214
0.283689 0.596943 0.667785
0.426276 0.598524 0.670116
0.556853 0.611845 0.666168
0.706184 0.616443 0.672920
0.805852 0.592683 0.640695
0.944160 0.536145 0.577047
0.000000 0.712833 0.691288
0.000000 0.712779 0.691501
0.107331 0.715683 0.692179
0.298712 0.715013 0.693556
0.441860 0.722734 0.695503
0.560103 0.732281 0.691315
0.715046 0.730420 0.688557
0.830434 0.714736 0.664097
0.962782 0.642363 0.588916
0.000000 0.809189 0.701050
0.000000 0.811381 0.701271
0.000000 0.811043 0.701804
0.242349 0.814727 0.699855
0.407125 0.817247 0.692561
0.544570 0.822918 0.692032
0.675141 0.827116 0.686026
0.836242 0.831056 0.683671
0.974662 0.789501 0.602946
0.000000 0.947958 0.694896
0.000000 0.948717 0.695436
0.000000 0.950403 0.696300
0.000000 0.952286 0.695357
0.293312 0.956109 0.693205
0.440107 0.962191 0.696105
0.586921 0.969582 0.705531
0.775091 0.974317 0.721222
0.975152 0.982253 0.753489
0.000000 0.190898 0.621618
0.000000 0.192285 0.622457
0.000000 0.197620 0.628498
0.223696 0.199949 0.629471
0.365530 0.207264 0.637543
0.504599 0.213425 0.648262
0.646302 0.206365 0.661904
0.777045 0.203949 0.669068
0.894144 0.130866 0.640227
0.000000 0.203874 0.629062
0.000000 0.205401 0.629789
0.000000 0.207790 0.635576
0.224659 0.212435 0.636718
0.362788 0.219777 0.644510
0.507020 0.227644 0.652038
0.649555 0.217642 0.665530
0.784332 0.216696 0.672772
0.896838 0.148399 0.643785
0.000000 0.250448 0.648504
0.000000 0.250360 0.649269
0.000000 0.251773 0.654545
0.219848 0.263393 0.658602
0.374259 0.266490 0.662812
0.505104 0.270614 0.666231
0.645452 0.269386 0.673086
0.789350 0.266380 0.677019
0.906082 0.220759 0.658122
0.000000 0.322050 0.678539
0.000000 0.322066 0.678865
0.000000 0.331839 0.680697
0.222022 0.343347 0.684177
0.372050 0.349913 0.687560
0.507245 0.359537 0.693991
0.651846 0.369214 0.700610
0.792433 0.383799 0.704118
0.916679 0.347134 0.676414
0.000000 0.445759 0.713886
0.000000 0.448896 0.714170
0.000000 0.455258 0.715545
0.190476 0.467369 0.720912
0.356470 0.465383 0.723266
0.488460 0.483762 0.719507
0.650372 0.489125 0.725717
0.800105 0.492241 0.731922
0.924200 0.456343 0.697022
0.000000 0.564113 0.739520
0.000000 0.567403 0.739830
0.000000 0.567374 0.740754
0.193208 0.570390 0.747803
0.360495 0.572309 0.749550
0.492252 0.589555 0.751259
0.646968 0.597646 0.748081
0.800150 0.597320 0.756609
0.928402 0.566454 0.716163
0.000000 0.683285 0.769464
0.000000 0.683274 0.769544
0.000000 0.686428 0.770083
0.202347 0.685989 0.771107
0.361056 0.698010 0.772109
0.509347 0.708597 0.776093
0.656085 0.713970 0.775431
0.813042 0.726555 0.778220
0.952013 0.666587 0.726595
0.000000 0.809636 0.800967
0.000000 0.809512 0.798838
0.000000 0.811389 0.799250
0.166528 0.817237 0.797629
0.386644 0.823903 0.798727
0.536639 0.831296 0.802134
0.672786 0.837139 0.801611
0.824580 0.839257 0.800602
0.971914 0.799611 0.744940
0.000000 0.954347 0.810819
0.000000 0.954141 0.810949
0.000000 0.955711 0.811312
0.000000 0.957524 0.810214
0.277786 0.961016 0.809886
0.434381 0.967956 0.807073
0.586160 0.970554 0.804784
0.781243 0.977579 0.801720
0.980855 0.984691 0.811385
0.000000 0.386443 0.828405
0.000000 0.389349 0.828485
0.000000 0.395246 0.830980
0.094875 0.406978 0.833537
0.230631 0.424522 0.838208
0.347565 0.435128 0.844989
0.462880 0.453735 0.847533
0.623930 0.458708 0.850514
0.814341 0.468323 0.857239
0.000000 0.395350 0.830560
0.000000 0.398313 0.830571
0.000000 0.404280 0.833020
0.045369 0.416160 0.835465
0.231342 0.430722 0.840185
0.347839 0.444469 0.844845
0.461597 0.456980 0.847467
0.623058 0.462085 0.850449
0.812987 0.475484 0.857103
0.000000 0.425738 0.838639
0.000000 0.425729 0.838753
0.000000 0.431743 0.839022
0.047790 0.437640 0.839386
0.230137 0.452619 0.845917
0.341509 0.463629 0.848435
0.460844 0.470131 0.853038
0.622970 0.478934 0.853944
0.824053 0.492454 0.860522
0.000000 0.466273 0.848313
0.000000 0.466267 0.848366
0.000000 0.472462 0.848527
0.044804 0.475471 0.850859
0.221260 0.487600 0.853088
0.339041 0.492758 0.857456
0.462667 0.499685 0.861799
0.623100 0.509531 0.862528
0.834057 0.527336 0.865209
0.000000 0.514421 0.861006
0.000000 0.514390 0.861101
0.000000 0.517563 0.861101
0.068438 0.523841 0.863151
0.218155 0.536484 0.866828
0.336692 0.545207 0.868921
0.462517 0.552841 0.872845
0.629796 0.560494 0.875144
0.858922 0.572736 0.879336
0.000000 0.580381 0.880479
0.000000 0.580381 0.880479
0.000000 0.586854 0.880354
0.124153 0.589993 0.882113
0.248996 0.596184 0.883816
0.367375 0.605046 0.885531
0.474738 0.610145 0.890373
0.647065 0.618349 0.890668
0.885263 0.632564 0.892832
0.000000 0.654181 0.900647
0.000000 0.654109 0.900701
0.066638 0.654031 0.900754
0.206284 0.660325 0.900648
0.291105 0.669982 0.903114
0.382695 0.675847 0.904389
0.503607 0.677492 0.907142
0.666018 0.692996 0.910368
0.916090 0.706800 0.908511
0.083999 0.764533 0.923557
0.083999 0.764533 0.923557
0.167198 0.767065 0.923468
0.244790 0.769497 0.924491
0.307019 0.774334 0.924312
0.403191 0.783603 0.925027
0.521947 0.791386 0.925815
0.707683 0.804523 0.927419
0.950508 0.813912 0.928663
0.283638 0.947841 0.957606
0.283834 0.948755 0.957563
0.297035 0.949527 0.957527
0.334518 0.953560 0.958658
0.397244 0.959347 0.959688
0.486726 0.966050 0.962516
0.584653 0.974333 0.965165
0.751937 0.980728 0.968980
0.980423 0.993707 0.970478
