Assets/Lutify-Free-LUTs-Pack/Lutify Free LUTs Pack/Film Tone Pro - Film Tone 3/Lutify.me-FilmTone3-ZLog2-to-Rec709.cube
# Created with: fylm.ai - Colour Grading and Collaboration Software in Cloud 
# Website: https://fylm.ai 
# META
# Option: Gamut compress
# Block 1: IDT | Z-Cam Z-Log2 - BETA
# Block 2: colourMatch | Blending Mode: Normal | {"ColorSpace":0,"CrossCovarianceLimit":50,"ReshapingIterations":1,"PercentSaturationShift":100,"PercentShadingShift":100,"ExtraShading":true,"PercentTint":100,"PercentModified":100}
# Block 3: subtractiveColour | Blending Mode: Normal | {"sliders":{"gainY":0.6,"C":0.3,"M":0.3,"Y":0.3}}
# Block 4: LUT | Filmic Curve Response: Low Contrast 2 (100%)
# Block 5: logPrimaries | Blending Mode: Normal | {"wheels":{"shadows":{"Y":"0","R":"1","G":"1","B":"1"},"midtones":{"Y":"0","R":"1","G":"1","B":"1"},"highlights":{"Y":"0","R":"1","G":"1","B":"1"},"offset":{"Y":"0","R":"1","G":"1","B":"1"}},"sliders":{"shadows":{"Y":0,"R":-0.026,"G":0.03,"B":0.1},"midtones":{"Y":0,"R":0.024,"G":-0.036,"B":0.036},"highlights":{"Y":0,"R":0,"G":0.044,"B":-0.128},"offset":{"Y":0,"R":0,"G":0,"B":0}}}
# Block 6: hueSaturation | Blending Mode: Normal | {"hue":0,"saturation":-0.1}
# Block 7: ODT | Rec709
TITLE "Lutify.me-FilmTone3-ZLog2-to-Rec709" 
LUT_3D_SIZE 9
0.000000 0.000000 0.000000
0.000000 0.000000 0.000000
0.077097 0.000000 0.000000
0.127954 0.000000 0.000000
0.194866 0.000000 0.000000
0.281135 0.000000 0.000000
0.396110 0.000000 0.033392
0.542928 0.000000 0.056382
0.708847 0.000000 0.096589
0.000000 0.027010 0.000000
0.000000 0.030675 0.000000
0.085270 0.000000 0.000000
0.136913 0.000000 0.000000
0.203263 0.000000 0.000000
0.289326 0.000000 0.002604
0.402845 0.000000 0.033645
0.551185 0.000000 0.055093
0.713761 0.000000 0.096642
0.000000 0.076490 0.000000
0.000000 0.079894 0.000000
0.086808 0.077990 0.000000
0.161408 0.051374 0.000000
0.237139 0.000000 0.000000
0.307234 0.000000 0.000000
0.423071 0.000000 0.033478
0.560753 0.000000 0.054741
0.719938 0.000000 0.098277
0.000000 0.141198 0.000000
0.000000 0.148697 0.000000
0.038990 0.154572 0.000000
0.186809 0.142125 0.000000
0.278374 0.103378 0.000000
0.355386 0.040056 0.000000
0.446782 0.000000 0.022385
0.583894 0.000000 0.052685
0.730825 0.000000 0.099536
0.000000 0.225438 0.000000
0.000000 0.232464 0.000000
0.000000 0.234554 0.000000
0.179276 0.236752 0.000000
0.313523 0.210144 0.000000
0.407177 0.174838 0.000000
0.504546 0.133217 0.000000
0.622067 0.000000 0.031482
0.750947 0.000000 0.101741
0.000000 0.321938 0.000000
0.000000 0.328247 0.000000
0.000000 0.330443 0.000000
0.199986 0.330425 0.000000
0.354469 0.330871 0.000000
0.475444 0.288229 0.000000
0.571234 0.265392 0.000000
0.673034 0.240523 0.000000
0.789795 0.142225 0.076915
0.000000 0.448216 0.000000
0.000000 0.449322 0.000000
0.000000 0.450826 0.000000
0.155123 0.448764 0.000000
0.359049 0.447301 0.000000
0.523278 0.432285 0.000000
0.657742 0.395150 0.000000
0.719983 0.393973 0.000000
0.823188 0.382861 0.000000
0.000000 0.577596 0.000000
0.000000 0.577926 0.000000
0.000000 0.578318 0.000000
0.139521 0.578535 0.000000
0.361624 0.577465 0.000000
0.541265 0.583664 0.000000
0.675814 0.558445 0.000000
0.797056 0.518036 0.000000
0.854857 0.538144 0.000000
0.000000 0.699562 0.000000
0.113394 0.699489 0.000000
0.215011 0.699332 0.000000
0.311503 0.698935 0.000000
0.438917 0.700935 0.000000
0.552931 0.705246 0.000000
0.702660 0.697661 0.000000
0.828588 0.666691 0.000000
0.901690 0.634160 0.000000
0.000000 0.000000 0.025889
0.000000 0.000000 0.027210
0.062195 0.000000 0.015838
0.126198 0.000000 0.011855
0.193238 0.000000 0.013975
0.279283 0.000000 0.030175
0.397572 0.000000 0.040925
0.544061 0.000000 0.061602
0.709698 0.000000 0.102420
0.000000 0.022305 0.033241
0.000000 0.024628 0.032212
0.082211 0.000000 0.020503
0.132603 0.000000 0.015801
0.202950 0.000000 0.016673
0.287359 0.000000 0.032246
0.404411 0.000000 0.041664
0.553125 0.000000 0.063353
0.714916 0.000000 0.104247
0.000000 0.073392 0.000000
0.000000 0.077911 0.000000
0.078238 0.078984 0.000000
0.157909 0.049857 0.000000
0.229087 0.000000 0.019496
0.306816 0.000000 0.032120
0.419312 0.000000 0.042909
0.562668 0.000000 0.063208
0.720920 0.000000 0.105204
0.000000 0.137179 0.000000
0.000000 0.145400 0.000000
0.000000 0.152463 0.000000
0.171721 0.143459 0.000000
0.270307 0.107359 0.000000
0.352011 0.032076 0.000000
0.448348 0.000000 0.038781
0.578756 0.000000 0.063365
0.732295 0.000000 0.108570
0.000000 0.223287 0.000000
0.000000 0.230319 0.000000
0.000000 0.237505 0.000000
0.164108 0.237112 0.000000
0.301671 0.219958 0.000000
0.400965 0.186016 0.000000
0.506454 0.129862 0.000000
0.623925 0.000000 0.050517
0.751785 0.000000 0.108686
0.000000 0.325688 0.000000
0.000000 0.327586 0.000000
0.000000 0.329873 0.000000
0.157551 0.330747 0.000000
0.318736 0.334878 0.000000
0.460655 0.296856 0.000000
0.566520 0.272508 0.000000
0.675323 0.242185 0.000000
0.787473 0.145299 0.092188
0.000000 0.445066 0.000000
0.000000 0.446181 0.000000
0.000000 0.447758 0.000000
0.155123 0.448764 0.000000
0.359049 0.447301 0.000000
0.523278 0.432285 0.000000
0.646600 0.396016 0.000000
0.714544 0.402876 0.000000
0.824574 0.384545 0.000000
0.000000 0.577596 0.000000
0.000000 0.577882 0.000000
0.000000 0.578318 0.000000
0.123674 0.578543 0.000000
0.355837 0.577531 0.000000
0.541265 0.583664 0.000000
0.675814 0.558445 0.000000
0.797056 0.518036 0.000000
0.847071 0.540140 0.000000
0.000000 0.699562 0.000000
0.113394 0.699489 0.000000
0.215011 0.699332 0.000000
0.311503 0.698935 0.000000
0.438917 0.700935 0.000000
0.554759 0.702037 0.000000
0.702660 0.697661 0.000000
0.828588 0.666691 0.000000
0.901690 0.634160 0.000000
0.000000 0.000000 0.054683
0.000000 0.000000 0.054148
0.055094 0.000000 0.052363
0.116252 0.000000 0.042853
0.190762 0.000000 0.041258
0.275603 0.000000 0.045571
0.398015 0.000000 0.055720
0.543612 0.000000 0.075078
0.711803 0.000000 0.113890
0.000000 0.000000 0.064356
0.000000 0.000000 0.061944
0.062710 0.000000 0.059983
0.123294 0.000000 0.050900
0.199711 0.000000 0.049083
0.288050 0.000000 0.051385
0.405385 0.000000 0.058252
0.549080 0.000000 0.076520
0.712995 0.000000 0.114039
0.000000 0.067859 0.088104
0.000000 0.075370 0.086903
0.062222 0.078342 0.084530
0.146574 0.048527 0.071136
0.227983 0.000000 0.061354
0.308162 0.000000 0.056181
0.423084 0.000000 0.060954
0.566249 0.000000 0.079301
0.722668 0.000000 0.118016
0.000000 0.138399 0.048179
0.000000 0.144141 0.046064
0.000000 0.158397 0.042147
0.152454 0.159713 0.049773
0.263172 0.115081 0.052602
0.342760 0.045089 0.056287
0.449664 0.000000 0.061009
0.582309 0.000000 0.081124
0.733781 0.000000 0.120082
0.000000 0.224203 0.000000
0.000000 0.232870 0.000000
0.000000 0.238932 0.000000
0.096849 0.245208 0.000000
0.281482 0.235013 0.000000
0.394851 0.197810 0.000000
0.507761 0.131217 0.028568
0.623628 0.000000 0.077208
0.753576 0.000000 0.121995
0.000000 0.324510 0.000000
0.000000 0.331148 0.000000
0.000000 0.340593 0.000000
0.000000 0.342915 0.000000
0.273691 0.344286 0.000000
0.429432 0.323006 0.000000
0.554445 0.287969 0.000000
0.671496 0.243310 0.000000
0.785461 0.140125 0.113808
0.000000 0.444670 0.000000
0.000000 0.446110 0.000000
0.000000 0.447442 0.000000
0.084166 0.448677 0.000000
0.308647 0.454243 0.000000
0.492964 0.449360 0.000000
0.616660 0.423682 0.000000
0.714942 0.413691 0.000000
0.823645 0.387906 0.000000
0.000000 0.577545 0.000000
0.000000 0.577838 0.000000
0.000000 0.575052 0.000000
0.134997 0.575290 0.000000
0.358526 0.574246 0.000000
0.544295 0.576966 0.000000
0.675814 0.558445 0.000000
0.797056 0.518036 0.000000
0.846831 0.547977 0.000000
0.000000 0.699576 0.000000
0.000000 0.699529 0.000000
0.202437 0.699362 0.000000
0.311503 0.698935 0.000000
0.432811 0.701016 0.000000
0.554759 0.702037 0.000000
0.698089 0.697825 0.000000
0.828588 0.666691 0.000000
0.901690 0.634160 0.000000
0.000000 0.000000 0.083911
0.000000 0.000000 0.081675
0.030473 0.000000 0.078990
0.103922 0.000000 0.071861
0.183782 0.000000 0.061479
0.273003 0.000000 0.065996
0.391339 0.000000 0.080638
0.544358 0.000000 0.100401
0.711136 0.000000 0.133273
0.000000 0.000000 0.095811
0.000000 0.000000 0.092688
0.036912 0.000000 0.089832
0.112690 0.000000 0.083892
0.193818 0.000000 0.071825
0.283683 0.000000 0.075803
0.404558 0.000000 0.086881
0.554363 0.000000 0.104921
0.716326 0.000000 0.135679
0.000000 0.043286 0.136301
0.000000 0.044951 0.134032
0.012589 0.048042 0.133072
0.136093 0.030302 0.134978
0.221705 0.000000 0.104403
0.306614 0.000000 0.095401
0.417713 0.000000 0.098356
0.569190 0.000000 0.114106
0.722388 0.000000 0.138288
0.000000 0.124384 0.166052
0.000000 0.138628 0.164074
0.000000 0.150553 0.167212
0.127397 0.152039 0.164087
0.248364 0.113986 0.140531
0.346973 0.000000 0.121246
0.452383 0.000000 0.110976
0.585123 0.000000 0.118695
0.733075 0.000000 0.142130
0.000000 0.227564 0.122138
0.000000 0.239430 0.118824
0.000000 0.247528 0.115614
0.000000 0.258588 0.112064
0.251098 0.259676 0.118573
0.385969 0.209282 0.113247
0.501486 0.140544 0.114889
0.618537 0.000000 0.120789
0.752108 0.000000 0.144509
0.000000 0.330900 0.000000
0.000000 0.339561 0.000000
0.000000 0.349761 0.000000
0.000000 0.356070 0.000000
0.187303 0.364862 0.000000
0.399547 0.361872 0.000000
0.550568 0.305051 0.000000
0.676325 0.242925 0.093389
0.780690 0.146240 0.144564
0.000000 0.449041 0.000000
0.000000 0.456339 0.000000
0.000000 0.464795 0.000000
0.000000 0.467556 0.000000
0.091589 0.481914 0.000000
0.381903 0.481632 0.000000
0.572407 0.461412 0.000000
0.707998 0.429073 0.000000
0.826468 0.388942 0.083794
0.000000 0.574212 0.000000
0.000000 0.574516 0.000000
0.000000 0.575023 0.000000
0.070752 0.575302 0.000000
0.346888 0.574374 0.000000
0.520383 0.577668 0.000000
0.641948 0.583400 0.000000
0.745592 0.561982 0.000000
0.847367 0.565263 0.000000
0.000000 0.699576 0.000000
0.000000 0.699546 0.000000
0.188829 0.699391 0.000000
0.303316 0.698982 0.000000
0.435407 0.697776 0.000000
0.554759 0.702037 0.000000
0.698089 0.697825 0.000000
0.822948 0.663509 0.000000
0.900005 0.630736 0.000000
0.000000 0.000000 0.121629
0.000000 0.000000 0.116625
0.000000 0.000000 0.111956
0.086917 0.000000 0.112852
0.175378 0.000000 0.091389
0.266507 0.000000 0.081999
0.380832 0.000000 0.101169
0.536919 0.000000 0.133895
0.710429 0.000000 0.171132
0.000000 0.000000 0.136409
0.000000 0.000000 0.130922
0.000000 0.000000 0.128681
0.089222 0.000000 0.127916
0.187308 0.000000 0.110172
0.273190 0.000000 0.099410
0.396962 0.000000 0.116411
0.550568 0.000000 0.142029
0.715899 0.000000 0.173010
0.000000 0.000000 0.171404
0.000000 0.000000 0.169614
0.000000 0.000000 0.162063
0.091181 0.000000 0.161065
0.205169 0.000000 0.149885
0.299242 0.000000 0.130196
0.409071 0.000000 0.138735
0.562468 0.000000 0.153318
0.722589 0.000000 0.179133
0.000000 0.084456 0.236572
0.000000 0.089246 0.233038
0.000000 0.099573 0.232362
0.063178 0.103744 0.233319
0.243332 0.084793 0.231586
0.347550 0.000000 0.193112
0.449861 0.000000 0.168057
0.587331 0.000000 0.171370
0.735771 0.000000 0.191749
0.000000 0.208481 0.262694
0.000000 0.218232 0.270841
0.000000 0.238975 0.264419
0.000000 0.252678 0.259688
0.217925 0.256372 0.265660
0.366503 0.212398 0.234687
0.499674 0.131825 0.207067
0.619852 0.000000 0.190691
0.759315 0.000000 0.200624
0.000000 0.338569 0.218727
0.000000 0.350142 0.214055
0.000000 0.363798 0.210492
0.000000 0.375081 0.205586
0.082697 0.380137 0.208778
0.377664 0.383055 0.219704
0.545206 0.316663 0.203639
0.665916 0.252210 0.195311
0.781161 0.138303 0.201538
0.000000 0.471557 0.000000
0.000000 0.476270 0.000000
0.000000 0.485215 0.000000
0.000000 0.500020 0.000000
0.000000 0.506256 0.000000
0.308733 0.516459 0.000000
0.561466 0.502371 0.000000
0.705600 0.450685 0.116485
0.818956 0.398991 0.178583
0.000000 0.596242 0.000000
0.000000 0.600290 0.000000
0.000000 0.604739 0.000000
0.000000 0.612731 0.000000
0.000000 0.620751 0.000000
0.280493 0.622137 0.000000
0.519697 0.622314 0.000000
0.713256 0.612283 0.000000
0.840863 0.578834 0.000000
0.000000 0.699610 0.000000
0.000000 0.699562 0.000000
0.157076 0.699444 0.000000
0.282142 0.695859 0.000000
0.423109 0.697933 0.000000
0.549479 0.702156 0.000000
0.694807 0.694742 0.000000
0.776955 0.698079 0.000000
0.850350 0.698779 0.000000
0.000000 0.000000 0.169290
0.000000 0.000000 0.160982
0.000000 0.000000 0.156343
0.040360 0.000000 0.153110
0.164340 0.000000 0.149530
0.264860 0.000000 0.117914
0.363797 0.000000 0.105313
0.515900 0.000000 0.165122
0.703549 0.000000 0.223559
0.000000 0.000000 0.187008
0.000000 0.000000 0.180677
0.000000 0.000000 0.176856
0.035353 0.000000 0.173373
0.172327 0.000000 0.172148
0.272103 0.000000 0.139075
0.373273 0.000000 0.126602
0.531591 0.000000 0.184567
0.713049 0.000000 0.230898
0.000000 0.000000 0.221193
0.000000 0.000000 0.217405
0.000000 0.000000 0.211942
0.000000 0.000000 0.210933
0.171926 0.000000 0.207532
0.292601 0.000000 0.182622
0.400119 0.000000 0.164480
0.559367 0.000000 0.208223
0.723752 0.000000 0.239039
0.000000 0.041540 0.274421
0.000000 0.044410 0.271941
0.000000 0.049085 0.271062
0.000000 0.050089 0.269795
0.176116 0.000000 0.266182
0.326753 0.000000 0.253817
0.445581 0.000000 0.228581
0.586672 0.000000 0.235546
0.736069 0.000000 0.249941
0.000000 0.154056 0.343500
0.000000 0.158656 0.340737
0.000000 0.172126 0.340292
0.000000 0.185308 0.341192
0.155633 0.195361 0.344831
0.366981 0.173672 0.350847
0.508757 0.042011 0.303486
0.622896 0.000000 0.271672
0.754066 0.000000 0.271511
0.000000 0.312772 0.373278
0.000000 0.315706 0.379576
0.000000 0.338314 0.373599
0.000000 0.364015 0.380560
0.000000 0.375300 0.376274
0.341978 0.375919 0.376783
0.519930 0.317304 0.349616
0.661218 0.241067 0.309810
0.786304 0.050798 0.301558
0.000000 0.485361 0.323098
0.000000 0.490280 0.324476
0.000000 0.495731 0.318863
0.000000 0.514885 0.316369
0.000000 0.517722 0.312778
0.241356 0.531202 0.316652
0.529229 0.529499 0.327421
0.695427 0.468459 0.308847
0.812041 0.407506 0.307582
0.000000 0.626244 0.124977
0.000000 0.626734 0.119129
0.000000 0.634170 0.116969
0.000000 0.638875 0.110291
0.000000 0.647096 0.116860
0.107159 0.657241 0.108674
0.476430 0.655542 0.139241
0.698858 0.654245 0.189224
0.830958 0.598855 0.222436
0.000000 0.733402 0.000000
0.000000 0.733601 0.000000
0.000000 0.737149 0.000000
0.000000 0.740554 0.000000
0.000000 0.744277 0.000000
0.125976 0.753424 0.000000
0.453703 0.752725 0.000000
0.667779 0.755385 0.000000
0.831245 0.742492 0.000000
0.000000 0.000000 0.222483
0.000000 0.000000 0.215537
0.000000 0.000000 0.206861
0.000000 0.000000 0.204756
0.105925 0.000000 0.199659
0.254772 0.000000 0.183909
0.361887 0.000000 0.138144
0.473841 0.000000 0.130104
0.684886 0.000000 0.250837
0.000000 0.000000 0.245196
0.000000 0.000000 0.235967
0.000000 0.000000 0.229621
0.000000 0.000000 0.225791
0.103266 0.000000 0.225105
0.257944 0.000000 0.212767
0.368164 0.000000 0.161943
0.485678 0.000000 0.155061
0.695511 0.000000 0.261130
0.000000 0.000000 0.276627
0.000000 0.000000 0.271793
0.000000 0.000000 0.268233
0.000000 0.000000 0.268986
0.096796 0.000000 0.268805
0.275046 0.000000 0.259008
0.396206 0.000000 0.213978
0.510913 0.000000 0.201218
0.707243 0.000000 0.288491
0.000000 0.000000 0.332260
0.000000 0.020180 0.324706
0.000000 0.026333 0.325029
0.000000 0.031209 0.323780
0.082242 0.000000 0.323823
0.270090 0.000000 0.325982
0.433334 0.000000 0.290744
0.559098 0.000000 0.274946
0.729179 0.000000 0.312883
0.000000 0.077575 0.391072
0.000000 0.081162 0.387319
0.000000 0.089781 0.386132
0.000000 0.094088 0.386984
0.052814 0.099888 0.392385
0.285599 0.059765 0.395325
0.495682 0.000000 0.372912
0.622055 0.000000 0.342146
0.756468 0.000000 0.343863
0.000000 0.248479 0.470203
0.000000 0.249596 0.472149
0.000000 0.261087 0.470104
0.000000 0.278715 0.474093
0.000000 0.295888 0.472219
0.260355 0.303352 0.480612
0.531021 0.276674 0.478509
0.678186 0.181641 0.433329
0.785509 0.000000 0.391830
0.000000 0.452388 0.504756
0.000000 0.463320 0.506569
0.000000 0.472714 0.509959
0.000000 0.490797 0.510071
0.000000 0.523616 0.509886
0.131518 0.528383 0.512775
0.491869 0.530149 0.509418
0.666348 0.467529 0.480390
0.807829 0.392518 0.439710
0.000000 0.633449 0.456111
0.000000 0.634136 0.456878
0.000000 0.638976 0.455564
0.000000 0.647248 0.451525
0.000000 0.659291 0.454862
0.000000 0.669813 0.446739
0.410063 0.671606 0.457890
0.659629 0.669044 0.457661
0.820288 0.622152 0.442775
0.000000 0.759814 0.261822
0.000000 0.759906 0.262048
0.000000 0.760063 0.259702
0.000000 0.763161 0.257612
0.000000 0.766096 0.256520
0.000000 0.774054 0.264855
0.382493 0.777399 0.265692
0.631779 0.772848 0.287966
0.812155 0.770234 0.334566
0.000000 0.000000 0.286313
0.000000 0.000000 0.279394
0.000000 0.000000 0.269969
0.000000 0.000000 0.268387
0.028246 0.000000 0.266196
0.192006 0.000000 0.259061
0.359867 0.000000 0.220372
0.471560 0.000000 0.161879
0.615421 0.000000 0.161031
0.000000 0.000000 0.309136
0.000000 0.000000 0.301637
0.000000 0.000000 0.295411
0.000000 0.000000 0.293549
0.000000 0.000000 0.291363
0.189907 0.000000 0.281885
0.367450 0.000000 0.252749
0.484462 0.000000 0.189472
0.627794 0.000000 0.191658
0.000000 0.000000 0.351504
0.000000 0.000000 0.347834
0.000000 0.000000 0.340459
0.000000 0.000000 0.335518
0.000000 0.000000 0.333161
0.184261 0.000000 0.331880
0.388132 0.000000 0.311622
0.503590 0.000000 0.248807
0.647603 0.000000 0.246762
0.000000 0.000000 0.405413
0.000000 0.000000 0.401443
0.000000 0.000000 0.396040
0.000000 0.000000 0.390277
0.000000 0.000000 0.392554
0.175209 0.000000 0.397492
0.394162 0.000000 0.393455
0.557650 0.000000 0.337909
0.694025 0.000000 0.323313
0.000000 0.050100 0.458904
0.000000 0.053885 0.457379
0.000000 0.061287 0.452485
0.000000 0.062928 0.457302
0.000000 0.070480 0.457131
0.173683 0.046932 0.459061
0.417764 0.000000 0.461432
0.615361 0.000000 0.437436
0.738794 0.000000 0.409288
0.000000 0.148126 0.524451
0.000000 0.148755 0.526358
0.000000 0.158876 0.520457
0.000000 0.168691 0.525834
0.000000 0.175106 0.524451
0.149322 0.182990 0.534756
0.447233 0.144948 0.530946
0.663296 0.000000 0.519738
0.790503 0.000000 0.479517
0.000000 0.373520 0.598118
0.000000 0.374729 0.599583
0.000000 0.379598 0.599026
0.000000 0.394918 0.600918
0.000000 0.415122 0.608150
0.000000 0.436961 0.606151
0.395191 0.443056 0.607234
0.664929 0.422094 0.610396
0.824222 0.326724 0.563470
0.000000 0.607808 0.629814
0.000000 0.612227 0.630984
0.000000 0.617557 0.639529
0.000000 0.623976 0.633522
0.000000 0.640763 0.635143
0.000000 0.662291 0.627078
0.337743 0.661185 0.632252
0.639686 0.658390 0.635054
0.789491 0.613012 0.607522
0.000000 0.770223 0.579206
0.000000 0.770440 0.576485
0.000000 0.773584 0.577278
0.000000 0.774034 0.569134
0.000000 0.774843 0.578705
0.000000 0.782346 0.571995
0.268103 0.788387 0.569106
0.587674 0.783540 0.578127
0.778812 0.779822 0.584365
0.000000 0.000000 0.352741
0.000000 0.000000 0.349048
0.000000 0.000000 0.348561
0.000000 0.000000 0.342971
0.000000 0.000000 0.337448
0.131215 0.000000 0.330076
0.299600 0.000000 0.319307
0.480133 0.000000 0.251147
0.609381 0.000000 0.167155
0.000000 0.000000 0.381425
0.000000 0.000000 0.374847
0.000000 0.000000 0.369315
0.000000 0.000000 0.370403
0.000000 0.000000 0.366968
0.121373 0.000000 0.361724
0.295686 0.000000 0.352667
0.491783 0.000000 0.285753
0.614594 0.000000 0.197003
0.000000 0.000000 0.425772
0.000000 0.000000 0.423996
0.000000 0.000000 0.415164
0.000000 0.000000 0.416620
0.000000 0.000000 0.415010
0.094726 0.000000 0.412094
0.295958 0.000000 0.402602
0.512002 0.000000 0.358196
0.630778 0.000000 0.254103
0.000000 0.000000 0.475710
0.000000 0.000000 0.474293
0.000000 0.000000 0.474302
0.000000 0.000000 0.472111
0.000000 0.000000 0.470643
0.043251 0.000000 0.473867
0.290591 0.000000 0.472993
0.544460 0.000000 0.451490
0.683397 0.000000 0.366522
0.000000 0.029438 0.533620
0.000000 0.035086 0.535647
0.000000 0.039223 0.528732
0.000000 0.046023 0.529934
0.000000 0.055902 0.528463
0.000000 0.039263 0.531080
0.298767 0.000000 0.534371
0.574966 0.000000 0.534887
0.733660 0.000000 0.479790
0.000000 0.110056 0.586902
0.000000 0.114675 0.588556
0.000000 0.119948 0.584991
0.000000 0.124268 0.589177
0.000000 0.130052 0.592588
0.000000 0.137742 0.591427
0.307509 0.115292 0.595069
0.588245 0.000000 0.598971
0.786655 0.000000 0.560288
0.000000 0.239132 0.647716
0.000000 0.239847 0.649097
0.000000 0.244687 0.648230
0.000000 0.255919 0.642335
0.000000 0.270411 0.648337
0.000000 0.276602 0.652113
0.301756 0.286914 0.661526
0.591567 0.249935 0.661452
0.820263 0.160697 0.640682
0.000000 0.516939 0.712341
0.000000 0.521051 0.713254
0.000000 0.529279 0.715067
0.000000 0.538226 0.714596
0.000000 0.541637 0.718279
0.000000 0.561809 0.723252
0.171246 0.572897 0.720982
0.544285 0.580464 0.720102
0.802859 0.561488 0.725746
0.000000 0.748860 0.741328
0.000000 0.752366 0.741920
0.000000 0.755965 0.739971
0.000000 0.759768 0.738401
0.000000 0.761585 0.743968
0.000000 0.770935 0.747178
0.000000 0.785285 0.736788
0.526576 0.783394 0.738151
0.763177 0.776253 0.740125
