Assets/Lutify-Free-LUTs-Pack/Lutify Free LUTs Pack/Film Tone Pro - Film Tone 3/Lutify.me-FilmTone3-LogC4-to-Rec709.cube
# Created with: fylm.ai - Colour Grading and Collaboration Software in Cloud 
# Website: https://fylm.ai 
# META
# Option: Gamut compress
# Block 1: IDT | Arri Alexa 35 - LogC4
# Block 2: colourMatch | Blending Mode: Normal | {"ColorSpace":0,"CrossCovarianceLimit":50,"ReshapingIterations":1,"PercentSaturationShift":100,"PercentShadingShift":100,"ExtraShading":true,"PercentTint":100,"PercentModified":100}
# Block 3: subtractiveColour | Blending Mode: Normal | {"sliders":{"gainY":0.6,"C":0.3,"M":0.3,"Y":0.3}}
# Block 4: LUT | Filmic Curve Response: Low Contrast 2 (100%)
# Block 5: logPrimaries | Blending Mode: Normal | {"wheels":{"shadows":{"Y":"0","R":"1","G":"1","B":"1"},"midtones":{"Y":"0","R":"1","G":"1","B":"1"},"highlights":{"Y":"0","R":"1","G":"1","B":"1"},"offset":{"Y":"0","R":"1","G":"1","B":"1"}},"sliders":{"shadows":{"Y":0,"R":-0.026,"G":0.03,"B":0.1},"midtones":{"Y":0,"R":0.024,"G":-0.036,"B":0.036},"highlights":{"Y":0,"R":0,"G":0.044,"B":-0.128},"offset":{"Y":0,"R":0,"G":0,"B":0}}}
# Block 6: hueSaturation | Blending Mode: Normal | {"hue":0,"saturation":-0.1}
# Block 7: ODT | Rec709
TITLE "Lutify.me-FilmTone3-LogC4-to-Rec709" 
LUT_3D_SIZE 9
0.000000 0.000000 0.000000
0.059604 0.000000 0.000000
0.268790 0.000000 0.000000
0.594169 0.000000 0.000000
0.961601 0.000000 0.122112
1.000000 0.392480 0.366218
1.000000 0.773271 0.681201
1.000000 0.930013 0.880808
1.000000 0.988392 0.965770
0.000000 0.054224 0.000000
0.060462 0.054931 0.000000
0.300696 0.000000 0.000000
0.619359 0.000000 0.000000
0.965074 0.000000 0.125625
1.000000 0.399480 0.366101
1.000000 0.773271 0.681201
1.000000 0.930013 0.880808
1.000000 0.988392 0.965770
0.000000 0.244241 0.000000
0.000000 0.274243 0.000000
0.409021 0.256130 0.000000
0.693620 0.053719 0.000000
0.973586 0.000000 0.135547
1.000000 0.439229 0.371433
1.000000 0.781620 0.682722
1.000000 0.931138 0.880898
1.000000 0.988392 0.965770
0.000000 0.561034 0.000000
0.000000 0.578953 0.000000
0.000000 0.626012 0.000000
0.744923 0.599633 0.000000
0.979417 0.498463 0.132148
1.000000 0.548875 0.393320
1.000000 0.794340 0.686506
1.000000 0.932256 0.880990
1.000000 0.989069 0.966253
0.000000 0.863130 0.243693
0.000000 0.867862 0.240391
0.000000 0.872879 0.228638
0.440442 0.879517 0.196311
0.928037 0.856899 0.180186
1.000000 0.808689 0.464159
1.000000 0.836686 0.711989
1.000000 0.938265 0.884017
1.000000 0.989726 0.966333
0.000000 0.981131 0.619241
0.000000 0.980967 0.616586
0.000000 0.981878 0.614558
0.411066 0.979304 0.612315
0.815666 0.971235 0.607147
0.989945 0.962281 0.617324
1.000000 0.938639 0.773568
1.000000 0.953121 0.892544
1.000000 0.991515 0.967578
0.712432 1.000000 0.860067
0.714713 1.000000 0.860122
0.723717 1.000000 0.859220
0.753999 1.000000 0.858880
0.815190 1.000000 0.859714
0.935670 1.000000 0.861823
1.000000 1.000000 0.875169
1.000000 0.993945 0.922000
1.000000 0.998046 0.972046
0.916697 1.000000 0.960047
0.917223 1.000000 0.960068
0.917750 1.000000 0.960088
0.919849 1.000000 0.959830
0.928711 1.000000 0.960438
0.947804 1.000000 0.960854
0.988183 1.000000 0.963586
1.000000 1.000000 0.971324
1.000000 1.000000 0.987889
0.974446 1.000000 0.993625
0.974446 1.000000 0.993625
0.974446 1.000000 0.993625
0.974693 1.000000 0.993632
0.975883 1.000000 0.993662
0.979300 1.000000 0.993919
0.988369 1.000000 0.993615
1.000000 1.000000 0.994275
1.000000 1.000000 0.995894
0.000000 0.000000 0.030005
0.040678 0.000000 0.014665
0.259919 0.000000 0.000000
0.598892 0.000000 0.034524
0.963211 0.000000 0.139963
1.000000 0.392741 0.371328
1.000000 0.773271 0.681201
1.000000 0.930013 0.880808
1.000000 0.988392 0.965770
0.000000 0.045500 0.061507
0.037919 0.050604 0.052861
0.290701 0.000000 0.022305
0.621824 0.000000 0.042688
0.963989 0.000000 0.144071
1.000000 0.400000 0.376396
1.000000 0.773271 0.681201
1.000000 0.930013 0.880808
1.000000 0.988392 0.965770
0.000000 0.250668 0.000000
0.000000 0.278587 0.000000
0.369439 0.291355 0.000000
0.697274 0.081226 0.000000
0.974610 0.000000 0.152629
1.000000 0.439614 0.379251
1.000000 0.781620 0.682722
1.000000 0.931138 0.880898
1.000000 0.988392 0.965770
0.000000 0.564789 0.000000
0.000000 0.596633 0.000000
0.000000 0.638109 0.000000
0.739827 0.625527 0.000000
0.979353 0.504056 0.167677
1.000000 0.549251 0.401418
1.000000 0.794403 0.689090
1.000000 0.932256 0.880990
1.000000 0.989069 0.966253
0.000000 0.863842 0.286544
0.000000 0.866595 0.276556
0.000000 0.875340 0.269012
0.433381 0.881885 0.241479
0.925887 0.859345 0.225152
1.000000 0.808959 0.475621
1.000000 0.836686 0.711989
1.000000 0.938265 0.884017
1.000000 0.989726 0.966333
0.000000 0.981167 0.630956
0.000000 0.981003 0.628289
0.000000 0.981895 0.620349
0.411027 0.979322 0.620845
0.813157 0.971361 0.615017
0.989664 0.962327 0.626950
1.000000 0.938658 0.775361
1.000000 0.953121 0.892544
1.000000 0.991515 0.967578
0.712460 1.000000 0.861183
0.714741 1.000000 0.861237
0.723742 1.000000 0.860339
0.753999 1.000000 0.858880
0.815190 1.000000 0.859714
0.935642 1.000000 0.862804
1.000000 1.000000 0.875169
1.000000 0.993945 0.922000
1.000000 0.998046 0.972046
0.916708 1.000000 0.960387
0.917223 1.000000 0.960068
0.917750 1.000000 0.960088
0.919860 1.000000 0.960169
0.928711 1.000000 0.960438
0.947804 1.000000 0.960854
0.988183 1.000000 0.963586
1.000000 1.000000 0.971324
1.000000 1.000000 0.988071
0.974446 1.000000 0.993625
0.974446 1.000000 0.993625
0.974446 1.000000 0.993625
0.974693 1.000000 0.993632
0.975886 1.000000 0.993809
0.979300 1.000000 0.993919
0.988369 1.000000 0.993615
1.000000 1.000000 0.994275
1.000000 1.000000 0.995894
0.000000 0.000000 0.147684
0.000000 0.000000 0.107182
0.258139 0.000000 0.063080
0.603623 0.000000 0.118927
0.965480 0.000000 0.206405
1.000000 0.390644 0.400190
1.000000 0.773408 0.686461
1.000000 0.930013 0.880808
1.000000 0.988400 0.966177
0.000000 0.000000 0.214955
0.000000 0.000000 0.180521
0.285319 0.000000 0.132685
0.629157 0.000000 0.144262
0.968533 0.000000 0.209729
1.000000 0.397654 0.400118
1.000000 0.773408 0.686461
1.000000 0.930013 0.880808
1.000000 0.988400 0.966177
0.000000 0.215384 0.372967
0.000000 0.261949 0.347840
0.306419 0.333160 0.338962
0.700812 0.077050 0.218432
0.976003 0.000000 0.224002
1.000000 0.434152 0.408588
1.000000 0.779992 0.687865
1.000000 0.931162 0.881810
1.000000 0.988400 0.966177
0.000000 0.580219 0.365949
0.000000 0.611838 0.335276
0.000000 0.666063 0.313379
0.711243 0.667938 0.289426
0.979814 0.509931 0.267229
1.000000 0.547304 0.431687
1.000000 0.794528 0.694231
1.000000 0.932279 0.881899
1.000000 0.989069 0.966253
0.000000 0.867523 0.407083
0.000000 0.868598 0.403587
0.000000 0.879179 0.396277
0.412416 0.885756 0.377284
0.918135 0.868173 0.363661
1.000000 0.811474 0.501873
1.000000 0.835321 0.716709
1.000000 0.938287 0.884892
1.000000 0.989726 0.966333
0.000000 0.981468 0.656866
0.000000 0.981166 0.657371
0.000000 0.981432 0.651507
0.410748 0.979379 0.649395
0.807572 0.972836 0.646137
0.988652 0.963034 0.652047
1.000000 0.939405 0.779170
1.000000 0.953139 0.893370
1.000000 0.991515 0.967578
0.710228 1.000000 0.863344
0.712518 1.000000 0.863397
0.721579 1.000000 0.863606
0.754048 1.000000 0.862212
0.815183 1.000000 0.862934
0.935588 1.000000 0.864753
1.000000 1.000000 0.878184
1.000000 0.993949 0.922596
1.000000 0.998046 0.972046
0.916708 1.000000 0.960387
0.916708 1.000000 0.960387
0.917235 1.000000 0.960407
0.919860 1.000000 0.960169
0.928721 1.000000 0.960765
0.947806 1.000000 0.961173
0.987922 1.000000 0.964095
1.000000 1.000000 0.971512
1.000000 1.000000 0.988071
0.974446 1.000000 0.993625
0.974446 1.000000 0.993625
0.974446 1.000000 0.993625
0.974693 1.000000 0.993632
0.975886 1.000000 0.993809
0.979300 1.000000 0.993919
0.988369 1.000000 0.993615
1.000000 1.000000 0.994275
1.000000 1.000000 0.995894
0.000000 0.000000 0.345251
0.000000 0.000000 0.309662
0.220809 0.000000 0.295452
0.544175 0.000000 0.146165
0.965677 0.000000 0.390619
1.000000 0.396041 0.479828
1.000000 0.772191 0.709603
1.000000 0.930085 0.883534
1.000000 0.988400 0.966177
0.000000 0.000000 0.412418
0.000000 0.000000 0.385580
0.197355 0.000000 0.384855
0.596819 0.000000 0.259376
0.969056 0.000000 0.400737
1.000000 0.404723 0.483401
1.000000 0.772191 0.709603
1.000000 0.930085 0.883534
1.000000 0.988400 0.966177
0.000000 0.118004 0.545182
0.000000 0.156518 0.523671
0.073158 0.192329 0.523940
0.720707 0.000000 0.473562
0.978983 0.000000 0.433580
1.000000 0.436984 0.492344
1.000000 0.775835 0.709707
1.000000 0.930085 0.883534
1.000000 0.988400 0.966177
0.000000 0.478551 0.676833
0.000000 0.553079 0.652666
0.000000 0.651534 0.653859
0.672987 0.680947 0.648789
0.968895 0.513669 0.522099
1.000000 0.559133 0.516706
1.000000 0.793385 0.716811
1.000000 0.932326 0.883703
1.000000 0.989069 0.966253
0.000000 0.872123 0.669368
0.000000 0.877058 0.666398
0.000000 0.884510 0.658511
0.333012 0.891541 0.646146
0.900035 0.883725 0.636982
1.000000 0.813129 0.590176
1.000000 0.835782 0.737898
1.000000 0.938330 0.886631
1.000000 0.989733 0.966735
0.000000 0.984183 0.732854
0.000000 0.983907 0.733252
0.000000 0.983338 0.727719
0.393086 0.979795 0.724059
0.798508 0.973338 0.722502
0.983215 0.965172 0.724714
1.000000 0.940259 0.793088
1.000000 0.953156 0.894194
1.000000 0.991521 0.967969
0.705922 1.000000 0.872889
0.710519 1.000000 0.872983
0.719584 1.000000 0.871784
0.747649 1.000000 0.871379
0.815176 1.000000 0.872283
0.934540 1.000000 0.872740
1.000000 1.000000 0.882648
1.000000 0.993922 0.923916
1.000000 0.998046 0.972046
0.916755 1.000000 0.961742
0.916755 1.000000 0.961742
0.917280 1.000000 0.961761
0.920780 1.000000 0.961982
0.928746 1.000000 0.961744
0.947340 1.000000 0.962107
0.987913 1.000000 0.964365
1.000000 1.000000 0.971904
1.000000 1.000000 0.988071
0.974446 1.000000 0.993625
0.974446 1.000000 0.993625
0.974446 1.000000 0.993625
0.974693 1.000000 0.993632
0.975886 1.000000 0.993809
0.979301 1.000000 0.994062
0.988369 1.000000 0.993615
1.000000 1.000000 0.994397
1.000000 1.000000 0.995991
0.000000 0.060988 0.645698
0.000000 0.066390 0.648211
0.000000 0.075556 0.650799
0.577765 0.000000 0.646971
0.908851 0.000000 0.448839
1.000000 0.358412 0.685391
1.000000 0.772376 0.759244
1.000000 0.929051 0.888149
1.000000 0.988414 0.966986
0.000000 0.087270 0.668128
0.000000 0.094289 0.667561
0.000000 0.107198 0.672902
0.576200 0.000000 0.663474
0.934249 0.000000 0.524626
1.000000 0.366728 0.691865
1.000000 0.774213 0.759264
1.000000 0.929051 0.888149
1.000000 0.988414 0.966986
0.000000 0.159722 0.716008
0.000000 0.169374 0.712429
0.000000 0.194999 0.714281
0.575239 0.116855 0.722147
0.976876 0.000000 0.631834
1.000000 0.410481 0.701525
1.000000 0.780837 0.762322
1.000000 0.929051 0.888149
1.000000 0.988414 0.966986
0.000000 0.418468 0.796158
0.000000 0.432806 0.798005
0.000000 0.476324 0.800939
0.464085 0.516147 0.796505
0.986538 0.394244 0.756121
1.000000 0.543678 0.722917
1.000000 0.795848 0.765485
1.000000 0.931933 0.889841
1.000000 0.988422 0.967388
0.000000 0.792508 0.860743
0.000000 0.823912 0.854418
0.000000 0.863584 0.854302
0.000000 0.892927 0.851860
0.870814 0.883445 0.847667
1.000000 0.812905 0.781531
1.000000 0.837626 0.784471
1.000000 0.937930 0.891764
1.000000 0.989311 0.967484
0.000000 0.986047 0.862357
0.000000 0.986399 0.862698
0.000000 0.985788 0.862254
0.257270 0.982520 0.857641
0.785561 0.975354 0.850859
0.970963 0.969920 0.853503
1.000000 0.940385 0.831566
1.000000 0.953279 0.899914
1.000000 0.991540 0.969131
0.700002 1.000000 0.896096
0.702317 1.000000 0.896134
0.711483 1.000000 0.896282
0.741008 1.000000 0.896579
0.812529 1.000000 0.894320
0.933107 1.000000 0.893858
1.000000 1.000000 0.901807
1.000000 0.994368 0.929464
1.000000 0.998060 0.973425
0.916349 1.000000 0.965072
0.916349 1.000000 0.965072
0.916872 1.000000 0.965090
0.920362 1.000000 0.964930
0.928327 1.000000 0.964960
0.946867 1.000000 0.965040
0.987081 1.000000 0.966980
1.000000 1.000000 0.973630
1.000000 1.000000 0.988300
0.973959 1.000000 0.993905
0.973959 1.000000 0.993905
0.974452 1.000000 0.993920
0.974698 1.000000 0.993928
0.975891 1.000000 0.994098
0.979303 1.000000 0.994345
0.988364 1.000000 0.993894
1.000000 1.000000 0.994726
1.000000 1.000000 0.996281
0.000000 0.285163 0.880876
0.000000 0.290101 0.879851
0.000000 0.297835 0.882095
0.355500 0.295712 0.878594
0.940871 0.118687 0.869358
1.000000 0.000000 0.775137
1.000000 0.746929 0.867127
1.000000 0.927857 0.908671
1.000000 0.988480 0.970528
0.000000 0.296372 0.884256
0.000000 0.301557 0.883291
0.000000 0.312065 0.883704
0.350284 0.311589 0.881981
0.939617 0.169570 0.871189
1.000000 0.000000 0.787035
1.000000 0.748961 0.867076
1.000000 0.927857 0.908671
1.000000 0.988480 0.970528
0.000000 0.332222 0.890643
0.000000 0.335564 0.891334
0.000000 0.342446 0.891769
0.327292 0.356513 0.888197
0.934836 0.266725 0.881320
1.000000 0.000000 0.814393
1.000000 0.758372 0.868587
1.000000 0.928469 0.909138
1.000000 0.988480 0.970528
0.000000 0.457214 0.904671
0.000000 0.458669 0.905384
0.000000 0.465071 0.904327
0.204157 0.491120 0.905016
0.910173 0.459908 0.898992
1.000000 0.338971 0.860723
1.000000 0.781659 0.873883
1.000000 0.929647 0.910009
1.000000 0.989147 0.970588
0.000000 0.768877 0.928679
0.000000 0.770031 0.929071
0.000000 0.784688 0.926872
0.000000 0.802448 0.926414
0.786831 0.807717 0.921292
1.000000 0.753350 0.905421
1.000000 0.834082 0.886347
1.000000 0.936355 0.911977
1.000000 0.989367 0.970608
0.000000 0.963578 0.951304
0.000000 0.968961 0.951249
0.000000 0.975437 0.950895
0.000000 0.981195 0.950286
0.722627 0.978207 0.947667
0.956936 0.972329 0.942376
1.000000 0.940260 0.914714
1.000000 0.952766 0.919382
1.000000 0.991583 0.971772
0.660875 1.000000 0.954374
0.663277 1.000000 0.954389
0.675952 1.000000 0.954585
0.708845 1.000000 0.953717
0.801762 1.000000 0.952120
0.923254 1.000000 0.948505
1.000000 1.000000 0.949449
1.000000 0.994439 0.942455
1.000000 0.998088 0.976092
0.915145 1.000000 0.973655
0.915145 1.000000 0.973655
0.915664 1.000000 0.973669
0.917222 1.000000 0.973712
0.925831 1.000000 0.974204
0.945139 1.000000 0.973706
0.986580 1.000000 0.974400
1.000000 1.000000 0.980395
1.000000 1.000000 0.990277
0.973755 1.000000 0.995608
0.974002 1.000000 0.995615
0.974002 1.000000 0.995615
0.974493 1.000000 0.995627
0.975463 1.000000 0.995516
0.978877 1.000000 0.995835
0.987982 1.000000 0.995497
1.000000 1.000000 0.995878
1.000000 1.000000 0.997273
0.000000 0.608797 0.976001
0.000000 0.612022 0.975852
0.000000 0.618209 0.975565
0.375762 0.619512 0.974669
0.735163 0.618446 0.970834
1.000000 0.589749 0.967382
1.000000 0.438085 0.927083
1.000000 0.921854 0.955894
1.000000 0.987707 0.979640
0.000000 0.612059 0.975846
0.000000 0.618554 0.975541
0.000000 0.621487 0.975410
0.373004 0.622825 0.974516
0.734046 0.621883 0.970688
1.000000 0.593488 0.967963
1.000000 0.445219 0.928068
1.000000 0.922470 0.955880
1.000000 0.987707 0.979640
0.000000 0.625119 0.975220
0.000000 0.628357 0.975068
0.000000 0.631325 0.974937
0.364526 0.632916 0.974749
0.730692 0.632337 0.970950
1.000000 0.614918 0.967876
1.000000 0.476369 0.931852
1.000000 0.922470 0.955880
1.000000 0.987707 0.979640
0.000000 0.665405 0.978047
0.000000 0.665394 0.978056
0.000000 0.668504 0.977910
0.321464 0.676495 0.975378
0.710802 0.677586 0.973061
1.000000 0.666933 0.968546
1.000000 0.571066 0.939878
1.000000 0.923741 0.957016
1.000000 0.987998 0.979711
0.000000 0.781504 0.980474
0.000000 0.781485 0.980482
0.000000 0.781287 0.980516
0.000000 0.784665 0.978465
0.666717 0.793236 0.976603
0.983246 0.782490 0.972166
1.000000 0.747269 0.955852
1.000000 0.931529 0.958138
1.000000 0.988680 0.980060
0.000000 0.939502 0.987667
0.000000 0.939333 0.987684
0.000000 0.938680 0.987728
0.000000 0.942305 0.986959
0.601740 0.942285 0.984112
0.920823 0.935758 0.982028
1.000000 0.914764 0.973094
1.000000 0.951961 0.963028
1.000000 0.991760 0.981269
0.000000 1.000000 0.997321
0.000000 1.000000 0.997307
0.000000 1.000000 0.997094
0.343039 1.000000 0.996632
0.691423 1.000000 0.995590
0.905419 1.000000 0.993804
0.996623 1.000000 0.991183
1.000000 0.994935 0.979459
1.000000 0.998439 0.984720
0.909274 1.000000 0.997122
0.909274 1.000000 0.997122
0.909764 1.000000 0.997126
0.911704 1.000000 0.996981
0.920410 1.000000 0.996303
0.942111 1.000000 0.995854
0.983821 1.000000 0.994728
1.000000 1.000000 0.995108
1.000000 1.000000 0.995799
0.972955 1.000000 1.000000
0.972955 1.000000 1.000000
0.972955 1.000000 1.000000
0.973200 1.000000 1.000000
0.974896 1.000000 1.000000
0.978132 1.000000 1.000000
0.987137 1.000000 0.999918
1.000000 1.000000 0.999903
1.000000 1.000000 1.000000
0.597320 0.856974 1.000000
0.597320 0.856974 1.000000
0.612942 0.856542 1.000000
0.646323 0.857271 1.000000
0.739041 0.855880 1.000000
0.903888 0.853505 1.000000
1.000000 0.849910 1.000000
1.000000 0.831815 0.984358
1.000000 0.985631 1.000000
0.597320 0.856974 1.000000
0.597320 0.856974 1.000000
0.612942 0.856542 1.000000
0.646323 0.857271 1.000000
0.739041 0.855880 1.000000
0.903230 0.855145 1.000000
1.000000 0.851423 1.000000
1.000000 0.833502 0.984285
1.000000 0.985874 1.000000
0.596397 0.858700 1.000000
0.596397 0.858700 1.000000
0.612042 0.858268 1.000000
0.645475 0.858982 1.000000
0.738276 0.857574 1.000000
0.903230 0.855145 1.000000
1.000000 0.852922 1.000000
1.000000 0.835238 0.985072
1.000000 0.985874 1.000000
0.594029 0.863863 1.000000
0.594029 0.863863 1.000000
0.609719 0.863431 1.000000
0.643261 0.864097 1.000000
0.736189 0.862642 1.000000
0.900046 0.863184 1.000000
1.000000 0.858931 1.000000
1.000000 0.845673 0.986716
1.000000 0.985894 1.000000
0.582499 0.881952 1.000000
0.587878 0.881808 1.000000
0.603595 0.881377 1.000000
0.631847 0.883463 1.000000
0.728493 0.883036 1.000000
0.891416 0.881077 1.000000
1.000000 0.879019 1.000000
1.000000 0.871377 0.990481
1.000000 0.986870 1.000000
0.569596 0.929988 1.000000
0.574887 0.929847 1.000000
0.579833 0.930719 1.000000
0.613849 0.931745 1.000000
0.709369 0.930542 1.000000
0.867620 0.929141 1.000000
1.000000 0.925788 1.000000
1.000000 0.922522 0.997431
1.000000 0.990494 1.000000
0.608467 1.000000 1.000000
0.611961 1.000000 1.000000
0.626112 1.000000 1.000000
0.651735 1.000000 1.000000
0.730328 0.998555 1.000000
0.854255 0.997015 1.000000
0.980915 0.993651 1.000000
1.000000 0.985154 1.000000
1.000000 0.998257 1.000000
0.817613 1.000000 1.000000
0.818464 1.000000 1.000000
0.820740 1.000000 1.000000
0.837383 1.000000 1.000000
0.871268 1.000000 1.000000
0.916260 1.000000 1.000000
0.977023 1.000000 1.000000
1.000000 1.000000 1.000000
1.000000 1.000000 1.000000
0.969781 1.000000 1.000000
0.969781 1.000000 1.000000
0.969761 1.000000 1.000000
0.969981 1.000000 1.000000
0.971079 1.000000 1.000000
0.974766 1.000000 1.000000
0.984169 1.000000 1.000000
1.000000 1.000000 1.000000
1.000000 1.000000 1.000000
0.872268 0.961409 1.000000
0.871848 0.962665 1.000000
0.873429 0.962597 1.000000
0.876555 0.962465 1.000000
0.888233 0.962520 1.000000
0.919172 0.962958 1.000000
0.981452 0.961321 1.000000
1.000000 0.963211 1.000000
1.000000 0.939072 1.000000
0.871848 0.962665 1.000000
0.871848 0.962665 1.000000
0.873429 0.962597 1.000000
0.876555 0.962465 1.000000
0.888233 0.962520 1.000000
0.919172 0.962958 1.000000
0.981452 0.961321 1.000000
1.000000 0.963205 1.000000
1.000000 0.939465 1.000000
0.871848 0.962665 1.000000
0.871848 0.962665 1.000000
0.873429 0.962597 1.000000
0.876555 0.962465 1.000000
0.888020 0.963135 1.000000
0.919172 0.962958 1.000000
0.981452 0.961321 1.000000
1.000000 0.963205 1.000000
1.000000 0.939465 1.000000
0.871819 0.963335 1.000000
0.871819 0.963335 1.000000
0.873396 0.963268 1.000000
0.876347 0.963084 1.000000
0.888020 0.963135 1.000000
0.919038 0.963607 1.000000
0.981207 0.961899 1.000000
1.000000 0.963687 1.000000
1.000000 0.940262 1.000000
0.871034 0.965761 1.000000
0.871034 0.965761 1.000000
0.872606 0.965694 1.000000
0.875715 0.965561 1.000000
0.887490 0.965640 1.000000
0.916864 0.966615 1.000000
0.980255 0.964190 1.000000
1.000000 0.966814 1.000000
1.000000 0.944957 1.000000
0.868945 0.974217 1.000000
0.868945 0.974217 1.000000
0.870491 0.974149 1.000000
0.875059 0.973948 1.000000
0.885027 0.974525 1.000000
0.914352 0.974710 1.000000
0.976004 0.973096 1.000000
1.000000 0.973593 1.000000
1.000000 0.957126 1.000000
0.865462 0.994842 1.000000
0.865462 0.994842 1.000000
0.866889 0.994775 1.000000
0.869712 0.994642 1.000000
0.880640 0.994433 1.000000
0.911368 0.994401 1.000000
0.969031 0.993273 1.000000
1.000000 0.992589 1.000000
1.000000 0.983154 1.000000
0.897719 1.000000 1.000000
0.899197 1.000000 1.000000
0.899197 1.000000 1.000000
0.901751 1.000000 1.000000
0.908158 1.000000 1.000000
0.927303 1.000000 1.000000
0.967712 1.000000 1.000000
1.000000 1.000000 1.000000
1.000000 1.000000 1.000000
0.931272 1.000000 1.000000
0.931272 1.000000 1.000000
0.932059 1.000000 1.000000
0.933198 1.000000 1.000000
0.936269 1.000000 1.000000
0.951385 1.000000 1.000000
0.974252 1.000000 1.000000
1.000000 1.000000 1.000000
1.000000 1.000000 1.000000
