Assets/Lutify-Free-LUTs-Pack/Lutify Free LUTs Pack/Film Tone Pro - Film Tone 3/Lutify.me-FilmTone3-NLog-to-Rec709.cube
# Created with: fylm.ai - Colour Grading and Collaboration Software in Cloud 
# Website: https://fylm.ai 
# META
# Option: Gamut compress
# Block 1: IDT | Nikon BT2020 N-Log
# Block 2: colourMatch | Blending Mode: Normal | {"ColorSpace":0,"CrossCovarianceLimit":50,"ReshapingIterations":1,"PercentSaturationShift":100,"PercentShadingShift":100,"ExtraShading":true,"PercentTint":100,"PercentModified":100}
# Block 3: subtractiveColour | Blending Mode: Normal | {"sliders":{"gainY":0.6,"C":0.3,"M":0.3,"Y":0.3}}
# Block 4: LUT | Filmic Curve Response: Low Contrast 2 (100%)
# Block 5: logPrimaries | Blending Mode: Normal | {"wheels":{"shadows":{"Y":"0","R":"1","G":"1","B":"1"},"midtones":{"Y":"0","R":"1","G":"1","B":"1"},"highlights":{"Y":"0","R":"1","G":"1","B":"1"},"offset":{"Y":"0","R":"1","G":"1","B":"1"}},"sliders":{"shadows":{"Y":0,"R":-0.026,"G":0.03,"B":0.1},"midtones":{"Y":0,"R":0.024,"G":-0.036,"B":0.036},"highlights":{"Y":0,"R":0,"G":0.044,"B":-0.128},"offset":{"Y":0,"R":0,"G":0,"B":0}}}
# Block 6: hueSaturation | Blending Mode: Normal | {"hue":0,"saturation":-0.1}
# Block 7: ODT | Rec709
TITLE "Lutify.me-FilmTone3-NLog-to-Rec709" 
LUT_3D_SIZE 9
0.000000 0.000000 0.000000
0.000000 0.000000 0.000000
0.154469 0.000000 0.000000
0.338846 0.000000 0.000000
0.554447 0.000000 0.000000
0.785311 0.000000 0.060676
0.988382 0.000000 0.149685
1.000000 0.387416 0.298936
1.000000 0.637293 0.498996
0.000000 0.000000 0.000000
0.000000 0.000000 0.000000
0.162952 0.000000 0.000000
0.349142 0.000000 0.000000
0.556353 0.000000 0.006139
0.789770 0.000000 0.060752
0.988429 0.000000 0.152055
1.000000 0.387416 0.298936
1.000000 0.637293 0.498996
0.000000 0.133436 0.000000
0.000000 0.136038 0.000000
0.218117 0.146056 0.000000
0.412688 0.000000 0.000000
0.604035 0.000000 0.000000
0.806292 0.000000 0.063779
0.992257 0.072432 0.155533
1.000000 0.406814 0.303426
1.000000 0.643648 0.504587
0.000000 0.310105 0.000000
0.000000 0.316493 0.000000
0.000000 0.364965 0.000000
0.483951 0.336816 0.000000
0.678199 0.289591 0.000000
0.851700 0.218277 0.045446
0.997854 0.248600 0.165621
1.000000 0.451108 0.313928
1.000000 0.658821 0.507270
0.000000 0.523449 0.000000
0.000000 0.531486 0.000000
0.000000 0.554065 0.000000
0.282457 0.581392 0.000000
0.690804 0.555858 0.000000
0.875416 0.514326 0.000000
0.990959 0.472920 0.178568
1.000000 0.533657 0.331524
1.000000 0.683329 0.510972
0.000000 0.735987 0.109849
0.000000 0.739879 0.109240
0.000000 0.743289 0.076365
0.000000 0.766412 0.000000
0.549802 0.768897 0.000000
0.847768 0.752818 0.000000
0.966422 0.716911 0.204311
1.000000 0.698682 0.365573
1.000000 0.745361 0.532520
0.000000 0.881745 0.347520
0.000000 0.881805 0.348072
0.000000 0.883445 0.340995
0.000000 0.884044 0.337297
0.400550 0.888247 0.323699
0.758440 0.881409 0.323774
0.931018 0.873133 0.325351
1.000000 0.851843 0.446122
1.000000 0.842331 0.581128
0.000000 0.957165 0.574554
0.000000 0.957086 0.574691
0.000000 0.957568 0.575934
0.000000 0.956657 0.566830
0.431650 0.953602 0.565907
0.698243 0.950606 0.562300
0.874326 0.945899 0.569954
0.977482 0.941541 0.566361
1.000000 0.929071 0.668587
0.539004 0.993789 0.760999
0.539004 0.993789 0.760999
0.549264 0.993524 0.761186
0.580179 0.993615 0.760667
0.632594 0.992496 0.758207
0.717286 0.991338 0.756669
0.838206 0.987558 0.756139
0.938446 0.984007 0.759268
0.996820 0.982499 0.774344
0.000000 0.000000 0.000000
0.000000 0.000000 0.000000
0.154490 0.000000 0.000000
0.340070 0.000000 0.000000
0.556249 0.000000 0.022625
0.786780 0.000000 0.068083
0.988604 0.000000 0.153691
1.000000 0.387177 0.303027
1.000000 0.637293 0.498996
0.000000 0.000000 0.000000
0.000000 0.000000 0.000000
0.159379 0.000000 0.000000
0.350625 0.000000 0.000000
0.557898 0.000000 0.023634
0.791231 0.000000 0.068282
0.988522 0.000000 0.154602
1.000000 0.387686 0.303387
1.000000 0.637293 0.498996
0.000000 0.134270 0.000000
0.000000 0.138811 0.000000
0.212257 0.152385 0.000000
0.414856 0.032276 0.000000
0.598854 0.000000 0.010015
0.807842 0.000000 0.074503
0.992413 0.098983 0.162238
1.000000 0.406085 0.307223
1.000000 0.643648 0.504587
0.000000 0.312944 0.000000
0.000000 0.323607 0.000000
0.000000 0.367709 0.000000
0.471517 0.359693 0.000000
0.680089 0.291189 0.000000
0.852636 0.222984 0.063992
0.998019 0.249041 0.170344
1.000000 0.451502 0.321058
1.000000 0.658821 0.507270
0.000000 0.525910 0.000000
0.000000 0.537112 0.000000
0.000000 0.556440 0.000000
0.284653 0.583842 0.000000
0.691222 0.564872 0.000000
0.875915 0.515413 0.000000
0.991026 0.473313 0.184756
1.000000 0.533786 0.334076
1.000000 0.683329 0.510972
0.000000 0.736626 0.135243
0.000000 0.740511 0.134947
0.000000 0.744017 0.115362
0.000000 0.766978 0.049348
0.550561 0.769508 0.000000
0.847197 0.756182 0.000000
0.966400 0.717123 0.209991
1.000000 0.698902 0.371230
1.000000 0.745361 0.532520
0.000000 0.881906 0.357274
0.000000 0.881965 0.357822
0.000000 0.883601 0.350747
0.000000 0.884188 0.343628
0.400796 0.888378 0.333324
0.758509 0.881494 0.330020
0.930996 0.873223 0.331208
1.000000 0.851896 0.448989
1.000000 0.842385 0.583998
0.000000 0.957183 0.577619
0.000000 0.957104 0.577756
0.000000 0.957568 0.575934
0.000000 0.956673 0.569870
0.431967 0.955327 0.567129
0.698243 0.950606 0.562300
0.874272 0.945916 0.572805
0.975575 0.941617 0.568102
1.000000 0.929071 0.668587
0.539004 0.993789 0.760999
0.539004 0.993789 0.760999
0.549264 0.993524 0.761186
0.580179 0.993615 0.760667
0.632594 0.992496 0.758207
0.717257 0.991339 0.758709
0.838206 0.987558 0.756139
0.937407 0.984057 0.759078
0.996820 0.982499 0.774344
0.000000 0.000000 0.091985
0.000000 0.000000 0.087483
0.156125 0.000000 0.067780
0.351357 0.000000 0.072683
0.569181 0.000000 0.077927
0.798142 0.000000 0.114482
0.987578 0.000000 0.182373
1.000000 0.388379 0.323720
1.000000 0.637643 0.507502
0.000000 0.000000 0.108188
0.000000 0.000000 0.102134
0.162370 0.000000 0.081078
0.356380 0.000000 0.081480
0.574812 0.000000 0.081376
0.799068 0.000000 0.116247
0.989864 0.000000 0.185323
1.000000 0.388889 0.324077
1.000000 0.637759 0.510348
0.000000 0.136151 0.216969
0.000000 0.146283 0.214625
0.164828 0.192823 0.201679
0.425209 0.087146 0.133822
0.609811 0.000000 0.103772
0.814470 0.000000 0.121678
0.993539 0.122275 0.191745
1.000000 0.407275 0.328292
1.000000 0.643878 0.510277
0.000000 0.340796 0.230643
0.000000 0.354937 0.222081
0.000000 0.398768 0.189976
0.450573 0.410910 0.176755
0.690141 0.319822 0.127246
0.853954 0.236665 0.140367
0.998355 0.269450 0.205477
1.000000 0.452284 0.335692
1.000000 0.659045 0.512979
0.000000 0.535945 0.203873
0.000000 0.547433 0.196735
0.000000 0.580552 0.178149
0.240732 0.605094 0.144268
0.689244 0.594560 0.131832
0.877645 0.524744 0.153601
0.991515 0.490331 0.227336
1.000000 0.534555 0.349681
1.000000 0.683752 0.522423
0.000000 0.740703 0.253349
0.000000 0.744358 0.253619
0.000000 0.756597 0.242030
0.000000 0.773166 0.215611
0.545258 0.778169 0.206781
0.845212 0.762475 0.190100
0.963858 0.722151 0.268096
1.000000 0.702492 0.388258
1.000000 0.745448 0.535409
0.000000 0.882749 0.409064
0.000000 0.882805 0.409595
0.000000 0.884525 0.408780
0.000000 0.885019 0.398381
0.401859 0.889102 0.387383
0.750591 0.885410 0.383142
0.930701 0.873981 0.380954
1.000000 0.852217 0.466276
1.000000 0.842491 0.589749
0.000000 0.957427 0.592706
0.000000 0.957271 0.592976
0.000000 0.957653 0.591248
0.000000 0.956755 0.585099
0.431880 0.955413 0.585202
0.694304 0.950815 0.576882
0.873409 0.947589 0.585587
0.975105 0.941742 0.586753
1.000000 0.929125 0.678418
0.539014 0.993793 0.769187
0.539014 0.993793 0.769187
0.549263 0.993526 0.765306
0.580170 0.993617 0.766797
0.632566 0.992498 0.762322
0.714141 0.991457 0.762643
0.838103 0.987563 0.760112
0.937213 0.984069 0.764697
0.996753 0.982504 0.775974
0.000000 0.000000 0.238372
0.000000 0.000000 0.234958
0.132417 0.000000 0.235413
0.373608 0.000000 0.197903
0.594627 0.000000 0.224445
0.814101 0.000000 0.233542
0.991410 0.000000 0.270045
1.000000 0.390583 0.366029
1.000000 0.638566 0.530420
0.000000 0.006991 0.257887
0.000000 0.020809 0.249017
0.132698 0.000000 0.250144
0.386319 0.000000 0.218606
0.600186 0.000000 0.230117
0.814569 0.000000 0.235346
0.991294 0.000000 0.273924
1.000000 0.394228 0.365965
1.000000 0.638566 0.530420
0.000000 0.119188 0.353171
0.000000 0.126900 0.350547
0.000000 0.162354 0.354825
0.465463 0.099319 0.339387
0.633673 0.000000 0.272915
0.829542 0.000000 0.252415
0.992142 0.147689 0.279754
1.000000 0.409336 0.368689
1.000000 0.644677 0.530360
0.000000 0.321549 0.437869
0.000000 0.337880 0.440723
0.000000 0.419851 0.446214
0.412402 0.444163 0.427706
0.669971 0.373354 0.366187
0.850762 0.277205 0.300877
0.991679 0.284620 0.297506
1.000000 0.453986 0.379653
1.000000 0.659710 0.530229
0.000000 0.562406 0.469619
0.000000 0.567724 0.471550
0.000000 0.597320 0.453828
0.138604 0.633067 0.432933
0.661762 0.627887 0.430556
0.866570 0.552774 0.354180
0.989220 0.499100 0.323037
1.000000 0.543546 0.395867
1.000000 0.684381 0.539749
0.000000 0.756079 0.465938
0.000000 0.759499 0.463405
0.000000 0.765708 0.461778
0.000000 0.784993 0.452469
0.515300 0.789556 0.433495
0.833949 0.779164 0.424091
0.959251 0.731970 0.387679
1.000000 0.707327 0.440419
1.000000 0.746138 0.558676
0.000000 0.884257 0.506450
0.000000 0.884307 0.506962
0.000000 0.885988 0.505984
0.000000 0.892783 0.496142
0.402082 0.890427 0.492382
0.746495 0.888299 0.492225
0.925162 0.882584 0.486650
0.996762 0.857772 0.516674
1.000000 0.844506 0.613114
0.000000 0.957504 0.636168
0.000000 0.957504 0.636168
0.000000 0.957895 0.637421
0.000000 0.956985 0.631050
0.431567 0.956443 0.628181
0.682037 0.951431 0.621062
0.870266 0.948677 0.629139
0.971360 0.943637 0.630690
1.000000 0.930084 0.691497
0.539024 0.993795 0.773187
0.539024 0.993795 0.773187
0.549276 0.993530 0.773361
0.575506 0.993752 0.774669
0.632507 0.992503 0.772349
0.714006 0.991464 0.772498
0.837801 0.987579 0.771717
0.936455 0.985285 0.775420
0.996419 0.982530 0.783984
0.000000 0.054248 0.407583
0.000000 0.057296 0.407037
0.000000 0.065424 0.418314
0.406454 0.000000 0.422187
0.630853 0.000000 0.370402
0.831099 0.000000 0.393124
0.994858 0.071437 0.405442
1.000000 0.408819 0.451673
1.000000 0.642864 0.562428
0.000000 0.062180 0.420477
0.000000 0.065393 0.419813
0.000000 0.073782 0.425136
0.406884 0.000000 0.432228
0.636329 0.000000 0.376927
0.832113 0.000000 0.399359
0.994660 0.097289 0.405542
1.000000 0.412435 0.451647
1.000000 0.642864 0.562428
0.000000 0.125869 0.472704
0.000000 0.130893 0.472263
0.000000 0.151186 0.476918
0.408593 0.124534 0.484865
0.676231 0.000000 0.451293
0.846126 0.000000 0.430904
0.995284 0.188042 0.417587
1.000000 0.427524 0.457625
1.000000 0.648936 0.562382
0.000000 0.328722 0.563713
0.000000 0.335231 0.566107
0.000000 0.378419 0.573191
0.305190 0.416946 0.575864
0.693577 0.392098 0.562803
0.859820 0.298306 0.486799
0.994359 0.318516 0.438721
1.000000 0.468141 0.464000
1.000000 0.664080 0.568177
0.000000 0.549642 0.620648
0.000000 0.558157 0.619487
0.000000 0.598846 0.627993
0.000000 0.642464 0.626007
0.634862 0.647958 0.615397
0.848544 0.588968 0.552019
0.981246 0.523663 0.489255
1.000000 0.557448 0.482101
1.000000 0.688428 0.574888
0.000000 0.768887 0.646292
0.000000 0.769675 0.647323
0.000000 0.778646 0.645948
0.000000 0.794423 0.636455
0.465111 0.803861 0.618622
0.811697 0.795727 0.615936
0.948248 0.748085 0.554536
1.000000 0.712644 0.523839
1.000000 0.749449 0.591136
0.000000 0.892774 0.656734
0.000000 0.892817 0.657095
0.000000 0.894449 0.656673
0.000000 0.894774 0.658705
0.346576 0.898521 0.641001
0.724376 0.894576 0.634994
0.917071 0.888340 0.634406
0.991815 0.860582 0.600262
1.000000 0.846694 0.648373
0.000000 0.958888 0.701665
0.000000 0.958728 0.701887
0.000000 0.959099 0.702891
0.000000 0.957334 0.704893
0.413769 0.956994 0.692946
0.676578 0.952696 0.694403
0.868491 0.948979 0.693906
0.967836 0.947037 0.701820
1.000000 0.932856 0.724199
0.539136 0.993806 0.790372
0.539136 0.993806 0.790372
0.549373 0.993541 0.790526
0.580230 0.993631 0.791726
0.620310 0.992901 0.792804
0.713807 0.991478 0.789286
0.837333 0.987607 0.789945
0.934616 0.985764 0.794524
0.995759 0.982582 0.799528
0.000000 0.145775 0.602021
0.000000 0.148566 0.603222
0.000000 0.159855 0.607414
0.311279 0.151757 0.613522
0.658531 0.000000 0.612728
0.866076 0.000000 0.572236
0.998279 0.123675 0.579935
1.000000 0.434722 0.590299
1.000000 0.659645 0.627516
0.000000 0.151000 0.602367
0.000000 0.155270 0.603877
0.000000 0.167001 0.611083
0.310167 0.157199 0.617041
0.654529 0.000000 0.616062
0.866632 0.000000 0.575722
0.998097 0.131872 0.580000
1.000000 0.434722 0.590299
1.000000 0.659645 0.627516
0.000000 0.190988 0.631154
0.000000 0.194442 0.632330
0.000000 0.205658 0.629630
0.292220 0.208334 0.635333
0.652784 0.149184 0.644419
0.878007 0.000000 0.598049
0.997866 0.215122 0.596827
1.000000 0.446060 0.593648
1.000000 0.662715 0.630523
0.000000 0.330663 0.678916
0.000000 0.336129 0.679865
0.000000 0.347367 0.682736
0.192548 0.385063 0.691107
0.634698 0.373989 0.690576
0.888232 0.315077 0.661823
0.995201 0.341800 0.620654
1.000000 0.496934 0.606507
1.000000 0.677528 0.636529
0.000000 0.552303 0.738963
0.000000 0.553364 0.739958
0.000000 0.574452 0.736036
0.000000 0.609762 0.736103
0.544549 0.620948 0.737469
0.853498 0.608378 0.732922
0.976670 0.550107 0.669569
1.000000 0.578108 0.625336
1.000000 0.703564 0.645990
0.000000 0.754391 0.771766
0.000000 0.754953 0.769791
0.000000 0.770541 0.773722
0.000000 0.800377 0.775377
0.450601 0.813820 0.773870
0.788515 0.806015 0.767232
0.932987 0.770737 0.720650
1.000000 0.730461 0.663741
1.000000 0.758344 0.663205
0.000000 0.897929 0.792185
0.000000 0.897920 0.790201
0.000000 0.897858 0.787408
0.000000 0.900980 0.786132
0.311040 0.904381 0.779241
0.712102 0.898869 0.775498
0.902038 0.895120 0.772137
0.983689 0.868436 0.726786
1.000000 0.850585 0.709831
0.000000 0.961212 0.796529
0.000000 0.961049 0.796670
0.000000 0.962205 0.795382
0.000000 0.961332 0.794725
0.404245 0.960055 0.793255
0.670324 0.956470 0.791437
0.852732 0.953723 0.786679
0.961409 0.950525 0.789479
1.000000 0.933322 0.772284
0.522104 0.995660 0.830813
0.522104 0.995660 0.830813
0.532633 0.995397 0.829320
0.572196 0.994353 0.829814
0.620465 0.992935 0.830504
0.710382 0.991637 0.828436
0.834524 0.988583 0.827338
0.929018 0.986803 0.825111
0.993873 0.983817 0.831566
0.000000 0.285901 0.773553
0.000000 0.288181 0.773941
0.000000 0.299660 0.773599
0.218006 0.308946 0.778197
0.560785 0.291351 0.780670
0.865263 0.253068 0.782892
1.000000 0.153405 0.741341
1.000000 0.453464 0.754881
1.000000 0.680262 0.758386
0.000000 0.292540 0.776390
0.000000 0.292606 0.773982
0.000000 0.301966 0.773616
0.214589 0.313925 0.778223
0.551925 0.295275 0.780570
0.865010 0.257188 0.782915
1.000000 0.167415 0.741438
1.000000 0.453464 0.754881
1.000000 0.680262 0.758386
0.000000 0.317954 0.781993
0.000000 0.322860 0.779645
0.000000 0.328422 0.779310
0.189090 0.342486 0.783667
0.546375 0.327879 0.786004
0.860999 0.309526 0.788227
1.000000 0.229725 0.750596
1.000000 0.471904 0.754933
1.000000 0.683295 0.763314
0.000000 0.386153 0.800074
0.000000 0.392248 0.800491
0.000000 0.405165 0.797324
0.054154 0.420807 0.798734
0.513934 0.423877 0.798098
0.852867 0.408049 0.800293
1.000000 0.362738 0.773139
1.000000 0.522433 0.760168
1.000000 0.697925 0.763303
0.000000 0.550078 0.824956
0.000000 0.550595 0.825362
0.000000 0.565243 0.824441
0.000000 0.577320 0.825376
0.458614 0.593326 0.826382
0.806680 0.596405 0.823428
0.980269 0.566784 0.809622
1.000000 0.596540 0.777280
1.000000 0.725341 0.767988
0.000000 0.754779 0.848177
0.000000 0.757778 0.846379
0.000000 0.762139 0.847567
0.000000 0.769335 0.849766
0.314639 0.790018 0.846640
0.739609 0.792286 0.844155
0.924649 0.787468 0.837620
1.000000 0.747600 0.802174
1.000000 0.772014 0.781996
0.000000 0.890321 0.872680
0.000000 0.890376 0.872823
0.000000 0.893746 0.873845
0.000000 0.900318 0.870849
0.295193 0.906034 0.870274
0.704673 0.905393 0.869800
0.886508 0.900663 0.865920
0.971835 0.880377 0.839749
1.000000 0.858437 0.806352
0.000000 0.965324 0.880395
0.000000 0.965156 0.880472
0.000000 0.964625 0.880699
0.000000 0.964010 0.879949
0.379414 0.961106 0.875756
0.665776 0.960184 0.872688
0.847579 0.956601 0.870777
0.949787 0.954905 0.866450
1.000000 0.937329 0.844564
0.520719 0.996279 0.886032
0.520719 0.996279 0.886032
0.531227 0.996020 0.886101
0.563185 0.996066 0.886533
0.616593 0.994948 0.885945
0.709343 0.993867 0.881896
0.833509 0.990287 0.880172
0.925862 0.987754 0.877810
0.988233 0.985924 0.881573
0.000000 0.490347 0.882248
0.000000 0.490355 0.882332
0.000000 0.490296 0.882703
0.226147 0.492532 0.883433
0.464962 0.504051 0.880900
0.758645 0.495294 0.880645
0.982122 0.506182 0.879509
1.000000 0.472784 0.856411
1.000000 0.690367 0.857874
0.000000 0.490347 0.882248
0.000000 0.490355 0.882332
0.000000 0.490296 0.882703
0.226147 0.492532 0.883433
0.464962 0.504051 0.880900
0.757866 0.498808 0.880561
0.982122 0.506182 0.879509
1.000000 0.472784 0.856411
1.000000 0.690367 0.857874
0.000000 0.506335 0.883510
0.000000 0.506341 0.883551
0.000000 0.506298 0.883956
0.203680 0.508728 0.884598
0.457029 0.520714 0.882075
0.753810 0.516479 0.881741
0.979271 0.521276 0.882313
1.000000 0.487476 0.856164
1.000000 0.695974 0.857709
0.000000 0.542112 0.888932
0.000000 0.542112 0.888932
0.000000 0.548384 0.885876
0.114847 0.554392 0.886383
0.433315 0.564294 0.885545
0.743051 0.558813 0.885311
0.970984 0.562009 0.885862
1.000000 0.542420 0.862225
1.000000 0.710218 0.859032
0.000000 0.607841 0.894304
0.000000 0.607876 0.894377
0.000000 0.611221 0.894491
0.000000 0.620678 0.893273
0.395331 0.628335 0.892415
0.721741 0.628811 0.890531
0.953627 0.634647 0.892310
1.000000 0.617153 0.873613
1.000000 0.734256 0.863247
0.000000 0.750205 0.905794
0.000000 0.750205 0.905794
0.000000 0.753128 0.905900
0.000000 0.761073 0.903550
0.275720 0.764924 0.903998
0.657552 0.773583 0.901912
0.903642 0.775580 0.902173
1.000000 0.760966 0.891809
1.000000 0.781287 0.868343
0.000000 0.886945 0.918688
0.000000 0.886911 0.918714
0.000000 0.888237 0.918818
0.000000 0.888663 0.918170
0.232449 0.892922 0.918612
0.623767 0.892827 0.915054
0.859905 0.892152 0.914511
0.963165 0.892085 0.910755
1.000000 0.868768 0.887200
0.000000 0.963819 0.933606
0.000000 0.963819 0.933606
0.000000 0.964996 0.933690
0.000000 0.963276 0.933186
0.359903 0.961534 0.932856
0.656286 0.961335 0.931858
0.833849 0.960650 0.928917
0.942182 0.958581 0.927789
0.996596 0.944457 0.910896
0.529693 0.998531 0.940140
0.529693 0.998531 0.940140
0.539346 0.998274 0.938666
0.573426 0.997776 0.938816
0.621203 0.997175 0.939072
0.707332 0.995769 0.935894
0.822394 0.992503 0.933260
0.917445 0.989425 0.929846
0.982028 0.988066 0.931119
0.332468 0.696926 0.942486
0.332468 0.696926 0.942486
0.365550 0.696609 0.942519
0.424372 0.695890 0.942578
0.529152 0.697204 0.942516
0.672358 0.705672 0.941052
0.885849 0.707712 0.939197
1.000000 0.724314 0.938105
1.000000 0.713186 0.924990
0.332468 0.696926 0.942486
0.332468 0.696926 0.942486
0.365550 0.696609 0.942519
0.424372 0.695890 0.942578
0.529152 0.697204 0.942516
0.670991 0.708810 0.940903
0.885849 0.707712 0.939197
1.000000 0.724314 0.938105
1.000000 0.713186 0.924990
0.324940 0.703340 0.942168
0.324940 0.703340 0.942168
0.358992 0.703026 0.942202
0.426058 0.702214 0.942270
0.523383 0.706765 0.942053
0.668299 0.715137 0.941557
0.883839 0.713843 0.938924
1.000000 0.727147 0.937982
1.000000 0.718604 0.924772
0.309178 0.716049 0.942497
0.327830 0.715897 0.942515
0.345422 0.715738 0.942532
0.415537 0.714934 0.942601
0.513694 0.722393 0.942241
0.662878 0.727392 0.941912
0.879821 0.725922 0.939326
1.000000 0.741150 0.939218
1.000000 0.732212 0.925288
0.296226 0.740511 0.945026
0.296226 0.740511 0.945026
0.335178 0.740186 0.945059
0.406286 0.742165 0.944054
0.504420 0.746248 0.943853
0.662024 0.750544 0.943550
0.869977 0.754253 0.939883
1.000000 0.759581 0.941081
1.000000 0.754869 0.926420
0.218002 0.792468 0.948523
0.218002 0.792468 0.948523
0.274054 0.792119 0.948556
0.375012 0.791045 0.947771
0.477304 0.794085 0.945867
0.649667 0.796769 0.945655
0.851878 0.803056 0.944667
0.986079 0.803137 0.945095
1.000000 0.797900 0.933311
0.000000 0.877237 0.955039
0.000000 0.877133 0.955046
0.163563 0.876762 0.954330
0.305815 0.878978 0.954210
0.450771 0.881545 0.953302
0.624020 0.880396 0.953277
0.819800 0.882161 0.950380
0.953395 0.883148 0.950651
1.000000 0.876370 0.944599
0.302977 0.954108 0.963072
0.302977 0.954108 0.963072
0.326424 0.953837 0.963083
0.388013 0.955524 0.962992
0.482167 0.954614 0.963012
0.635186 0.953784 0.961803
0.806373 0.952098 0.960270
0.923723 0.952808 0.958683
0.990441 0.951851 0.956744
0.503477 0.997534 0.973388
0.503477 0.997534 0.973388
0.514173 0.997283 0.973397
0.552408 0.997564 0.972441
0.615344 0.996981 0.972016
0.695317 0.995094 0.971674
0.822323 0.993946 0.970201
0.916653 0.991490 0.968646
0.978183 0.990392 0.965711
