Assets/Lutify-Free-LUTs-Pack/Lutify Free LUTs Pack/Film Tone Pro - Film Tone 3/Lutify.me-FilmTone3-FLog2-to-Rec709.cube
# Created with: fylm.ai - Colour Grading and Collaboration Software in Cloud 
# Website: https://fylm.ai 
# META
# Option: Gamut compress
# Block 1: IDT | Fujifilm F-Gamut F-Log2
# Block 2: colourMatch | Blending Mode: Normal | {"ColorSpace":0,"CrossCovarianceLimit":50,"ReshapingIterations":1,"PercentSaturationShift":100,"PercentShadingShift":100,"ExtraShading":true,"PercentTint":100,"PercentModified":100}
# Block 3: subtractiveColour | Blending Mode: Normal | {"sliders":{"gainY":0.6,"C":0.3,"M":0.3,"Y":0.3}}
# Block 4: LUT | Filmic Curve Response: Low Contrast 2 (100%)
# Block 5: logPrimaries | Blending Mode: Normal | {"wheels":{"shadows":{"Y":"0","R":"1","G":"1","B":"1"},"midtones":{"Y":"0","R":"1","G":"1","B":"1"},"highlights":{"Y":"0","R":"1","G":"1","B":"1"},"offset":{"Y":"0","R":"1","G":"1","B":"1"}},"sliders":{"shadows":{"Y":0,"R":-0.026,"G":0.03,"B":0.1},"midtones":{"Y":0,"R":0.024,"G":-0.036,"B":0.036},"highlights":{"Y":0,"R":0,"G":0.044,"B":-0.128},"offset":{"Y":0,"R":0,"G":0,"B":0}}}
# Block 6: hueSaturation | Blending Mode: Normal | {"hue":0,"saturation":-0.1}
# Block 7: ODT | Rec709
TITLE "Lutify.me-FilmTone3-FLog2-to-Rec709" 
LUT_3D_SIZE 5
0.000000 0.000000 0.000000
0.126849 0.000000 0.000000
0.572007 0.000000 0.000000
1.000000 0.340313 0.273988
1.000000 0.879248 0.785235
0.000000 0.102994 0.000000
0.168612 0.109022 0.000000
0.607810 0.000000 0.000000
1.000000 0.363801 0.277524
1.000000 0.879248 0.785235
0.000000 0.539527 0.000000
0.000000 0.565524 0.000000
0.708405 0.568441 0.000000
1.000000 0.525361 0.307828
1.000000 0.883582 0.787847
0.000000 0.948213 0.543261
0.000000 0.948756 0.541529
0.439255 0.945149 0.539530
0.969829 0.933362 0.535134
1.000000 0.922146 0.813290
0.854857 1.000000 0.915398
0.856054 1.000000 0.915434
0.863147 1.000000 0.915653
0.918379 1.000000 0.916013
1.000000 1.000000 0.927759
0.000000 0.000000 0.071691
0.119885 0.000000 0.051763
0.583220 0.000000 0.064235
1.000000 0.341569 0.292915
1.000000 0.879284 0.786990
0.000000 0.105430 0.171402
0.130215 0.146798 0.156368
0.613523 0.000000 0.077848
1.000000 0.368633 0.294499
1.000000 0.879284 0.786990
0.000000 0.550330 0.162439
0.000000 0.586077 0.130361
0.696439 0.605644 0.042512
1.000000 0.526396 0.327793
1.000000 0.883582 0.787847
0.000000 0.948453 0.558502
0.000000 0.948883 0.560102
0.439181 0.946183 0.555332
0.969407 0.933511 0.554079
1.000000 0.922171 0.814816
0.854857 1.000000 0.915398
0.856054 1.000000 0.915434
0.863147 1.000000 0.915653
0.918379 1.000000 0.916013
1.000000 1.000000 0.927759
0.000000 0.055750 0.425350
0.000000 0.067225 0.426909
0.648975 0.000000 0.379019
1.000000 0.371182 0.454709
1.000000 0.879499 0.797263
0.000000 0.108436 0.474046
0.000000 0.125181 0.471891
0.688908 0.000000 0.447063
1.000000 0.389921 0.457535
1.000000 0.879499 0.797263
0.000000 0.566097 0.636808
0.000000 0.603443 0.641736
0.652929 0.661190 0.632088
1.000000 0.550715 0.488080
1.000000 0.883792 0.798026
0.000000 0.951268 0.697773
0.000000 0.952653 0.696322
0.403843 0.949289 0.689505
0.961222 0.939597 0.694641
1.000000 0.922323 0.823850
0.854898 1.000000 0.918929
0.856093 1.000000 0.918964
0.863177 1.000000 0.919174
0.917469 1.000000 0.919310
1.000000 1.000000 0.930187
0.000000 0.454996 0.868960
0.000000 0.464335 0.869051
0.493645 0.472850 0.866204
1.000000 0.441388 0.843146
1.000000 0.885103 0.862282
0.000000 0.473771 0.870264
0.000000 0.473823 0.870594
0.488265 0.486241 0.869453
1.000000 0.449878 0.845075
1.000000 0.885103 0.862282
0.000000 0.597211 0.886706
0.000000 0.600703 0.886939
0.418328 0.623880 0.881944
1.000000 0.610335 0.865123
1.000000 0.890314 0.863962
0.000000 0.956506 0.925322
0.000000 0.956960 0.925468
0.353414 0.954871 0.923844
0.935535 0.951421 0.920060
1.000000 0.927357 0.877783
0.857037 1.000000 0.949406
0.857037 1.000000 0.949406
0.863672 1.000000 0.948690
0.913768 1.000000 0.947004
1.000000 1.000000 0.952192
0.735964 0.893200 0.992977
0.739323 0.893081 0.992972
0.765110 0.892151 0.992935
0.901785 0.894368 0.991673
1.000000 0.904059 0.984446
0.735964 0.893200 0.992977
0.739323 0.893081 0.992972
0.765110 0.892151 0.992935
0.901785 0.894368 0.991673
1.000000 0.904059 0.984446
0.737404 0.898263 0.993367
0.737404 0.898263 0.993367
0.763190 0.897323 0.993331
0.900353 0.898053 0.992166
1.000000 0.908593 0.984607
0.736503 0.940702 0.995569
0.739652 0.940586 0.995564
0.757932 0.939903 0.995540
0.882208 0.939940 0.993945
1.000000 0.942475 0.988020
0.854638 1.000000 1.000000
0.856798 1.000000 1.000000
0.862106 1.000000 1.000000
0.918170 1.000000 1.000000
1.000000 1.000000 1.000000
