Assets/Lutify-Free-LUTs-Pack/Lutify Free LUTs Pack/Film Tone Pro - Film Tone 3/Lutify.me-FilmTone3-RWG-to-Rec709.cube
# Created with: fylm.ai - Colour Grading and Collaboration Software in Cloud 
# Website: https://fylm.ai 
# META
# Option: Gamut compress
# Block 1: IDT | RED REDWideGamutRGB Log3G10
# Block 2: colourMatch | Blending Mode: Normal | {"ColorSpace":0,"CrossCovarianceLimit":50,"ReshapingIterations":1,"PercentSaturationShift":100,"PercentShadingShift":100,"ExtraShading":true,"PercentTint":100,"PercentModified":100}
# Block 3: subtractiveColour | Blending Mode: Normal | {"sliders":{"gainY":0.6,"C":0.3,"M":0.3,"Y":0.3}}
# Block 4: LUT | Filmic Curve Response: Low Contrast 2 (100%)
# Block 5: logPrimaries | Blending Mode: Normal | {"wheels":{"shadows":{"Y":"0","R":"1","G":"1","B":"1"},"midtones":{"Y":"0","R":"1","G":"1","B":"1"},"highlights":{"Y":"0","R":"1","G":"1","B":"1"},"offset":{"Y":"0","R":"1","G":"1","B":"1"}},"sliders":{"shadows":{"Y":0,"R":-0.026,"G":0.03,"B":0.1},"midtones":{"Y":0,"R":0.024,"G":-0.036,"B":0.036},"highlights":{"Y":0,"R":0,"G":0.044,"B":-0.128},"offset":{"Y":0,"R":0,"G":0,"B":0}}}
# Block 6: hueSaturation | Blending Mode: Normal | {"hue":0,"saturation":-0.1}
# Block 7: ODT | Rec709
TITLE "Lutify.me-FilmTone3-RWG-to-Rec709" 
LUT_3D_SIZE 33
0.000000 0.000000 0.000000
0.000000 0.000000 0.000000
0.000000 0.000000 0.000000
0.000000 0.000000 0.000000
0.028163 0.000000 0.000000
0.078717 0.000000 0.000000
0.118502 0.000000 0.000000
0.156039 0.000000 0.000000
0.201360 0.000000 0.000000
0.250625 0.000000 0.000000
0.306951 0.000000 0.000000
0.378614 0.000000 0.000000
0.450194 0.000000 0.000000
0.540276 0.000000 0.000000
0.632670 0.000000 0.000000
0.716782 0.000000 0.000000
0.802580 0.000000 0.000000
0.894666 0.000000 0.000000
0.959027 0.000000 0.000000
1.000000 0.000000 0.000000
1.000000 0.135437 0.051483
1.000000 0.281985 0.102074
1.000000 0.405016 0.153142
1.000000 0.512202 0.223475
1.000000 0.605503 0.291656
1.000000 0.690754 0.372573
1.000000 0.769893 0.463597
1.000000 0.819106 0.553870
1.000000 0.860644 0.640202
1.000000 0.894625 0.727922
1.000000 0.923469 0.794348
1.000000 0.944634 0.842972
1.000000 0.962967 0.884500
0.000000 0.000000 0.000000
0.000000 0.000000 0.000000
0.000000 0.000000 0.000000
0.000000 0.000000 0.000000
0.026552 0.000000 0.000000
0.080521 0.000000 0.000000
0.121074 0.000000 0.000000
0.157037 0.000000 0.000000
0.204053 0.000000 0.000000
0.259098 0.000000 0.000000
0.313011 0.000000 0.000000
0.381380 0.000000 0.000000
0.453688 0.000000 0.000000
0.540658 0.000000 0.000000
0.633068 0.000000 0.000000
0.717319 0.000000 0.000000
0.802831 0.000000 0.000000
0.894850 0.000000 0.000000
0.958840 0.000000 0.000000
1.000000 0.000000 0.000000
1.000000 0.149918 0.048389
1.000000 0.281985 0.102074
1.000000 0.404727 0.149958
1.000000 0.521921 0.222359
1.000000 0.605503 0.291656
1.000000 0.690754 0.372573
1.000000 0.769893 0.463597
1.000000 0.819106 0.553870
1.000000 0.860598 0.638044
1.000000 0.894625 0.727922
1.000000 0.923469 0.794348
1.000000 0.944634 0.842972
1.000000 0.962967 0.884500
0.000000 0.000000 0.000000
0.000000 0.000000 0.000000
0.000000 0.000000 0.000000
0.000000 0.000000 0.000000
0.028648 0.000000 0.000000
0.081592 0.000000 0.000000
0.122692 0.000000 0.000000
0.160911 0.000000 0.000000
0.206918 0.000000 0.000000
0.261160 0.000000 0.000000
0.319443 0.000000 0.000000
0.386984 0.000000 0.000000
0.457438 0.000000 0.000000
0.544964 0.000000 0.000000
0.637211 0.000000 0.000000
0.717454 0.000000 0.000000
0.802952 0.000000 0.000000
0.894592 0.000000 0.000000
0.958692 0.000000 0.000000
1.000000 0.000000 0.000000
1.000000 0.149918 0.048389
1.000000 0.289921 0.097220
1.000000 0.408218 0.149352
1.000000 0.521921 0.222359
1.000000 0.605373 0.289601
1.000000 0.690754 0.372573
1.000000 0.769893 0.463597
1.000000 0.819106 0.553870
1.000000 0.861743 0.638263
1.000000 0.894625 0.727922
1.000000 0.923469 0.794348
1.000000 0.944634 0.842972
1.000000 0.962967 0.884500
0.000000 0.000000 0.000000
0.000000 0.000000 0.000000
0.000000 0.000000 0.000000
0.000000 0.000000 0.000000
0.036595 0.000000 0.000000
0.086931 0.000000 0.000000
0.125659 0.000000 0.000000
0.166893 0.000000 0.000000
0.211428 0.000000 0.000000
0.270561 0.000000 0.000000
0.326219 0.000000 0.000000
0.393156 0.000000 0.000000
0.467633 0.000000 0.000000
0.553360 0.000000 0.000000
0.638145 0.000000 0.000000
0.722099 0.000000 0.000000
0.803195 0.000000 0.000000
0.897799 0.000000 0.000000
0.961315 0.000000 0.000000
1.000000 0.000000 0.000000
1.000000 0.155916 0.038361
1.000000 0.289921 0.097220
1.000000 0.408218 0.149352
1.000000 0.521921 0.222359
1.000000 0.608430 0.289377
1.000000 0.690754 0.372573
1.000000 0.769893 0.463597
1.000000 0.820615 0.554044
1.000000 0.861743 0.638263
1.000000 0.894625 0.727922
1.000000 0.923469 0.794348
1.000000 0.944634 0.842972
1.000000 0.962967 0.884500
0.000000 0.039673 0.000000
0.000000 0.039741 0.000000
0.000000 0.039808 0.000000
0.000000 0.041837 0.000000
0.011010 0.045122 0.000000
0.088381 0.024526 0.000000
0.134896 0.000000 0.000000
0.181763 0.000000 0.000000
0.231274 0.000000 0.000000
0.282512 0.000000 0.000000
0.340258 0.000000 0.000000
0.407517 0.000000 0.000000
0.482049 0.000000 0.000000
0.564883 0.000000 0.000000
0.643372 0.000000 0.000000
0.722909 0.000000 0.000000
0.803436 0.000000 0.000000
0.897924 0.000000 0.000000
0.961290 0.000000 0.000000
1.000000 0.000000 0.000000
1.000000 0.155441 0.031299
1.000000 0.298060 0.095401
1.000000 0.412415 0.149433
1.000000 0.521921 0.222359
1.000000 0.608430 0.289377
1.000000 0.693331 0.372528
1.000000 0.769893 0.463597
1.000000 0.820615 0.554044
1.000000 0.861743 0.638263
1.000000 0.894625 0.727922
1.000000 0.923469 0.794348
1.000000 0.944634 0.842972
1.000000 0.962967 0.884500
0.000000 0.068565 0.000000
0.000000 0.068683 0.000000
0.000000 0.068842 0.000000
0.000000 0.072440 0.000000
0.000000 0.077155 0.000000
0.080434 0.075591 0.000000
0.146373 0.053524 0.000000
0.202109 0.000000 0.000000
0.254230 0.000000 0.000000
0.302084 0.000000 0.000000
0.353884 0.000000 0.000000
0.421214 0.000000 0.000000
0.490754 0.000000 0.000000
0.570051 0.000000 0.000000
0.655877 0.000000 0.000000
0.727429 0.000000 0.000000
0.807778 0.000000 0.000000
0.901178 0.000000 0.000000
0.961109 0.000000 0.000000
1.000000 0.000000 0.000000
1.000000 0.173720 0.000000
1.000000 0.297738 0.092045
1.000000 0.412128 0.146216
1.000000 0.524889 0.218338
1.000000 0.608430 0.289377
1.000000 0.693331 0.372528
1.000000 0.771808 0.463703
1.000000 0.820615 0.554044
1.000000 0.861743 0.638263
1.000000 0.894625 0.727922
1.000000 0.923469 0.794348
1.000000 0.944634 0.842972
1.000000 0.962967 0.884500
0.000000 0.101241 0.000000
0.000000 0.101325 0.000000
0.000000 0.099938 0.000000
0.000000 0.103307 0.000000
0.000000 0.108603 0.000000
0.029675 0.115002 0.000000
0.148916 0.103182 0.000000
0.219571 0.078295 0.000000
0.278766 0.029675 0.000000
0.330043 0.000000 0.000000
0.387716 0.000000 0.000000
0.447485 0.000000 0.000000
0.509461 0.000000 0.000000
0.579807 0.000000 0.000000
0.661419 0.000000 0.000000
0.739099 0.000000 0.000000
0.815696 0.000000 0.000000
0.901332 0.000000 0.000000
0.960881 0.000000 0.000000
1.000000 0.000000 0.000000
1.000000 0.179803 0.000000
1.000000 0.302254 0.090076
1.000000 0.415600 0.145573
1.000000 0.524889 0.218338
1.000000 0.614545 0.288926
1.000000 0.693331 0.372528
1.000000 0.771808 0.463703
1.000000 0.820615 0.554044
1.000000 0.861743 0.638263
1.000000 0.894625 0.727922
1.000000 0.923469 0.794348
1.000000 0.944634 0.842972
1.000000 0.962967 0.884500
0.000000 0.141161 0.000000
0.000000 0.144500 0.000000
0.000000 0.145824 0.000000
0.000000 0.146294 0.000000
0.000000 0.150993 0.000000
0.000000 0.162936 0.000000
0.117346 0.166998 0.000000
0.222872 0.149391 0.000000
0.297686 0.117081 0.000000
0.356244 0.076778 0.000000
0.418440 0.000000 0.000000
0.485981 0.000000 0.000000
0.553602 0.000000 0.000000
0.612667 0.000000 0.000000
0.682967 0.000000 0.000000
0.747999 0.000000 0.000000
0.823568 0.000000 0.000000
0.904547 0.000000 0.000000
0.963249 0.000000 0.000000
1.000000 0.000000 0.000000
1.000000 0.190402 0.000000
1.000000 0.313843 0.083142
1.000000 0.422387 0.142608
1.000000 0.527858 0.214310
1.000000 0.614417 0.286869
1.000000 0.695680 0.367993
1.000000 0.771730 0.461413
1.000000 0.820615 0.554044
1.000000 0.861743 0.638263
1.000000 0.894625 0.727922
1.000000 0.923469 0.794348
1.000000 0.944634 0.842972
1.000000 0.962967 0.884500
0.000000 0.180952 0.000000
0.000000 0.183874 0.000000
0.000000 0.184119 0.000000
0.000000 0.186141 0.000000
0.000000 0.194687 0.000000
0.000000 0.208948 0.000000
0.000000 0.214267 0.000000
0.204523 0.212924 0.000000
0.300866 0.186564 0.000000
0.372637 0.163378 0.000000
0.432608 0.123996 0.000000
0.508198 0.050203 0.000000
0.578719 0.000000 0.000000
0.647453 0.000000 0.000000
0.704905 0.000000 0.000000
0.769215 0.000000 0.000000
0.834614 0.000000 0.000000
0.904281 0.000000 0.000000
0.962817 0.000000 0.000000
1.000000 0.000000 0.000000
1.000000 0.210248 0.000000
1.000000 0.324773 0.068641
1.000000 0.429014 0.137865
1.000000 0.533930 0.208034
1.000000 0.617476 0.286637
1.000000 0.695680 0.367993
1.000000 0.773631 0.461524
1.000000 0.820615 0.554044
1.000000 0.861743 0.638263
1.000000 0.894625 0.727922
1.000000 0.923469 0.794348
1.000000 0.944634 0.842972
1.000000 0.962951 0.883909
0.000000 0.226942 0.000000
0.000000 0.230230 0.000000
0.000000 0.232107 0.000000
0.000000 0.236017 0.000000
0.000000 0.245728 0.000000
0.000000 0.254210 0.000000
0.000000 0.266290 0.000000
0.127801 0.267846 0.000000
0.287375 0.265443 0.000000
0.378516 0.236829 0.000000
0.455375 0.200959 0.000000
0.533982 0.163134 0.000000
0.600800 0.099321 0.000000
0.672888 0.000000 0.000000
0.739440 0.000000 0.000000
0.790475 0.000000 0.000000
0.854355 0.000000 0.000000
0.909667 0.000000 0.000000
0.964219 0.000000 0.000000
1.000000 0.106611 0.000000
1.000000 0.228949 0.000000
1.000000 0.339510 0.049329
1.000000 0.438786 0.128649
1.000000 0.540002 0.201696
1.000000 0.621047 0.283204
1.000000 0.698127 0.365714
1.000000 0.773631 0.461524
1.000000 0.822116 0.554221
1.000000 0.862880 0.638485
1.000000 0.894592 0.726234
1.000000 0.923469 0.794348
1.000000 0.944634 0.842972
1.000000 0.963302 0.883989
0.000000 0.277804 0.000000
0.000000 0.281828 0.000000
0.000000 0.282293 0.000000
0.000000 0.285274 0.000000
0.000000 0.291380 0.000000
0.000000 0.302933 0.000000
0.000000 0.314116 0.000000
0.000000 0.325634 0.000000
0.231535 0.325285 0.000000
0.373562 0.315202 0.000000
0.475960 0.280934 0.000000
0.563298 0.251310 0.000000
0.627538 0.212262 0.000000
0.691280 0.172134 0.000000
0.767312 0.000000 0.000000
0.831985 0.000000 0.000000
0.879850 0.000000 0.000000
0.921761 0.000000 0.000000
0.974811 0.000000 0.000000
1.000000 0.162195 0.000000
1.000000 0.259417 0.000000
1.000000 0.354115 0.000000
1.000000 0.452181 0.112993
1.000000 0.545940 0.193468
1.000000 0.623972 0.280927
1.000000 0.705716 0.365603
1.000000 0.775440 0.459357
1.000000 0.822541 0.553138
1.000000 0.862880 0.638485
1.000000 0.896268 0.726614
1.000000 0.924752 0.794629
1.000000 0.946074 0.843318
1.000000 0.963302 0.883989
0.000000 0.333691 0.000000
0.000000 0.338662 0.000000
0.000000 0.341875 0.000000
0.000000 0.345613 0.000000
0.000000 0.355543 0.000000
0.000000 0.364752 0.000000
0.000000 0.379457 0.000000
0.000000 0.391023 0.000000
0.000000 0.394957 0.000000
0.325509 0.393967 0.000000
0.461260 0.383326 0.000000
0.570188 0.346634 0.000000
0.652123 0.309425 0.000000
0.715913 0.274132 0.000000
0.787933 0.231431 0.000000
0.853424 0.182060 0.000000
0.907465 0.085561 0.000000
0.952931 0.000000 0.000000
0.979206 0.127697 0.000000
1.000000 0.211121 0.000000
1.000000 0.295091 0.000000
1.000000 0.382067 0.000000
1.000000 0.468554 0.096678
1.000000 0.556472 0.186313
1.000000 0.629696 0.274354
1.000000 0.708478 0.357768
1.000000 0.778298 0.459463
1.000000 0.824029 0.553320
1.000000 0.865133 0.638938
1.000000 0.896268 0.726614
1.000000 0.924726 0.793427
1.000000 0.946074 0.843318
1.000000 0.963302 0.883989
0.000000 0.393972 0.000000
0.000000 0.397451 0.000000
0.000000 0.398318 0.000000
0.000000 0.409064 0.000000
0.000000 0.412133 0.000000
0.000000 0.422346 0.000000
0.000000 0.438704 0.000000
0.000000 0.447107 0.000000
0.000000 0.458784 0.000000
0.208877 0.460999 0.000000
0.414516 0.461439 0.000000
0.571616 0.432833 0.000000
0.660369 0.407775 0.000000
0.733534 0.372503 0.000000
0.809120 0.341207 0.000000
0.870719 0.298058 0.000000
0.921268 0.263889 0.000000
0.973583 0.193712 0.000000
1.000000 0.159550 0.000000
1.000000 0.260329 0.000000
1.000000 0.334787 0.000000
1.000000 0.412276 0.000000
1.000000 0.488756 0.060578
1.000000 0.565211 0.171698
1.000000 0.638167 0.263547
1.000000 0.715783 0.355483
1.000000 0.779985 0.455093
1.000000 0.826923 0.551454
1.000000 0.865133 0.638938
1.000000 0.897104 0.726807
1.000000 0.924726 0.793427
1.000000 0.946074 0.843318
1.000000 0.963302 0.883989
0.000000 0.464875 0.000000
0.000000 0.469304 0.000000
0.000000 0.477115 0.000000
0.000000 0.488143 0.000000
0.000000 0.491738 0.000000
0.000000 0.498956 0.000000
0.000000 0.509474 0.000000
0.000000 0.514283 0.000000
0.000000 0.528901 0.000000
0.000000 0.532697 0.000000
0.319192 0.532667 0.000000
0.540779 0.531034 0.000000
0.654402 0.512796 0.000000
0.735576 0.478004 0.000000
0.815551 0.445580 0.000000
0.880851 0.403275 0.000000
0.927594 0.382562 0.000000
0.978748 0.339933 0.000000
1.000000 0.312921 0.000000
1.000000 0.290790 0.000000
1.000000 0.374664 0.000000
1.000000 0.431322 0.000000
1.000000 0.519772 0.000000
1.000000 0.583463 0.143395
1.000000 0.653360 0.246454
1.000000 0.725168 0.348839
1.000000 0.783397 0.448676
1.000000 0.829790 0.549613
1.000000 0.866249 0.639169
1.000000 0.897904 0.725321
1.000000 0.925364 0.793571
1.000000 0.946552 0.843436
1.000000 0.963302 0.883989
0.000000 0.540167 0.000000
0.000000 0.544342 0.000000
0.000000 0.549086 0.000000
0.000000 0.551784 0.000000
0.000000 0.557770 0.000000
0.000000 0.563974 0.000000
0.000000 0.577436 0.000000
0.000000 0.581405 0.000000
0.000000 0.592408 0.000000
0.000000 0.599330 0.000000
0.000000 0.601363 0.000000
0.445124 0.605685 0.000000
0.622048 0.600887 0.000000
0.729773 0.575985 0.000000
0.820843 0.544048 0.000000
0.886120 0.510270 0.000000
0.931288 0.495420 0.000000
0.977500 0.456961 0.000000
1.000000 0.433930 0.000000
1.000000 0.401472 0.000000
1.000000 0.392559 0.000000
1.000000 0.482949 0.000000
1.000000 0.534438 0.000000
1.000000 0.604083 0.092537
1.000000 0.669830 0.229086
1.000000 0.733951 0.333663
1.000000 0.788643 0.444691
1.000000 0.832571 0.545586
1.000000 0.869123 0.637887
1.000000 0.898702 0.723840
1.000000 0.925974 0.792517
1.000000 0.946552 0.843436
1.000000 0.963986 0.883565
0.000000 0.622551 0.000000
0.000000 0.623924 0.000000
0.000000 0.618819 0.000000
0.000000 0.627113 0.000000
0.000000 0.632164 0.000000
0.000000 0.637654 0.000000
0.000000 0.650598 0.000000
0.000000 0.653810 0.000000
0.000000 0.660860 0.000000
0.000000 0.670418 0.000000
0.000000 0.669703 0.000000
0.276795 0.669721 0.000000
0.545305 0.672925 0.000000
0.709779 0.667873 0.000000
0.814073 0.633235 0.000000
0.880073 0.603544 0.000000
0.926113 0.578938 0.000000
0.973852 0.552305 0.000000
1.000000 0.533661 0.000000
1.000000 0.513123 0.000000
1.000000 0.488543 0.000000
1.000000 0.479463 0.000000
1.000000 0.565165 0.000000
1.000000 0.614988 0.000000
1.000000 0.691403 0.194162
1.000000 0.745774 0.319308
1.000000 0.793863 0.429086
1.000000 0.835324 0.541611
1.000000 0.871235 0.636266
1.000000 0.899530 0.724042
1.000000 0.927239 0.792815
1.000000 0.947030 0.843554
1.000000 0.963986 0.883565
0.000000 0.693059 0.000000
0.000000 0.693738 0.000000
0.000000 0.694754 0.000000
0.000000 0.699122 0.000000
0.000000 0.704144 0.000000
0.000000 0.709216 0.000000
0.000000 0.711857 0.000000
0.000000 0.714277 0.000000
0.000000 0.722907 0.000000
0.000000 0.725353 0.000000
0.000000 0.730458 0.000000
0.000000 0.731088 0.000000
0.432041 0.731986 0.000000
0.639550 0.733499 0.000000
0.795373 0.719115 0.000000
0.863567 0.701438 0.000000
0.915172 0.678169 0.000000
0.961791 0.659242 0.000000
0.998523 0.627730 0.000000
1.000000 0.611015 0.000000
1.000000 0.586314 0.000000
1.000000 0.570192 0.000000
1.000000 0.564433 0.000000
1.000000 0.654394 0.000000
1.000000 0.710952 0.122309
1.000000 0.763830 0.295133
1.000000 0.802148 0.417356
1.000000 0.839995 0.529733
1.000000 0.873238 0.630494
1.000000 0.901084 0.719430
1.000000 0.928469 0.791926
1.000000 0.947961 0.842893
1.000000 0.964320 0.883062
0.000000 0.765168 0.000000
0.000000 0.765646 0.000000
0.000000 0.769028 0.000000
0.000000 0.769865 0.000000
0.000000 0.770871 0.000000
0.000000 0.772297 0.000000
0.000000 0.773753 0.000000
0.000000 0.778098 0.000000
0.000000 0.782178 0.000000
0.000000 0.786308 0.000000
0.000000 0.787419 0.000000
0.000000 0.792921 0.000000
0.242230 0.791471 0.000000
0.544965 0.790045 0.000000
0.736209 0.781882 0.000000
0.841639 0.778080 0.000000
0.904392 0.755769 0.000000
0.951559 0.739281 0.000000
0.985290 0.718003 0.000000
1.000000 0.706333 0.000000
1.000000 0.689533 0.000000
1.000000 0.675457 0.000000
1.000000 0.654754 0.000000
1.000000 0.654413 0.027304
1.000000 0.736519 0.000000
1.000000 0.774846 0.244846
1.000000 0.814941 0.393984
1.000000 0.846371 0.512291
1.000000 0.877490 0.620596
1.000000 0.905677 0.717966
1.000000 0.930561 0.792129
1.000000 0.949321 0.843808
1.000000 0.964652 0.882562
0.000000 0.822971 0.000000
0.000000 0.823249 0.000000
0.000000 0.823456 0.000000
0.000000 0.823862 0.000000
0.000000 0.824325 0.000000
0.000000 0.824963 0.000000
0.000000 0.825687 0.000000
0.000000 0.826411 0.000000
0.000000 0.833682 0.000000
0.000000 0.836476 0.000000
0.000000 0.836878 0.000000
0.000000 0.836646 0.000000
0.000000 0.835178 0.000000
0.446206 0.832009 0.000000
0.655741 0.830908 0.000000
0.814421 0.825272 0.000000
0.887091 0.816617 0.000000
0.938648 0.800714 0.000000
0.971557 0.785537 0.000000
1.000000 0.770765 0.000000
1.000000 0.756458 0.000000
1.000000 0.743662 0.000000
1.000000 0.730177 0.000000
1.000000 0.721523 0.080278
1.000000 0.718788 0.170817
1.000000 0.794183 0.195805
1.000000 0.824076 0.353939
1.000000 0.854092 0.493547
1.000000 0.881247 0.607829
1.000000 0.907918 0.710497
1.000000 0.932343 0.790270
1.000000 0.950252 0.844057
1.000000 0.965330 0.882152
0.000000 0.862365 0.000000
0.000000 0.862411 0.000000
0.000000 0.862549 0.000000
0.000000 0.862728 0.000000
0.000000 0.862943 0.000000
0.000000 0.866850 0.000000
0.000000 0.867218 0.000000
0.000000 0.869342 0.000000
0.000000 0.871455 0.000000
0.000000 0.871676 0.000000
0.000000 0.871629 0.000000
0.000000 0.872733 0.000000
0.000000 0.873123 0.000000
0.336400 0.870866 0.000000
0.562152 0.866818 0.000000
0.763571 0.860398 0.000000
0.863897 0.858311 0.000000
0.922136 0.851198 0.000000
0.959460 0.838142 0.000000
0.990519 0.825588 0.000000
1.000000 0.810013 0.000000
1.000000 0.799205 0.000000
1.000000 0.787631 0.000000
1.000000 0.781263 0.098726
1.000000 0.774671 0.211701
1.000000 0.779139 0.283643
1.000000 0.839753 0.303904
1.000000 0.865059 0.457796
1.000000 0.887253 0.596008
1.000000 0.911891 0.700202
1.000000 0.935065 0.785940
1.000000 0.952026 0.841074
1.000000 0.966675 0.881353
0.000000 0.901188 0.000000
0.000000 0.901226 0.000000
0.000000 0.901244 0.000000
0.000000 0.901278 0.000000
0.000000 0.902840 0.000000
0.000000 0.902901 0.000000
0.000000 0.902946 0.000000
0.000000 0.904463 0.000000
0.000000 0.907353 0.000000
0.000000 0.907176 0.000000
0.000000 0.906601 0.000000
0.000000 0.905637 0.000000
0.000000 0.904319 0.000000
0.310053 0.903522 0.000000
0.504991 0.903088 0.000000
0.693314 0.897690 0.000000
0.812567 0.893210 0.000000
0.899799 0.889699 0.000000
0.949745 0.879954 0.000000
0.982769 0.867964 0.000000
1.000000 0.857839 0.000000
1.000000 0.850128 0.000000
1.000000 0.839731 0.000000
1.000000 0.832107 0.125737
1.000000 0.825292 0.232414
1.000000 0.821758 0.324462
1.000000 0.823577 0.384302
1.000000 0.876185 0.410993
1.000000 0.896908 0.565560
1.000000 0.917800 0.698104
1.000000 0.937060 0.778340
1.000000 0.953696 0.838837
1.000000 0.967992 0.881247
0.000000 0.935247 0.000000
0.000000 0.935247 0.000000
0.000000 0.935226 0.000000
0.000000 0.935204 0.000000
0.000000 0.935133 0.000000
0.000000 0.935054 0.000000
0.000000 0.934938 0.000000
0.000000 0.934662 0.000000
0.000000 0.934372 0.000000
0.000000 0.933928 0.000000
0.000000 0.934381 0.000000
0.000000 0.934605 0.000000
0.000000 0.934354 0.000000
0.320476 0.932244 0.000000
0.494547 0.929365 0.000000
0.642867 0.925364 0.000000
0.768889 0.920868 0.000000
0.865330 0.919055 0.000000
0.928908 0.918570 0.000000
0.969988 0.909694 0.000000
0.994303 0.901489 0.000000
1.000000 0.891481 0.000000
1.000000 0.883316 0.000000
1.000000 0.876040 0.186087
1.000000 0.869812 0.273886
1.000000 0.865578 0.361095
1.000000 0.861757 0.437300
1.000000 0.866861 0.493418
1.000000 0.909562 0.530862
1.000000 0.926087 0.673572
1.000000 0.941061 0.773203
1.000000 0.955551 0.834418
1.000000 0.969606 0.880066
0.000000 0.956750 0.000000
0.000000 0.956750 0.000000
0.000000 0.956696 0.000000
0.000000 0.956640 0.000000
0.000000 0.958430 0.000000
0.000000 0.958254 0.000000
0.000000 0.958069 0.000000
0.000000 0.957875 0.000000
0.000000 0.957601 0.000000
0.000000 0.957081 0.000000
0.000000 0.956507 0.000000
0.000000 0.955490 0.000000
0.163902 0.954329 0.000000
0.366505 0.952506 0.000000
0.517932 0.950556 0.000000
0.637509 0.949028 0.000000
0.741420 0.945396 0.000000
0.826213 0.941979 0.000000
0.904940 0.938603 0.000000
0.957966 0.937290 0.000000
0.987268 0.929258 0.000000
1.000000 0.920580 0.000000
1.000000 0.912424 0.158326
1.000000 0.907784 0.232417
1.000000 0.900948 0.305962
1.000000 0.897756 0.392726
1.000000 0.893839 0.471335
1.000000 0.893979 0.553383
1.000000 0.897499 0.608519
1.000000 0.933401 0.658115
1.000000 0.946266 0.757214
1.000000 0.958260 0.830130
1.000000 0.971475 0.879793
0.000000 0.973434 0.000000
0.000000 0.973434 0.000000
0.000000 0.973349 0.000000
0.000000 0.973349 0.000000
0.000000 0.973178 0.000000
0.000000 0.973090 0.000000
0.000000 0.972821 0.000000
0.000000 0.972636 0.000000
0.000000 0.973086 0.000000
0.000000 0.972483 0.000000
0.042326 0.972675 0.000000
0.244237 0.971878 0.000000
0.350534 0.972192 0.000000
0.477888 0.969985 0.000000
0.573779 0.967642 0.000000
0.659563 0.965021 0.000000
0.741165 0.962079 0.000000
0.810857 0.959238 0.000000
0.879331 0.956219 0.000000
0.936542 0.955746 0.000000
0.975751 0.955437 0.118781
1.000000 0.946143 0.175065
1.000000 0.940041 0.235859
1.000000 0.933539 0.284216
1.000000 0.926694 0.344932
1.000000 0.924130 0.423391
1.000000 0.920160 0.502355
1.000000 0.920386 0.590853
1.000000 0.917987 0.675227
1.000000 0.924099 0.724639
1.000000 0.951928 0.755383
1.000000 0.963968 0.825317
1.000000 0.974107 0.879313
0.255394 0.988163 0.000000
0.255394 0.988163 0.000000
0.255394 0.988163 0.000000
0.268350 0.988048 0.000000
0.268350 0.988048 0.000000
0.292194 0.987813 0.000000
0.307594 0.988812 0.000000
0.328044 0.988570 0.000000
0.356246 0.988199 0.000000
0.382183 0.987818 0.000000
0.421705 0.987161 0.000000
0.464119 0.986349 0.000000
0.508234 0.985384 0.000000
0.574095 0.983705 0.000000
0.623050 0.983975 0.000000
0.672933 0.982899 0.000000
0.737965 0.980519 0.000000
0.800022 0.977983 0.078571
0.862242 0.975214 0.123440
0.910426 0.972978 0.162104
0.957051 0.971335 0.215213
0.992544 0.969775 0.280588
1.000000 0.963517 0.321459
1.000000 0.957591 0.364563
1.000000 0.952656 0.412650
1.000000 0.948320 0.478477
1.000000 0.944501 0.546439
1.000000 0.942806 0.622589
1.000000 0.940227 0.703169
1.000000 0.942073 0.780181
1.000000 0.946054 0.802994
1.000000 0.969083 0.827284
1.000000 0.978248 0.882578
0.515484 0.998993 0.201566
0.515484 0.998993 0.201566
0.515484 0.998993 0.201566
0.515484 0.998993 0.201566
0.526181 0.998734 0.202284
0.531428 0.998604 0.202646
0.531428 0.998604 0.202646
0.536610 0.998473 0.203008
0.541727 0.998343 0.203372
0.561591 0.997820 0.204845
0.575888 0.997427 0.205967
0.594203 0.996903 0.207484
0.615973 0.996250 0.209422
0.644496 0.995344 0.212212
0.675484 0.995173 0.225898
0.718322 0.993615 0.231356
0.762013 0.991892 0.238153
0.810149 0.989838 0.247640
0.859611 0.987579 0.261251
0.901830 0.985556 0.278281
