Assets/Lutify-Free-LUTs-Pack/Lutify Free LUTs Pack/Film Tone Pro - Film Tone 3/Lutify.me-FilmTone3-LLog-to-Rec709.cube
# Created with: fylm.ai - Colour Grading and Collaboration Software in Cloud 
# Website: https://fylm.ai 
# META
# Option: Gamut compress
# Block 1: IDT | Leica BT2020 L-Log
# Block 2: colourMatch | Blending Mode: Normal | {"ColorSpace":0,"CrossCovarianceLimit":50,"ReshapingIterations":1,"PercentSaturationShift":100,"PercentShadingShift":100,"ExtraShading":true,"PercentTint":100,"PercentModified":100}
# Block 3: subtractiveColour | Blending Mode: Normal | {"sliders":{"gainY":0.6,"C":0.3,"M":0.3,"Y":0.3}}
# Block 4: LUT | Filmic Curve Response: Low Contrast 2 (100%)
# Block 5: logPrimaries | Blending Mode: Normal | {"wheels":{"shadows":{"Y":"0","R":"1","G":"1","B":"1"},"midtones":{"Y":"0","R":"1","G":"1","B":"1"},"highlights":{"Y":"0","R":"1","G":"1","B":"1"},"offset":{"Y":"0","R":"1","G":"1","B":"1"}},"sliders":{"shadows":{"Y":0,"R":-0.026,"G":0.03,"B":0.1},"midtones":{"Y":0,"R":0.024,"G":-0.036,"B":0.036},"highlights":{"Y":0,"R":0,"G":0.044,"B":-0.128},"offset":{"Y":0,"R":0,"G":0,"B":0}}}
# Block 6: hueSaturation | Blending Mode: Normal | {"hue":0,"saturation":-0.1}
# Block 7: ODT | Rec709
TITLE "Lutify.me-FilmTone3-LLog-to-Rec709" 
LUT_3D_SIZE 33
0.000000 0.000000 0.000000
0.000000 0.000000 0.000000
0.000000 0.000000 0.000000
0.000000 0.000000 0.000000
0.000000 0.000000 0.000000
0.013461 0.000000 0.000000
0.055469 0.000000 0.000000
0.081377 0.000000 0.000000
0.110172 0.000000 0.000000
0.132445 0.000000 0.000000
0.162616 0.000000 0.000000
0.197619 0.000000 0.000000
0.233528 0.000000 0.000000
0.278437 0.000000 0.000000
0.321414 0.000000 0.000000
0.377646 0.000000 0.000000
0.438709 0.000000 0.000000
0.505710 0.000000 0.000000
0.583269 0.000000 0.000000
0.666165 0.000000 0.011392
0.733735 0.000000 0.041249
0.808672 0.000000 0.062313
0.886665 0.000000 0.087266
0.943517 0.000000 0.118143
0.990707 0.000000 0.152266
1.000000 0.169739 0.191535
1.000000 0.277504 0.247561
1.000000 0.375114 0.294247
1.000000 0.460024 0.348840
1.000000 0.549953 0.412471
1.000000 0.620334 0.484873
1.000000 0.684521 0.538850
1.000000 0.749064 0.597768
0.000000 0.000000 0.000000
0.000000 0.000000 0.000000
0.000000 0.000000 0.000000
0.000000 0.000000 0.000000
0.000000 0.000000 0.000000
0.019041 0.000000 0.000000
0.057115 0.000000 0.000000
0.083195 0.000000 0.000000
0.111757 0.000000 0.000000
0.134071 0.000000 0.000000
0.162736 0.000000 0.000000
0.200325 0.000000 0.000000
0.236821 0.000000 0.000000
0.280572 0.000000 0.000000
0.325925 0.000000 0.000000
0.380849 0.000000 0.000000
0.439771 0.000000 0.000000
0.506663 0.000000 0.000000
0.584175 0.000000 0.000000
0.666563 0.000000 0.013198
0.734249 0.000000 0.040586
0.808906 0.000000 0.062002
0.886820 0.000000 0.086965
0.943565 0.000000 0.117861
0.990707 0.000000 0.152266
1.000000 0.175612 0.191357
1.000000 0.277504 0.247561
1.000000 0.375114 0.294247
1.000000 0.460024 0.348840
1.000000 0.549953 0.412471
1.000000 0.620334 0.484873
1.000000 0.684521 0.538850
1.000000 0.749064 0.597768
0.000000 0.000000 0.000000
0.000000 0.000000 0.000000
0.000000 0.000000 0.000000
0.000000 0.000000 0.000000
0.000000 0.000000 0.000000
0.023977 0.000000 0.000000
0.060639 0.000000 0.000000
0.086737 0.000000 0.000000
0.113261 0.000000 0.000000
0.136611 0.000000 0.000000
0.168725 0.000000 0.000000
0.201801 0.000000 0.000000
0.241791 0.000000 0.000000
0.286255 0.000000 0.000000
0.328603 0.000000 0.000000
0.389024 0.000000 0.000000
0.443815 0.000000 0.000000
0.510733 0.000000 0.000000
0.592116 0.000000 0.000000
0.667489 0.000000 0.012709
0.738614 0.000000 0.041755
0.809410 0.000000 0.063465
0.886974 0.000000 0.086652
0.943781 0.000000 0.120020
0.990652 0.000000 0.152112
1.000000 0.175612 0.191357
1.000000 0.277504 0.247561
1.000000 0.375114 0.294247
1.000000 0.460024 0.348840
1.000000 0.549953 0.412471
1.000000 0.620334 0.484873
1.000000 0.684521 0.538850
1.000000 0.749064 0.597768
0.000000 0.000000 0.000000
0.000000 0.000000 0.000000
0.000000 0.000000 0.000000
0.000000 0.000000 0.000000
0.000000 0.000000 0.000000
0.028548 0.000000 0.000000
0.062842 0.000000 0.000000
0.089019 0.000000 0.000000
0.115890 0.000000 0.000000
0.138255 0.000000 0.000000
0.171905 0.000000 0.000000
0.207309 0.000000 0.000000
0.247047 0.000000 0.000000
0.288583 0.000000 0.000000
0.333440 0.000000 0.000000
0.392357 0.000000 0.000000
0.447902 0.000000 0.000000
0.511453 0.000000 0.000000
0.593155 0.000000 0.000000
0.671802 0.000000 0.012103
0.738869 0.000000 0.041390
0.809872 0.000000 0.062792
0.887362 0.000000 0.088328
0.943781 0.000000 0.120020
0.992865 0.000000 0.153361
1.000000 0.181311 0.191175
1.000000 0.285970 0.247240
1.000000 0.378798 0.294104
1.000000 0.460024 0.348840
1.000000 0.549953 0.412471
1.000000 0.620334 0.484873
1.000000 0.684521 0.538850
1.000000 0.749064 0.597768
0.000000 0.000000 0.000000
0.000000 0.000000 0.000000
0.000000 0.000000 0.000000
0.000000 0.000000 0.000000
0.000000 0.000000 0.000000
0.035280 0.000000 0.000000
0.068508 0.000000 0.000000
0.096325 0.000000 0.000000
0.119127 0.000000 0.000000
0.142911 0.000000 0.000000
0.176438 0.000000 0.000000
0.211860 0.000000 0.000000
0.252490 0.000000 0.000000
0.292848 0.000000 0.000000
0.336200 0.000000 0.000000
0.395915 0.000000 0.000000
0.448988 0.000000 0.000000
0.519084 0.000000 0.000000
0.597600 0.000000 0.000000
0.672598 0.000000 0.014909
0.739379 0.000000 0.040595
0.810371 0.000000 0.064260
0.887436 0.000000 0.088164
0.943821 0.000000 0.119730
0.992865 0.000000 0.153361
1.000000 0.181311 0.191175
1.000000 0.285970 0.247240
1.000000 0.378798 0.294104
1.000000 0.463472 0.348734
1.000000 0.549953 0.412471
1.000000 0.620334 0.484873
1.000000 0.687255 0.538847
1.000000 0.749064 0.597768
0.000000 0.022649 0.000000
0.000000 0.023671 0.000000
0.000000 0.024677 0.000000
0.000000 0.026200 0.000000
0.000000 0.031289 0.000000
0.033988 0.027609 0.000000
0.063020 0.015736 0.000000
0.098659 0.000000 0.000000
0.125193 0.000000 0.000000
0.151377 0.000000 0.000000
0.182633 0.000000 0.000000
0.216721 0.000000 0.000000
0.258352 0.000000 0.000000
0.298996 0.000000 0.000000
0.343416 0.000000 0.000000
0.399895 0.000000 0.000000
0.452911 0.000000 0.000000
0.519964 0.000000 0.000000
0.598779 0.000000 0.000000
0.673658 0.000000 0.016036
0.740031 0.000000 0.041875
0.810485 0.000000 0.064082
0.890870 0.000000 0.087902
0.943856 0.000000 0.119426
0.992738 0.000000 0.153032
1.000000 0.192617 0.193950
1.000000 0.285970 0.247240
1.000000 0.378798 0.294104
1.000000 0.463472 0.348734
1.000000 0.549953 0.412471
1.000000 0.620334 0.484873
1.000000 0.687255 0.538847
1.000000 0.751261 0.597827
0.000000 0.046890 0.000000
0.000000 0.047047 0.000000
0.000000 0.048055 0.000000
0.000000 0.048785 0.000000
0.000000 0.050786 0.000000
0.000000 0.052749 0.000000
0.059591 0.050019 0.000000
0.095203 0.039431 0.000000
0.129344 0.021354 0.000000
0.158969 0.000000 0.000000
0.196716 0.000000 0.000000
0.228364 0.000000 0.000000
0.264814 0.000000 0.000000
0.303796 0.000000 0.000000
0.353632 0.000000 0.000000
0.406430 0.000000 0.000000
0.459978 0.000000 0.000000
0.528080 0.000000 0.000000
0.599700 0.000000 0.000000
0.674321 0.000000 0.015899
0.744122 0.000000 0.041067
0.814930 0.000000 0.065160
0.891197 0.000000 0.088391
0.946643 0.000000 0.119422
0.992671 0.000000 0.152862
1.000000 0.192617 0.193950
1.000000 0.294296 0.246907
1.000000 0.386271 0.296009
1.000000 0.463472 0.348734
1.000000 0.553480 0.417833
1.000000 0.623482 0.484825
1.000000 0.687255 0.538847
1.000000 0.751261 0.597827
0.000000 0.064453 0.000000
0.000000 0.064608 0.000000
0.000000 0.064801 0.000000
0.000000 0.067041 0.000000
0.000000 0.070620 0.000000
0.000000 0.073666 0.000000
0.046335 0.075088 0.000000
0.093664 0.067395 0.000000
0.130720 0.057979 0.000000
0.169022 0.036361 0.000000
0.206221 0.000000 0.000000
0.244831 0.000000 0.000000
0.281689 0.000000 0.000000
0.314060 0.000000 0.000000
0.362542 0.000000 0.000000
0.413195 0.000000 0.000000
0.464594 0.000000 0.000000
0.529752 0.000000 0.000000
0.604568 0.000000 0.000000
0.675515 0.000000 0.015855
0.745149 0.000000 0.041586
0.815380 0.000000 0.064367
0.891334 0.000000 0.088020
0.946855 0.000000 0.121462
0.992601 0.000000 0.153882
1.000000 0.197996 0.194280
1.000000 0.302884 0.246864
1.000000 0.386771 0.296367
1.000000 0.466916 0.348627
1.000000 0.553480 0.417833
1.000000 0.623482 0.484825
1.000000 0.687255 0.538847
1.000000 0.751261 0.597827
0.000000 0.084408 0.000000
0.000000 0.084504 0.000000
0.000000 0.084595 0.000000
0.000000 0.087462 0.000000
0.000000 0.092021 0.000000
0.000000 0.095801 0.000000
0.000000 0.098949 0.000000
0.087813 0.098690 0.000000
0.131667 0.090975 0.000000
0.175740 0.075890 0.000000
0.219066 0.055405 0.000000
0.257437 0.021318 0.000000
0.291556 0.000000 0.000000
0.329353 0.000000 0.000000
0.372598 0.000000 0.000000
0.423891 0.000000 0.000000
0.473211 0.000000 0.000000
0.539118 0.000000 0.000000
0.613682 0.000000 0.000000
0.680500 0.000000 0.008780
0.746030 0.000000 0.039592
0.816180 0.000000 0.064003
0.891828 0.000000 0.089326
0.946881 0.000000 0.120966
0.994601 0.000000 0.153545
1.000000 0.208267 0.193886
1.000000 0.303030 0.248757
1.000000 0.390420 0.296222
1.000000 0.468073 0.349497
1.000000 0.553480 0.417833
1.000000 0.623482 0.484825
1.000000 0.687255 0.538847
1.000000 0.751261 0.597827
0.000000 0.106907 0.000000
0.000000 0.108685 0.000000
0.000000 0.108816 0.000000
0.000000 0.111660 0.000000
0.000000 0.115561 0.000000
0.000000 0.120235 0.000000
0.000000 0.126238 0.000000
0.049811 0.129282 0.000000
0.129685 0.126216 0.000000
0.178150 0.114123 0.000000
0.227740 0.098592 0.000000
0.268663 0.083726 0.000000
0.306128 0.061095 0.000000
0.348201 0.000000 0.000000
0.392358 0.000000 0.000000
0.439875 0.000000 0.000000
0.489527 0.000000 0.000000
0.552459 0.000000 0.000000
0.626685 0.000000 0.000000
0.685755 0.000000 0.000000
0.750868 0.000000 0.037717
0.821186 0.000000 0.066243
0.895486 0.000000 0.090918
0.946986 0.000000 0.121642
0.994481 0.070490 0.155750
1.000000 0.208776 0.198691
1.000000 0.307082 0.248583
1.000000 0.394060 0.296075
1.000000 0.471761 0.354472
1.000000 0.560033 0.417685
1.000000 0.623482 0.484825
1.000000 0.687255 0.538847
1.000000 0.751261 0.597827
0.000000 0.137172 0.000000
0.000000 0.139435 0.000000
0.000000 0.139622 0.000000
0.000000 0.145473 0.000000
0.000000 0.150498 0.000000
0.000000 0.154111 0.000000
0.000000 0.161962 0.000000
0.000000 0.168988 0.000000
0.087562 0.169806 0.000000
0.172459 0.169777 0.000000
0.232135 0.148351 0.000000
0.284306 0.133080 0.000000
0.317813 0.118108 0.000000
0.362554 0.097496 0.000000
0.410966 0.058745 0.000000
0.457973 0.000000 0.000000
0.508145 0.000000 0.000000
0.566749 0.000000 0.000000
0.637025 0.000000 0.000000
0.699536 0.000000 0.000000
0.756460 0.000000 0.037612
0.822296 0.000000 0.066124
0.896111 0.000000 0.091558
0.949790 0.000000 0.122273
0.996404 0.105263 0.155353
1.000000 0.223507 0.198095
1.000000 0.319083 0.248045
1.000000 0.401315 0.295773
1.000000 0.478610 0.354265
1.000000 0.560033 0.417685
1.000000 0.626630 0.484776
1.000000 0.689973 0.538847
1.000000 0.753521 0.600703
0.000000 0.168286 0.000000
0.000000 0.173629 0.000000
0.000000 0.174098 0.000000
0.000000 0.175886 0.000000
0.000000 0.182043 0.000000
0.000000 0.188890 0.000000
0.000000 0.193909 0.000000
0.000000 0.203657 0.000000
0.000000 0.205342 0.000000
0.139940 0.204485 0.000000
0.221434 0.204211 0.000000
0.286270 0.180331 0.000000
0.332018 0.169847 0.000000
0.374468 0.151345 0.000000
0.428334 0.131738 0.000000
0.480791 0.107036 0.000000
0.525039 0.052275 0.000000
0.587292 0.000000 0.000000
0.648782 0.000000 0.000000
0.710058 0.000000 0.000000
0.769803 0.000000 0.036729
0.827428 0.000000 0.069025
0.900247 0.000000 0.095313
0.952447 0.000000 0.121994
0.996181 0.138393 0.158767
1.000000 0.233300 0.200943
1.000000 0.331163 0.251339
1.000000 0.405064 0.297842
1.000000 0.482030 0.354159
1.000000 0.563308 0.417610
1.000000 0.626630 0.484776
1.000000 0.689973 0.538847
1.000000 0.753521 0.600703
0.000000 0.204602 0.000000
0.000000 0.209532 0.000000
0.000000 0.211677 0.000000
0.000000 0.212296 0.000000
0.000000 0.221304 0.000000
0.000000 0.227033 0.000000
0.000000 0.233468 0.000000
0.000000 0.239059 0.000000
0.000000 0.242556 0.000000
0.049990 0.243293 0.000000
0.198945 0.245039 0.000000
0.273928 0.245313 0.000000
0.345418 0.217642 0.000000
0.392211 0.204937 0.000000
0.445960 0.187431 0.000000
0.497184 0.169315 0.000000
0.552438 0.148533 0.000000
0.600845 0.117167 0.000000
0.665086 0.046711 0.000000
0.721034 0.000000 0.000000
0.779634 0.000000 0.032997
0.839985 0.000000 0.068981
0.907170 0.000000 0.096595
0.955002 0.014782 0.123535
0.999908 0.175014 0.160721
1.000000 0.252052 0.203651
1.000000 0.343291 0.253032
1.000000 0.412748 0.297898
1.000000 0.485448 0.354052
1.000000 0.566706 0.420270
1.000000 0.629778 0.484727
1.000000 0.692678 0.538848
1.000000 0.755684 0.600766
0.000000 0.246199 0.000000
0.000000 0.250110 0.000000
0.000000 0.254026 0.000000
0.000000 0.255080 0.000000
0.000000 0.261334 0.000000
0.000000 0.268049 0.000000
0.000000 0.273339 0.000000
0.000000 0.277716 0.000000
0.000000 0.285863 0.000000
0.000000 0.289658 0.000000
0.120307 0.290166 0.000000
0.235573 0.292678 0.000000
0.328906 0.288757 0.000000
0.396218 0.264257 0.000000
0.455208 0.249828 0.000000
0.514497 0.234208 0.000000
0.570700 0.219357 0.000000
0.621876 0.198041 0.000000
0.679115 0.176003 0.000000
0.741402 0.139751 0.000000
0.794478 0.054965 0.000000
0.852202 0.000000 0.069491
0.913940 0.000000 0.097169
0.959995 0.126422 0.126983
1.000000 0.206670 0.165387
1.000000 0.278583 0.205618
1.000000 0.358676 0.254222
1.000000 0.423761 0.301936
1.000000 0.496360 0.356753
1.000000 0.569979 0.420195
1.000000 0.632918 0.484679
1.000000 0.695367 0.538850
1.000000 0.755684 0.600766
0.000000 0.288989 0.000000
0.000000 0.293674 0.000000
0.000000 0.294844 0.000000
0.000000 0.300044 0.000000
0.000000 0.307342 0.000000
0.000000 0.310806 0.000000
0.000000 0.318817 0.000000
0.000000 0.325466 0.000000
0.000000 0.328480 0.000000
0.000000 0.342537 0.000000
0.000000 0.344293 0.000000
0.142318 0.347036 0.000000
0.281695 0.345388 0.000000
0.387846 0.344015 0.000000
0.463749 0.315758 0.000000
0.530168 0.300669 0.000000
0.590629 0.287778 0.000000
0.636447 0.273106 0.000000
0.699997 0.259532 0.000000
0.754535 0.239430 0.000000
0.806602 0.216117 0.000000
0.864680 0.173461 0.058925
0.920243 0.159483 0.098677
0.964077 0.199278 0.128570
1.000000 0.244082 0.166163
1.000000 0.307975 0.207555
1.000000 0.370238 0.257622
1.000000 0.439186 0.306632
1.000000 0.513599 0.361446
1.000000 0.574567 0.423817
1.000000 0.636908 0.490784
1.000000 0.700701 0.538862
1.000000 0.759960 0.600902
0.000000 0.351175 0.000000
0.000000 0.352353 0.000000
0.000000 0.353452 0.000000
0.000000 0.359592 0.000000
0.000000 0.363351 0.000000
0.000000 0.367323 0.000000
0.000000 0.376533 0.000000
0.000000 0.381330 0.000000
0.000000 0.386379 0.000000
0.000000 0.395282 0.000000
0.000000 0.403029 0.000000
0.000000 0.413434 0.000000
0.165101 0.414353 0.000000
0.320253 0.413105 0.000000
0.441287 0.412683 0.000000
0.536742 0.379798 0.000000
0.596818 0.368180 0.000000
0.654141 0.359514 0.000000
0.709329 0.344378 0.000000
0.766090 0.327067 0.000000
0.820803 0.313425 0.000000
0.872373 0.280897 0.032337
0.925210 0.251908 0.095475
0.965160 0.257284 0.133844
1.000000 0.291433 0.169043
1.000000 0.339961 0.209144
1.000000 0.396787 0.260561
1.000000 0.457416 0.308536
1.000000 0.527658 0.361458
1.000000 0.584591 0.429099
1.000000 0.643099 0.490699
1.000000 0.703919 0.539426
1.000000 0.762226 0.606613
0.000000 0.408828 0.000000
0.000000 0.412721 0.000000
0.000000 0.414406 0.000000
0.000000 0.416291 0.000000
0.000000 0.420206 0.000000
0.000000 0.426981 0.000000
0.000000 0.431089 0.000000
0.000000 0.435858 0.000000
0.000000 0.441621 0.000000
0.000000 0.452638 0.000000
0.000000 0.458844 0.000000
0.000000 0.467169 0.000000
0.000000 0.474537 0.000000
0.223907 0.474821 0.000000
0.381342 0.476021 0.000000
0.508826 0.468874 0.000000
0.589437 0.445112 0.000000
0.657321 0.434078 0.000000
0.720731 0.415777 0.000000
0.775961 0.403765 0.000000
0.828781 0.395696 0.000000
0.880717 0.381319 0.000000
0.930000 0.354886 0.084356
0.965514 0.344562 0.130095
1.000000 0.351019 0.171995
1.000000 0.378722 0.215584
1.000000 0.426959 0.265740
1.000000 0.482602 0.312488
1.000000 0.538541 0.366893
1.000000 0.594482 0.431646
1.000000 0.652278 0.490580
1.000000 0.709142 0.539452
1.000000 0.766861 0.607356
0.000000 0.485931 0.000000
0.000000 0.487012 0.000000
0.000000 0.488199 0.000000
0.000000 0.489167 0.000000
0.000000 0.490347 0.000000
0.000000 0.494822 0.000000
0.000000 0.495554 0.000000
0.000000 0.500107 0.000000
0.000000 0.508185 0.000000
0.000000 0.516864 0.000000
0.000000 0.525547 0.000000
0.000000 0.530847 0.000000
0.000000 0.536004 0.000000
0.000000 0.542750 0.000000
0.303957 0.542215 0.000000
0.456060 0.543211 0.000000
0.581850 0.539096 0.000000
0.651772 0.514654 0.000000
0.725302 0.499344 0.000000
0.789093 0.481331 0.000000
0.837738 0.474879 0.000000
0.886741 0.458213 0.000000
0.929877 0.445409 0.074844
0.964119 0.426079 0.131447
0.996767 0.418666 0.178563
1.000000 0.423638 0.221622
1.000000 0.459828 0.274565
1.000000 0.511277 0.321259
1.000000 0.558961 0.371585
1.000000 0.611410 0.434532
1.000000 0.661437 0.493317
1.000000 0.719493 0.542364
1.000000 0.770943 0.607520
0.000000 0.556622 0.000000
0.000000 0.557510 0.000000
0.000000 0.558619 0.000000
0.000000 0.559278 0.000000
0.000000 0.560270 0.000000
0.000000 0.561147 0.000000
0.000000 0.561895 0.000000
0.000000 0.566491 0.000000
0.000000 0.571284 0.000000
0.000000 0.576306 0.000000
0.000000 0.584323 0.000000
0.000000 0.589842 0.000000
0.000000 0.591933 0.000000
0.000000 0.599197 0.000000
0.153466 0.609078 0.000000
0.372688 0.607513 0.000000
0.520293 0.607817 0.000000
0.634547 0.603976 0.000000
0.718976 0.578618 0.000000
0.786997 0.567820 0.000000
0.841537 0.554684 0.000000
0.886429 0.545799 0.000000
0.926293 0.537029 0.000000
0.962649 0.522867 0.130265
0.993488 0.512716 0.181790
1.000000 0.510682 0.228360
1.000000 0.516997 0.280195
1.000000 0.546046 0.327114
1.000000 0.580365 0.379943
1.000000 0.624496 0.437026
1.000000 0.677251 0.494191
1.000000 0.729665 0.548168
1.000000 0.774955 0.607696
0.000000 0.622506 0.000000
0.000000 0.626638 0.000000
0.000000 0.627075 0.000000
0.000000 0.628065 0.000000
0.000000 0.628724 0.000000
0.000000 0.629257 0.000000
0.000000 0.630123 0.000000
0.000000 0.631067 0.000000
0.000000 0.632093 0.000000
0.000000 0.636865 0.000000
0.000000 0.648231 0.000000
0.000000 0.652726 0.000000
0.000000 0.657890 0.000000
0.000000 0.659365 0.000000
0.000000 0.669143 0.000000
0.272890 0.675026 0.000000
0.428180 0.680304 0.000000
0.570388 0.677427 0.000000
0.695781 0.673097 0.000000
0.781320 0.648378 0.000000
0.835113 0.635268 0.000000
0.884397 0.622742 0.000000
0.921677 0.611124 0.023037
0.955664 0.603420 0.121114
0.986075 0.586932 0.185480
1.000000 0.585018 0.236654
1.000000 0.583931 0.288165
1.000000 0.584882 0.331652
1.000000 0.607682 0.384992
1.000000 0.650957 0.445378
1.000000 0.691640 0.496960
1.000000 0.739915 0.551735
1.000000 0.780905 0.610800
0.000000 0.692527 0.000000
0.000000 0.693178 0.000000
0.000000 0.693158 0.000000
0.000000 0.693802 0.000000
0.000000 0.694105 0.000000
0.000000 0.694528 0.000000
0.000000 0.695354 0.000000
0.000000 0.696075 0.000000
0.000000 0.696957 0.000000
0.000000 0.701473 0.000000
0.000000 0.705685 0.000000
0.000000 0.713373 0.000000
0.000000 0.720745 0.000000
0.000000 0.724918 0.000000
0.000000 0.728751 0.000000
0.055598 0.730902 0.000000
0.357705 0.735321 0.000000
0.506398 0.733299 0.000000
0.642674 0.732522 0.000000
0.755008 0.731631 0.000000
0.828405 0.713167 0.000000
0.872904 0.700785 0.000000
0.917640 0.683236 0.000000
0.946579 0.679408 0.138124
0.974513 0.669530 0.188903
0.999650 0.658117 0.254300
1.000000 0.650196 0.305380
1.000000 0.646762 0.345833
1.000000 0.651062 0.389607
1.000000 0.682629 0.454366
1.000000 0.716980 0.506079
1.000000 0.754045 0.557778
1.000000 0.789360 0.615231
0.000000 0.748855 0.117981
0.000000 0.752071 0.116875
0.000000 0.752437 0.117382
0.000000 0.752798 0.117894
0.000000 0.753067 0.118279
0.000000 0.753320 0.114180
0.000000 0.753843 0.114984
0.000000 0.754236 0.106222
0.000000 0.754898 0.107400
0.000000 0.755333 0.098079
0.000000 0.755891 0.088014
0.000000 0.759673 0.088374
0.000000 0.766189 0.080630
0.000000 0.772115 0.036130
0.000000 0.777568 0.000000
0.000000 0.777238 0.000000
0.261829 0.778689 0.000000
0.438494 0.781778 0.000000
0.609978 0.778338 0.000000
0.708556 0.782289 0.000000
0.802273 0.778666 0.000000
0.858176 0.763611 0.000000
0.905804 0.744607 0.069300
0.942373 0.734902 0.155790
0.966285 0.731599 0.209155
0.988427 0.726519 0.263414
1.000000 0.719177 0.319591
1.000000 0.712604 0.361623
1.000000 0.710230 0.409572
1.000000 0.719913 0.460416
1.000000 0.743197 0.518433
1.000000 0.770410 0.568003
1.000000 0.798674 0.618623
0.000000 0.807596 0.193589
0.000000 0.807664 0.193712
0.000000 0.807930 0.194205
0.000000 0.807995 0.194328
0.000000 0.808254 0.194824
0.000000 0.808317 0.194949
0.000000 0.808630 0.195573
0.000000 0.808813 0.195950
0.000000 0.809025 0.193127
0.000000 0.809390 0.190678
0.000000 0.809898 0.191990
0.000000 0.812443 0.182244
0.000000 0.815225 0.183592
0.000000 0.817782 0.181713
0.000000 0.819954 0.177028
0.000000 0.825766 0.160461
0.000000 0.826676 0.160564
0.389758 0.824435 0.157847
0.532810 0.829653 0.137445
0.669142 0.825830 0.146030
0.762521 0.822486 0.150773
0.839999 0.819409 0.150651
0.888421 0.811087 0.133142
0.928774 0.796159 0.192136
0.956704 0.790670 0.245839
0.977917 0.786031 0.301602
0.996731 0.777050 0.347692
1.000000 0.773380 0.389709
1.000000 0.770497 0.432050
1.000000 0.768240 0.479701
1.000000 0.771610 0.531408
1.000000 0.789172 0.578099
1.000000 0.811703 0.628567
0.000000 0.850174 0.271687
0.000000 0.850255 0.271953
0.000000 0.850295 0.272084
0.000000 0.850373 0.272349
0.000000 0.850411 0.272482
0.000000 0.850559 0.273016
0.000000 0.850595 0.273149
0.000000 0.850764 0.273820
0.000000 0.850822 0.271085
0.000000 0.850962 0.271764
0.000000 0.850998 0.266170
0.000000 0.851058 0.263862
0.000000 0.852985 0.258815
0.000000 0.856808 0.260822
0.000000 0.858416 0.263223
0.000000 0.859723 0.262286
0.000000 0.861963 0.249483
0.316675 0.861847 0.253673
0.497729 0.860596 0.242020
0.620808 0.858970 0.230568
0.731283 0.855343 0.237264
0.810936 0.852350 0.241751
0.870974 0.855167 0.245887
0.914686 0.846419 0.235058
0.945376 0.835733 0.280515
0.967974 0.829191 0.327841
0.988105 0.823257 0.377216
1.000000 0.819434 0.409606
1.000000 0.810963 0.459354
1.000000 0.810452 0.501582
1.000000 0.810704 0.550042
1.000000 0.812445 0.589447
1.000000 0.826016 0.636557
0.000000 0.883531 0.351346
0.000000 0.883478 0.348094
0.000000 0.883505 0.348371
0.000000 0.883518 0.348510
0.000000 0.883541 0.348787
0.000000 0.885233 0.349236
0.000000 0.885257 0.349655
0.000000 0.885262 0.349795
0.000000 0.885275 0.350215
0.000000 0.885278 0.350919
0.000000 0.885211 0.348240
0.000000 0.885040 0.342747
0.000000 0.884845 0.340658
0.000000 0.884564 0.335188
0.000000 0.887405 0.337693
0.000000 0.888459 0.339758
0.000000 0.888869 0.336239
0.270271 0.889898 0.330972
0.474469 0.890041 0.332920
0.592135 0.890057 0.331401
0.690403 0.886821 0.323414
0.783832 0.883413 0.330225
0.845443 0.883722 0.329233
0.897322 0.882954 0.329761
0.932535 0.877431 0.327984
0.959024 0.867153 0.369560
0.980100 0.859986 0.406052
0.998491 0.856549 0.446889
1.000000 0.852033 0.479447
1.000000 0.848040 0.528463
1.000000 0.844409 0.567142
1.000000 0.843729 0.608709
1.000000 0.845421 0.650468
0.000000 0.910735 0.431399
0.000000 0.910735 0.431399
0.000000 0.910695 0.431675
0.000000 0.913418 0.432635
0.000000 0.913418 0.432635
0.000000 0.913371 0.432912
0.000000 0.913346 0.433051
0.000000 0.913320 0.433190
0.000000 0.913236 0.433607
0.000000 0.913176 0.433886
0.000000 0.914346 0.431699
0.000000 0.914195 0.432264
0.000000 0.915185 0.427226
0.000000 0.914833 0.428233
0.000000 0.916871 0.424022
0.000000 0.916167 0.425510
0.000000 0.915065 0.427485
0.253596 0.914475 0.424392
0.463488 0.912729 0.419253
0.578155 0.913522 0.421054
