Assets/Lutify-Free-LUTs-Pack/Lutify Free LUTs Pack/Film Tone Pro - Film Tone 3/Lutify.me-FilmTone3-NLog-to-Rec709.cube
# Created with: fylm.ai - Colour Grading and Collaboration Software in Cloud 
# Website: https://fylm.ai 
# META
# Option: Gamut compress
# Block 1: IDT | Nikon BT2020 N-Log
# Block 2: colourMatch | Blending Mode: Normal | {"ColorSpace":0,"CrossCovarianceLimit":50,"ReshapingIterations":1,"PercentSaturationShift":100,"PercentShadingShift":100,"ExtraShading":true,"PercentTint":100,"PercentModified":100}
# Block 3: subtractiveColour | Blending Mode: Normal | {"sliders":{"gainY":0.6,"C":0.3,"M":0.3,"Y":0.3}}
# Block 4: LUT | Filmic Curve Response: Low Contrast 2 (100%)
# Block 5: logPrimaries | Blending Mode: Normal | {"wheels":{"shadows":{"Y":"0","R":"1","G":"1","B":"1"},"midtones":{"Y":"0","R":"1","G":"1","B":"1"},"highlights":{"Y":"0","R":"1","G":"1","B":"1"},"offset":{"Y":"0","R":"1","G":"1","B":"1"}},"sliders":{"shadows":{"Y":0,"R":-0.026,"G":0.03,"B":0.1},"midtones":{"Y":0,"R":0.024,"G":-0.036,"B":0.036},"highlights":{"Y":0,"R":0,"G":0.044,"B":-0.128},"offset":{"Y":0,"R":0,"G":0,"B":0}}}
# Block 6: hueSaturation | Blending Mode: Normal | {"hue":0,"saturation":-0.1}
# Block 7: ODT | Rec709
TITLE "Lutify.me-FilmTone3-NLog-to-Rec709" 
LUT_3D_SIZE 5
0.000000 0.000000 0.000000
0.154469 0.000000 0.000000
0.554447 0.000000 0.000000
0.988382 0.000000 0.149685
1.000000 0.637293 0.498996
0.000000 0.133436 0.000000
0.218117 0.146056 0.000000
0.604035 0.000000 0.000000
0.992257 0.072432 0.155533
1.000000 0.643648 0.504587
0.000000 0.523449 0.000000
0.000000 0.554065 0.000000
0.690804 0.555858 0.000000
0.990959 0.472920 0.178568
1.000000 0.683329 0.510972
0.000000 0.881745 0.347520
0.000000 0.883445 0.340995
0.400550 0.888247 0.323699
0.931018 0.873133 0.325351
1.000000 0.842331 0.581128
0.539004 0.993789 0.760999
0.549264 0.993524 0.761186
0.632594 0.992496 0.758207
0.838206 0.987558 0.756139
0.996820 0.982499 0.774344
0.000000 0.000000 0.091985
0.156125 0.000000 0.067780
0.569181 0.000000 0.077927
0.987578 0.000000 0.182373
1.000000 0.637643 0.507502
0.000000 0.136151 0.216969
0.164828 0.192823 0.201679
0.609811 0.000000 0.103772
0.993539 0.122275 0.191745
1.000000 0.643878 0.510277
0.000000 0.535945 0.203873
0.000000 0.580552 0.178149
0.689244 0.594560 0.131832
0.991515 0.490331 0.227336
1.000000 0.683752 0.522423
0.000000 0.882749 0.409064
0.000000 0.884525 0.408780
0.401859 0.889102 0.387383
0.930701 0.873981 0.380954
1.000000 0.842491 0.589749
0.539014 0.993793 0.769187
0.549263 0.993526 0.765306
0.632566 0.992498 0.762322
0.838103 0.987563 0.760112
0.996753 0.982504 0.775974
0.000000 0.054248 0.407583
0.000000 0.065424 0.418314
0.630853 0.000000 0.370402
0.994858 0.071437 0.405442
1.000000 0.642864 0.562428
0.000000 0.125869 0.472704
0.000000 0.151186 0.476918
0.676231 0.000000 0.451293
0.995284 0.188042 0.417587
1.000000 0.648936 0.562382
0.000000 0.549642 0.620648
0.000000 0.598846 0.627993
0.634862 0.647958 0.615397
0.981246 0.523663 0.489255
1.000000 0.688428 0.574888
0.000000 0.892774 0.656734
0.000000 0.894449 0.656673
0.346576 0.898521 0.641001
0.917071 0.888340 0.634406
1.000000 0.846694 0.648373
0.539136 0.993806 0.790372
0.549373 0.993541 0.790526
0.620310 0.992901 0.792804
0.837333 0.987607 0.789945
0.995759 0.982582 0.799528
0.000000 0.285901 0.773553
0.000000 0.299660 0.773599
0.560785 0.291351 0.780670
1.000000 0.153405 0.741341
1.000000 0.680262 0.758386
0.000000 0.317954 0.781993
0.000000 0.328422 0.779310
0.546375 0.327879 0.786004
1.000000 0.229725 0.750596
1.000000 0.683295 0.763314
0.000000 0.550078 0.824956
0.000000 0.565243 0.824441
0.458614 0.593326 0.826382
0.980269 0.566784 0.809622
1.000000 0.725341 0.767988
0.000000 0.890321 0.872680
0.000000 0.893746 0.873845
0.295193 0.906034 0.870274
0.886508 0.900663 0.865920
1.000000 0.858437 0.806352
0.520719 0.996279 0.886032
0.531227 0.996020 0.886101
0.616593 0.994948 0.885945
0.833509 0.990287 0.880172
0.988233 0.985924 0.881573
0.332468 0.696926 0.942486
0.365550 0.696609 0.942519
0.529152 0.697204 0.942516
0.885849 0.707712 0.939197
1.000000 0.713186 0.924990
0.324940 0.703340 0.942168
0.358992 0.703026 0.942202
0.523383 0.706765 0.942053
0.883839 0.713843 0.938924
1.000000 0.718604 0.924772
0.296226 0.740511 0.945026
0.335178 0.740186 0.945059
0.504420 0.746248 0.943853
0.869977 0.754253 0.939883
1.000000 0.754869 0.926420
0.000000 0.877237 0.955039
0.163563 0.876762 0.954330
0.450771 0.881545 0.953302
0.819800 0.882161 0.950380
1.000000 0.876370 0.944599
0.503477 0.997534 0.973388
0.514173 0.997283 0.973397
0.615344 0.996981 0.972016
0.822323 0.993946 0.970201
0.978183 0.990392 0.965711
