Assets/Lutify-Free-LUTs-Pack/Lutify Free LUTs Pack/Film Tone Pro - Film Tone 3/Lutify.me-FilmTone3-DJIDLog-to-Rec709.cube
# Created with: fylm.ai - Colour Grading and Collaboration Software in Cloud 
# Website: https://fylm.ai 
# META
# Option: Gamut compress
# Block 1: IDT | DJI D-Gamut D-Log
# Block 2: colourMatch | Blending Mode: Normal | {"ColorSpace":0,"CrossCovarianceLimit":50,"ReshapingIterations":1,"PercentSaturationShift":100,"PercentShadingShift":100,"ExtraShading":true,"PercentTint":100,"PercentModified":100}
# Block 3: subtractiveColour | Blending Mode: Normal | {"sliders":{"gainY":0.6,"C":0.3,"M":0.3,"Y":0.3}}
# Block 4: LUT | Filmic Curve Response: Low Contrast 2 (100%)
# Block 5: logPrimaries | Blending Mode: Normal | {"wheels":{"shadows":{"Y":"0","R":"1","G":"1","B":"1"},"midtones":{"Y":"0","R":"1","G":"1","B":"1"},"highlights":{"Y":"0","R":"1","G":"1","B":"1"},"offset":{"Y":"0","R":"1","G":"1","B":"1"}},"sliders":{"shadows":{"Y":0,"R":-0.026,"G":0.03,"B":0.1},"midtones":{"Y":0,"R":0.024,"G":-0.036,"B":0.036},"highlights":{"Y":0,"R":0,"G":0.044,"B":-0.128},"offset":{"Y":0,"R":0,"G":0,"B":0}}}
# Block 6: hueSaturation | Blending Mode: Normal | {"hue":0,"saturation":-0.1}
# Block 7: ODT | Rec709
TITLE "Lutify.me-FilmTone3-DJIDLog-to-Rec709" 
LUT_3D_SIZE 33
0.000000 0.000000 0.000000
0.000000 0.000000 0.000000
0.000000 0.000000 0.000000
0.000000 0.000000 0.000000
0.000000 0.000000 0.000000
0.084097 0.000000 0.000000
0.107126 0.000000 0.000000
0.126175 0.000000 0.000000
0.148117 0.000000 0.000000
0.177875 0.000000 0.000000
0.210522 0.000000 0.000000
0.247467 0.000000 0.000000
0.292431 0.000000 0.000000
0.348828 0.000000 0.000000
0.405852 0.000000 0.000000
0.472213 0.000000 0.000000
0.547158 0.000000 0.000000
0.624117 0.000000 0.000000
0.702066 0.000000 0.000000
0.776803 0.000000 0.000000
0.858158 0.000000 0.042179
0.922599 0.000000 0.076622
0.981173 0.000000 0.109032
1.000000 0.192859 0.149177
1.000000 0.309595 0.197000
1.000000 0.401459 0.249248
1.000000 0.491874 0.301798
1.000000 0.577413 0.368985
1.000000 0.650187 0.440481
1.000000 0.718156 0.503162
1.000000 0.776859 0.572874
1.000000 0.819730 0.640655
1.000000 0.856079 0.707135
0.000000 0.000000 0.000000
0.000000 0.000000 0.000000
0.000000 0.000000 0.000000
0.000000 0.000000 0.000000
0.000000 0.000000 0.000000
0.088488 0.000000 0.000000
0.110172 0.000000 0.000000
0.129601 0.000000 0.000000
0.154309 0.000000 0.000000
0.181245 0.000000 0.000000
0.214902 0.000000 0.000000
0.259407 0.000000 0.000000
0.298675 0.000000 0.000000
0.356343 0.000000 0.000000
0.414953 0.000000 0.000000
0.476953 0.000000 0.000000
0.551614 0.000000 0.000000
0.628773 0.000000 0.000000
0.706282 0.000000 0.000000
0.777033 0.000000 0.000000
0.858440 0.000000 0.040572
0.925727 0.000000 0.075406
0.981007 0.000000 0.108053
1.000000 0.203375 0.150000
1.000000 0.309891 0.200389
1.000000 0.401459 0.249248
1.000000 0.495293 0.301611
1.000000 0.577540 0.371610
1.000000 0.650070 0.437756
1.000000 0.718156 0.503162
1.000000 0.776859 0.572874
1.000000 0.819730 0.640655
1.000000 0.856079 0.707135
0.000000 0.000000 0.000000
0.000000 0.000000 0.000000
0.000000 0.000000 0.000000
0.000000 0.000000 0.000000
0.000000 0.000000 0.000000
0.093778 0.000000 0.000000
0.114382 0.000000 0.000000
0.133007 0.000000 0.000000
0.157275 0.000000 0.000000
0.189542 0.000000 0.000000
0.222380 0.000000 0.000000
0.268812 0.000000 0.000000
0.304941 0.000000 0.000000
0.364395 0.000000 0.000000
0.419060 0.000000 0.000000
0.484419 0.000000 0.000000
0.556220 0.000000 0.000000
0.640652 0.000000 0.000000
0.710633 0.000000 0.000000
0.781492 0.000000 0.000000
0.862106 0.000000 0.039349
0.925760 0.000000 0.075052
0.980884 0.000000 0.107359
1.000000 0.203375 0.150000
1.000000 0.313897 0.200102
1.000000 0.401459 0.249248
1.000000 0.495293 0.301611
1.000000 0.577540 0.371610
1.000000 0.650070 0.437756
1.000000 0.718156 0.503162
1.000000 0.776859 0.572874
1.000000 0.819730 0.640655
1.000000 0.856079 0.707135
0.000000 0.000000 0.000000
0.000000 0.000000 0.000000
0.000000 0.000000 0.000000
0.000000 0.000000 0.000000
0.010304 0.000000 0.000000
0.102964 0.000000 0.000000
0.119262 0.000000 0.000000
0.138241 0.000000 0.000000
0.165074 0.000000 0.000000
0.196160 0.000000 0.000000
0.232108 0.000000 0.000000
0.275134 0.000000 0.000000
0.315632 0.000000 0.000000
0.368001 0.000000 0.000000
0.429036 0.000000 0.000000
0.489017 0.000000 0.000000
0.560979 0.000000 0.000000
0.641600 0.000000 0.000000
0.711165 0.000000 0.000000
0.785576 0.000000 0.000000
0.862376 0.000000 0.037394
0.925825 0.000000 0.074316
0.980820 0.000000 0.107000
1.000000 0.213331 0.149340
1.000000 0.313897 0.200102
1.000000 0.405075 0.249007
1.000000 0.496357 0.302525
1.000000 0.580809 0.371498
1.000000 0.653113 0.437698
1.000000 0.720689 0.503184
1.000000 0.776859 0.572874
1.000000 0.819730 0.640655
1.000000 0.856079 0.707135
0.000000 0.023710 0.000000
0.000000 0.025729 0.000000
0.000000 0.029267 0.000000
0.000000 0.033521 0.000000
0.000000 0.037825 0.000000
0.105481 0.000000 0.000000
0.127841 0.000000 0.000000
0.148320 0.000000 0.000000
0.179534 0.000000 0.000000
0.210465 0.000000 0.000000
0.244210 0.000000 0.000000
0.283384 0.000000 0.000000
0.324885 0.000000 0.000000
0.381594 0.000000 0.000000
0.433522 0.000000 0.000000
0.493528 0.000000 0.000000
0.569229 0.000000 0.000000
0.646430 0.000000 0.000000
0.715251 0.000000 0.000000
0.786064 0.000000 0.000000
0.869434 0.000000 0.035845
0.931733 0.000000 0.073804
0.982996 0.036018 0.106480
1.000000 0.213319 0.149613
1.000000 0.317880 0.199809
1.000000 0.405350 0.252987
1.000000 0.499763 0.302338
1.000000 0.580809 0.371498
1.000000 0.653113 0.437698
1.000000 0.721206 0.503803
1.000000 0.776859 0.572874
1.000000 0.819730 0.640655
1.000000 0.856079 0.707135
0.000000 0.077922 0.000000
0.000000 0.078089 0.000000
0.000000 0.080750 0.000000
0.000000 0.085001 0.000000
0.000000 0.090111 0.000000
0.111716 0.089245 0.000000
0.144915 0.078770 0.000000
0.176332 0.067376 0.000000
0.213005 0.055443 0.000000
0.246871 0.000000 0.000000
0.284065 0.000000 0.000000
0.321279 0.000000 0.000000
0.357073 0.000000 0.000000
0.405243 0.000000 0.000000
0.452739 0.000000 0.000000
0.511160 0.000000 0.000000
0.580559 0.000000 0.000000
0.656697 0.000000 0.000000
0.728577 0.000000 0.000000
0.798266 0.000000 0.000000
0.873409 0.000000 0.029313
0.934718 0.000000 0.071837
0.982833 0.101260 0.107590
1.000000 0.222978 0.148922
1.000000 0.326433 0.199844
1.000000 0.416613 0.252652
1.000000 0.509966 0.301766
1.000000 0.584078 0.371386
1.000000 0.653113 0.437698
1.000000 0.721206 0.503803
1.000000 0.778813 0.572977
1.000000 0.819730 0.640655
1.000000 0.856079 0.707135
0.000000 0.096020 0.000000
0.000000 0.096182 0.000000
0.000000 0.097903 0.000000
0.000000 0.102178 0.000000
0.000000 0.108262 0.000000
0.114478 0.111414 0.000000
0.149327 0.101359 0.000000
0.181090 0.093549 0.000000
0.222793 0.081675 0.000000
0.258836 0.059204 0.000000
0.291555 0.031135 0.000000
0.329819 0.000000 0.000000
0.369032 0.000000 0.000000
0.416297 0.000000 0.000000
0.467989 0.000000 0.000000
0.517027 0.000000 0.000000
0.585630 0.000000 0.000000
0.661158 0.000000 0.000000
0.729501 0.000000 0.000000
0.802451 0.000000 0.000000
0.873721 0.000000 0.023882
0.934763 0.000000 0.070427
0.985037 0.109427 0.107414
1.000000 0.227706 0.148564
1.000000 0.330346 0.199539
1.000000 0.416613 0.252652
1.000000 0.510228 0.306412
1.000000 0.584078 0.371386
1.000000 0.653113 0.437698
1.000000 0.721206 0.503803
1.000000 0.778813 0.572977
1.000000 0.819730 0.640655
1.000000 0.856079 0.707135
0.000000 0.116080 0.000000
0.000000 0.116337 0.000000
0.000000 0.119367 0.000000
0.000000 0.127462 0.000000
0.000000 0.132893 0.000000
0.100405 0.138469 0.000000
0.146633 0.139532 0.000000
0.189267 0.131448 0.000000
0.230735 0.113576 0.000000
0.269204 0.098190 0.000000
0.301784 0.086089 0.000000
0.341715 0.062978 0.000000
0.387229 0.000000 0.000000
0.433850 0.000000 0.000000
0.478389 0.000000 0.000000
0.537165 0.000000 0.000000
0.591353 0.000000 0.000000
0.670245 0.000000 0.000000
0.734378 0.000000 0.000000
0.803538 0.000000 0.000000
0.877381 0.000000 0.014733
0.937733 0.000000 0.069330
0.984767 0.133314 0.106127
1.000000 0.232374 0.148197
1.000000 0.338114 0.198914
1.000000 0.420197 0.252409
1.000000 0.513624 0.306225
1.000000 0.584078 0.371386
1.000000 0.656141 0.437642
1.000000 0.726205 0.503857
1.000000 0.778813 0.572977
1.000000 0.821343 0.640802
1.000000 0.856079 0.707135
0.000000 0.144538 0.000000
0.000000 0.145902 0.000000
0.000000 0.149831 0.000000
0.000000 0.155437 0.000000
0.000000 0.163168 0.000000
0.052113 0.173785 0.000000
0.129608 0.173545 0.000000
0.186667 0.171887 0.000000
0.234563 0.154556 0.000000
0.282058 0.141587 0.000000
0.318130 0.123768 0.000000
0.358966 0.110372 0.000000
0.401384 0.082748 0.000000
0.450112 0.036392 0.000000
0.492119 0.000000 0.000000
0.554883 0.000000 0.000000
0.605141 0.000000 0.000000
0.675896 0.000000 0.000000
0.739650 0.000000 0.000000
0.807824 0.000000 0.000000
0.881059 0.000000 0.000000
0.937735 0.000000 0.066994
0.986733 0.152568 0.104982
1.000000 0.246065 0.147045
1.000000 0.341971 0.198594
1.000000 0.423774 0.252162
1.000000 0.513624 0.306225
1.000000 0.587345 0.371273
1.000000 0.656141 0.437642
1.000000 0.726205 0.503857
1.000000 0.778813 0.572977
1.000000 0.821343 0.640802
1.000000 0.856079 0.707135
0.000000 0.170705 0.000000
0.000000 0.173815 0.000000
0.000000 0.178552 0.000000
0.000000 0.184109 0.000000
0.000000 0.193146 0.000000
0.000000 0.202363 0.000000
0.104941 0.202183 0.000000
0.175110 0.203412 0.000000
0.239148 0.196875 0.000000
0.292937 0.179588 0.000000
0.334425 0.164701 0.000000
0.374333 0.151252 0.000000
0.417476 0.139812 0.000000
0.467776 0.118099 0.000000
0.513942 0.093841 0.000000
0.566346 0.012948 0.000000
0.619901 0.000000 0.000000
0.682672 0.000000 0.000000
0.745068 0.000000 0.000000
0.813159 0.000000 0.000000
0.885080 0.000000 0.000000
0.940449 0.000000 0.062289
0.986293 0.175805 0.102964
1.000000 0.259452 0.146089
1.000000 0.353445 0.197604
1.000000 0.430911 0.251658
1.000000 0.523799 0.305654
1.000000 0.590612 0.371160
1.000000 0.659154 0.437587
1.000000 0.728680 0.503889
1.000000 0.778813 0.572977
1.000000 0.821343 0.640802
1.000000 0.857362 0.707283
0.000000 0.204437 0.000000
0.000000 0.206808 0.000000
0.000000 0.215689 0.000000
0.000000 0.223469 0.000000
0.000000 0.228459 0.000000
0.000000 0.237686 0.000000
0.000000 0.238084 0.000000
0.146414 0.242540 0.000000
0.229179 0.243774 0.000000
0.292121 0.227707 0.000000
0.341469 0.207262 0.000000
0.389190 0.195880 0.000000
0.433380 0.187040 0.000000
0.485856 0.168363 0.000000
0.535963 0.150760 0.000000
0.581750 0.129148 0.000000
0.641865 0.106363 0.000000
0.697040 0.027367 0.000000
0.751496 0.000000 0.000000
0.818308 0.000000 0.000000
0.888858 0.000000 0.000000
0.942978 0.108088 0.055168
0.988034 0.201501 0.103421
1.000000 0.280967 0.143831
1.000000 0.361021 0.196919
1.000000 0.434471 0.251402
1.000000 0.527688 0.305931
1.000000 0.590612 0.371160
1.000000 0.659154 0.437587
1.000000 0.728773 0.506651
1.000000 0.781165 0.573755
1.000000 0.821343 0.640802
1.000000 0.857362 0.707283
0.000000 0.245841 0.000000
0.000000 0.250329 0.000000
0.000000 0.255275 0.000000
0.000000 0.257132 0.000000
0.000000 0.267882 0.000000
0.000000 0.280082 0.000000
0.000000 0.281104 0.000000
0.097996 0.281444 0.000000
0.207886 0.280301 0.000000
0.288135 0.277523 0.000000
0.345020 0.261754 0.000000
0.400693 0.248621 0.000000
0.450818 0.234441 0.000000
0.510403 0.215042 0.000000
0.561655 0.201171 0.000000
0.605307 0.196538 0.000000
0.653784 0.179393 0.000000
0.708769 0.163182 0.000000
0.769458 0.139926 0.000000
0.824441 0.122741 0.000000
0.892738 0.119838 0.000000
0.945352 0.170848 0.046679
0.987320 0.225074 0.100325
1.000000 0.301608 0.141348
1.000000 0.376333 0.195819
1.000000 0.449224 0.252789
1.000000 0.531068 0.305737
1.000000 0.600404 0.370815
1.000000 0.662153 0.437535
1.000000 0.731230 0.506686
1.000000 0.781165 0.573755
1.000000 0.822946 0.640951
1.000000 0.857406 0.709621
0.000000 0.288750 0.000000
0.000000 0.292331 0.000000
0.000000 0.294305 0.000000
0.000000 0.302140 0.000000
0.000000 0.310229 0.000000
0.000000 0.319255 0.000000
0.000000 0.320593 0.000000
0.000000 0.321571 0.000000
0.168695 0.321437 0.000000
0.258113 0.324724 0.000000
0.332332 0.326986 0.000000
0.409565 0.307998 0.000000
0.475444 0.288229 0.000000
0.530658 0.270265 0.000000
0.584432 0.263439 0.000000
0.628168 0.257038 0.000000
0.676495 0.249521 0.000000
0.730979 0.241246 0.000000
0.787636 0.232130 0.000000
0.837553 0.223895 0.000000
0.896208 0.212483 0.000000
0.947278 0.222236 0.026991
0.988293 0.260234 0.098094
1.000000 0.329665 0.139464
1.000000 0.391145 0.194301
1.000000 0.463320 0.251702
1.000000 0.538084 0.310100
1.000000 0.604880 0.374424
1.000000 0.671168 0.440124
1.000000 0.733669 0.506724
1.000000 0.783075 0.573866
1.000000 0.822946 0.640951
1.000000 0.858679 0.709770
0.000000 0.345360 0.000000
0.000000 0.347412 0.000000
0.000000 0.354008 0.000000
0.000000 0.360546 0.000000
0.000000 0.367185 0.000000
0.000000 0.374385 0.000000
0.000000 0.376206 0.000000
0.000000 0.377756 0.000000
0.000000 0.378454 0.000000
0.197671 0.383819 0.000000
0.290890 0.385901 0.000000
0.392601 0.386282 0.000000
0.473173 0.368002 0.000000
0.552671 0.339450 0.000000
0.603375 0.332009 0.000000
0.648885 0.315625 0.000000
0.694433 0.322601 0.000000
0.744847 0.312468 0.000000
0.800601 0.305223 0.000000
0.854666 0.301450 0.000000
0.904121 0.299336 0.000000
0.952456 0.294873 0.000000
0.987565 0.317503 0.088851
1.000000 0.357096 0.139330
1.000000 0.413669 0.195913
1.000000 0.480978 0.252383
1.000000 0.551570 0.309328
1.000000 0.611380 0.374197
1.000000 0.675157 0.441229
1.000000 0.736091 0.506765
1.000000 0.784973 0.573980
1.000000 0.825272 0.642524
1.000000 0.858679 0.709770
0.000000 0.400594 0.000000
0.000000 0.407864 0.000000
0.000000 0.409392 0.000000
0.000000 0.413715 0.000000
0.000000 0.418030 0.000000
0.000000 0.422141 0.000000
0.000000 0.429826 0.000000
0.000000 0.434382 0.000000
0.000000 0.435510 0.000000
0.000000 0.439479 0.000000
0.239092 0.439555 0.000000
0.364207 0.438017 0.000000
0.468770 0.434752 0.000000
0.551058 0.418259 0.000000
0.612674 0.398544 0.000000
0.669369 0.384617 0.000000
0.712494 0.374445 0.000000
0.759724 0.384977 0.000000
0.811240 0.377236 0.000000
0.863095 0.373682 0.000000
0.909892 0.374949 0.000000
0.952852 0.373884 0.000000
0.989521 0.378118 0.066194
1.000000 0.402280 0.137020
1.000000 0.442817 0.192807
1.000000 0.513056 0.250486
1.000000 0.565486 0.309017
1.000000 0.621119 0.373854
1.000000 0.680947 0.441155
1.000000 0.740881 0.506858
1.000000 0.786861 0.574096
1.000000 0.826845 0.642679
1.000000 0.859942 0.709920
0.000000 0.465644 0.000000
0.000000 0.470125 0.000000
0.000000 0.474604 0.000000
0.000000 0.481829 0.000000
0.000000 0.483132 0.000000
0.000000 0.492884 0.000000
0.000000 0.494095 0.000000
0.000000 0.495369 0.000000
0.000000 0.499920 0.000000
0.000000 0.500996 0.000000
0.145194 0.501537 0.000000
0.318028 0.500859 0.000000
0.432308 0.498817 0.000000
0.545385 0.495035 0.000000
0.616722 0.481863 0.000000
0.686087 0.448176 0.000000
0.731504 0.441684 0.000000
0.775530 0.439011 0.000000
0.819133 0.446028 0.000000
0.872089 0.444320 0.000000
0.910957 0.444246 0.000000
0.952222 0.442337 0.000000
0.986369 0.454252 0.000000
1.000000 0.464209 0.127651
1.000000 0.493045 0.190277
1.000000 0.537829 0.253067
1.000000 0.579087 0.303841
1.000000 0.637809 0.373830
1.000000 0.692331 0.441037
1.000000 0.751176 0.511108
1.000000 0.792471 0.574462
1.000000 0.828408 0.642837
1.000000 0.861506 0.710732
0.000000 0.537867 0.000000
0.000000 0.538811 0.000000
0.000000 0.542908 0.000000
0.000000 0.544028 0.000000
0.000000 0.548099 0.000000
0.000000 0.550650 0.000000
0.000000 0.551528 0.000000
0.000000 0.552439 0.000000
0.000000 0.557045 0.000000
0.000000 0.561439 0.000000
0.000000 0.562156 0.000000
0.200046 0.562262 0.000000
0.374295 0.561054 0.000000
0.499508 0.561809 0.000000
0.606476 0.558191 0.000000
0.671007 0.545282 0.000000
0.741030 0.521328 0.000000
0.790409 0.515024 0.000000
0.831774 0.525487 0.000000
0.874324 0.525346 0.000000
0.916342 0.523267 0.000000
0.949418 0.529479 0.000000
0.980408 0.535740 0.000000
1.000000 0.539051 0.115260
1.000000 0.549425 0.181928
1.000000 0.569257 0.255078
1.000000 0.606035 0.307030
1.000000 0.650514 0.373398
1.000000 0.706729 0.444288
1.000000 0.757955 0.511321
1.000000 0.797995 0.574853
1.000000 0.831506 0.643160
1.000000 0.862744 0.710887
0.000000 0.603386 0.000000
0.000000 0.603976 0.000000
0.000000 0.607803 0.000000
0.000000 0.608676 0.000000
0.000000 0.609151 0.000000
0.000000 0.613729 0.000000
0.000000 0.614416 0.000000
0.000000 0.614954 0.000000
0.000000 0.616002 0.000000
0.000000 0.620092 0.000000
0.000000 0.627306 0.000000
0.000000 0.627758 0.000000
0.286221 0.627300 0.000000
0.431907 0.625741 0.000000
0.556220 0.622975 0.000000
0.643882 0.626819 0.000000
0.730009 0.606403 0.000000
0.801663 0.579183 0.000000
0.841086 0.581062 0.000000
0.875893 0.588428 0.000000
0.914212 0.591280 0.000000
0.950890 0.591027 0.000000
0.978138 0.598056 0.000000
1.000000 0.601345 0.069329
1.000000 0.608876 0.181110
1.000000 0.617378 0.251197
1.000000 0.636819 0.308659
1.000000 0.675551 0.373224
1.000000 0.722707 0.444311
1.000000 0.766884 0.517195
1.000000 0.802466 0.581954
1.000000 0.834565 0.643495
1.000000 0.865192 0.711204
0.000000 0.670112 0.000000
0.000000 0.670371 0.000000
0.000000 0.670738 0.000000
0.000000 0.674237 0.000000
0.000000 0.674679 0.000000
0.000000 0.678584 0.000000
0.000000 0.679072 0.000000
0.000000 0.682602 0.000000
0.000000 0.683331 0.000000
0.000000 0.684042 0.000000
0.000000 0.684896 0.000000
0.000000 0.691622 0.000000
0.069830 0.697951 0.000000
0.336557 0.693751 0.000000
0.482466 0.691832 0.000000
0.591968 0.692500 0.000000
0.696918 0.692225 0.000000
0.782155 0.672117 0.000000
0.842472 0.649223 0.000000
0.874487 0.653884 0.000000
0.908517 0.663842 0.000000
0.944007 0.661119 0.000000
0.971437 0.662127 0.000000
0.994601 0.669385 0.000000
1.000000 0.672738 0.163849
1.000000 0.677207 0.246497
1.000000 0.685413 0.320137
1.000000 0.708383 0.379152
1.000000 0.745828 0.447971
1.000000 0.777807 0.521114
1.000000 0.811315 0.582691
1.000000 0.840928 0.647587
1.000000 0.868790 0.711698
0.000000 0.729738 0.000000
0.000000 0.729865 0.000000
0.000000 0.733309 0.000000
0.000000 0.733421 0.000000
0.000000 0.733636 0.000000
0.000000 0.737233 0.000000
0.000000 0.737418 0.000000
0.000000 0.743649 0.000000
0.000000 0.743864 0.000000
0.000000 0.747131 0.000000
0.000000 0.750182 0.000000
0.000000 0.750272 0.000000
0.000000 0.750016 0.000000
0.227547 0.751989 0.000000
0.407534 0.753080 0.000000
0.536713 0.750845 0.000000
0.647359 0.747589 0.000000
0.751405 0.743674 0.000000
0.823535 0.731833 0.000000
0.871334 0.714682 0.000000
0.905985 0.710929 0.000000
0.937311 0.721383 0.000000
0.966222 0.723399 0.000000
0.986446 0.729418 0.000000
1.000000 0.732464 0.152304
1.000000 0.735619 0.242904
1.000000 0.742086 0.320575
1.000000 0.751117 0.388700
1.000000 0.767259 0.454794
1.000000 0.792350 0.526058
1.000000 0.820270 0.586914
1.000000 0.848166 0.648534
1.000000 0.872865 0.715808
0.000000 0.794853 0.000000
0.000000 0.794941 0.000000
0.000000 0.795025 0.000000
0.000000 0.794967 0.000000
0.000000 0.795006 0.000000
0.000000 0.797693 0.000000
0.000000 0.797683 0.000000
0.000000 0.797771 0.000000
0.000000 0.800167 0.000000
0.000000 0.799889 0.000000
0.000000 0.802260 0.000000
0.000000 0.801948 0.000000
0.000000 0.801564 0.000000
0.093853 0.802899 0.000000
0.326808 0.806201 0.000000
0.481299 0.806172 0.000000
0.603937 0.803029 0.000000
0.698030 0.799711 0.000000
0.788919 0.798400 0.000000
0.852077 0.790755 0.000000
0.897395 0.778752 0.000000
0.928029 0.776758 0.000000
0.955492 0.780960 0.000000
0.978002 0.784554 0.000000
0.996034 0.784669 0.128014
1.000000 0.786860 0.244521
1.000000 0.789488 0.332718
1.000000 0.791957 0.395499
1.000000 0.799174 0.464309
1.000000 0.811382 0.531069
1.000000 0.830747 0.589378
1.000000 0.855715 0.653630
1.000000 0.878452 0.716703
0.000000 0.839873 0.000000
0.000000 0.839875 0.000000
0.000000 0.839876 0.000000
0.000000 0.839868 0.000000
0.000000 0.839863 0.000000
0.000000 0.843747 0.000000
0.000000 0.843706 0.000000
0.000000 0.843656 0.000000
0.000000 0.843527 0.000000
0.000000 0.845297 0.000000
0.000000 0.844945 0.000000
0.000000 0.846495 0.000000
0.000000 0.845921 0.000000
0.000000 0.845089 0.000000
0.307966 0.845502 0.000000
0.461420 0.845092 0.000000
0.578644 0.844196 0.000000
0.667053 0.841129 0.000000
0.752196 0.837785 0.000000
0.824335 0.836488 0.000000
0.884285 0.833389 0.000000
0.923131 0.821593 0.000000
0.948819 0.818316 0.000000
0.971058 0.822355 0.000000
0.990000 0.824671 0.070573
1.000000 0.824601 0.230411
1.000000 0.825055 0.339647
1.000000 0.828477 0.404287
1.000000 0.830883 0.470069
1.000000 0.836309 0.544170
1.000000 0.846521 0.592192
1.000000 0.865458 0.659200
1.000000 0.883017 0.720345
0.000000 0.879555 0.000000
0.000000 0.879463 0.000000
0.000000 0.879427 0.000000
0.000000 0.879351 0.000000
0.000000 0.879311 0.000000
0.000000 0.879229 0.000000
0.000000 0.879096 0.000000
0.000000 0.879049 0.000000
0.000000 0.878901 0.000000
0.000000 0.878574 0.000000
0.000000 0.880030 0.000000
0.000000 0.879596 0.000000
0.000000 0.880835 0.000000
0.000000 0.881638 0.000000
0.316987 0.881734 0.000000
0.452019 0.879503 0.000000
0.561935 0.878532 0.000000
0.657749 0.875549 0.000000
0.730883 0.872567 0.000000
0.806214 0.869494 0.000000
0.864318 0.869865 0.000000
0.911803 0.867534 0.000000
0.941986 0.855901 0.000000
0.964525 0.855178 0.000000
0.983875 0.856573 0.000000
1.000000 0.858297 0.214166
1.000000 0.856967 0.334445
1.000000 0.858333 0.415925
1.000000 0.859979 0.483379
1.000000 0.861116 0.550589
1.000000 0.865201 0.604280
1.000000 0.876622 0.662117
1.000000 0.891766 0.723232
0.000000 0.909841 0.000000
0.000000 0.909841 0.000000
0.000000 0.909769 0.000000
0.000000 0.909697 0.000000
0.000000 0.909697 0.000000
0.000000 0.909383 0.000000
0.000000 0.909305 0.000000
0.000000 0.909225 0.000000
0.000000 0.908893 0.000000
0.000000 0.908723 0.000000
0.000000 0.908372 0.000000
0.000000 0.909251 0.000000
0.187396 0.908560 0.000000
0.303084 0.909001 0.000000
0.396711 0.910246 0.000000
0.493398 0.909628 0.000000
0.567925 0.908847 0.000000
0.642006 0.906507 0.000000
0.716135 0.905030 0.000000
0.788658 0.901977 0.000000
0.849728 0.897898 0.000000
0.899779 0.896775 0.000000
0.934906 0.896223 0.000000
0.957661 0.885502 0.000000
0.978826 0.883876 0.000000
0.996314 0.884346 0.183252
1.000000 0.884462 0.323566
1.000000 0.884293 0.421287
1.000000 0.885273 0.494062
1.000000 0.886888 0.562809
1.000000 0.888650 0.617861
1.000000 0.892416 0.669994
1.000000 0.902095 0.730955
0.000000 0.934420 0.000000
0.000000 0.934317 0.000000
0.000000 0.934317 0.000000
0.043429 0.934105 0.000000
0.043429 0.934105 0.000000
0.173226 0.933777 0.000000
0.194888 0.933665 0.000000
0.213287 0.933520 0.000000
0.245760 0.933291 0.000000
0.273548 0.933056 0.000000
0.298236 0.932815 0.000000
0.340906 0.932256 0.000000
0.387302 0.931576 0.000000
0.436417 0.930754 0.000000
0.486855 0.930752 0.000000
0.532546 0.930725 0.000000
0.589504 0.931183 0.000000
0.653740 0.930127 0.000000
0.712464 0.927933 0.000000
0.774090 0.926571 0.000000
0.832988 0.923934 0.000000
0.880803 0.921750 0.000000
0.921437 0.919796 0.000000
0.947186 0.920612 0.000000
0.972117 0.911543 0.000000
0.992113 0.909742 0.135546
1.000000 0.909058 0.309515
1.000000 0.909831 0.416501
1.000000 0.909529 0.499420
1.000000 0.910669 0.575781
1.000000 0.911069 0.635190
1.000000 0.913678 0.686234
1.000000 0.918647 0.738028
0.400860 0.953980 0.200756
0.400860 0.953980 0.200756
0.400860 0.953980 0.200756
0.409178 0.953842 0.201053
0.409178 0.953842 0.201053
0.425311 0.953564 0.201651
0.425311 0.953564 0.201651
0.440846 0.953280 0.202254
0.448413 0.953136 0.202558
0.455659 0.952968 0.199837
0.462989 0.952822 0.200147
0.477273 0.952527 0.200770
0.504345 0.951933 0.202035
0.529685 0.951333 0.203326
0.547380 0.951716 0.200470
0.586247 0.950615 0.196936
0.626304 0.950221 0.193228
0.671145 0.949578 0.193692
0.724899 0.949318 0.198840
0.782209 0.947042 0.202216
