Assets/Lutify-Free-LUTs-Pack/Lutify Free LUTs Pack/Film Tone Pro - Film Tone 3/Lutify.me-FilmTone3-SLog3-to-Rec709.cube
# Created with: fylm.ai - Colour Grading and Collaboration Software in Cloud 
# Website: https://fylm.ai 
# META
# Option: Gamut compress
# Block 1: IDT | Sony S-Log3 S-Gamut3
# Block 2: colourMatch | Blending Mode: Normal | {"ColorSpace":0,"CrossCovarianceLimit":50,"ReshapingIterations":1,"PercentSaturationShift":100,"PercentShadingShift":100,"ExtraShading":true,"PercentTint":100,"PercentModified":100}
# Block 3: subtractiveColour | Blending Mode: Normal | {"sliders":{"gainY":0.6,"C":0.3,"M":0.3,"Y":0.3}}
# Block 4: LUT | Filmic Curve Response: Low Contrast 2 (100%)
# Block 5: logPrimaries | Blending Mode: Normal | {"wheels":{"shadows":{"Y":"0","R":"1","G":"1","B":"1"},"midtones":{"Y":"0","R":"1","G":"1","B":"1"},"highlights":{"Y":"0","R":"1","G":"1","B":"1"},"offset":{"Y":"0","R":"1","G":"1","B":"1"}},"sliders":{"shadows":{"Y":0,"R":-0.026,"G":0.03,"B":0.1},"midtones":{"Y":0,"R":0.024,"G":-0.036,"B":0.036},"highlights":{"Y":0,"R":0,"G":0.044,"B":-0.128},"offset":{"Y":0,"R":0,"G":0,"B":0}}}
# Block 6: hueSaturation | Blending Mode: Normal | {"hue":0,"saturation":-0.1}
# Block 7: ODT | Rec709
TITLE "Lutify.me-FilmTone3-SLog3-to-Rec709" 
LUT_3D_SIZE 5
0.000000 0.000000 0.000000
0.129601 0.000000 0.000000
0.522159 0.000000 0.000000
1.000000 0.161378 0.212594
1.000000 0.823341 0.707765
0.000000 0.108366 0.000000
0.166956 0.117069 0.000000
0.562233 0.000000 0.000000
1.000000 0.212498 0.214809
1.000000 0.823341 0.707765
0.000000 0.488829 0.000000
0.000000 0.531121 0.000000
0.668831 0.539049 0.000000
1.000000 0.424213 0.237895
1.000000 0.833183 0.716739
0.000000 0.930317 0.449418
0.000000 0.931303 0.446244
0.000000 0.932815 0.429053
0.957759 0.916590 0.407227
1.000000 0.888125 0.752221
0.750999 1.000000 0.880705
0.752898 1.000000 0.880750
0.773217 1.000000 0.880324
0.866167 1.000000 0.879287
1.000000 1.000000 0.893637
0.000000 0.000000 0.063147
0.116208 0.000000 0.040434
0.520526 0.000000 0.049075
1.000000 0.175973 0.233871
1.000000 0.821901 0.710060
0.000000 0.092363 0.160859
0.115798 0.132215 0.139665
0.566167 0.000000 0.060732
1.000000 0.214581 0.238585
1.000000 0.823396 0.710156
0.000000 0.502464 0.134819
0.000000 0.548094 0.058987
0.652380 0.576005 0.000000
1.000000 0.425691 0.260526
1.000000 0.833235 0.719072
0.000000 0.930573 0.474521
0.000000 0.931598 0.474403
0.000000 0.934218 0.454098
0.957018 0.917947 0.437283
1.000000 0.888125 0.752221
0.749126 1.000000 0.881577
0.754001 1.000000 0.882036
0.773240 1.000000 0.881239
0.866164 1.000000 0.880158
1.000000 1.000000 0.893637
0.000000 0.000000 0.248007
0.000000 0.000000 0.220642
0.463025 0.000000 0.120627
1.000000 0.148293 0.369436
1.000000 0.822344 0.728853
0.000000 0.000000 0.377721
0.000000 0.035455 0.362564
0.554992 0.000000 0.292524
1.000000 0.208167 0.375058
1.000000 0.822344 0.728853
0.000000 0.414086 0.618315
0.000000 0.521113 0.592386
0.594801 0.608253 0.582115
1.000000 0.432188 0.416563
1.000000 0.831230 0.731652
0.000000 0.933124 0.629675
0.000000 0.936536 0.633020
0.000000 0.939004 0.614299
0.946554 0.925541 0.596305
1.000000 0.888225 0.758339
0.749323 1.000000 0.887024
0.751225 1.000000 0.887065
0.770675 1.000000 0.886039
0.866149 1.000000 0.884475
1.000000 1.000000 0.898061
0.000000 0.072491 0.730313
0.000000 0.078991 0.732476
0.368782 0.000000 0.732144
1.000000 0.000000 0.568366
1.000000 0.817578 0.809100
0.000000 0.109373 0.754571
0.000000 0.111860 0.756213
0.366200 0.041076 0.756788
1.000000 0.000000 0.633303
1.000000 0.820074 0.809673
0.000000 0.300807 0.825402
0.000000 0.315681 0.826778
0.253434 0.350584 0.830562
1.000000 0.134333 0.779746
1.000000 0.827716 0.815047
0.000000 0.879477 0.904406
0.000000 0.901821 0.903161
0.000000 0.934907 0.904312
0.916550 0.930299 0.898206
1.000000 0.886990 0.835181
0.731320 1.000000 0.923130
0.735258 1.000000 0.923187
0.756503 1.000000 0.922319
0.860118 1.000000 0.923106
1.000000 1.000000 0.925701
0.347600 0.515800 0.978506
0.358228 0.518485 0.976918
0.482100 0.521827 0.975795
0.925495 0.496265 0.972371
1.000000 0.433669 0.927426
0.338027 0.528792 0.977994
0.351506 0.528583 0.977985
0.479165 0.528602 0.976274
0.923454 0.507203 0.972041
1.000000 0.446366 0.929423
0.283643 0.588655 0.979679
0.300610 0.588341 0.978990
0.442300 0.589395 0.978054
0.901419 0.577149 0.974641
1.000000 0.537604 0.941048
0.000000 0.822646 0.986317
0.000000 0.822540 0.986316
0.078587 0.822925 0.985643
0.809428 0.829188 0.981900
1.000000 0.826183 0.964386
0.000000 1.000000 1.000000
0.000000 1.000000 1.000000
0.345921 1.000000 0.999456
0.799790 1.000000 0.997712
0.998895 1.000000 0.994971
