Assets/Lutify-Free-LUTs-Pack/Lutify Free LUTs Pack/Film Tone Pro - Film Tone 3/Lutify.me-FilmTone3-CanonLog1-to-Rec709.cube
# Created with: fylm.ai - Colour Grading and Collaboration Software in Cloud 
# Website: https://fylm.ai 
# META
# Option: Gamut compress
# Block 1: IDT | CanonLog Cinema Gamut Daylight
# Block 2: colourMatch | Blending Mode: Normal | {"ColorSpace":0,"CrossCovarianceLimit":50,"ReshapingIterations":1,"PercentSaturationShift":100,"PercentShadingShift":100,"ExtraShading":true,"PercentTint":100,"PercentModified":100}
# Block 3: subtractiveColour | Blending Mode: Normal | {"sliders":{"gainY":0.6,"C":0.3,"M":0.3,"Y":0.3}}
# Block 4: LUT | Filmic Curve Response: Low Contrast 2 (100%)
# Block 5: logPrimaries | Blending Mode: Normal | {"wheels":{"shadows":{"Y":"0","R":"1","G":"1","B":"1"},"midtones":{"Y":"0","R":"1","G":"1","B":"1"},"highlights":{"Y":"0","R":"1","G":"1","B":"1"},"offset":{"Y":"0","R":"1","G":"1","B":"1"}},"sliders":{"shadows":{"Y":0,"R":-0.026,"G":0.03,"B":0.1},"midtones":{"Y":0,"R":0.024,"G":-0.036,"B":0.036},"highlights":{"Y":0,"R":0,"G":0.044,"B":-0.128},"offset":{"Y":0,"R":0,"G":0,"B":0}}}
# Block 6: hueSaturation | Blending Mode: Normal | {"hue":0,"saturation":-0.1}
# Block 7: ODT | Rec709
TITLE "Lutify.me-FilmTone3-CanonLog1-to-Rec709" 
LUT_3D_SIZE 5
0.000000 0.000000 0.000000
0.217346 0.000000 0.000000
0.549395 0.000000 0.000000
0.932827 0.000000 0.058046
1.000000 0.342853 0.300954
0.000000 0.217538 0.000000
0.354868 0.225827 0.000000
0.703483 0.000000 0.000000
0.962228 0.000000 0.000000
1.000000 0.401319 0.299389
0.000000 0.494434 0.000000
0.000000 0.590829 0.000000
0.805783 0.531175 0.000000
0.987235 0.439321 0.000000
1.000000 0.538926 0.282514
0.000000 0.829030 0.000000
0.000000 0.838645 0.000000
0.715463 0.828909 0.000000
0.974657 0.778684 0.000000
1.000000 0.798012 0.000000
0.347502 0.952765 0.000000
0.505172 0.952632 0.000000
0.705315 0.947607 0.000000
0.935530 0.938188 0.000000
1.000000 0.911510 0.163979
0.000000 0.000000 0.151052
0.192828 0.000000 0.053803
0.499799 0.000000 0.023547
0.937277 0.000000 0.161717
1.000000 0.330044 0.348368
0.000000 0.168500 0.289197
0.219143 0.254293 0.261754
0.653931 0.000000 0.131208
0.963725 0.000000 0.172423
1.000000 0.393659 0.350554
0.000000 0.505271 0.000000
0.000000 0.620735 0.000000
0.726308 0.607271 0.000000
0.972234 0.503190 0.083494
1.000000 0.535852 0.350011
0.000000 0.826141 0.000000
0.000000 0.836756 0.000000
0.707740 0.827181 0.000000
0.975255 0.776333 0.000000
1.000000 0.812669 0.273632
0.327249 0.953019 0.000000
0.484944 0.951302 0.000000
0.697557 0.947885 0.000000
0.933016 0.937429 0.000000
1.000000 0.911510 0.163979
0.000000 0.000000 0.345827
0.118439 0.000000 0.173530
0.509570 0.000000 0.099614
0.912308 0.000000 0.311103
1.000000 0.307739 0.462700
0.000000 0.000000 0.493396
0.000000 0.056986 0.436632
0.627926 0.000000 0.374241
0.959949 0.000000 0.420283
1.000000 0.387665 0.469136
0.000000 0.441807 0.664048
0.000000 0.596004 0.637419
0.649603 0.657866 0.628761
0.965659 0.480509 0.493780
1.000000 0.526595 0.478859
0.000000 0.859684 0.455284
0.000000 0.876356 0.449193
0.371864 0.885456 0.423764
0.910055 0.870541 0.401301
1.000000 0.813945 0.484583
0.254965 0.953752 0.000000
0.448948 0.951133 0.000000
0.685706 0.947426 0.000000
0.931562 0.937489 0.000000
1.000000 0.910399 0.153573
0.000000 0.000000 0.548825
0.051451 0.000000 0.281430
0.463590 0.000000 0.242282
0.828796 0.000000 0.163837
1.000000 0.000000 0.660030
0.000000 0.000000 0.661140
0.000000 0.000000 0.580944
0.453444 0.000000 0.547208
0.828537 0.000000 0.161373
1.000000 0.253234 0.682163
0.000000 0.186565 0.813164
0.000000 0.306655 0.771810
0.379618 0.348059 0.780999
0.982103 0.174751 0.745492
1.000000 0.459320 0.721226
0.000000 0.723887 0.868712
0.000000 0.827764 0.845204
0.000000 0.883030 0.846065
0.862386 0.878085 0.842201
1.000000 0.807777 0.771073
0.000000 0.981652 0.765758
0.000000 0.981253 0.763927
0.370147 0.977666 0.753442
0.790569 0.971365 0.748167
0.974467 0.965574 0.747637
0.000000 0.000000 0.504604
0.000000 0.000000 0.416993
0.433558 0.000000 0.431646
0.779892 0.000000 0.338560
1.000000 0.000000 0.256980
0.000000 0.000000 0.606883
0.000000 0.000000 0.498725
0.430305 0.000000 0.431567
0.778961 0.000000 0.333804
1.000000 0.000000 0.256980
0.000000 0.106319 0.899371
0.000000 0.208581 0.873561
0.124367 0.229835 0.871445
0.860425 0.000000 0.862358
1.000000 0.000000 0.735279
0.000000 0.438966 0.952653
0.000000 0.597525 0.923766
0.000000 0.672296 0.920991
0.742757 0.700301 0.914868
1.000000 0.642025 0.899349
0.000000 0.894490 0.961899
0.000000 0.945512 0.945888
0.000000 0.972816 0.945644
0.691765 0.972262 0.943225
0.950897 0.967805 0.937488
