Assets/Lutify-Free-LUTs-Pack/Lutify Free LUTs Pack/Film Tone Pro - Film Tone 3/Lutify.me-FilmTone3-Rec709-to-Rec709.cube
# Created with: fylm.ai - Colour Grading and Collaboration Software in Cloud 
# Website: https://fylm.ai 
# META
# Option: Gamut compress
# Block 1: IDT | Rec709
# Block 2: colourMatch | Blending Mode: Normal | {"ColorSpace":0,"CrossCovarianceLimit":50,"ReshapingIterations":1,"PercentSaturationShift":100,"PercentShadingShift":100,"ExtraShading":true,"PercentTint":100,"PercentModified":100}
# Block 3: subtractiveColour | Blending Mode: Normal | {"sliders":{"gainY":0.6,"C":0.3,"M":0.3,"Y":0.3}}
# Block 4: LUT | Filmic Curve Response: Low Contrast 2 (100%)
# Block 5: logPrimaries | Blending Mode: Normal | {"wheels":{"shadows":{"Y":"0","R":"1","G":"1","B":"1"},"midtones":{"Y":"0","R":"1","G":"1","B":"1"},"highlights":{"Y":"0","R":"1","G":"1","B":"1"},"offset":{"Y":"0","R":"1","G":"1","B":"1"}},"sliders":{"shadows":{"Y":0,"R":-0.026,"G":0.03,"B":0.1},"midtones":{"Y":0,"R":0.024,"G":-0.036,"B":0.036},"highlights":{"Y":0,"R":0,"G":0.044,"B":-0.128},"offset":{"Y":0,"R":0,"G":0,"B":0}}}
# Block 6: hueSaturation | Blending Mode: Normal | {"hue":0,"saturation":-0.1}
# Block 7: ODT | Rec709
TITLE "Lutify.me-FilmTone3-Rec709-to-Rec709" 
LUT_3D_SIZE 33
0.000000 0.000000 0.000000
0.000000 0.000000 0.000000
0.000000 0.000000 0.000000
0.061246 0.000000 0.000000
0.098087 0.000000 0.000000
0.124766 0.000000 0.000000
0.153272 0.000000 0.000000
0.182343 0.000000 0.000000
0.212207 0.000000 0.000000
0.239795 0.000000 0.000000
0.272655 0.000000 0.000000
0.299962 0.000000 0.000000
0.328177 0.000000 0.000000
0.352991 0.000000 0.000000
0.377712 0.000000 0.002477
0.404257 0.000000 0.012259
0.425039 0.000000 0.017853
0.452493 0.000000 0.016846
0.478517 0.000000 0.016068
0.505588 0.000000 0.016807
0.527352 0.000000 0.019413
0.553073 0.000000 0.024708
0.575810 0.000000 0.028471
0.601648 0.000000 0.031479
0.628105 0.000000 0.035275
0.651268 0.000000 0.039350
0.677840 0.000000 0.041632
0.697931 0.000000 0.049953
0.721387 0.000000 0.054971
0.748728 0.000000 0.062677
0.776739 0.000000 0.071857
0.811807 0.000000 0.082502
0.849865 0.000000 0.090290
0.000000 0.002320 0.000000
0.000000 0.003298 0.001145
0.027825 0.000000 0.000000
0.066578 0.000000 0.000000
0.100436 0.000000 0.000000
0.125842 0.000000 0.000000
0.154864 0.000000 0.000000
0.183587 0.000000 0.000000
0.212551 0.000000 0.000000
0.240209 0.000000 0.000000
0.272935 0.000000 0.000000
0.302072 0.000000 0.000000
0.330608 0.000000 0.000000
0.353341 0.000000 0.000000
0.377907 0.000000 0.000000
0.404560 0.000000 0.013345
0.430817 0.000000 0.016315
0.452493 0.000000 0.016846
0.478623 0.000000 0.017705
0.505697 0.000000 0.018432
0.527886 0.000000 0.020870
0.553073 0.000000 0.024708
0.575810 0.000000 0.028471
0.601648 0.000000 0.031479
0.628105 0.000000 0.035275
0.651268 0.000000 0.039350
0.677840 0.000000 0.041632
0.697931 0.000000 0.049953
0.721387 0.000000 0.054971
0.748728 0.000000 0.062677
0.776988 0.000000 0.073990
0.812008 0.000000 0.081940
0.849865 0.000000 0.090290
0.000000 0.043786 0.000000
0.000000 0.044431 0.000000
0.042368 0.045580 0.000000
0.070834 0.040042 0.000000
0.102855 0.035223 0.000000
0.131786 0.023701 0.000000
0.161205 0.000000 0.000000
0.195536 0.000000 0.000000
0.220987 0.000000 0.000000
0.249494 0.000000 0.000000
0.282574 0.000000 0.000000
0.307040 0.000000 0.000000
0.333940 0.000000 0.000000
0.356700 0.000000 0.000000
0.381286 0.000000 0.000000
0.408459 0.000000 0.011163
0.431978 0.000000 0.015169
0.459560 0.000000 0.014895
0.482950 0.000000 0.015601
0.506675 0.000000 0.015277
0.531694 0.000000 0.018126
0.557211 0.000000 0.023150
0.579728 0.000000 0.026368
0.602492 0.000000 0.031693
0.628939 0.000000 0.035512
0.655126 0.000000 0.039851
0.678366 0.000000 0.042959
0.698204 0.000000 0.049095
0.725430 0.000000 0.056657
0.748972 0.000000 0.061965
0.777101 0.000000 0.073683
0.812008 0.000000 0.081940
0.850220 0.000000 0.093688
0.000000 0.069835 0.000000
0.000000 0.070988 0.000000
0.036404 0.074601 0.000000
0.077227 0.072610 0.000000
0.114428 0.067329 0.000000
0.143089 0.060473 0.000000
0.175301 0.051218 0.000000
0.207524 0.040095 0.000000
0.233240 0.031645 0.000000
0.263527 0.000000 0.000000
0.289850 0.000000 0.000000
0.312900 0.000000 0.000000
0.340230 0.000000 0.000000
0.363354 0.000000 0.000000
0.391093 0.000000 0.003951
0.413310 0.000000 0.009597
0.439361 0.000000 0.005516
0.464266 0.000000 0.011229
0.487726 0.000000 0.011942
0.511432 0.000000 0.015480
0.540011 0.000000 0.014246
0.565375 0.000000 0.019786
0.584361 0.000000 0.024563
0.606923 0.000000 0.027389
0.636505 0.000000 0.033361
0.656003 0.000000 0.036530
0.686038 0.000000 0.041126
0.706147 0.000000 0.049794
0.725559 0.000000 0.056268
0.753024 0.000000 0.063712
0.781017 0.000000 0.073038
0.815904 0.000000 0.081367
0.850293 0.000000 0.093423
0.000000 0.101478 0.000000
0.000000 0.101589 0.000000
0.023965 0.103362 0.000000
0.078479 0.105600 0.000000
0.119280 0.101742 0.000000
0.149149 0.096189 0.000000
0.185784 0.087430 0.000000
0.215928 0.080113 0.000000
0.241727 0.076057 0.000000
0.272698 0.070972 0.000000
0.296231 0.065025 0.000000
0.323870 0.054535 0.000000
0.345620 0.047029 0.000000
0.373679 0.023562 0.000000
0.399300 0.000000 0.000000
0.424269 0.000000 0.000000
0.450917 0.000000 0.000000
0.470396 0.000000 0.000000
0.496679 0.000000 0.000000
0.517302 0.000000 0.000000
0.542383 0.000000 0.008227
0.571155 0.000000 0.016500
0.593089 0.000000 0.020221
0.615406 0.000000 0.025573
0.641489 0.000000 0.032485
0.664320 0.000000 0.034853
0.690881 0.000000 0.041294
0.706693 0.000000 0.047847
0.730118 0.000000 0.056346
0.753757 0.000000 0.064415
0.781376 0.000000 0.074886
0.816128 0.000000 0.082172
0.854160 0.000000 0.095229
0.000000 0.130907 0.000000
0.000000 0.132989 0.000000
0.000000 0.135217 0.000000
0.075374 0.137394 0.000000
0.116569 0.137974 0.000000
0.156757 0.135335 0.000000
0.195915 0.125785 0.000000
0.227253 0.117901 0.000000
0.255330 0.113653 0.000000
0.284025 0.110243 0.000000
0.305388 0.110800 0.000000
0.331853 0.103857 0.000000
0.356086 0.096243 0.000000
0.379960 0.090736 0.000000
0.405563 0.083063 0.000000
0.430604 0.076422 0.000000
0.457527 0.069816 0.000000
0.477073 0.068614 0.000000
0.503350 0.060966 0.000000
0.524227 0.053759 0.000000
0.552157 0.038938 0.000000
0.573603 0.010638 0.009002
0.595626 0.000000 0.018645
0.621138 0.000000 0.023706
0.646814 0.000000 0.029263
0.669059 0.000000 0.032872
0.692104 0.000000 0.041441
0.711666 0.000000 0.047583
0.730893 0.000000 0.055218
0.758288 0.000000 0.066179
0.785741 0.000000 0.074305
0.820441 0.000000 0.083195
0.861315 0.000000 0.095963
0.000000 0.169717 0.000000
0.000000 0.169763 0.000000
0.000000 0.172680 0.000000
0.058049 0.174227 0.000000
0.109894 0.176906 0.000000
0.155891 0.177478 0.000000
0.199061 0.173940 0.000000
0.231514 0.167039 0.000000
0.266477 0.156225 0.000000
0.292778 0.152666 0.000000
0.317916 0.148826 0.000000
0.344432 0.145868 0.000000
0.367599 0.141310 0.000000
0.389725 0.136487 0.000000
0.418459 0.129124 0.000000
0.437952 0.123363 0.000000
0.464648 0.114225 0.000000
0.487489 0.114917 0.000000
0.510475 0.107957 0.000000
0.534489 0.105259 0.000000
0.558649 0.095475 0.000000
0.580299 0.096807 0.000000
0.602029 0.094553 0.015282
0.627118 0.084508 0.017962
0.648917 0.068988 0.025249
0.675023 0.048000 0.035078
0.697671 0.035653 0.039587
0.720539 0.000000 0.047657
0.743396 0.000000 0.055800
0.763289 0.000000 0.067897
0.790458 0.000000 0.077051
0.824707 0.000000 0.084207
0.861728 0.000000 0.097467
0.000000 0.199220 0.000000
0.000000 0.202274 0.000000
0.000000 0.202418 0.000000
0.046708 0.205313 0.000000
0.116896 0.206311 0.000000
0.167581 0.208111 0.000000
0.205637 0.209526 0.000000
0.237950 0.204252 0.000000
0.270646 0.196718 0.000000
0.303677 0.187014 0.000000
0.327182 0.179292 0.000000
0.353448 0.179124 0.000000
0.378473 0.175577 0.000000
0.399461 0.174090 0.000000
0.426352 0.167373 0.000000
0.452243 0.162107 0.000000
0.476113 0.152528 0.000000
0.494770 0.147516 0.000000
0.521211 0.144579 0.000000
0.541433 0.140795 0.000000
0.565651 0.137847 0.000000
0.587072 0.135850 0.000000
0.608367 0.130408 0.010663
0.630133 0.127392 0.023078
0.655444 0.121958 0.025665
0.680958 0.111568 0.031996
0.703384 0.106330 0.038405
0.725801 0.094913 0.045181
0.749048 0.081061 0.059674
0.768512 0.075883 0.068626
0.795142 0.000000 0.078283
0.829158 0.000000 0.087571
0.865693 0.000000 0.098139
0.000000 0.234179 0.000000
0.000000 0.234065 0.000000
0.000000 0.234094 0.000000
0.074421 0.235680 0.000000
0.120004 0.238763 0.000000
0.165628 0.239788 0.000000
0.201463 0.242299 0.000000
0.244163 0.240516 0.000000
0.278279 0.234752 0.000000
0.307820 0.226953 0.000000
0.337524 0.216876 0.000000
0.364190 0.210362 0.000000
0.388546 0.207493 0.000000
0.410857 0.204667 0.000000
0.436699 0.201010 0.000000
0.460592 0.197266 0.000000
0.484639 0.190788 0.000000
0.503711 0.187359 0.000000
0.529514 0.182134 0.000000
0.548846 0.173212 0.000000
0.573020 0.172204 0.000000
0.593620 0.166756 0.000000
0.614839 0.163390 0.000000
0.636532 0.162418 0.000000
0.661574 0.153939 0.026168
0.687352 0.153999 0.030120
0.712721 0.143389 0.036083
0.731788 0.139094 0.049247
0.754826 0.136724 0.060971
0.781133 0.122413 0.070370
0.803896 0.107332 0.079395
0.833978 0.079759 0.090814
0.873068 0.058981 0.101625
0.000000 0.265038 0.000000
0.000000 0.265038 0.000000
0.036515 0.264914 0.000000
0.090304 0.268584 0.000000
0.130681 0.268406 0.000000
0.157931 0.270039 0.000000
0.194723 0.271353 0.000000
0.237140 0.273927 0.000000
0.279349 0.272238 0.000000
0.309252 0.266317 0.000000
0.342155 0.259841 0.000000
0.369541 0.251246 0.000000
0.396783 0.244566 0.000000
0.424069 0.239513 0.000000
0.448931 0.236610 0.000000
0.467885 0.234245 0.000000
0.493273 0.230855 0.000000
0.519199 0.227392 0.000000
0.538277 0.219996 0.000000
0.561151 0.216029 0.000000
0.584292 0.207186 0.000000
0.601269 0.203768 0.000000
0.622136 0.199477 0.000000
0.643271 0.194739 0.000000
0.668466 0.194091 0.000000
0.697171 0.186377 0.028252
0.715386 0.181074 0.038323
0.737645 0.174256 0.051607
0.760334 0.173864 0.061032
0.786492 0.164436 0.071307
0.809349 0.155589 0.083709
0.838578 0.141564 0.090620
0.880326 0.123915 0.104151
0.051878 0.293485 0.000000
0.051878 0.293485 0.000000
0.078123 0.293478 0.000000
0.106739 0.293298 0.000000
0.126880 0.297390 0.000000
0.158934 0.299309 0.000000
0.192311 0.303222 0.000000
0.236612 0.302392 0.000000
0.276553 0.301115 0.000000
0.316924 0.299246 0.000000
0.341905 0.297451 0.000000
0.372653 0.288514 0.000000
0.399431 0.281827 0.000000
0.429529 0.274573 0.000000
0.453056 0.267671 0.000000
0.476414 0.265310 0.000000
0.499678 0.260536 0.000000
0.522925 0.257960 0.000000
0.545965 0.255037 0.000000
0.572200 0.246747 0.000000
0.592338 0.243844 0.000000
0.612417 0.238163 0.000000
0.632476 0.229485 0.000000
0.653340 0.225639 0.000000
0.678199 0.220922 0.000000
0.703254 0.215619 0.027493
0.721557 0.211698 0.043903
0.743772 0.212731 0.051387
0.766007 0.207458 0.063802
0.792203 0.200794 0.077817
0.818041 0.193073 0.085257
0.846649 0.175460 0.095102
0.884078 0.161030 0.106912
0.086997 0.316146 0.000000
0.093808 0.316143 0.000000
0.105952 0.316133 0.000000
0.117745 0.318198 0.000000
0.149688 0.318099 0.000000
0.168097 0.322528 0.000000
0.205999 0.324461 0.000000
0.239930 0.323904 0.000000
0.273541 0.327807 0.000000
0.316931 0.326182 0.000000
0.354279 0.324320 0.000000
0.377995 0.322432 0.000000
0.404275 0.313090 0.000000
0.433512 0.306019 0.000000
0.458960 0.299072 0.000000
0.483653 0.294504 0.000000
0.507916 0.289753 0.000000
0.528421 0.287692 0.000000
0.548881 0.285602 0.000000
0.579419 0.282298 0.000000
0.599410 0.274755 0.000000
0.619828 0.272211 0.000000
0.639915 0.264101 0.000000
0.660475 0.258407 0.000000
0.684817 0.254469 0.000000
0.706273 0.251198 0.022529
0.727820 0.247577 0.040917
0.753092 0.242919 0.052804
0.771919 0.243067 0.068934
0.797496 0.237852 0.077486
0.822988 0.228890 0.087946
0.854533 0.221395 0.097554
0.887642 0.200783 0.108760
0.091654 0.350014 0.000000
0.091654 0.350014 0.000000
0.099497 0.350016 0.000000
0.125504 0.350007 0.000000
0.156410 0.349948 0.000000
0.179877 0.352342 0.000000
0.207285 0.357203 0.000000
0.232258 0.359498 0.000000
0.269555 0.358713 0.000000
0.309730 0.357725 0.000000
0.345142 0.359167 0.000000
0.382762 0.357733 0.000000
0.418697 0.350267 0.000000
0.442768 0.343236 0.000000
0.466724 0.333464 0.000000
0.493189 0.326208 0.000000
0.514448 0.324154 0.000000
0.539694 0.316592 0.000000
0.560731 0.314638 0.000000
0.585220 0.312426 0.000000
0.605938 0.307693 0.000000
0.625963 0.297085 0.000000
0.646395 0.291970 0.000000
0.667008 0.289371 0.000000
0.691063 0.280597 0.000000
0.712064 0.277594 0.021765
0.733483 0.274676 0.042487
0.758770 0.271128 0.059800
0.777133 0.268620 0.073555
0.802459 0.264275 0.080811
0.831074 0.259283 0.091235
0.858478 0.250625 0.100492
0.894189 0.236097 0.113524
0.109036 0.379901 0.021651
0.109036 0.379901 0.021651
0.123761 0.379905 0.021917
0.142800 0.379899 0.022313
0.155332 0.382597 0.010896
0.181124 0.382536 0.012494
0.202793 0.387938 0.000000
0.233594 0.387630 0.000000
0.264519 0.390055 0.000000
0.304726 0.389335 0.000000
0.344455 0.388420 0.000000
0.383347 0.390226 0.000000
0.420169 0.388869 0.000000
0.449891 0.381119 0.000000
0.475028 0.373725 0.000000
0.494927 0.369435 0.000000
0.521823 0.364374 0.000000
0.541326 0.357039 0.000000
0.563275 0.355179 0.000000
0.589128 0.350348 0.000000
0.610735 0.342550 0.000000
0.631889 0.337732 0.000000
0.652814 0.332915 0.000000
0.676880 0.324597 0.000000
0.697734 0.322477 0.000000
0.718497 0.317161 0.000000
0.739752 0.315064 0.039982
0.764619 0.312370 0.055823
0.782463 0.304084 0.072907
0.807640 0.301039 0.084920
0.835288 0.290243 0.092655
0.868777 0.278440 0.106877
0.900317 0.266310 0.118924
0.117892 0.409488 0.045421
0.117892 0.409488 0.045421
0.133670 0.409519 0.045569
0.140839 0.409531 0.045643
0.160385 0.409559 0.045867
0.175042 0.415384 0.032752
0.207461 0.415365 0.033425
0.233686 0.418053 0.000000
0.263399 0.420653 0.000000
0.298826 0.420091 0.000000
0.337701 0.419470 0.000000
0.380635 0.418463 0.000000
0.417914 0.420332 0.000000
0.455929 0.418900 0.000000
0.478335 0.411376 0.000000
0.503261 0.406659 0.000000
0.524572 0.399137 0.000000
0.544537 0.394551 0.000000
0.575632 0.389228 0.000000
0.594234 0.387612 0.000000
0.613671 0.376822 0.000000
0.635926 0.372273 0.000000
0.657608 0.367561 0.000000
0.682409 0.359409 0.000000
0.703280 0.357491 0.000000
0.727626 0.352149 0.011171
0.748754 0.350474 0.041840
0.769490 0.338574 0.056837
0.794431 0.336383 0.072633
0.815394 0.330932 0.083091
0.842620 0.328315 0.095678
0.871950 0.318297 0.109401
0.908677 0.299516 0.122278
0.129035 0.437325 0.052990
0.129035 0.437325 0.052990
0.137539 0.437336 0.053071
0.153010 0.437353 0.053234
0.173593 0.437574 0.060718
0.192083 0.437363 0.053728
0.207197 0.443193 0.036670
0.244682 0.443075 0.037568
0.269371 0.442715 0.021172
0.302308 0.442084 0.000000
0.336956 0.444528 0.000000
0.373359 0.443797 0.000000
0.413523 0.442735 0.000000
0.452745 0.441436 0.000000
0.486973 0.440084 0.000000
0.508950 0.435872 0.000000
0.531128 0.428197 0.000000
0.551787 0.423517 0.000000
0.576141 0.418735 0.000000
0.599401 0.417066 0.000000
0.623039 0.408932 0.000000
0.642280 0.404618 0.000000
0.664737 0.399994 0.000000
0.690071 0.394833 0.000000
0.715173 0.393288 0.011535
0.732772 0.385561 0.043053
0.753601 0.380469 0.046791
0.774603 0.375598 0.060722
0.798736 0.363334 0.069852
0.822837 0.361603 0.085072
0.849361 0.356181 0.099813
0.880805 0.350094 0.111675
0.913348 0.336744 0.124669
0.140464 0.459624 0.067289
0.140464 0.459624 0.067289
0.140464 0.459624 0.067289
0.164881 0.459638 0.067527
0.172220 0.459640 0.067607
0.194574 0.462705 0.065533
0.225064 0.462648 0.065955
0.247317 0.462351 0.058904
0.275914 0.465153 0.052078
0.306278 0.471060 0.045182
0.340721 0.470388 0.032378
0.374383 0.469777 0.033755
0.406954 0.469035 0.035122
0.447683 0.467883 0.036897
0.481666 0.469668 0.000000
0.509062 0.465428 0.019458
0.540655 0.457227 0.000000
0.566388 0.452535 0.000000
0.587220 0.447773 0.000000
0.603977 0.443606 0.000000
0.624707 0.435814 0.000000
0.647767 0.434222 0.000000
0.670893 0.429548 0.000000
0.693331 0.424731 0.000000
0.715201 0.423268 0.000000
0.740266 0.421535 0.009484
0.761749 0.413899 0.058539
0.782624 0.408924 0.061596
0.803143 0.397451 0.074598
0.829853 0.388895 0.088808
0.855641 0.383860 0.102187
0.886379 0.375052 0.117637
0.917917 0.366244 0.132224
0.129236 0.488295 0.070744
0.129236 0.488295 0.070744
0.149719 0.488304 0.070924
0.149719 0.488304 0.070924
0.175590 0.488302 0.071197
0.198041 0.488283 0.071470
0.218360 0.488245 0.071746
0.239580 0.491203 0.065888
0.280177 0.490977 0.066599
0.310004 0.493850 0.064505
0.346565 0.493382 0.065260
0.376439 0.492775 0.061746
0.409944 0.491864 0.053202
0.447238 0.490910 0.054385
0.474810 0.499565 0.034740
0.511040 0.498340 0.037050
0.537551 0.497099 0.002253
0.567747 0.482617 0.030976
0.589736 0.478195 0.030118
0.611101 0.473610 0.010990
0.628565 0.465911 0.000000
0.652454 0.464511 0.000000
0.672260 0.459801 0.000000
0.698977 0.458100 0.000000
0.718110 0.453779 0.037243
0.744139 0.445638 0.057534
0.769259 0.440802 0.068779
0.786752 0.436346 0.074806
0.810334 0.424592 0.081057
0.833205 0.416397 0.090359
0.864422 0.414774 0.103761
0.891411 0.403444 0.123154
0.922156 0.391765 0.139067
0.129804 0.517903 0.089148
0.129804 0.517903 0.089148
0.129804 0.517903 0.089148
0.141833 0.517904 0.089235
0.152758 0.517903 0.089322
0.181208 0.517888 0.089584
0.220380 0.517603 0.083539
0.254215 0.517478 0.084009
0.287894 0.520452 0.082504
0.322628 0.520130 0.083094
0.352709 0.522736 0.074121
0.378822 0.522343 0.074699
0.413790 0.521477 0.067324
0.442912 0.520825 0.068150
0.469786 0.523357 0.066132
0.502169 0.522063 0.051705
0.538744 0.520799 0.053453
0.570115 0.519566 0.055028
0.588540 0.515159 0.040387
0.611070 0.510722 0.039595
0.632300 0.509681 0.041316
0.657851 0.504821 0.031416
0.675348 0.497120 0.037362
0.699674 0.492400 0.044823
0.719454 0.487891 0.050554
0.746704 0.476196 0.062162
0.772408 0.471324 0.070066
0.796881 0.466661 0.080331
0.816778 0.462065 0.083083
0.839241 0.450665 0.092026
0.869904 0.435542 0.106515
0.898692 0.431648 0.129274
0.930927 0.416981 0.146693
0.126673 0.541165 0.101951
0.126673 0.541165 0.101951
0.152355 0.541159 0.102127
0.163422 0.540933 0.096047
0.183356 0.540914 0.096230
0.201211 0.540886 0.096415
0.240282 0.540776 0.096878
0.267968 0.540535 0.094058
0.302980 0.543502 0.092777
0.332612 0.543222 0.093283
0.358107 0.546144 0.091898
0.384905 0.545544 0.085417
0.410866 0.545104 0.086014
0.445965 0.544390 0.086877
0.470347 0.543808 0.087515
0.497463 0.546338 0.086209
0.539674 0.545018 0.087509
0.567229 0.544029 0.088423
0.594214 0.542853 0.085734
0.620601 0.541499 0.079045
0.637837 0.540490 0.071273
0.659989 0.535875 0.065886
0.681558 0.531219 0.060073
0.707124 0.522821 0.051776
0.727857 0.514724 0.048930
0.747603 0.510223 0.054582
0.773996 0.505307 0.059984
0.798900 0.500742 0.073413
0.825476 0.496282 0.087927
0.847618 0.485211 0.100155
0.877588 0.467195 0.118492
0.905212 0.459802 0.133698
0.936118 0.445742 0.151888
0.161978 0.561152 0.111086
0.161978 0.561152 0.111086
0.183614 0.561126 0.111267
0.193443 0.561110 0.111359
0.211685 0.561072 0.111541
0.236441 0.560886 0.108822
0.247436 0.564075 0.107433
0.283340 0.563883 0.107916
0.309309 0.563474 0.102002
0.339685 0.563192 0.102522
0.368276 0.562857 0.103055
0.393285 0.565754 0.101883
0.419767 0.565317 0.102458
0.445434 0.564823 0.103050
0.470449 0.564271 0.103660
0.504602 0.563400 0.104547
0.536467 0.565752 0.103793
0.564418 0.564606 0.097944
0.589481 0.570328 0.095087
0.620147 0.572467 0.094344
0.643374 0.567819 0.085884
0.662876 0.560145 0.087216
0.689234 0.555307 0.082785
0.706641 0.550961 0.081940
0.732231 0.542658 0.079835
0.756683 0.534346 0.077759
0.775345 0.533328 0.078916
0.803637 0.532077 0.088406
0.827287 0.524358 0.100173
0.855081 0.516450 0.107949
0.881302 0.502035 0.120198
0.910393 0.494852 0.134343
0.939897 0.481500 0.156029
0.192779 0.588051 0.126924
0.192779 0.588051 0.126924
0.192779 0.588051 0.126924
0.203064 0.588029 0.127018
0.212750 0.587783 0.121236
0.239499 0.587697 0.121527
0.263468 0.587595 0.121819
0.292512 0.587431 0.122216
0.319099 0.587016 0.116563
0.344122 0.586789 0.116985
0.371039 0.589756 0.116035
0.393818 0.589461 0.116486
0.421219 0.589043 0.117063
0.447676 0.588572 0.117656
0.471497 0.591371 0.116782
0.496724 0.590797 0.117425
0.531165 0.589899 0.118364
0.558242 0.592072 0.107884
0.586649 0.591145 0.108846
0.613238 0.593525 0.108174
0.644029 0.595677 0.107738
0.670669 0.594231 0.098043
0.693484 0.589634 0.093429
0.716480 0.581476 0.086796
0.737922 0.576817 0.081857
0.758472 0.572291 0.081281
0.778635 0.564500 0.087269
0.804077 0.559978 0.094890
0.831282 0.552169 0.106991
0.862082 0.540861 0.116463
0.887395 0.530095 0.127494
0.912895 0.523015 0.136847
0.948035 0.510466 0.166967
0.200126 0.611298 0.130015
0.200126 0.611298 0.130015
0.200126 0.611298 0.130015
0.220596 0.611246 0.130217
0.230073 0.611217 0.130317
0.256280 0.611120 0.130624
0.272326 0.611046 0.130831
0.294818 0.610921 0.131144
0.322598 0.610727 0.131567
0.342184 0.610562 0.131890
0.367028 0.610314 0.132329
0.391355 0.616583 0.130284
0.414342 0.616273 0.130757
0.442026 0.615838 0.131363
0.468774 0.615352 0.131987
0.497942 0.617930 0.128352
0.523307 0.617335 0.129042
0.552958 0.616441 0.126767
0.580533 0.618951 0.126292
0.607732 0.621408 0.125865
0.640383 0.620032 0.120523
0.671246 0.622196 0.120360
0.693377 0.620835 0.107216
0.717249 0.612720 0.100663
0.743225 0.607818 0.092097
0.764033 0.603474 0.095641
0.787942 0.595353 0.093395
0.806275 0.591129 0.096872
0.833785 0.583399 0.109789
0.864721 0.572196 0.119863
0.894778 0.561882 0.140107
0.921578 0.551679 0.150626
0.950701 0.542698 0.175265
0.206099 0.641396 0.137366
0.206099 0.641396 0.137366
0.206099 0.641396 0.137366
0.217035 0.641369 0.137475
0.227371 0.641339 0.137584
0.237205 0.641308 0.137694
0.264355 0.641205 0.138025
0.288893 0.641086 0.138362
0.304182 0.640997 0.138589
0.332827 0.640797 0.139049
0.359508 0.640568 0.139517
0.390831 0.640238 0.140118
0.412090 0.643260 0.139373
0.440894 0.642848 0.140011
0.463131 0.642483 0.140535
0.493237 0.644996 0.133756
0.524591 0.644325 0.134637
0.544818 0.643618 0.128705
0.573126 0.646191 0.128277
0.602504 0.645339 0.129320
0.633159 0.651025 0.127779
0.669269 0.652881 0.120891
0.700213 0.655059 0.120933
0.719083 0.650724 0.116131
0.745520 0.646046 0.111825
0.763516 0.638307 0.108747
0.788013 0.630270 0.106350
0.813504 0.625837 0.110246
0.841311 0.614583 0.117419
0.871812 0.603925 0.136758
0.901240 0.590181 0.152050
0.926993 0.580116 0.159996
0.956602 0.574687 0.180002
0.183024 0.668319 0.146680
0.183024 0.668319 0.146680
0.183024 0.668319 0.146680
0.183024 0.668319 0.146680
0.208563 0.668265 0.146909
0.230833 0.668205 0.147140
0.250886 0.668139 0.147373
0.269321 0.668065 0.147608
0.294737 0.667942 0.147964
0.325606 0.667752 0.148447
0.347098 0.667591 0.148814
0.374105 0.667351 0.149312
0.403053 0.670325 0.148799
0.427414 0.670022 0.149329
0.451820 0.676250 0.147682
0.485735 0.675588 0.145318
0.512842 0.674856 0.139484
0.539314 0.674297 0.140292
0.568287 0.676697 0.133166
0.598491 0.675907 0.134276
0.623025 0.675089 0.131748
0.660082 0.677236 0.132020
0.690331 0.682784 0.130835
0.724849 0.684568 0.124032
0.742925 0.680378 0.118978
0.770328 0.669116 0.117830
0.790167 0.664871 0.117180
0.816614 0.657123 0.122558
0.843732 0.649427 0.127971
0.870734 0.642038 0.136661
0.900872 0.624853 0.151367
0.932651 0.615404 0.168882
0.963846 0.603511 0.191277
0.159678 0.698543 0.159224
0.159678 0.698543 0.159224
0.159678 0.698543 0.159224
0.159678 0.698543 0.159224
0.191074 0.698488 0.159468
0.204579 0.698458 0.159590
0.217078 0.698426 0.159713
0.250287 0.698321 0.160085
0.269900 0.698242 0.160336
0.305146 0.698064 0.160845
0.336719 0.697858 0.161364
0.365760 0.697623 0.161894
0.392940 0.697360 0.162435
0.422250 0.700234 0.162131
0.444248 0.703026 0.158484
0.473912 0.702577 0.159243
0.502390 0.702084 0.160024
0.527786 0.704547 0.153238
0.559897 0.703842 0.154285
0.590848 0.702865 0.148650
0.619394 0.705028 0.141748
