Assets/Lutify-Free-LUTs-Pack/Lutify Free LUTs Pack/Film Tone Pro - Film Tone 3/Lutify.me-FilmTone3-SLog3Cine-to-Rec709.cube
# Created with: fylm.ai - Colour Grading and Collaboration Software in Cloud 
# Website: https://fylm.ai 
# META
# Option: Gamut compress
# Block 1: IDT | Sony S-Log3 S-Gamut3.Cine
# Block 2: colourMatch | Blending Mode: Normal | {"ColorSpace":0,"CrossCovarianceLimit":50,"ReshapingIterations":1,"PercentSaturationShift":100,"PercentShadingShift":100,"ExtraShading":true,"PercentTint":100,"PercentModified":100}
# Block 3: subtractiveColour | Blending Mode: Normal | {"sliders":{"gainY":0.6,"C":0.3,"M":0.3,"Y":0.3}}
# Block 4: LUT | Filmic Curve Response: Low Contrast 2 (100%)
# Block 5: logPrimaries | Blending Mode: Normal | {"wheels":{"shadows":{"Y":"0","R":"1","G":"1","B":"1"},"midtones":{"Y":"0","R":"1","G":"1","B":"1"},"highlights":{"Y":"0","R":"1","G":"1","B":"1"},"offset":{"Y":"0","R":"1","G":"1","B":"1"}},"sliders":{"shadows":{"Y":0,"R":-0.026,"G":0.03,"B":0.1},"midtones":{"Y":0,"R":0.024,"G":-0.036,"B":0.036},"highlights":{"Y":0,"R":0,"G":0.044,"B":-0.128},"offset":{"Y":0,"R":0,"G":0,"B":0}}}
# Block 6: hueSaturation | Blending Mode: Normal | {"hue":0,"saturation":-0.1}
# Block 7: ODT | Rec709
TITLE "Lutify.me-FilmTone3-SLog3Cine-to-Rec709" 
LUT_3D_SIZE 9
0.000000 0.000000 0.000000
0.000000 0.000000 0.000000
0.114934 0.000000 0.000000
0.250340 0.000000 0.000000
0.463537 0.000000 0.000000
0.778385 0.000000 0.000000
1.000000 0.000000 0.130749
1.000000 0.456757 0.333287
1.000000 0.767495 0.603397
0.000000 0.029003 0.000000
0.000000 0.033696 0.000000
0.134211 0.000000 0.000000
0.279872 0.000000 0.000000
0.497089 0.000000 0.000000
0.788963 0.000000 0.000000
1.000000 0.000000 0.131397
1.000000 0.463330 0.333060
1.000000 0.767495 0.603397
0.000000 0.120715 0.000000
0.000000 0.133071 0.000000
0.174170 0.125928 0.000000
0.338551 0.000000 0.000000
0.532307 0.000000 0.000000
0.804102 0.000000 0.000000
1.000000 0.000000 0.133973
1.000000 0.467012 0.339943
1.000000 0.769348 0.603482
0.000000 0.286612 0.000000
0.000000 0.298891 0.000000
0.000000 0.306183 0.000000
0.419921 0.270205 0.000000
0.625419 0.184094 0.000000
0.841620 0.000000 0.000000
1.000000 0.161843 0.136114
1.000000 0.495708 0.343122
1.000000 0.773157 0.608853
0.000000 0.550909 0.000000
0.000000 0.553432 0.000000
0.000000 0.565332 0.000000
0.228265 0.572798 0.000000
0.684731 0.528887 0.000000
0.898536 0.452849 0.000000
1.000000 0.372961 0.127237
1.000000 0.565385 0.346577
1.000000 0.785033 0.613676
0.000000 0.816517 0.000000
0.000000 0.816398 0.000000
0.000000 0.816220 0.000000
0.000000 0.819353 0.000000
0.578568 0.813884 0.000000
0.878777 0.787303 0.000000
0.994595 0.741024 0.076293
1.000000 0.697912 0.374816
1.000000 0.811883 0.628306
0.387342 0.938847 0.363886
0.412842 0.938436 0.364455
0.436807 0.938012 0.365030
0.501415 0.937644 0.361809
0.636322 0.933804 0.346635
0.829947 0.927137 0.316239
0.963719 0.916409 0.243785
1.000000 0.890274 0.464719
1.000000 0.875837 0.663678
0.770000 0.990545 0.683877
0.770000 0.990545 0.683877
0.772594 0.990437 0.684040
0.780575 0.990944 0.681780
0.799943 0.990111 0.678516
0.852811 0.987724 0.681055
0.926317 0.985774 0.670224
1.000000 0.979670 0.633328
1.000000 0.966124 0.755944
0.903916 1.000000 0.870534
0.903916 1.000000 0.870534
0.903916 1.000000 0.870534
0.904965 1.000000 0.869730
0.909039 1.000000 0.870005
0.918021 1.000000 0.870867
0.940841 1.000000 0.871159
0.981207 1.000000 0.872130
1.000000 1.000000 0.869259
0.000000 0.000000 0.005133
0.000000 0.000000 0.001415
0.107402 0.000000 0.000000
0.236505 0.000000 0.000000
0.460015 0.000000 0.000000
0.777981 0.000000 0.038223
1.000000 0.000000 0.143256
1.000000 0.457289 0.342615
1.000000 0.767645 0.608592
0.000000 0.007423 0.028268
0.000000 0.011044 0.021326
0.124232 0.000000 0.000000
0.262868 0.000000 0.000000
0.487968 0.000000 0.000000
0.792526 0.000000 0.036334
1.000000 0.000000 0.142426
1.000000 0.463861 0.342410
1.000000 0.767645 0.608592
0.000000 0.114236 0.000000
0.000000 0.127697 0.000000
0.147211 0.132608 0.000000
0.324720 0.000000 0.000000
0.516700 0.000000 0.000000
0.803657 0.000000 0.035871
1.000000 0.000000 0.144171
1.000000 0.467144 0.342305
1.000000 0.769495 0.608676
0.000000 0.285854 0.000000
0.000000 0.303379 0.000000
0.000000 0.319557 0.000000
0.392512 0.292418 0.000000
0.620293 0.192243 0.000000
0.844886 0.000000 0.000000
1.000000 0.150828 0.149248
1.000000 0.489470 0.348142
1.000000 0.773157 0.608853
0.000000 0.561695 0.000000
0.000000 0.570210 0.000000
0.000000 0.575908 0.000000
0.159183 0.583565 0.000000
0.678074 0.552094 0.000000
0.890365 0.457336 0.000000
1.000000 0.374346 0.145270
1.000000 0.565641 0.351568
1.000000 0.785101 0.616272
0.000000 0.816252 0.000000
0.000000 0.818278 0.000000
0.000000 0.822606 0.000000
0.000000 0.821052 0.000000
0.564076 0.818434 0.000000
0.873505 0.790730 0.000000
0.993331 0.742073 0.131626
1.000000 0.698020 0.377456
1.000000 0.811883 0.628306
0.388017 0.938997 0.381624
0.413283 0.938535 0.376267
0.429403 0.938254 0.376642
0.501815 0.937741 0.373539
0.636679 0.933928 0.361143
0.830134 0.927355 0.338474
0.963732 0.916763 0.270772
1.000000 0.890385 0.472393
1.000000 0.875837 0.663678
0.767309 0.990657 0.688372
0.769926 0.990548 0.688531
0.772519 0.990440 0.688691
0.780463 0.990948 0.688700
0.799862 0.990114 0.683135
0.852758 0.987726 0.683330
0.925015 0.985840 0.674281
1.000000 0.979722 0.635814
1.000000 0.966136 0.757576
0.903916 1.000000 0.870534
0.903916 1.000000 0.870534
0.903916 1.000000 0.870534
0.904952 1.000000 0.870601
0.909024 1.000000 0.870872
0.918021 1.000000 0.870867
0.940841 1.000000 0.871159
0.981178 1.000000 0.872885
1.000000 1.000000 0.869259
0.000000 0.000000 0.064647
0.000000 0.000000 0.055414
0.091771 0.000000 0.040868
0.239291 0.000000 0.031981
0.457802 0.000000 0.033247
0.782088 0.000000 0.064842
1.000000 0.000000 0.155706
1.000000 0.453538 0.349310
1.000000 0.765781 0.608510
0.000000 0.000000 0.084003
0.000000 0.000000 0.075128
0.099828 0.000000 0.060360
0.258762 0.000000 0.048067
0.483597 0.000000 0.043140
0.790111 0.000000 0.070763
1.000000 0.000000 0.158023
1.000000 0.464257 0.349575
1.000000 0.767719 0.611198
0.000000 0.101333 0.161070
0.000000 0.116505 0.152019
0.115798 0.132215 0.139665
0.311820 0.000000 0.079341
0.519698 0.000000 0.048993
0.804882 0.000000 0.071362
1.000000 0.000000 0.158746
1.000000 0.467672 0.351899
1.000000 0.769569 0.611282
0.000000 0.296274 0.133056
0.000000 0.312056 0.115245
0.000000 0.331947 0.097465
0.365159 0.331072 0.055794
0.618719 0.200281 0.000000
0.839854 0.000000 0.075918
1.000000 0.153092 0.163415
1.000000 0.489055 0.354879
1.000000 0.773229 0.611458
0.000000 0.570174 0.000000
0.000000 0.576057 0.000000
0.000000 0.585248 0.000000
0.089692 0.596843 0.000000
0.662987 0.577061 0.000000
0.892694 0.480658 0.000000
1.000000 0.376281 0.170013
1.000000 0.566025 0.359152
1.000000 0.785101 0.616272
0.000000 0.818445 0.073678
0.000000 0.820743 0.074930
0.000000 0.820400 0.045632
0.000000 0.827451 0.000000
0.558430 0.826813 0.000000
0.874394 0.798807 0.000000
0.992624 0.745697 0.165092
1.000000 0.698450 0.388075
1.000000 0.811943 0.630895
0.389344 0.937147 0.403805
0.414255 0.938778 0.405868
0.430359 0.938496 0.406227
0.502629 0.937955 0.399992
0.637194 0.934124 0.384387
0.824780 0.928817 0.363790
0.963698 0.917111 0.297939
1.000000 0.890459 0.477539
1.000000 0.875875 0.666131
0.767272 0.990658 0.690691
0.769888 0.990550 0.690849
0.769888 0.990550 0.690849
0.780386 0.990951 0.693283
0.795055 0.990323 0.689687
0.852650 0.987731 0.687864
0.924839 0.985851 0.680763
1.000000 0.979751 0.643443
1.000000 0.966147 0.759204
0.903903 1.000000 0.871402
0.903903 1.000000 0.871402
0.903903 1.000000 0.871402
0.904938 1.000000 0.871468
0.909024 1.000000 0.870872
0.918021 1.000000 0.870867
0.940841 1.000000 0.871159
0.981150 1.000000 0.873639
1.000000 1.000000 0.869868
0.000000 0.000000 0.135971
0.000000 0.000000 0.106132
0.059931 0.000000 0.092829
0.234955 0.000000 0.057649
0.438579 0.000000 0.076654
0.783109 0.000000 0.124094
1.000000 0.000000 0.202963
1.000000 0.454849 0.374085
1.000000 0.767867 0.616427
0.000000 0.000000 0.171910
0.000000 0.000000 0.146186
0.054353 0.000000 0.134138
0.245294 0.000000 0.092377
0.475835 0.000000 0.116566
0.794651 0.000000 0.130819
1.000000 0.000000 0.205728
1.000000 0.458145 0.374016
1.000000 0.767867 0.616427
0.000000 0.033559 0.258458
0.000000 0.042243 0.239931
0.000000 0.047370 0.228840
0.302243 0.000000 0.193540
0.523920 0.000000 0.161391
0.811092 0.000000 0.141199
1.000000 0.000000 0.211628
1.000000 0.465564 0.374405
1.000000 0.769715 0.616510
0.000000 0.253587 0.361540
0.000000 0.284661 0.352114
0.000000 0.320231 0.354388
0.312397 0.335579 0.341623
0.608573 0.203976 0.238452
0.842075 0.000000 0.165377
1.000000 0.160455 0.216703
1.000000 0.490349 0.380061
1.000000 0.773444 0.619306
0.000000 0.579729 0.340898
0.000000 0.589346 0.329757
0.000000 0.599049 0.324504
0.000000 0.612360 0.306627
0.638817 0.606390 0.276724
0.894770 0.473893 0.186366
1.000000 0.377356 0.234448
1.000000 0.564197 0.387593
1.000000 0.785303 0.624092
0.000000 0.820405 0.297000
0.000000 0.822588 0.291612
0.000000 0.824697 0.289883
0.000000 0.829761 0.271694
0.532578 0.827576 0.246405
0.864496 0.813190 0.198333
0.992029 0.749048 0.265528
1.000000 0.693666 0.409643
1.000000 0.812123 0.638694
0.381773 0.937760 0.463722
0.407777 0.937347 0.464216
0.431693 0.938956 0.466008
0.490685 0.937728 0.461345
0.628101 0.936932 0.449964
0.816000 0.932701 0.432834
0.960068 0.920241 0.381157
1.000000 0.891975 0.504174
1.000000 0.875949 0.671024
0.764332 0.990778 0.708834
0.764332 0.990778 0.708834
0.766968 0.990669 0.708981
0.777362 0.990236 0.705056
0.792433 0.990434 0.703144
0.847013 0.988404 0.699437
0.924340 0.986266 0.694601
1.000000 0.979831 0.660142
1.000000 0.966195 0.765656
0.903877 1.000000 0.873127
0.903877 1.000000 0.873127
0.903877 1.000000 0.873127
0.904912 1.000000 0.873192
0.908981 1.000000 0.873455
0.917988 1.000000 0.872562
0.940801 1.000000 0.872791
0.980646 1.000000 0.874279
1.000000 1.000000 0.870478
0.000000 0.000000 0.217816
0.000000 0.000000 0.177460
0.000000 0.000000 0.161152
0.217804 0.000000 0.131230
0.425276 0.000000 0.084823
0.758782 0.000000 0.240634
1.000000 0.000000 0.314419
1.000000 0.447122 0.436830
1.000000 0.768453 0.637550
0.000000 0.000000 0.267185
0.000000 0.000000 0.235795
0.000000 0.000000 0.224874
0.219451 0.000000 0.213509
0.428458 0.000000 0.103618
0.781493 0.000000 0.268734
1.000000 0.000000 0.319326
1.000000 0.454719 0.439945
1.000000 0.768453 0.637550
0.000000 0.000000 0.352658
0.000000 0.000000 0.336313
0.000000 0.000000 0.326826
0.203548 0.000000 0.319019
0.474085 0.000000 0.215917
0.805146 0.000000 0.300575
1.000000 0.000000 0.324205
1.000000 0.461308 0.439878
1.000000 0.770295 0.637631
0.000000 0.135438 0.484983
0.000000 0.152678 0.478295
0.000000 0.166011 0.477721
0.183432 0.181133 0.475782
0.614756 0.000000 0.434609
0.844471 0.000000 0.362663
1.000000 0.091022 0.339367
1.000000 0.485355 0.445553
1.000000 0.773941 0.637799
0.000000 0.537960 0.593246
0.000000 0.551676 0.597320
0.000000 0.571381 0.594866
0.000000 0.611725 0.590330
0.594801 0.608253 0.582115
0.878761 0.482027 0.478623
1.000000 0.372951 0.375699
1.000000 0.557184 0.460302
1.000000 0.787623 0.647926
0.000000 0.830580 0.585671
0.000000 0.830739 0.586643
0.000000 0.830792 0.585290
0.000000 0.835967 0.576536
0.482891 0.834385 0.561478
0.848460 0.826496 0.543199
0.988299 0.752093 0.443369
1.000000 0.695998 0.481495
1.000000 0.813215 0.655682
0.352257 0.941996 0.584594
0.362022 0.941862 0.584739
0.389698 0.941452 0.585173
0.469782 0.939985 0.583545
0.603724 0.937531 0.572050
0.813161 0.931850 0.562616
0.951279 0.925920 0.540685
1.000000 0.896083 0.569333
1.000000 0.873594 0.695754
0.758869 0.991835 0.740574
0.758869 0.991835 0.740574
0.761530 0.991726 0.740699
0.766784 0.991509 0.740951
0.789372 0.990558 0.737913
0.838731 0.989981 0.737672
0.921848 0.987148 0.731216
0.998360 0.980811 0.711904
1.000000 0.966712 0.777799
0.903803 1.000000 0.878215
0.903803 1.000000 0.878215
0.903803 1.000000 0.878215
0.904836 1.000000 0.878276
0.908911 1.000000 0.877687
0.916958 1.000000 0.877502
0.940703 1.000000 0.876821
0.979930 1.000000 0.878954
1.000000 1.000000 0.875500
0.000000 0.000000 0.275303
0.000000 0.000000 0.261714
0.000000 0.000000 0.250090
0.166854 0.000000 0.232450
0.415882 0.000000 0.185070
0.676059 0.000000 0.131885
1.000000 0.000000 0.497220
1.000000 0.419106 0.555820
1.000000 0.764169 0.688780
0.000000 0.000000 0.354385
0.000000 0.000000 0.340895
0.000000 0.000000 0.334436
0.118792 0.000000 0.315401
0.421975 0.000000 0.225346
0.683415 0.000000 0.131979
1.000000 0.000000 0.504808
1.000000 0.429202 0.555843
1.000000 0.764241 0.691394
0.000000 0.000000 0.468869
0.000000 0.000000 0.460759
0.000000 0.000000 0.454493
0.000000 0.000000 0.446580
0.454348 0.000000 0.400408
0.683142 0.000000 0.129968
1.000000 0.000000 0.522164
1.000000 0.439366 0.558845
1.000000 0.766128 0.691449
0.000000 0.072241 0.593981
0.000000 0.076950 0.594857
0.000000 0.086344 0.591269
0.000000 0.092157 0.594639
0.465193 0.000000 0.591063
0.813052 0.000000 0.479151
1.000000 0.000000 0.551430
1.000000 0.470313 0.562181
1.000000 0.771133 0.692727
0.000000 0.353194 0.713979
0.000000 0.361143 0.714325
0.000000 0.375346 0.718684
0.000000 0.398354 0.720688
0.439682 0.415987 0.721565
0.899428 0.280712 0.684397
1.000000 0.304458 0.614003
1.000000 0.548851 0.581010
1.000000 0.784266 0.696344
0.000000 0.800460 0.797026
0.000000 0.806136 0.797775
0.000000 0.811726 0.796577
0.000000 0.824304 0.795531
0.367636 0.834141 0.791872
0.808260 0.824229 0.786972
0.971888 0.751677 0.709512
1.000000 0.690835 0.616663
1.000000 0.812891 0.711840
0.000000 0.945288 0.790751
0.161319 0.944813 0.791038
0.225783 0.944443 0.791254
0.353921 0.944075 0.790021
0.556476 0.940016 0.785721
0.782009 0.937997 0.776581
0.930825 0.932689 0.766412
1.000000 0.895251 0.706081
1.000000 0.872017 0.741536
0.747366 0.992710 0.801434
0.747366 0.992710 0.801434
0.752805 0.992491 0.801604
0.758174 0.992273 0.800055
0.781099 0.991321 0.800845
0.835276 0.990131 0.800991
0.909904 0.988104 0.793024
0.991947 0.983830 0.791484
1.000000 0.967932 0.808404
0.900885 1.000000 0.891158
0.900885 1.000000 0.891158
0.902959 1.000000 0.891263
0.903986 1.000000 0.891317
0.907047 1.000000 0.889874
0.916722 1.000000 0.890432
0.939604 1.000000 0.889301
0.977606 1.000000 0.888750
1.000000 1.000000 0.892870
0.000000 0.000000 0.369882
0.000000 0.000000 0.362378
0.000000 0.000000 0.360631
0.172598 0.000000 0.335360
0.395809 0.000000 0.329248
0.657584 0.000000 0.256274
0.930172 0.000000 0.199455
1.000000 0.224240 0.739316
1.000000 0.745775 0.780205
0.000000 0.000000 0.472088
0.000000 0.000000 0.465761
0.000000 0.000000 0.457158
0.095238 0.000000 0.437587
0.380176 0.000000 0.376249
0.664353 0.000000 0.256418
0.930172 0.000000 0.199455
1.000000 0.237939 0.742264
1.000000 0.747809 0.780195
0.000000 0.000000 0.599266
0.000000 0.000000 0.592653
0.000000 0.000000 0.592738
0.000000 0.000000 0.587065
0.315656 0.000000 0.532503
0.664353 0.000000 0.256418
0.930172 0.000000 0.199455
1.000000 0.262771 0.745623
1.000000 0.747809 0.780195
0.000000 0.034982 0.722220
0.000000 0.039741 0.721619
0.000000 0.042165 0.725086
0.000000 0.036857 0.725671
0.281002 0.000000 0.714262
0.758477 0.000000 0.680923
0.930172 0.000000 0.199455
1.000000 0.311337 0.754420
1.000000 0.755823 0.780164
0.000000 0.235731 0.811302
0.000000 0.236527 0.812569
0.000000 0.243341 0.812207
0.000000 0.252845 0.814014
0.227364 0.262630 0.813718
0.788162 0.146950 0.805570
1.000000 0.000000 0.736669
1.000000 0.432232 0.776230
1.000000 0.771188 0.781072
0.000000 0.632799 0.874470
0.000000 0.639871 0.872877
0.000000 0.644342 0.873407
0.000000 0.653671 0.874815
0.000000 0.675396 0.871956
0.715332 0.681449 0.868334
1.000000 0.613368 0.851242
1.000000 0.643126 0.806862
1.000000 0.807071 0.790915
0.000000 0.936565 0.904094
0.000000 0.936431 0.904153
0.000000 0.937188 0.903115
0.000000 0.937110 0.903499
0.377691 0.939380 0.904494
0.738890 0.936555 0.902913
0.916550 0.930299 0.898206
1.000000 0.895322 0.854261
1.000000 0.871585 0.814664
0.715866 0.993700 0.902502
0.718818 0.993589 0.902535
0.725005 0.993753 0.902699
0.733520 0.993420 0.901780
0.758615 0.993585 0.900354
0.820010 0.990955 0.899314
0.900240 0.989051 0.894931
0.981197 0.985908 0.892697
1.000000 0.967791 0.862185
0.896417 1.000000 0.915011
0.896417 1.000000 0.915011
0.896417 1.000000 0.915011
0.897899 1.000000 0.915587
0.901003 1.000000 0.915708
0.911076 1.000000 0.915661
0.935899 1.000000 0.916009
0.975103 1.000000 0.914530
1.000000 1.000000 0.916516
0.143614 0.000000 0.495168
0.167255 0.000000 0.489823
0.194202 0.000000 0.484663
0.292035 0.000000 0.463660
0.435628 0.000000 0.467731
0.672189 0.000000 0.437543
0.909988 0.000000 0.343356
1.000000 0.000000 0.282869
1.000000 0.643610 0.879357
0.000000 0.000000 0.605140
0.000000 0.000000 0.602838
0.107046 0.000000 0.594308
0.211959 0.000000 0.568240
0.411017 0.000000 0.504188
0.672189 0.000000 0.437543
0.909988 0.000000 0.343356
1.000000 0.000000 0.282869
1.000000 0.646301 0.882134
0.000000 0.000000 0.728549
0.000000 0.000000 0.726226
0.000000 0.000000 0.724183
0.105039 0.000000 0.714456
0.318330 0.000000 0.662022
0.672189 0.000000 0.437543
0.909988 0.000000 0.343356
1.000000 0.000000 0.282869
1.000000 0.648771 0.882070
0.000000 0.000000 0.836670
0.000000 0.000000 0.837181
0.000000 0.000000 0.835676
0.000000 0.000000 0.835753
0.262867 0.000000 0.826956
0.605856 0.000000 0.795756
0.909988 0.000000 0.343356
1.000000 0.000000 0.282869
1.000000 0.658702 0.883206
0.000000 0.209016 0.897236
0.000000 0.212621 0.897556
0.000000 0.214291 0.896360
0.000000 0.217113 0.895862
0.203233 0.213730 0.896375
0.612668 0.123105 0.889598
0.998182 0.000000 0.868160
1.000000 0.000000 0.282869
1.000000 0.688608 0.886765
0.000000 0.496160 0.932994
0.000000 0.496360 0.933082
0.000000 0.496603 0.932109
0.000000 0.497543 0.932605
0.000000 0.513561 0.929510
0.539662 0.518851 0.928798
0.974701 0.477436 0.922083
1.000000 0.336412 0.888053
1.000000 0.750063 0.893070
0.000000 0.864873 0.950705
0.000000 0.864811 0.950735
0.000000 0.862897 0.950882
0.000000 0.862489 0.951020
0.000000 0.862945 0.951182
0.500885 0.868947 0.947770
0.870415 0.862026 0.944518
1.000000 0.834012 0.935742
1.000000 0.851926 0.911796
0.587565 0.993027 0.966371
0.588404 0.993451 0.966367
0.588404 0.993451 0.966367
0.609644 0.992827 0.966403
0.653017 0.992339 0.966482
0.760065 0.990495 0.965184
0.880722 0.987533 0.964403
0.972624 0.985693 0.959158
1.000000 0.967714 0.938680
0.882134 1.000000 0.965023
0.882134 1.000000 0.965023
0.883239 1.000000 0.965039
0.884338 1.000000 0.965055
0.888675 1.000000 0.965120
0.899288 1.000000 0.964889
0.926516 1.000000 0.964382
0.967700 1.000000 0.963200
1.000000 1.000000 0.961464
0.440614 0.000000 0.626915
0.451728 0.000000 0.623876
0.467181 0.000000 0.611144
0.508679 0.000000 0.592503
0.599037 0.000000 0.594401
0.746074 0.000000 0.584902
0.906821 0.000000 0.533560
1.000000 0.000000 0.462885
1.000000 0.000000 0.410191
0.363224 0.000000 0.726503
0.374137 0.000000 0.723566
0.389064 0.000000 0.717496
0.434692 0.000000 0.698905
0.571287 0.000000 0.626292
0.746074 0.000000 0.584902
0.906821 0.000000 0.533560
1.000000 0.000000 0.462885
1.000000 0.000000 0.410191
0.313167 0.000000 0.834877
0.317378 0.000000 0.832686
0.336461 0.000000 0.830477
0.367452 0.000000 0.823559
0.475306 0.000000 0.777073
0.746074 0.000000 0.584902
0.906821 0.000000 0.533560
1.000000 0.000000 0.462885
1.000000 0.000000 0.410191
0.273927 0.000000 0.914757
0.286802 0.000000 0.914806
0.299330 0.000000 0.914757
0.341329 0.000000 0.911804
0.445281 0.000000 0.903857
0.629197 0.000000 0.878145
0.906821 0.000000 0.533560
1.000000 0.000000 0.462885
1.000000 0.000000 0.410191
0.209485 0.192107 0.956218
0.215428 0.191777 0.956226
0.233045 0.188668 0.956254
0.285020 0.184559 0.956301
0.403075 0.158772 0.955194
0.622227 0.000000 0.949144
0.900199 0.000000 0.932660
1.000000 0.000000 0.460511
1.000000 0.000000 0.410191
0.000000 0.467732 0.980498
0.000000 0.467682 0.980500
0.106290 0.467515 0.980503
0.225281 0.466504 0.979023
0.351541 0.470744 0.977999
0.561852 0.466036 0.975284
0.878433 0.423255 0.973117
1.000000 0.315221 0.962313
1.000000 0.000000 0.407766
0.000000 0.765846 0.985974
0.000000 0.765636 0.985425
0.000000 0.765591 0.985423
0.000000 0.768044 0.985257
0.233529 0.769801 0.985056
0.511259 0.771530 0.984007
0.790716 0.770549 0.980926
1.000000 0.758847 0.978799
1.000000 0.701415 0.959901
0.454296 0.957608 0.991772
0.461466 0.957466 0.991767
0.468492 0.957324 0.991762
0.488768 0.956895 0.991746
0.543353 0.956380 0.991311
0.649695 0.955663 0.991068
0.795561 0.952473 0.989144
0.949324 0.949688 0.987559
1.000000 0.935002 0.981438
0.839726 1.000000 0.997929
0.839726 1.000000 0.997929
0.839726 1.000000 0.997929
0.841510 1.000000 0.997930
0.848002 1.000000 0.997936
0.861719 1.000000 0.997569
0.905270 1.000000 0.997278
0.957240 1.000000 0.996179
0.998895 1.000000 0.994971
